(G-code generated by FlatCAM Evo vUnstable - Version Date: 2023/6/31)

(Name: Breakout_Boards-F_Cu_cutout_cnc)
(Type: G-code from Geometry)
(Units: MM)

(Created on Sunday, 17 March 2024 at 21:07)

(This preprocessor is used with a motion controller loaded with GRBL firmware.)
(It is configured to be compatible with almost any version of GRBL firmware. No M6 command.)

(TOOL DIAMETER: 0.5 mm)
(Feedrate_XY: 60.0 mm/min)
(Feedrate_Z: 60.0 mm/min)
(Feedrate rapids 1500.0 mm/min)

(Z_Cut: -2.0 mm)
(DepthPerCut: 0.5 mm <=>4 passes)
(Z_Move: 2.0 mm)
(Z Start: None mm)
(Z End: 15.0 mm)
(X,Y End: 0.0000, 0.0000 mm)
(Steps per circle: 16)
(Steps per circle: 16)
(Preprocessor Geometry: GRBL_11_no_M6)

(X range:   -0.3500 ...   33.1160  mm)
(Y range:  -39.5165 ...    0.3500  mm)

(Spindle Speed: 0.0 RPM)
G21
G90
G17
G94


G01 F60.00

M5             
G00 Z15.0000
G00 X0.0000 Y0.0000                
T1
(MSG, Change to Tool Dia = 0.5000)
M0
G00 Z15.0000
        
M03
G01 F60.00
G00 X15.6330 Y0.3500
G01 F60.00
G01 Z-0.5000
G01 F60.00
G01 X0.1946 Y0.3499 F60.00
G01 X0.0996 Y0.3399 F60.00
G01 X0.0249 Y0.3183 F60.00
G01 X-0.1027 Y0.2559 F60.00
G01 X-0.1764 Y0.1971 F60.00
G01 X-0.2617 Y0.0920 F60.00
G01 X-0.3020 Y0.0212 F60.00
G01 X-0.3432 Y-0.1355 F60.00
G01 X-0.3500 Y-0.2040 F60.00
G01 X-0.3500 Y-38.9123 F60.00
G01 X-0.3399 Y-39.0165 F60.00
G01 X-0.3190 Y-39.0896 F60.00
G01 X-0.2640 Y-39.2050 F60.00
G01 X-0.2290 Y-39.2579 F60.00
G01 X-0.1870 Y-39.3019 F60.00
G01 X-0.0904 Y-39.3792 F60.00
G01 X0.0057 Y-39.4284 F60.00
G01 X0.1347 Y-39.4594 F60.00
G01 X0.1940 Y-39.4662 F60.00
G01 X15.6330 Y-39.4902 F60.00
G00 X15.6330 Y-39.4902
G01 F60.00
G01 Z-1.0000
G01 F60.00
G01 X0.1940 Y-39.4662 F60.00
G01 X0.0368 Y-39.4371 F60.00
G01 X-0.0366 Y-39.4113 F60.00
G01 X-0.0970 Y-39.3743 F60.00
G01 X-0.2090 Y-39.2808 F60.00
G01 X-0.2566 Y-39.2180 F60.00
G01 X-0.3190 Y-39.0896 F60.00
G01 X-0.3399 Y-39.0165 F60.00
G01 X-0.3500 Y-38.9123 F60.00
G01 X-0.3500 Y-0.2040 F60.00
G01 X-0.3432 Y-0.1355 F60.00
G01 X-0.3020 Y0.0212 F60.00
G01 X-0.2713 Y0.0782 F60.00
G01 X-0.1923 Y0.1793 F60.00
G01 X-0.1146 Y0.2485 F60.00
G01 X0.0429 Y0.3252 F60.00
G01 X0.0996 Y0.3399 F60.00
G01 X0.1946 Y0.3499 F60.00
G01 X15.6330 Y0.3500 F60.00
G00 X15.6330 Y0.3500
G01 F60.00
G01 Z-1.5000
G01 F60.00
G01 X0.1946 Y0.3499 F60.00
G01 X0.0996 Y0.3399 F60.00
G01 X0.0249 Y0.3183 F60.00
G01 X-0.1027 Y0.2559 F60.00
G01 X-0.1764 Y0.1971 F60.00
G01 X-0.2617 Y0.0920 F60.00
G01 X-0.3020 Y0.0212 F60.00
G01 X-0.3432 Y-0.1355 F60.00
G01 X-0.3500 Y-0.2040 F60.00
G01 X-0.3500 Y-38.9123 F60.00
G01 X-0.3399 Y-39.0165 F60.00
G01 X-0.3190 Y-39.0896 F60.00
G01 X-0.2640 Y-39.2050 F60.00
G01 X-0.2290 Y-39.2579 F60.00
G01 X-0.1870 Y-39.3019 F60.00
G01 X-0.0904 Y-39.3792 F60.00
G01 X0.0057 Y-39.4284 F60.00
G01 X0.1347 Y-39.4594 F60.00
G01 X0.1940 Y-39.4662 F60.00
G01 X15.6330 Y-39.4902 F60.00
G00 X15.6330 Y-39.4902
G01 F60.00
G01 Z-2.0000
G01 F60.00
G01 X0.1940 Y-39.4662 F60.00
G01 X0.0368 Y-39.4371 F60.00
G01 X-0.0366 Y-39.4113 F60.00
G01 X-0.0970 Y-39.3743 F60.00
G01 X-0.2090 Y-39.2808 F60.00
G01 X-0.2566 Y-39.2180 F60.00
G01 X-0.3190 Y-39.0896 F60.00
G01 X-0.3399 Y-39.0165 F60.00
G01 X-0.3500 Y-38.9123 F60.00
G01 X-0.3500 Y-0.2040 F60.00
G01 X-0.3432 Y-0.1355 F60.00
G01 X-0.3020 Y0.0212 F60.00
G01 X-0.2713 Y0.0782 F60.00
G01 X-0.1923 Y0.1793 F60.00
G01 X-0.1146 Y0.2485 F60.00
G01 X0.0429 Y0.3252 F60.00
G01 X0.0996 Y0.3399 F60.00
G01 X0.1946 Y0.3499 F60.00
G01 X15.6330 Y0.3500 F60.00
G00 Z2.0000
G00 X17.1330 Y0.3500
G01 F60.00
G01 Z-0.5000
G01 F60.00
G01 X32.5714 Y0.3499 F60.00
G01 X32.7284 Y0.3210 F60.00
G01 X32.8023 Y0.2951 F60.00
G01 X32.8634 Y0.2576 F60.00
G01 X32.9748 Y0.1648 F60.00
G01 X33.0219 Y0.1027 F60.00
G01 X33.0843 Y-0.0249 F60.00
G01 X33.1059 Y-0.0996 F60.00
G01 X33.1160 Y-0.2040 F60.00
G01 X33.1160 Y-38.9625 F60.00
G01 X33.1092 Y-39.0310 F60.00
G01 X33.0680 Y-39.1877 F60.00
G01 X33.0373 Y-39.2447 F60.00
G01 X32.9583 Y-39.3458 F60.00
G01 X32.8806 Y-39.4150 F60.00
G01 X32.7227 Y-39.4918 F60.00
G01 X32.6664 Y-39.5064 F60.00
G01 X32.5707 Y-39.5164 F60.00
G01 X17.1330 Y-39.4926 F60.00
G00 X17.1330 Y-39.4926
G01 F60.00
G01 Z-1.0000
G01 F60.00
G01 X32.5707 Y-39.5164 F60.00
G01 X32.6664 Y-39.5064 F60.00
G01 X32.7411 Y-39.4848 F60.00
G01 X32.8687 Y-39.4224 F60.00
G01 X32.9424 Y-39.3636 F60.00
G01 X33.0277 Y-39.2585 F60.00
G01 X33.0680 Y-39.1877 F60.00
G01 X33.1092 Y-39.0310 F60.00
G01 X33.1160 Y-38.9625 F60.00
G01 X33.1160 Y-0.2040 F60.00
G01 X33.1059 Y-0.0996 F60.00
G01 X33.0843 Y-0.0249 F60.00
G01 X33.0289 Y0.0905 F60.00
G01 X32.9948 Y0.1418 F60.00
G01 X32.9509 Y0.1876 F60.00
G01 X32.8580 Y0.2617 F60.00
G01 X32.7582 Y0.3128 F60.00
G01 X32.5714 Y0.3499 F60.00
G01 X17.1330 Y0.3500 F60.00
G00 X17.1330 Y0.3500
G01 F60.00
G01 Z-1.5000
G01 F60.00
G01 X32.5714 Y0.3499 F60.00
G01 X32.7284 Y0.3210 F60.00
G01 X32.8023 Y0.2951 F60.00
G01 X32.8634 Y0.2576 F60.00
G01 X32.9748 Y0.1648 F60.00
G01 X33.0219 Y0.1027 F60.00
G01 X33.0843 Y-0.0249 F60.00
G01 X33.1059 Y-0.0996 F60.00
G01 X33.1160 Y-0.2040 F60.00
G01 X33.1160 Y-38.9625 F60.00
G01 X33.1092 Y-39.0310 F60.00
G01 X33.0680 Y-39.1877 F60.00
G01 X33.0373 Y-39.2447 F60.00
G01 X32.9583 Y-39.3458 F60.00
G01 X32.8806 Y-39.4150 F60.00
G01 X32.7227 Y-39.4918 F60.00
G01 X32.6664 Y-39.5064 F60.00
G01 X32.5707 Y-39.5164 F60.00
G01 X17.1330 Y-39.4926 F60.00
G00 X17.1330 Y-39.4926
G01 F60.00
G01 Z-2.0000
G01 F60.00
G01 X32.5707 Y-39.5164 F60.00
G01 X32.6664 Y-39.5064 F60.00
G01 X32.7411 Y-39.4848 F60.00
G01 X32.8687 Y-39.4224 F60.00
G01 X32.9424 Y-39.3636 F60.00
G01 X33.0277 Y-39.2585 F60.00
G01 X33.0680 Y-39.1877 F60.00
G01 X33.1092 Y-39.0310 F60.00
G01 X33.1160 Y-38.9625 F60.00
G01 X33.1160 Y-0.2040 F60.00
G01 X33.1059 Y-0.0996 F60.00
G01 X33.0843 Y-0.0249 F60.00
G01 X33.0289 Y0.0905 F60.00
G01 X32.9948 Y0.1418 F60.00
G01 X32.9509 Y0.1876 F60.00
G01 X32.8580 Y0.2617 F60.00
G01 X32.7582 Y0.3128 F60.00
G01 X32.5714 Y0.3499 F60.00
G01 X17.1330 Y0.3500 F60.00
G00 Z2.0000
G01 F60.00

M5             
G00 Z15.0000
G00 X0.0000 Y0.0000                
T99
(MSG, Change to Tool Dia = 0.5000)
M0
G00 Z15.0000
        
M03
G01 F60.00
G00 X15.6330 Y0.3500
G01 F60.00
G01 Z-0.5000
G01 F60.00
G01 X17.1330 Y0.3500 F60.00
G00 X17.1330 Y0.3500
G01 F60.00
G01 Z-1.0000
G01 F60.00
G01 X15.6330 Y0.3500 F60.00
G00 Z2.0000
G00 X17.1330 Y-39.4926
G01 F60.00
G01 Z-0.5000
G01 F60.00
G01 X15.6330 Y-39.4902 F60.00
G00 X15.6330 Y-39.4902
G01 F60.00
G01 Z-1.0000
G01 F60.00
G01 X17.1330 Y-39.4926 F60.00
G00 Z2.0000
M05
G00 Z2.0000
G00 Z15.00
G00 X0.0 Y0.0


