(G-CODE GENERATED BY FLATCAM v8.994 - www.flatcam.org - Version Date: 2020/11/7)

(Name: Breakout_Boards-F_Cu.gbr_iso_combined_cnc)
(Type: G-code from Geometry)
(Units: MM)

(Created on Sunday, 17 March 2024 at 21:15)

(This preprocessor is used with a motion controller loaded with GRBL firmware.)
(It is configured to be compatible with almost any version of GRBL firmware.)

(TOOL DIAMETER: 0.4 mm)
(Feedrate_XY: 75.0 mm/min)
(Feedrate_Z: 45.0 mm/min)
(Feedrate rapids 1500.0 mm/min)

(Z_Cut: -0.085 mm)
(Z_Move: 2.0 mm)
(Z Start: None mm)
(Z End: 15.0 mm)
(X,Y End: 0.0000, 0.0000 mm)
(Steps per circle: 64)
(Steps per circle: 64)
(Preprocessor Geometry: GRBL_11_no_M6)

(X range:   -0.2000 ...   32.9660  mm)
(Y range:  -39.3665 ...    0.2000  mm)

(Spindle Speed: 0.0 RPM)
G21
G90
G17
G94


G01 F75.00

M5             
G00 Z15.0000
G00 X0.0000 Y0.0000                
T1
(MSG, Change to Tool Dia = 0.4000)
M0
G00 Z15.0000
        
M03
G01 F75.00
G00 X-0.2000 Y-0.2040
G01 F45.00
G01 Z-0.0850
G01 F75.00
G01 X-0.2000 Y-38.9123 F75.00
G01 X-0.1992 Y-38.9301 F75.00
G01 X-0.1924 Y-38.9891 F75.00
G01 X-0.1885 Y-39.0079 F75.00
G01 X-0.1827 Y-39.0262 F75.00
G01 X-0.1753 Y-39.0439 F75.00
G01 X-0.1338 Y-39.1302 F75.00
G01 X-0.1239 Y-39.1475 F75.00
G01 X-0.1183 Y-39.1558 F75.00
G01 X-0.1091 Y-39.1676 F75.00
G01 X-0.0956 Y-39.1822 F75.00
G01 X-0.0845 Y-39.1923 F75.00
G01 X-0.0097 Y-39.2521 F75.00
G01 X0.0064 Y-39.2638 F75.00
G01 X0.0149 Y-39.2690 F75.00
G01 X0.0281 Y-39.2760 F75.00
G01 X0.0465 Y-39.2838 F75.00
G01 X0.0656 Y-39.2897 F75.00
G01 X0.1589 Y-39.3112 F75.00
G01 X0.1785 Y-39.3147 F75.00
G01 X0.1934 Y-39.3161 F75.00
G01 X0.2034 Y-39.3163 F75.00
G01 X32.5614 Y-39.3665 F75.00
G01 X32.5794 Y-39.3657 F75.00
G01 X32.6392 Y-39.3588 F75.00
G01 X32.6580 Y-39.3548 F75.00
G01 X32.6764 Y-39.3491 F75.00
G01 X32.6942 Y-39.3416 F75.00
G01 X32.7804 Y-39.3000 F75.00
G01 X32.7935 Y-39.2926 F75.00
G01 X32.8019 Y-39.2872 F75.00
G01 X32.8177 Y-39.2752 F75.00
G01 X32.8288 Y-39.2652 F75.00
G01 X32.8424 Y-39.2505 F75.00
G01 X32.9022 Y-39.1757 F75.00
G01 X32.9082 Y-39.1677 F75.00
G01 X32.9165 Y-39.1553 F75.00
G01 X32.9260 Y-39.1378 F75.00
G01 X32.9337 Y-39.1194 F75.00
G01 X32.9369 Y-39.1099 F75.00
G01 X32.9408 Y-39.0955 F75.00
G01 X32.9620 Y-39.0021 F75.00
G01 X32.9650 Y-38.9824 F75.00
G01 X32.9660 Y-38.9625 F75.00
G01 X32.9660 Y-0.2040 F75.00
G01 X32.9652 Y-0.1861 F75.00
G01 X32.9583 Y-0.1267 F75.00
G01 X32.9543 Y-0.1079 F75.00
G01 X32.9486 Y-0.0895 F75.00
G01 X32.9411 Y-0.0718 F75.00
G01 X32.8995 Y0.0144 F75.00
G01 X32.8947 Y0.0232 F75.00
G01 X32.8867 Y0.0359 F75.00
G01 X32.8747 Y0.0517 F75.00
G01 X32.8647 Y0.0628 F75.00
G01 X32.8501 Y0.0764 F75.00
G01 X32.7752 Y0.1362 F75.00
G01 X32.7590 Y0.1478 F75.00
G01 X32.7462 Y0.1554 F75.00
G01 X32.7373 Y0.1600 F75.00
G01 X32.7282 Y0.1641 F75.00
G01 X32.7142 Y0.1694 F75.00
G01 X32.6950 Y0.1748 F75.00
G01 X32.6016 Y0.1960 F75.00
G01 X32.5819 Y0.1990 F75.00
G01 X32.5620 Y0.2000 F75.00
G01 X0.2040 Y0.2000 F75.00
G01 X0.1861 Y0.1992 F75.00
G01 X0.1267 Y0.1923 F75.00
G01 X0.1125 Y0.1895 F75.00
G01 X0.1032 Y0.1871 F75.00
G01 X0.0850 Y0.1809 F75.00
G01 X0.0718 Y0.1751 F75.00
G01 X-0.0100 Y0.1357 F75.00
G01 X-0.0232 Y0.1287 F75.00
G01 X-0.0359 Y0.1207 F75.00
G01 X-0.0440 Y0.1149 F75.00
G01 X-0.0555 Y0.1055 F75.00
G01 X-0.0664 Y0.0951 F75.00
G01 X-0.0796 Y0.0802 F75.00
G01 X-0.1392 Y0.0053 F75.00
G01 X-0.1505 Y-0.0112 F75.00
G01 X-0.1554 Y-0.0198 F75.00
G01 X-0.1621 Y-0.0332 F75.00
G01 X-0.1677 Y-0.0471 F75.00
G01 X-0.1736 Y-0.0661 F75.00
G01 X-0.1950 Y-0.1595 F75.00
G01 X-0.1978 Y-0.1742 F75.00
G01 X-0.1990 Y-0.1841 F75.00
G01 X-0.2000 Y-0.2040 F75.00
G00 Z2.0000
G00 X1.5220 Y-10.1600
G01 F45.00
G01 Z-0.0850
G01 F75.00
G01 X1.5401 Y-10.4133 F75.00
G01 X1.5941 Y-10.6615 F75.00
G01 X1.6828 Y-10.8994 F75.00
G01 X1.8045 Y-11.1224 F75.00
G01 X1.9567 Y-11.3257 F75.00
G01 X2.1363 Y-11.5053 F75.00
G01 X2.3396 Y-11.6575 F75.00
G01 X2.5625 Y-11.7792 F75.00
G01 X2.8005 Y-11.8679 F75.00
G01 X3.0487 Y-11.9219 F75.00
G01 X3.2386 Y-11.9355 F75.00
G01 X3.3654 Y-11.9355 F75.00
G01 X3.5553 Y-11.9219 F75.00
G01 X3.8035 Y-11.8679 F75.00
G01 X4.0415 Y-11.7792 F75.00
G01 X4.2644 Y-11.6575 F75.00
G01 X4.4677 Y-11.5053 F75.00
G01 X4.6473 Y-11.3257 F75.00
G01 X4.7995 Y-11.1224 F75.00
G01 X4.9212 Y-10.8995 F75.00
G01 X5.0099 Y-10.6615 F75.00
G01 X5.0639 Y-10.4133 F75.00
G01 X5.0820 Y-10.1600 F75.00
G01 X5.0639 Y-9.9067 F75.00
G01 X5.0099 Y-9.6585 F75.00
G01 X4.9212 Y-9.4205 F75.00
G01 X4.7995 Y-9.1976 F75.00
G01 X4.6473 Y-8.9943 F75.00
G01 X4.4677 Y-8.8147 F75.00
G01 X4.2644 Y-8.6625 F75.00
G01 X4.0415 Y-8.5408 F75.00
G01 X3.8035 Y-8.4521 F75.00
G01 X3.5553 Y-8.3981 F75.00
G01 X3.3654 Y-8.3845 F75.00
G01 X3.2386 Y-8.3845 F75.00
G01 X3.0487 Y-8.3981 F75.00
G01 X2.8005 Y-8.4521 F75.00
G01 X2.5626 Y-8.5408 F75.00
G01 X2.3396 Y-8.6625 F75.00
G01 X2.1363 Y-8.8147 F75.00
G01 X1.9567 Y-8.9943 F75.00
G01 X1.8045 Y-9.1976 F75.00
G01 X1.6828 Y-9.4206 F75.00
G01 X1.5941 Y-9.6585 F75.00
G01 X1.5401 Y-9.9067 F75.00
G01 X1.5220 Y-10.1600 F75.00
G00 Z2.0000
G00 X3.2920 Y-15.8100
G01 F45.00
G01 Z-0.0850
G01 F75.00
G01 X3.3020 Y-15.8100 F75.00
G01 X3.3020 Y-15.4400 F75.00
G01 X3.3025 Y-15.4253 F75.00
G01 X3.3035 Y-15.4155 F75.00
G01 X3.3069 Y-15.3962 F75.00
G01 X3.3106 Y-15.3819 F75.00
G01 X3.3154 Y-15.3680 F75.00
G01 X3.3234 Y-15.3501 F75.00
G01 X3.3305 Y-15.3372 F75.00
G01 X3.3385 Y-15.3248 F75.00
G01 X3.3474 Y-15.3131 F75.00
G01 X3.3606 Y-15.2986 F75.00
G01 X3.3714 Y-15.2886 F75.00
G01 X3.3868 Y-15.2765 F75.00
G01 X3.3992 Y-15.2685 F75.00
G01 X3.4121 Y-15.2614 F75.00
G01 X3.4300 Y-15.2534 F75.00
G01 X3.4439 Y-15.2486 F75.00
G01 X3.4630 Y-15.2438 F75.00
G01 X3.4775 Y-15.2415 F75.00
G01 X3.4922 Y-15.2402 F75.00
G01 X3.5020 Y-15.2400 F75.00
G01 X3.8720 Y-15.2400 F75.00
G01 X3.8720 Y-15.2300 F75.00
G01 X3.4855 Y-15.2300 F75.00
G01 X3.4363 Y-15.2378 F75.00
G01 X3.3770 Y-15.2680 F75.00
G01 X3.3300 Y-15.3150 F75.00
G01 X3.2998 Y-15.3743 F75.00
G01 X3.2920 Y-15.4235 F75.00
G01 X3.2920 Y-15.8100 F75.00
G00 Z2.0000
G00 X3.3020 Y-17.2100
G01 F45.00
G01 Z-0.0850
G01 F75.00
G01 X3.2920 Y-17.2100 F75.00
G01 X3.2920 Y-17.5965 F75.00
G01 X3.2998 Y-17.6457 F75.00
G01 X3.3300 Y-17.7050 F75.00
G01 X3.3770 Y-17.7520 F75.00
G01 X3.4363 Y-17.7822 F75.00
G01 X3.4855 Y-17.7900 F75.00
G01 X4.1575 Y-17.7900 F75.00
G01 X4.1774 Y-17.7910 F75.00
G01 X4.1971 Y-17.7940 F75.00
G01 X4.3002 Y-17.8177 F75.00
G01 X4.3097 Y-17.8206 F75.00
G01 X4.3237 Y-17.8259 F75.00
G01 X4.3328 Y-17.8300 F75.00
G01 X4.3460 Y-17.8370 F75.00
G01 X4.3587 Y-17.8450 F75.00
G01 X4.3668 Y-17.8508 F75.00
G01 X4.4493 Y-17.9169 F75.00
G01 X4.4602 Y-17.9272 F75.00
G01 X4.4702 Y-17.9382 F75.00
G01 X4.4794 Y-17.9501 F75.00
G01 X4.4902 Y-17.9668 F75.00
G01 X4.4972 Y-17.9800 F75.00
G01 X4.5366 Y-18.0618 F75.00
G01 X4.5424 Y-18.0750 F75.00
G01 X4.5472 Y-18.0886 F75.00
G01 X4.5510 Y-18.1025 F75.00
G01 X4.5545 Y-18.1214 F75.00
G01 X4.5602 Y-18.1716 F75.00
G01 X4.5613 Y-18.1850 F75.00
G01 X4.5615 Y-20.1366 F75.00
G01 X4.5693 Y-20.1859 F75.00
G01 X4.5996 Y-20.2453 F75.00
G01 X4.6467 Y-20.2924 F75.00
G01 X4.7061 Y-20.3227 F75.00
G01 X4.7554 Y-20.3305 F75.00
G01 X4.8575 Y-20.3306 F75.00
G01 X4.8724 Y-20.3315 F75.00
G01 X4.8872 Y-20.3335 F75.00
G01 X4.9855 Y-20.3557 F75.00
G01 X5.0000 Y-20.3596 F75.00
G01 X5.0141 Y-20.3645 F75.00
G01 X5.0278 Y-20.3705 F75.00
G01 X5.0410 Y-20.3775 F75.00
G01 X5.0537 Y-20.3855 F75.00
G01 X5.0657 Y-20.3943 F75.00
G01 X5.1443 Y-20.4573 F75.00
G01 X5.1586 Y-20.4713 F75.00
G01 X5.1652 Y-20.4787 F75.00
G01 X5.1744 Y-20.4906 F75.00
G01 X5.1827 Y-20.5030 F75.00
G01 X5.1900 Y-20.5161 F75.00
G01 X5.2336 Y-20.6067 F75.00
G01 X5.2391 Y-20.6200 F75.00
G01 X5.2422 Y-20.6291 F75.00
G01 X5.2460 Y-20.6430 F75.00
G01 X5.2488 Y-20.6572 F75.00
G01 X5.2557 Y-20.7166 F75.00
G01 X5.2565 Y-20.7345 F75.00
G01 X5.2565 Y-28.9460 F75.00
G01 X5.2600 Y-28.9616 F75.00
G01 X5.2648 Y-28.9897 F75.00
G01 X5.2676 Y-29.0111 F75.00
G01 X5.2744 Y-29.0316 F75.00
G01 X5.2822 Y-29.0590 F75.00
G01 X5.2859 Y-29.0746 F75.00
G01 X5.2950 Y-29.0942 F75.00
G01 X5.3058 Y-29.1206 F75.00
G01 X5.3111 Y-29.1356 F75.00
G01 X5.3196 Y-29.1492 F75.00
G01 X5.3334 Y-29.1741 F75.00
G01 X5.3431 Y-29.1935 F75.00
G01 X5.3563 Y-29.2106 F75.00
G01 X5.3728 Y-29.2338 F75.00
G01 X5.3813 Y-29.2474 F75.00
G01 X9.3546 Y-33.2207 F75.00
G01 X9.3681 Y-33.2292 F75.00
G01 X9.3914 Y-33.2456 F75.00
G01 X9.4085 Y-33.2589 F75.00
G01 X9.4217 Y-33.2655 F75.00
G01 X9.4303 Y-33.2705 F75.00
G01 X9.4468 Y-33.2817 F75.00
G01 X9.5255 Y-33.3445 F75.00
G01 X9.5402 Y-33.3581 F75.00
G01 X9.5534 Y-33.3730 F75.00
G01 X9.5650 Y-33.3892 F75.00
G01 X9.5750 Y-33.4065 F75.00
G01 X9.6166 Y-33.4928 F75.00
G01 X9.6241 Y-33.5105 F75.00
G01 X9.6298 Y-33.5288 F75.00
G01 X9.6338 Y-33.5476 F75.00
G01 X9.6410 Y-33.6115 F75.00
G01 X9.6415 Y-33.6249 F75.00
G01 X9.6415 Y-33.8466 F75.00
G01 X9.6519 Y-33.9124 F75.00
G01 X9.6562 Y-33.9301 F75.00
G01 X9.6585 Y-33.9449 F75.00
G01 X9.6671 Y-34.0403 F75.00
G01 X9.6679 Y-34.0596 F75.00
G01 X9.6668 Y-34.0789 F75.00
G01 X9.6648 Y-34.0932 F75.00
G01 X9.6525 Y-34.1473 F75.00
G01 X9.6420 Y-34.2135 F75.00
G01 X9.6420 Y-34.6000 F75.00
G01 X9.6520 Y-34.6000 F75.00
G01 X9.6521 Y-34.2251 F75.00
G01 X9.6525 Y-34.2153 F75.00
G01 X9.6542 Y-34.2007 F75.00
G01 X9.6558 Y-34.1910 F75.00
G01 X9.6592 Y-34.1767 F75.00
G01 X9.6637 Y-34.1626 F75.00
G01 X9.6672 Y-34.1535 F75.00
G01 X9.6734 Y-34.1401 F75.00
G01 X9.6805 Y-34.1272 F75.00
G01 X9.6885 Y-34.1148 F75.00
G01 X9.6943 Y-34.1070 F75.00
G01 X9.7038 Y-34.0957 F75.00
G01 X9.7106 Y-34.0886 F75.00
G01 X9.7177 Y-34.0818 F75.00
G01 X9.7290 Y-34.0723 F75.00
G01 X9.7409 Y-34.0637 F75.00
G01 X9.7534 Y-34.0560 F75.00
G01 X9.7665 Y-34.0492 F75.00
G01 X9.7800 Y-34.0434 F75.00
G01 X9.7939 Y-34.0386 F75.00
G01 X9.8034 Y-34.0360 F75.00
G01 X9.8130 Y-34.0338 F75.00
G01 X9.8275 Y-34.0315 F75.00
G01 X9.8373 Y-34.0305 F75.00
G01 X9.8520 Y-34.0300 F75.00
G01 X11.9920 Y-34.0300 F75.00
G01 X12.0067 Y-34.0305 F75.00
G01 X12.0213 Y-34.0322 F75.00
G01 X12.0358 Y-34.0349 F75.00
G01 X12.0501 Y-34.0386 F75.00
G01 X12.0640 Y-34.0434 F75.00
G01 X12.0819 Y-34.0514 F75.00
G01 X12.0948 Y-34.0585 F75.00
G01 X12.1072 Y-34.0665 F75.00
G01 X12.1189 Y-34.0754 F75.00
G01 X12.1299 Y-34.0852 F75.00
G01 X12.1402 Y-34.0957 F75.00
G01 X12.1497 Y-34.1070 F75.00
G01 X12.1583 Y-34.1189 F75.00
G01 X12.1660 Y-34.1314 F75.00
G01 X12.1748 Y-34.1490 F75.00
G01 X12.1803 Y-34.1626 F75.00
G01 X12.1848 Y-34.1767 F75.00
G01 X12.1891 Y-34.1958 F75.00
G01 X12.1910 Y-34.2104 F75.00
G01 X12.1919 Y-34.2251 F75.00
G01 X12.1920 Y-34.6000 F75.00
G01 X12.2020 Y-34.6000 F75.00
G01 X12.2020 Y-34.2135 F75.00
G01 X12.1915 Y-34.1473 F75.00
G01 X12.1878 Y-34.1315 F75.00
G01 X12.1856 Y-34.1167 F75.00
G01 X12.1769 Y-34.0214 F75.00
G01 X12.1761 Y-34.0021 F75.00
G01 X12.1767 Y-33.9876 F75.00
G01 X12.1792 Y-33.9684 F75.00
G01 X12.1893 Y-33.9233 F75.00
G01 X12.1921 Y-33.9124 F75.00
G01 X12.2025 Y-33.8466 F75.00
G01 X12.2025 Y-31.6734 F75.00
G01 X12.1920 Y-31.6073 F75.00
G01 X12.1881 Y-31.5907 F75.00
G01 X12.1858 Y-31.5759 F75.00
G01 X12.1772 Y-31.4806 F75.00
G01 X12.1764 Y-31.4612 F75.00
G01 X12.1774 Y-31.4419 F75.00
G01 X12.1795 Y-31.4276 F75.00
G01 X12.1895 Y-31.3824 F75.00
G01 X12.1920 Y-31.3726 F75.00
G01 X12.2025 Y-31.3066 F75.00
G01 X12.2025 Y-31.0849 F75.00
G01 X12.2027 Y-31.0750 F75.00
G01 X12.2041 Y-31.0601 F75.00
G01 X12.2075 Y-31.0404 F75.00
G01 X12.2302 Y-30.9423 F75.00
G01 X12.2331 Y-30.9327 F75.00
G01 X12.2384 Y-30.9187 F75.00
G01 X12.2447 Y-30.9052 F75.00
G01 X12.2495 Y-30.8964 F75.00
G01 X12.2575 Y-30.8838 F75.00
G01 X12.2663 Y-30.8717 F75.00
G01 X12.3260 Y-30.7970 F75.00
G01 X12.3390 Y-30.7829 F75.00
G01 X12.3534 Y-30.7701 F75.00
G01 X12.3649 Y-30.7614 F75.00
G01 X12.4154 Y-30.7294 F75.00
G01 X12.4232 Y-30.7250 F75.00
G01 X12.4355 Y-30.7189 F75.00
G01 X12.4526 Y-30.7056 F75.00
G01 X12.4758 Y-30.6893 F75.00
G01 X12.4894 Y-30.6807 F75.00
G01 X16.9267 Y-26.2433 F75.00
G01 X16.9519 Y-26.2204 F75.00
G01 X16.9686 Y-26.2066 F75.00
G01 X17.0509 Y-26.1035 F75.00
G01 X17.1081 Y-25.9846 F75.00
G01 X17.1375 Y-25.8560 F75.00
G01 X17.1375 Y-25.7240 F75.00
G01 X17.1038 Y-25.5756 F75.00
G01 X17.1019 Y-25.5623 F75.00
G01 X17.0968 Y-25.5169 F75.00
G01 X17.0960 Y-25.5079 F75.00
G01 X17.0955 Y-25.4945 F75.00
G01 X17.0956 Y-18.1890 F75.00
G01 X17.0971 Y-18.1691 F75.00
G01 X17.0995 Y-18.1544 F75.00
G01 X17.1232 Y-18.0513 F75.00
G01 X17.1278 Y-18.0371 F75.00
G01 X17.1334 Y-18.0232 F75.00
G01 X17.1401 Y-18.0098 F75.00
G01 X17.1477 Y-17.9970 F75.00
G01 X17.1593 Y-17.9808 F75.00
G01 X17.2159 Y-17.9098 F75.00
G01 X17.2257 Y-17.8985 F75.00
G01 X17.2363 Y-17.8879 F75.00
G01 X17.2515 Y-17.8751 F75.00
G01 X17.2680 Y-17.8638 F75.00
G01 X17.2811 Y-17.8565 F75.00
G01 X17.3148 Y-17.8402 F75.00
G01 X17.3148 Y-17.7036 F75.00
G01 X17.3057 Y-17.6911 F75.00
G01 X17.2980 Y-17.6786 F75.00
G01 X17.2912 Y-17.6655 F75.00
G01 X17.2837 Y-17.6474 F75.00
G01 X17.2792 Y-17.6333 F75.00
G01 X17.2749 Y-17.6142 F75.00
G01 X17.2730 Y-17.5996 F75.00
G01 X17.2721 Y-17.5849 F75.00
G01 X17.2720 Y-15.4400 F75.00
G01 X17.2725 Y-15.4253 F75.00
G01 X17.2742 Y-15.4107 F75.00
G01 X17.2769 Y-15.3962 F75.00
G01 X17.2806 Y-15.3819 F75.00
G01 X17.2854 Y-15.3680 F75.00
G01 X17.2912 Y-15.3545 F75.00
G01 X17.2980 Y-15.3414 F75.00
G01 X17.3057 Y-15.3289 F75.00
G01 X17.3143 Y-15.3170 F75.00
G01 X17.3238 Y-15.3057 F75.00
G01 X17.3341 Y-15.2952 F75.00
G01 X17.3451 Y-15.2854 F75.00
G01 X17.3568 Y-15.2765 F75.00
G01 X17.3692 Y-15.2685 F75.00
G01 X17.3821 Y-15.2614 F75.00
G01 X17.3955 Y-15.2552 F75.00
G01 X17.4093 Y-15.2501 F75.00
G01 X17.4234 Y-15.2460 F75.00
G01 X17.4378 Y-15.2429 F75.00
G01 X17.4524 Y-15.2410 F75.00
G01 X17.4671 Y-15.2401 F75.00
G01 X17.8420 Y-15.2400 F75.00
G01 X17.8420 Y-15.2300 F75.00
G01 X17.4554 Y-15.2300 F75.00
G01 X17.4367 Y-15.2320 F75.00
G01 X17.4217 Y-15.2323 F75.00
G01 X17.3212 Y-15.2257 F75.00
G01 X17.3063 Y-15.2242 F75.00
G01 X17.2916 Y-15.2215 F75.00
G01 X17.2771 Y-15.2177 F75.00
G01 X17.2629 Y-15.2129 F75.00
G01 X17.2447 Y-15.2048 F75.00
G01 X17.1528 Y-15.1529 F75.00
G01 X17.1408 Y-15.1451 F75.00
G01 X17.1293 Y-15.1364 F75.00
G01 X17.1185 Y-15.1270 F75.00
G01 X17.1053 Y-15.1132 F75.00
G01 X17.0670 Y-15.0675 F75.00
G01 X17.0572 Y-15.0547 F75.00
G01 X17.0324 Y-15.0156 F75.00
G01 X17.0159 Y-14.9858 F75.00
G01 X17.0089 Y-14.9714 F75.00
G01 X16.9956 Y-14.9543 F75.00
G01 X16.9792 Y-14.9310 F75.00
G01 X16.9707 Y-14.9175 F75.00
G01 X14.8575 Y-12.8043 F75.00
G01 X14.8440 Y-12.7958 F75.00
G01 X14.8207 Y-12.7793 F75.00
G01 X14.8036 Y-12.7661 F75.00
G01 X14.7843 Y-12.7564 F75.00
G01 X14.7594 Y-12.7426 F75.00
G01 X14.7458 Y-12.7341 F75.00
G01 X14.7307 Y-12.7288 F75.00
G01 X14.7043 Y-12.7180 F75.00
G01 X14.6847 Y-12.7089 F75.00
G01 X14.6691 Y-12.7052 F75.00
G01 X14.6417 Y-12.6974 F75.00
G01 X14.6212 Y-12.6906 F75.00
G01 X14.5998 Y-12.6878 F75.00
G01 X14.5717 Y-12.6830 F75.00
G01 X14.5561 Y-12.6795 F75.00
G01 X9.2750 Y-12.6795 F75.00
G01 X9.2539 Y-12.6840 F75.00
G01 X9.2258 Y-12.6887 F75.00
G01 X9.2099 Y-12.6906 F75.00
G01 X9.1948 Y-12.6958 F75.00
G01 X9.1674 Y-12.7037 F75.00
G01 X9.1464 Y-12.7089 F75.00
G01 X9.1319 Y-12.7157 F75.00
G01 X9.1057 Y-12.7267 F75.00
G01 X9.0854 Y-12.7341 F75.00
G01 X9.0718 Y-12.7426 F75.00
G01 X9.0469 Y-12.7564 F75.00
G01 X9.0275 Y-12.7661 F75.00
G01 X9.0150 Y-12.7760 F75.00
G01 X8.9918 Y-12.7926 F75.00
G01 X8.9736 Y-12.8043 F75.00
G01 X6.6668 Y-15.1112 F75.00
G01 X6.6558 Y-15.1213 F75.00
G01 X6.6481 Y-15.1277 F75.00
G01 X6.6318 Y-15.1391 F75.00
G01 X6.5507 Y-15.1900 F75.00
G01 X6.5334 Y-15.1991 F75.00
G01 X6.5198 Y-15.2049 F75.00
G01 X6.5012 Y-15.2110 F75.00
G01 X6.4868 Y-15.2143 F75.00
G01 X6.4146 Y-15.2267 F75.00
G01 X6.3955 Y-15.2290 F75.00
G01 X6.3811 Y-15.2295 F75.00
G01 X6.0254 Y-15.2295 F75.00
G01 X5.9596 Y-15.2399 F75.00
G01 X5.9419 Y-15.2442 F75.00
G01 X5.9271 Y-15.2465 F75.00
G01 X5.8317 Y-15.2551 F75.00
G01 X5.8124 Y-15.2559 F75.00
G01 X5.7931 Y-15.2548 F75.00
G01 X5.7788 Y-15.2528 F75.00
G01 X5.7246 Y-15.2405 F75.00
G01 X5.6585 Y-15.2300 F75.00
G01 X5.2720 Y-15.2300 F75.00
G01 X5.2720 Y-15.2400 F75.00
G01 X5.6469 Y-15.2401 F75.00
G01 X5.6567 Y-15.2405 F75.00
G01 X5.6713 Y-15.2422 F75.00
G01 X5.6858 Y-15.2449 F75.00
G01 X5.7001 Y-15.2486 F75.00
G01 X5.7140 Y-15.2534 F75.00
G01 X5.7275 Y-15.2592 F75.00
G01 X5.7406 Y-15.2660 F75.00
G01 X5.7490 Y-15.2710 F75.00
G01 X5.7572 Y-15.2765 F75.00
G01 X5.7689 Y-15.2854 F75.00
G01 X5.7799 Y-15.2952 F75.00
G01 X5.7902 Y-15.3057 F75.00
G01 X5.7997 Y-15.3170 F75.00
G01 X5.8055 Y-15.3248 F75.00
G01 X5.8135 Y-15.3372 F75.00
G01 X5.8206 Y-15.3501 F75.00
G01 X5.8248 Y-15.3590 F75.00
G01 X5.8303 Y-15.3726 F75.00
G01 X5.8348 Y-15.3867 F75.00
G01 X5.8382 Y-15.4010 F75.00
G01 X5.8410 Y-15.4204 F75.00
G01 X5.8420 Y-15.4400 F75.00
G01 X5.8419 Y-17.5849 F75.00
G01 X5.8410 Y-17.5996 F75.00
G01 X5.8398 Y-17.6093 F75.00
G01 X5.8371 Y-17.6238 F75.00
G01 X5.8348 Y-17.6333 F75.00
G01 X5.8303 Y-17.6474 F75.00
G01 X5.8268 Y-17.6565 F75.00
G01 X5.8184 Y-17.6743 F75.00
G01 X5.8110 Y-17.6870 F75.00
G01 X5.8055 Y-17.6952 F75.00
G01 X5.7934 Y-17.7106 F75.00
G01 X5.7834 Y-17.7214 F75.00
G01 X5.7763 Y-17.7282 F75.00
G01 X5.7611 Y-17.7406 F75.00
G01 X5.7490 Y-17.7490 F75.00
G01 X5.7363 Y-17.7564 F75.00
G01 X5.7230 Y-17.7628 F75.00
G01 X5.7047 Y-17.7699 F75.00
G01 X5.6906 Y-17.7740 F75.00
G01 X5.6762 Y-17.7771 F75.00
G01 X5.6616 Y-17.7790 F75.00
G01 X5.6469 Y-17.7799 F75.00
G01 X3.5020 Y-17.7800 F75.00
G01 X3.4824 Y-17.7790 F75.00
G01 X3.4727 Y-17.7778 F75.00
G01 X3.4582 Y-17.7751 F75.00
G01 X3.4439 Y-17.7714 F75.00
G01 X3.4300 Y-17.7666 F75.00
G01 X3.4165 Y-17.7608 F75.00
G01 X3.4077 Y-17.7564 F75.00
G01 X3.3992 Y-17.7515 F75.00
G01 X3.3868 Y-17.7435 F75.00
G01 X3.3751 Y-17.7346 F75.00
G01 X3.3641 Y-17.7248 F75.00
G01 X3.3538 Y-17.7143 F75.00
G01 X3.3443 Y-17.7030 F75.00
G01 X3.3357 Y-17.6911 F75.00
G01 X3.3305 Y-17.6828 F75.00
G01 X3.3234 Y-17.6699 F75.00
G01 X3.3172 Y-17.6565 F75.00
G01 X3.3137 Y-17.6474 F75.00
G01 X3.3092 Y-17.6333 F75.00
G01 X3.3069 Y-17.6238 F75.00
G01 X3.3042 Y-17.6093 F75.00
G01 X3.3025 Y-17.5947 F75.00
G01 X3.3021 Y-17.5849 F75.00
G01 X3.3020 Y-17.2100 F75.00
G00 Z2.0000
G00 X6.0420 Y-17.7800
G01 F45.00
G01 Z-0.0850
G01 F75.00
G01 X8.1869 Y-17.7799 F75.00
G01 X8.2065 Y-17.7785 F75.00
G01 X8.2258 Y-17.7751 F75.00
G01 X8.2447 Y-17.7699 F75.00
G01 X8.2630 Y-17.7628 F75.00
G01 X8.2806 Y-17.7540 F75.00
G01 X8.2972 Y-17.7435 F75.00
G01 X8.3089 Y-17.7346 F75.00
G01 X8.3163 Y-17.7282 F75.00
G01 X8.3302 Y-17.7143 F75.00
G01 X8.3426 Y-17.6991 F75.00
G01 X8.3510 Y-17.6870 F75.00
G01 X8.3606 Y-17.6699 F75.00
G01 X8.3686 Y-17.6520 F75.00
G01 X8.3748 Y-17.6333 F75.00
G01 X8.3782 Y-17.6190 F75.00
G01 X8.3805 Y-17.6045 F75.00
G01 X8.3819 Y-17.5849 F75.00
G01 X8.3818 Y-15.4302 F75.00
G01 X8.3805 Y-15.4155 F75.00
G01 X8.3771 Y-15.3962 F75.00
G01 X8.3719 Y-15.3773 F75.00
G01 X8.3648 Y-15.3590 F75.00
G01 X8.3560 Y-15.3414 F75.00
G01 X8.3455 Y-15.3248 F75.00
G01 X8.3334 Y-15.3094 F75.00
G01 X8.3199 Y-15.2952 F75.00
G01 X8.3050 Y-15.2823 F75.00
G01 X8.2890 Y-15.2710 F75.00
G01 X8.2719 Y-15.2614 F75.00
G01 X8.2540 Y-15.2534 F75.00
G01 X8.2353 Y-15.2472 F75.00
G01 X8.2162 Y-15.2429 F75.00
G01 X8.1967 Y-15.2405 F75.00
G01 X8.1794 Y-15.2400 F75.00
G01 X9.5793 Y-13.8402 F75.00
G01 X14.2519 Y-13.8402 F75.00
G01 X15.9348 Y-15.5231 F75.00
G01 X15.9348 Y-25.5937 F75.00
G01 X12.1920 Y-29.3366 F75.00
G01 X12.1920 Y-29.1500 F75.00
G01 X12.1915 Y-29.1353 F75.00
G01 X12.1891 Y-29.1158 F75.00
G01 X12.1848 Y-29.0967 F75.00
G01 X12.1786 Y-29.0780 F75.00
G01 X12.1728 Y-29.0645 F75.00
G01 X12.1660 Y-29.0514 F75.00
G01 X12.1583 Y-29.0389 F75.00
G01 X12.1526 Y-29.0309 F75.00
G01 X12.1434 Y-29.0194 F75.00
G01 X12.1334 Y-29.0086 F75.00
G01 X12.1263 Y-29.0018 F75.00
G01 X12.1189 Y-28.9954 F75.00
G01 X12.1072 Y-28.9865 F75.00
G01 X12.0990 Y-28.9810 F75.00
G01 X12.0863 Y-28.9736 F75.00
G01 X12.0775 Y-28.9692 F75.00
G01 X12.0640 Y-28.9634 F75.00
G01 X12.0547 Y-28.9601 F75.00
G01 X12.0406 Y-28.9560 F75.00
G01 X12.0262 Y-28.9529 F75.00
G01 X12.0116 Y-28.9510 F75.00
G01 X11.9920 Y-28.9500 F75.00
G01 X9.8520 Y-28.9500 F75.00
G01 X9.8373 Y-28.9505 F75.00
G01 X9.8178 Y-28.9529 F75.00
G01 X9.8034 Y-28.9560 F75.00
G01 X9.7893 Y-28.9601 F75.00
G01 X9.7755 Y-28.9652 F75.00
G01 X9.7621 Y-28.9714 F75.00
G01 X9.7492 Y-28.9785 F75.00
G01 X9.7368 Y-28.9865 F75.00
G01 X9.7251 Y-28.9954 F75.00
G01 X9.7141 Y-29.0052 F75.00
G01 X9.7038 Y-29.0157 F75.00
G01 X9.6914 Y-29.0309 F75.00
G01 X9.6830 Y-29.0430 F75.00
G01 X9.6734 Y-29.0601 F75.00
G01 X9.6672 Y-29.0735 F75.00
G01 X9.6621 Y-29.0873 F75.00
G01 X9.6580 Y-29.1014 F75.00
G01 X9.6558 Y-29.1110 F75.00
G01 X9.6535 Y-29.1255 F75.00
G01 X9.6525 Y-29.1353 F75.00
G01 X9.6520 Y-29.1500 F75.00
G01 X9.6521 Y-31.2949 F75.00
G01 X9.6535 Y-31.3145 F75.00
G01 X9.6569 Y-31.3338 F75.00
G01 X9.6621 Y-31.3527 F75.00
G01 X9.6692 Y-31.3710 F75.00
G01 X9.6756 Y-31.3843 F75.00
G01 X9.6857 Y-31.4011 F75.00
G01 X9.6974 Y-31.4169 F75.00
G01 X9.7106 Y-31.4314 F75.00
G01 X9.7251 Y-31.4446 F75.00
G01 X9.7409 Y-31.4563 F75.00
G01 X9.7577 Y-31.4664 F75.00
G01 X9.7755 Y-31.4748 F75.00
G01 X9.7893 Y-31.4799 F75.00
G01 X9.8082 Y-31.4851 F75.00
G01 X9.8275 Y-31.4885 F75.00
G01 X9.8471 Y-31.4899 F75.00
G01 X11.9920 Y-31.4900 F75.00
G01 X12.0018 Y-31.4898 F75.00
G01 X12.0165 Y-31.4885 F75.00
G01 X12.0358 Y-31.4851 F75.00
G01 X12.0547 Y-31.4799 F75.00
G01 X12.0730 Y-31.4728 F75.00
G01 X12.0819 Y-31.4686 F75.00
G01 X12.0948 Y-31.4615 F75.00
G01 X12.1031 Y-31.4563 F75.00
G01 X12.1150 Y-31.4477 F75.00
G01 X12.1226 Y-31.4414 F75.00
G01 X12.1334 Y-31.4314 F75.00
G01 X12.1434 Y-31.4206 F75.00
G01 X12.1497 Y-31.4130 F75.00
G01 X12.1555 Y-31.4052 F75.00
G01 X12.1635 Y-31.3928 F75.00
G01 X12.1706 Y-31.3799 F75.00
G01 X12.1748 Y-31.3710 F75.00
G01 X12.1803 Y-31.3574 F75.00
G01 X12.1834 Y-31.3481 F75.00
G01 X12.1860 Y-31.3386 F75.00
G01 X12.1891 Y-31.3242 F75.00
G01 X12.1915 Y-31.3047 F75.00
G01 X12.1920 Y-31.2900 F75.00
G01 X12.1920 Y-30.7906 F75.00
G01 X12.2342 Y-30.7841 F75.00
G01 X12.2890 Y-30.7704 F75.00
G01 X12.3421 Y-30.7514 F75.00
G01 X12.3844 Y-30.7317 F75.00
G01 X12.4017 Y-30.7224 F75.00
G01 X12.4374 Y-30.7009 F75.00
G01 X12.4496 Y-30.6926 F75.00
G01 X12.4869 Y-30.6646 F75.00
G01 X12.5287 Y-30.6267 F75.00
G01 X16.9587 Y-26.1967 F75.00
G01 X16.9966 Y-26.1549 F75.00
G01 X17.0246 Y-26.1176 F75.00
G01 X17.0355 Y-26.1013 F75.00
G01 X17.0593 Y-26.0611 F75.00
G01 X17.0794 Y-26.0191 F75.00
G01 X17.0869 Y-26.0010 F75.00
G01 X17.1024 Y-25.9570 F75.00
G01 X17.1140 Y-25.9118 F75.00
G01 X17.1178 Y-25.8925 F75.00
G01 X17.1244 Y-25.8464 F75.00
G01 X17.1272 Y-25.7900 F75.00
G01 X17.1244 Y-25.7336 F75.00
G01 X17.1161 Y-25.6778 F75.00
G01 X17.1024 Y-25.6230 F75.00
G01 X17.0852 Y-25.5743 F75.00
G01 X17.0852 Y-15.2849 F75.00
G01 X17.0824 Y-15.2285 F75.00
G01 X17.0741 Y-15.1727 F75.00
G01 X17.0604 Y-15.1179 F75.00
G01 X17.0449 Y-15.0739 F75.00
G01 X17.0395 Y-15.0603 F75.00
G01 X17.0173 Y-15.0137 F75.00
G01 X16.9883 Y-14.9653 F75.00
G01 X16.9546 Y-14.9200 F75.00
G01 X16.9201 Y-14.8817 F75.00
G01 X14.8968 Y-12.8583 F75.00
G01 X14.8550 Y-12.8204 F75.00
G01 X14.8177 Y-12.7924 F75.00
G01 X14.8014 Y-12.7815 F75.00
G01 X14.7613 Y-12.7577 F75.00
G01 X14.7192 Y-12.7376 F75.00
G01 X14.7011 Y-12.7301 F75.00
G01 X14.6571 Y-12.7146 F75.00
G01 X14.6023 Y-12.7009 F75.00
G01 X14.5562 Y-12.6938 F75.00
G01 X14.5367 Y-12.6919 F75.00
G01 X14.4901 Y-12.6898 F75.00
G01 X9.3410 Y-12.6898 F75.00
G01 X9.2846 Y-12.6926 F75.00
G01 X9.2385 Y-12.6992 F75.00
G01 X9.2192 Y-12.7030 F75.00
G01 X9.1740 Y-12.7146 F75.00
G01 X9.1300 Y-12.7301 F75.00
G01 X9.1119 Y-12.7376 F75.00
G01 X9.0699 Y-12.7577 F75.00
G01 X9.0297 Y-12.7815 F75.00
G01 X9.0134 Y-12.7924 F75.00
G01 X8.9761 Y-12.8204 F75.00
G01 X8.9378 Y-12.8549 F75.00
G01 X6.7053 Y-15.0873 F75.00
G01 X6.6674 Y-15.1291 F75.00
G01 X6.6365 Y-15.1704 F75.00
G01 X6.6285 Y-15.1827 F75.00
G01 X6.6071 Y-15.2186 F75.00
G01 X6.6025 Y-15.2272 F75.00
G01 X6.5964 Y-15.2400 F75.00
G01 X6.0420 Y-15.2400 F75.00
G01 X6.0322 Y-15.2402 F75.00
G01 X6.0175 Y-15.2415 F75.00
G01 X6.0078 Y-15.2429 F75.00
G01 X5.9934 Y-15.2460 F75.00
G01 X5.9746 Y-15.2517 F75.00
G01 X5.9655 Y-15.2552 F75.00
G01 X5.9521 Y-15.2614 F75.00
G01 X5.9350 Y-15.2710 F75.00
G01 X5.9229 Y-15.2794 F75.00
G01 X5.9151 Y-15.2854 F75.00
G01 X5.9006 Y-15.2986 F75.00
G01 X5.8938 Y-15.3057 F75.00
G01 X5.8843 Y-15.3170 F75.00
G01 X5.8730 Y-15.3330 F75.00
G01 X5.8656 Y-15.3457 F75.00
G01 X5.8592 Y-15.3590 F75.00
G01 X5.8554 Y-15.3680 F75.00
G01 X5.8506 Y-15.3819 F75.00
G01 X5.8469 Y-15.3962 F75.00
G01 X5.8442 Y-15.4107 F75.00
G01 X5.8425 Y-15.4253 F75.00
G01 X5.8421 Y-15.4351 F75.00
G01 X5.8420 Y-17.5800 F75.00
G01 X5.8425 Y-17.5947 F75.00
G01 X5.8442 Y-17.6093 F75.00
G01 X5.8480 Y-17.6286 F75.00
G01 X5.8537 Y-17.6474 F75.00
G01 X5.8612 Y-17.6655 F75.00
G01 X5.8705 Y-17.6828 F75.00
G01 X5.8814 Y-17.6991 F75.00
G01 X5.8938 Y-17.7143 F75.00
G01 X5.9077 Y-17.7282 F75.00
G01 X5.9229 Y-17.7406 F75.00
G01 X5.9350 Y-17.7490 F75.00
G01 X5.9521 Y-17.7586 F75.00
G01 X5.9700 Y-17.7666 F75.00
G01 X5.9887 Y-17.7728 F75.00
G01 X6.0078 Y-17.7771 F75.00
G01 X6.0273 Y-17.7795 F75.00
G01 X6.0420 Y-17.7800 F75.00
G00 Z2.0000
G00 X8.5820 Y-17.7800
G01 F45.00
G01 Z-0.0850
G01 F75.00
G01 X10.7269 Y-17.7799 F75.00
G01 X10.7465 Y-17.7785 F75.00
G01 X10.7562 Y-17.7771 F75.00
G01 X10.7706 Y-17.7740 F75.00
G01 X10.7847 Y-17.7699 F75.00
G01 X10.7940 Y-17.7666 F75.00
G01 X10.8030 Y-17.7628 F75.00
G01 X10.8163 Y-17.7564 F75.00
G01 X10.8248 Y-17.7515 F75.00
G01 X10.8372 Y-17.7435 F75.00
G01 X10.8526 Y-17.7314 F75.00
G01 X10.8634 Y-17.7214 F75.00
G01 X10.8702 Y-17.7143 F75.00
G01 X10.8826 Y-17.6991 F75.00
G01 X10.8910 Y-17.6870 F75.00
G01 X10.8984 Y-17.6743 F75.00
G01 X10.9048 Y-17.6610 F75.00
G01 X10.9103 Y-17.6474 F75.00
G01 X10.9148 Y-17.6333 F75.00
G01 X10.9182 Y-17.6190 F75.00
G01 X10.9205 Y-17.6045 F75.00
G01 X10.9219 Y-17.5849 F75.00
G01 X10.9220 Y-15.4400 F75.00
G01 X10.9218 Y-15.4302 F75.00
G01 X10.9205 Y-15.4155 F75.00
G01 X10.9182 Y-15.4010 F75.00
G01 X10.9160 Y-15.3914 F75.00
G01 X10.9119 Y-15.3773 F75.00
G01 X10.9068 Y-15.3635 F75.00
G01 X10.9006 Y-15.3501 F75.00
G01 X10.8935 Y-15.3372 F75.00
G01 X10.8855 Y-15.3248 F75.00
G01 X10.8766 Y-15.3131 F75.00
G01 X10.8702 Y-15.3057 F75.00
G01 X10.8599 Y-15.2952 F75.00
G01 X10.8489 Y-15.2854 F75.00
G01 X10.8372 Y-15.2765 F75.00
G01 X10.8248 Y-15.2685 F75.00
G01 X10.8119 Y-15.2614 F75.00
G01 X10.8030 Y-15.2572 F75.00
G01 X10.7894 Y-15.2517 F75.00
G01 X10.7753 Y-15.2472 F75.00
G01 X10.7610 Y-15.2438 F75.00
G01 X10.7465 Y-15.2415 F75.00
G01 X10.7269 Y-15.2401 F75.00
G01 X10.4354 Y-15.2400 F75.00
G01 X10.5603 Y-15.1152 F75.00
G01 X13.7237 Y-15.1152 F75.00
G01 X14.7668 Y-16.1583 F75.00
G01 X14.7668 Y-21.7577 F75.00
G01 X12.1920 Y-24.3326 F75.00
G01 X12.1918 Y-24.0602 F75.00
G01 X12.1905 Y-24.0455 F75.00
G01 X12.1882 Y-24.0310 F75.00
G01 X12.1848 Y-24.0167 F75.00
G01 X12.1786 Y-23.9980 F75.00
G01 X12.1748 Y-23.9890 F75.00
G01 X12.1684 Y-23.9757 F75.00
G01 X12.1610 Y-23.9630 F75.00
G01 X12.1526 Y-23.9509 F75.00
G01 X12.1434 Y-23.9394 F75.00
G01 X12.1334 Y-23.9286 F75.00
G01 X12.1263 Y-23.9218 F75.00
G01 X12.1150 Y-23.9123 F75.00
G01 X12.1031 Y-23.9037 F75.00
G01 X12.0906 Y-23.8960 F75.00
G01 X12.0775 Y-23.8892 F75.00
G01 X12.0685 Y-23.8852 F75.00
G01 X12.0547 Y-23.8801 F75.00
G01 X12.0406 Y-23.8760 F75.00
G01 X12.0262 Y-23.8729 F75.00
G01 X12.0165 Y-23.8715 F75.00
G01 X12.0067 Y-23.8705 F75.00
G01 X11.9920 Y-23.8700 F75.00
G01 X9.8520 Y-23.8700 F75.00
G01 X9.8373 Y-23.8705 F75.00
G01 X9.8178 Y-23.8729 F75.00
G01 X9.8034 Y-23.8760 F75.00
G01 X9.7893 Y-23.8801 F75.00
G01 X9.7755 Y-23.8852 F75.00
G01 X9.7621 Y-23.8914 F75.00
G01 X9.7492 Y-23.8985 F75.00
G01 X9.7368 Y-23.9065 F75.00
G01 X9.7251 Y-23.9154 F75.00
G01 X9.7141 Y-23.9252 F75.00
G01 X9.7038 Y-23.9357 F75.00
G01 X9.6943 Y-23.9470 F75.00
G01 X9.6857 Y-23.9589 F75.00
G01 X9.6780 Y-23.9714 F75.00
G01 X9.6712 Y-23.9845 F75.00
G01 X9.6637 Y-24.0026 F75.00
G01 X9.6592 Y-24.0167 F75.00
G01 X9.6558 Y-24.0310 F75.00
G01 X9.6535 Y-24.0455 F75.00
G01 X9.6525 Y-24.0553 F75.00
G01 X9.6520 Y-24.0700 F75.00
G01 X9.6521 Y-26.2149 F75.00
G01 X9.6535 Y-26.2345 F75.00
G01 X9.6569 Y-26.2538 F75.00
G01 X9.6621 Y-26.2727 F75.00
G01 X9.6692 Y-26.2910 F75.00
G01 X9.6756 Y-26.3043 F75.00
G01 X9.6857 Y-26.3211 F75.00
G01 X9.6974 Y-26.3369 F75.00
G01 X9.7106 Y-26.3514 F75.00
G01 X9.7251 Y-26.3646 F75.00
G01 X9.7409 Y-26.3763 F75.00
G01 X9.7577 Y-26.3864 F75.00
G01 X9.7755 Y-26.3948 F75.00
G01 X9.7893 Y-26.3999 F75.00
G01 X9.8082 Y-26.4051 F75.00
G01 X9.8275 Y-26.4085 F75.00
G01 X9.8471 Y-26.4099 F75.00
G01 X11.9920 Y-26.4100 F75.00
G01 X12.0116 Y-26.4090 F75.00
G01 X12.0310 Y-26.4062 F75.00
G01 X12.0501 Y-26.4014 F75.00
G01 X12.0685 Y-26.3948 F75.00
G01 X12.0819 Y-26.3886 F75.00
G01 X12.0906 Y-26.3840 F75.00
G01 X12.0990 Y-26.3790 F75.00
G01 X12.1111 Y-26.3706 F75.00
G01 X12.1226 Y-26.3614 F75.00
G01 X12.1299 Y-26.3548 F75.00
G01 X12.1368 Y-26.3479 F75.00
G01 X12.1466 Y-26.3369 F75.00
G01 X12.1555 Y-26.3252 F75.00
G01 X12.1635 Y-26.3128 F75.00
G01 X12.1706 Y-26.2999 F75.00
G01 X12.1748 Y-26.2910 F75.00
G01 X12.1803 Y-26.2774 F75.00
G01 X12.1834 Y-26.2681 F75.00
G01 X12.1860 Y-26.2586 F75.00
G01 X12.1891 Y-26.2442 F75.00
G01 X12.1915 Y-26.2247 F75.00
G01 X12.1920 Y-26.2100 F75.00
G01 X12.1920 Y-25.7152 F75.00
G01 X12.2078 Y-25.7149 F75.00
G01 X12.2544 Y-25.7124 F75.00
G01 X12.3102 Y-25.7041 F75.00
G01 X12.3650 Y-25.6904 F75.00
G01 X12.4181 Y-25.6714 F75.00
G01 X12.4691 Y-25.6473 F75.00
G01 X12.5176 Y-25.6183 F75.00
G01 X12.5629 Y-25.5846 F75.00
G01 X12.6012 Y-25.5501 F75.00
G01 X15.7521 Y-22.3992 F75.00
G01 X15.7802 Y-22.3683 F75.00
G01 X15.7897 Y-22.3571 F75.00
G01 X15.8175 Y-22.3196 F75.00
G01 X15.8255 Y-22.3073 F75.00
G01 X15.8469 Y-22.2714 F75.00
G01 X15.8537 Y-22.2584 F75.00
G01 X15.8734 Y-22.2161 F75.00
G01 X15.8893 Y-22.1723 F75.00
G01 X15.8950 Y-22.1535 F75.00
G01 X15.9051 Y-22.1130 F75.00
G01 X15.9078 Y-22.0985 F75.00
G01 X15.9144 Y-22.0524 F75.00
G01 X15.9172 Y-21.9960 F75.00
G01 X15.9172 Y-15.9200 F75.00
G01 X15.9144 Y-15.8636 F75.00
G01 X15.9061 Y-15.8078 F75.00
G01 X15.8924 Y-15.7530 F75.00
G01 X15.8734 Y-15.6999 F75.00
G01 X15.8493 Y-15.6489 F75.00
G01 X15.8203 Y-15.6004 F75.00
G01 X15.7866 Y-15.5551 F75.00
G01 X15.7521 Y-15.5168 F75.00
G01 X14.3687 Y-14.1333 F75.00
G01 X14.3269 Y-14.0954 F75.00
G01 X14.2896 Y-14.0674 F75.00
G01 X14.2733 Y-14.0565 F75.00
G01 X14.2331 Y-14.0327 F75.00
G01 X14.1911 Y-14.0126 F75.00
G01 X14.1730 Y-14.0051 F75.00
G01 X14.1290 Y-13.9896 F75.00
G01 X14.0742 Y-13.9759 F75.00
G01 X14.0281 Y-13.9688 F75.00
G01 X14.0086 Y-13.9669 F75.00
G01 X13.9620 Y-13.9648 F75.00
G01 X10.3220 Y-13.9648 F75.00
G01 X10.2754 Y-13.9669 F75.00
G01 X10.2559 Y-13.9688 F75.00
G01 X10.2098 Y-13.9759 F75.00
G01 X10.1597 Y-13.9882 F75.00
G01 X10.1457 Y-13.9927 F75.00
G01 X10.1019 Y-14.0086 F75.00
G01 X10.0509 Y-14.0327 F75.00
G01 X10.0024 Y-14.0617 F75.00
G01 X9.9648 Y-14.0893 F75.00
G01 X9.9497 Y-14.1018 F75.00
G01 X9.9153 Y-14.1333 F75.00
G01 X9.2453 Y-14.8033 F75.00
G01 X9.2105 Y-14.8413 F75.00
G01 X9.2013 Y-14.8528 F75.00
G01 X9.1737 Y-14.8904 F75.00
G01 X9.1447 Y-14.9389 F75.00
G01 X9.1206 Y-14.9899 F75.00
G01 X9.1031 Y-15.0384 F75.00
G01 X9.0990 Y-15.0525 F75.00
G01 X9.0879 Y-15.0978 F75.00
G01 X9.0801 Y-15.1487 F75.00
G01 X9.0789 Y-15.1634 F75.00
G01 X9.0769 Y-15.2051 F75.00
G01 X9.0768 Y-15.2400 F75.00
G01 X8.5820 Y-15.2400 F75.00
G01 X8.5673 Y-15.2405 F75.00
G01 X8.5478 Y-15.2429 F75.00
G01 X8.5334 Y-15.2460 F75.00
G01 X8.5193 Y-15.2501 F75.00
G01 X8.5100 Y-15.2534 F75.00
G01 X8.4965 Y-15.2592 F75.00
G01 X8.4877 Y-15.2636 F75.00
G01 X8.4750 Y-15.2710 F75.00
G01 X8.4629 Y-15.2794 F75.00
G01 X8.4551 Y-15.2854 F75.00
G01 X8.4441 Y-15.2952 F75.00
G01 X8.4372 Y-15.3021 F75.00
G01 X8.4306 Y-15.3094 F75.00
G01 X8.4214 Y-15.3209 F75.00
G01 X8.4130 Y-15.3330 F75.00
G01 X8.4080 Y-15.3414 F75.00
G01 X8.4012 Y-15.3545 F75.00
G01 X8.3972 Y-15.3635 F75.00
G01 X8.3906 Y-15.3819 F75.00
G01 X8.3858 Y-15.4010 F75.00
G01 X8.3830 Y-15.4204 F75.00
G01 X8.3820 Y-15.4400 F75.00
G01 X8.3820 Y-17.5800 F75.00
G01 X8.3825 Y-17.5947 F75.00
G01 X8.3842 Y-17.6093 F75.00
G01 X8.3880 Y-17.6286 F75.00
G01 X8.3937 Y-17.6474 F75.00
G01 X8.4012 Y-17.6655 F75.00
G01 X8.4105 Y-17.6828 F75.00
G01 X8.4214 Y-17.6991 F75.00
G01 X8.4338 Y-17.7143 F75.00
G01 X8.4477 Y-17.7282 F75.00
G01 X8.4629 Y-17.7406 F75.00
G01 X8.4750 Y-17.7490 F75.00
G01 X8.4921 Y-17.7586 F75.00
G01 X8.5100 Y-17.7666 F75.00
G01 X8.5287 Y-17.7728 F75.00
G01 X8.5478 Y-17.7771 F75.00
G01 X8.5673 Y-17.7795 F75.00
G01 X8.5820 Y-17.7800 F75.00
G00 Z2.0000
G00 X11.1220 Y-17.7800
G01 F45.00
G01 Z-0.0850
G01 F75.00
G01 X13.2669 Y-17.7799 F75.00
G01 X13.2865 Y-17.7785 F75.00
G01 X13.3058 Y-17.7751 F75.00
G01 X13.3247 Y-17.7699 F75.00
G01 X13.3430 Y-17.7628 F75.00
G01 X13.3606 Y-17.7540 F75.00
G01 X13.3772 Y-17.7435 F75.00
G01 X13.3889 Y-17.7346 F75.00
G01 X13.3963 Y-17.7282 F75.00
G01 X13.4102 Y-17.7143 F75.00
G01 X13.4226 Y-17.6991 F75.00
G01 X13.4310 Y-17.6870 F75.00
G01 X13.4406 Y-17.6699 F75.00
G01 X13.4486 Y-17.6520 F75.00
G01 X13.4548 Y-17.6333 F75.00
G01 X13.4582 Y-17.6190 F75.00
G01 X13.4605 Y-17.6045 F75.00
G01 X13.4619 Y-17.5849 F75.00
G01 X13.4620 Y-15.4400 F75.00
G01 X13.4610 Y-15.4204 F75.00
G01 X13.4582 Y-15.4010 F75.00
G01 X13.4534 Y-15.3819 F75.00
G01 X13.4503 Y-15.3726 F75.00
G01 X13.4448 Y-15.3590 F75.00
G01 X13.4360 Y-15.3414 F75.00
G01 X13.4255 Y-15.3248 F75.00
G01 X13.4134 Y-15.3094 F75.00
G01 X13.4034 Y-15.2986 F75.00
G01 X13.3963 Y-15.2918 F75.00
G01 X13.3811 Y-15.2794 F75.00
G01 X13.3648 Y-15.2685 F75.00
G01 X13.3519 Y-15.2614 F75.00
G01 X13.3340 Y-15.2534 F75.00
G01 X13.3201 Y-15.2486 F75.00
G01 X13.3010 Y-15.2438 F75.00
G01 X13.2865 Y-15.2415 F75.00
G01 X13.2669 Y-15.2401 F75.00
G01 X11.1220 Y-15.2400 F75.00
G01 X11.1024 Y-15.2410 F75.00
G01 X11.0830 Y-15.2438 F75.00
G01 X11.0639 Y-15.2486 F75.00
G01 X11.0500 Y-15.2534 F75.00
G01 X11.0410 Y-15.2572 F75.00
G01 X11.0234 Y-15.2660 F75.00
G01 X11.0150 Y-15.2710 F75.00
G01 X11.0029 Y-15.2794 F75.00
G01 X10.9877 Y-15.2918 F75.00
G01 X10.9738 Y-15.3057 F75.00
G01 X10.9614 Y-15.3209 F75.00
G01 X10.9530 Y-15.3330 F75.00
G01 X10.9456 Y-15.3457 F75.00
G01 X10.9372 Y-15.3635 F75.00
G01 X10.9306 Y-15.3819 F75.00
G01 X10.9258 Y-15.4010 F75.00
G01 X10.9235 Y-15.4155 F75.00
G01 X10.9221 Y-15.4351 F75.00
G01 X10.9222 Y-17.5898 F75.00
G01 X10.9242 Y-17.6093 F75.00
G01 X10.9280 Y-17.6286 F75.00
G01 X10.9337 Y-17.6474 F75.00
G01 X10.9412 Y-17.6655 F75.00
G01 X10.9505 Y-17.6828 F75.00
G01 X10.9585 Y-17.6952 F75.00
G01 X10.9706 Y-17.7106 F75.00
G01 X10.9841 Y-17.7248 F75.00
G01 X10.9990 Y-17.7377 F75.00
G01 X11.0150 Y-17.7490 F75.00
G01 X11.0321 Y-17.7586 F75.00
G01 X11.0500 Y-17.7666 F75.00
G01 X11.0687 Y-17.7728 F75.00
G01 X11.0878 Y-17.7771 F75.00
G01 X11.1073 Y-17.7795 F75.00
G01 X11.1220 Y-17.7800 F75.00
G00 Z2.0000
G00 X12.3920 Y-20.3200
G01 F45.00
G01 Z-0.0850
G01 F75.00
G01 X14.5369 Y-20.3199 F75.00
G01 X14.5565 Y-20.3185 F75.00
G01 X14.5758 Y-20.3151 F75.00
G01 X14.5947 Y-20.3099 F75.00
G01 X14.6130 Y-20.3028 F75.00
G01 X14.6306 Y-20.2940 F75.00
G01 X14.6472 Y-20.2835 F75.00
G01 X14.6589 Y-20.2746 F75.00
G01 X14.6663 Y-20.2682 F75.00
G01 X14.6802 Y-20.2543 F75.00
G01 X14.6926 Y-20.2391 F75.00
G01 X14.7010 Y-20.2270 F75.00
G01 X14.7106 Y-20.2099 F75.00
G01 X14.7186 Y-20.1920 F75.00
G01 X14.7248 Y-20.1733 F75.00
G01 X14.7282 Y-20.1590 F75.00
G01 X14.7305 Y-20.1445 F75.00
G01 X14.7319 Y-20.1249 F75.00
G01 X14.7320 Y-17.9800 F75.00
G01 X14.7315 Y-17.9653 F75.00
G01 X14.7305 Y-17.9555 F75.00
G01 X14.7271 Y-17.9362 F75.00
G01 X14.7219 Y-17.9173 F75.00
G01 X14.7148 Y-17.8990 F75.00
G01 X14.7060 Y-17.8814 F75.00
G01 X14.6955 Y-17.8648 F75.00
G01 X14.6834 Y-17.8494 F75.00
G01 X14.6734 Y-17.8386 F75.00
G01 X14.6663 Y-17.8318 F75.00
G01 X14.6511 Y-17.8194 F75.00
G01 X14.6390 Y-17.8110 F75.00
G01 X14.6263 Y-17.8036 F75.00
G01 X14.6085 Y-17.7952 F75.00
G01 X14.5947 Y-17.7901 F75.00
G01 X14.5758 Y-17.7849 F75.00
G01 X14.5565 Y-17.7815 F75.00
G01 X14.5369 Y-17.7801 F75.00
G01 X12.3920 Y-17.7800 F75.00
G01 X12.3724 Y-17.7810 F75.00
G01 X12.3530 Y-17.7838 F75.00
G01 X12.3339 Y-17.7886 F75.00
G01 X12.3246 Y-17.7917 F75.00
G01 X12.3110 Y-17.7972 F75.00
G01 X12.3021 Y-17.8014 F75.00
G01 X12.2892 Y-17.8085 F75.00
G01 X12.2729 Y-17.8194 F75.00
G01 X12.2577 Y-17.8318 F75.00
G01 X12.2438 Y-17.8457 F75.00
G01 X12.2343 Y-17.8570 F75.00
G01 X12.2230 Y-17.8730 F75.00
G01 X12.2156 Y-17.8857 F75.00
G01 X12.2072 Y-17.9035 F75.00
G01 X12.2006 Y-17.9219 F75.00
G01 X12.1958 Y-17.9410 F75.00
G01 X12.1935 Y-17.9555 F75.00
G01 X12.1921 Y-17.9751 F75.00
G01 X12.1922 Y-20.1298 F75.00
G01 X12.1942 Y-20.1493 F75.00
G01 X12.1980 Y-20.1686 F75.00
G01 X12.2037 Y-20.1874 F75.00
G01 X12.2112 Y-20.2055 F75.00
G01 X12.2205 Y-20.2228 F75.00
G01 X12.2285 Y-20.2352 F75.00
G01 X12.2406 Y-20.2506 F75.00
G01 X12.2541 Y-20.2648 F75.00
G01 X12.2690 Y-20.2777 F75.00
G01 X12.2850 Y-20.2890 F75.00
G01 X12.3021 Y-20.2986 F75.00
G01 X12.3200 Y-20.3066 F75.00
G01 X12.3387 Y-20.3128 F75.00
G01 X12.3578 Y-20.3171 F75.00
G01 X12.3773 Y-20.3195 F75.00
G01 X12.3920 Y-20.3200 F75.00
G00 Z2.0000
G00 X9.8520 Y-23.8700
G01 F45.00
G01 Z-0.0850
G01 F75.00
G01 X12.0018 Y-23.8698 F75.00
G01 X12.0165 Y-23.8685 F75.00
G01 X12.0310 Y-23.8662 F75.00
G01 X12.0453 Y-23.8628 F75.00
G01 X12.0594 Y-23.8583 F75.00
G01 X12.0730 Y-23.8528 F75.00
G01 X12.0863 Y-23.8464 F75.00
G01 X12.0990 Y-23.8390 F75.00
G01 X12.1111 Y-23.8306 F75.00
G01 X12.1226 Y-23.8214 F75.00
G01 X12.1334 Y-23.8114 F75.00
G01 X12.1434 Y-23.8006 F75.00
G01 X12.1526 Y-23.7891 F75.00
G01 X12.1610 Y-23.7770 F75.00
G01 X12.1684 Y-23.7643 F75.00
G01 X12.1748 Y-23.7510 F75.00
G01 X12.1803 Y-23.7374 F75.00
G01 X12.1860 Y-23.7186 F75.00
G01 X12.1891 Y-23.7042 F75.00
G01 X12.1915 Y-23.6847 F75.00
G01 X12.1920 Y-23.6700 F75.00
G01 X12.1920 Y-21.5300 F75.00
G01 X12.1915 Y-21.5153 F75.00
G01 X12.1898 Y-21.5007 F75.00
G01 X12.1871 Y-21.4862 F75.00
G01 X12.1848 Y-21.4767 F75.00
G01 X12.1819 Y-21.4673 F75.00
G01 X12.1768 Y-21.4535 F75.00
G01 X12.1706 Y-21.4401 F75.00
G01 X12.1635 Y-21.4272 F75.00
G01 X12.1583 Y-21.4189 F75.00
G01 X12.1497 Y-21.4070 F75.00
G01 X12.1402 Y-21.3957 F75.00
G01 X12.1299 Y-21.3852 F75.00
G01 X12.1226 Y-21.3786 F75.00
G01 X12.1111 Y-21.3694 F75.00
G01 X12.0990 Y-21.3610 F75.00
G01 X12.0863 Y-21.3536 F75.00
G01 X12.0730 Y-21.3472 F75.00
G01 X12.0594 Y-21.3417 F75.00
G01 X12.0453 Y-21.3372 F75.00
G01 X12.0358 Y-21.3349 F75.00
G01 X12.0165 Y-21.3315 F75.00
G01 X12.0018 Y-21.3302 F75.00
G01 X11.9920 Y-21.3300 F75.00
G01 X11.4972 Y-21.3300 F75.00
G01 X11.4972 Y-20.3200 F75.00
G01 X11.9920 Y-20.3200 F75.00
G01 X12.0018 Y-20.3198 F75.00
G01 X12.0165 Y-20.3185 F75.00
G01 X12.0262 Y-20.3171 F75.00
G01 X12.0406 Y-20.3140 F75.00
G01 X12.0547 Y-20.3099 F75.00
G01 X12.0685 Y-20.3048 F75.00
G01 X12.0819 Y-20.2986 F75.00
G01 X12.0948 Y-20.2915 F75.00
G01 X12.1072 Y-20.2835 F75.00
G01 X12.1189 Y-20.2746 F75.00
G01 X12.1299 Y-20.2648 F75.00
G01 X12.1402 Y-20.2543 F75.00
G01 X12.1497 Y-20.2430 F75.00
G01 X12.1583 Y-20.2311 F75.00
G01 X12.1660 Y-20.2186 F75.00
G01 X12.1728 Y-20.2055 F75.00
G01 X12.1786 Y-20.1920 F75.00
G01 X12.1834 Y-20.1781 F75.00
G01 X12.1871 Y-20.1638 F75.00
G01 X12.1898 Y-20.1493 F75.00
G01 X12.1915 Y-20.1347 F75.00
G01 X12.1920 Y-20.1200 F75.00
G01 X12.1918 Y-17.9702 F75.00
G01 X12.1905 Y-17.9555 F75.00
G01 X12.1882 Y-17.9410 F75.00
G01 X12.1848 Y-17.9267 F75.00
G01 X12.1803 Y-17.9126 F75.00
G01 X12.1748 Y-17.8990 F75.00
G01 X12.1684 Y-17.8857 F75.00
G01 X12.1610 Y-17.8730 F75.00
G01 X12.1526 Y-17.8609 F75.00
G01 X12.1434 Y-17.8494 F75.00
G01 X12.1334 Y-17.8386 F75.00
G01 X12.1226 Y-17.8286 F75.00
G01 X12.1111 Y-17.8194 F75.00
G01 X12.0990 Y-17.8110 F75.00
G01 X12.0863 Y-17.8036 F75.00
G01 X12.0730 Y-17.7972 F75.00
G01 X12.0594 Y-17.7917 F75.00
G01 X12.0453 Y-17.7872 F75.00
G01 X12.0262 Y-17.7829 F75.00
G01 X12.0116 Y-17.7810 F75.00
G01 X11.9920 Y-17.7800 F75.00
G01 X9.8422 Y-17.7802 F75.00
G01 X9.8275 Y-17.7815 F75.00
G01 X9.8130 Y-17.7838 F75.00
G01 X9.7987 Y-17.7872 F75.00
G01 X9.7846 Y-17.7917 F75.00
G01 X9.7710 Y-17.7972 F75.00
G01 X9.7577 Y-17.8036 F75.00
G01 X9.7450 Y-17.8110 F75.00
G01 X9.7329 Y-17.8194 F75.00
G01 X9.7214 Y-17.8286 F75.00
G01 X9.7106 Y-17.8386 F75.00
G01 X9.7006 Y-17.8494 F75.00
G01 X9.6914 Y-17.8609 F75.00
G01 X9.6830 Y-17.8730 F75.00
G01 X9.6756 Y-17.8857 F75.00
G01 X9.6692 Y-17.8990 F75.00
G01 X9.6637 Y-17.9126 F75.00
G01 X9.6580 Y-17.9314 F75.00
G01 X9.6549 Y-17.9458 F75.00
G01 X9.6525 Y-17.9653 F75.00
G01 X9.6520 Y-17.9800 F75.00
G01 X9.6520 Y-20.1200 F75.00
G01 X9.6525 Y-20.1347 F75.00
G01 X9.6542 Y-20.1493 F75.00
G01 X9.6569 Y-20.1638 F75.00
G01 X9.6592 Y-20.1733 F75.00
G01 X9.6621 Y-20.1827 F75.00
G01 X9.6672 Y-20.1965 F75.00
G01 X9.6734 Y-20.2099 F75.00
G01 X9.6805 Y-20.2228 F75.00
G01 X9.6857 Y-20.2311 F75.00
G01 X9.6943 Y-20.2430 F75.00
G01 X9.7038 Y-20.2543 F75.00
G01 X9.7141 Y-20.2648 F75.00
G01 X9.7214 Y-20.2714 F75.00
G01 X9.7329 Y-20.2806 F75.00
G01 X9.7450 Y-20.2890 F75.00
G01 X9.7577 Y-20.2964 F75.00
G01 X9.7710 Y-20.3028 F75.00
G01 X9.7846 Y-20.3083 F75.00
G01 X9.7987 Y-20.3128 F75.00
G01 X9.8082 Y-20.3151 F75.00
G01 X9.8275 Y-20.3185 F75.00
G01 X9.8422 Y-20.3198 F75.00
G01 X9.8520 Y-20.3200 F75.00
G01 X10.3468 Y-20.3200 F75.00
G01 X10.3468 Y-21.3300 F75.00
G01 X9.8520 Y-21.3300 F75.00
G01 X9.8422 Y-21.3302 F75.00
G01 X9.8275 Y-21.3315 F75.00
G01 X9.8130 Y-21.3338 F75.00
G01 X9.8034 Y-21.3360 F75.00
G01 X9.7893 Y-21.3401 F75.00
G01 X9.7755 Y-21.3452 F75.00
G01 X9.7621 Y-21.3514 F75.00
G01 X9.7492 Y-21.3585 F75.00
G01 X9.7368 Y-21.3665 F75.00
G01 X9.7251 Y-21.3754 F75.00
G01 X9.7141 Y-21.3852 F75.00
G01 X9.7038 Y-21.3957 F75.00
G01 X9.6943 Y-21.4070 F75.00
G01 X9.6857 Y-21.4189 F75.00
G01 X9.6780 Y-21.4314 F75.00
G01 X9.6712 Y-21.4445 F75.00
G01 X9.6654 Y-21.4580 F75.00
G01 X9.6606 Y-21.4719 F75.00
G01 X9.6569 Y-21.4862 F75.00
G01 X9.6542 Y-21.5007 F75.00
G01 X9.6525 Y-21.5153 F75.00
G01 X9.6520 Y-21.5300 F75.00
G01 X9.6520 Y-23.6700 F75.00
G01 X9.6525 Y-23.6847 F75.00
G01 X9.6542 Y-23.6993 F75.00
G01 X9.6580 Y-23.7186 F75.00
G01 X9.6637 Y-23.7374 F75.00
G01 X9.6712 Y-23.7555 F75.00
G01 X9.6805 Y-23.7728 F75.00
G01 X9.6914 Y-23.7891 F75.00
G01 X9.7038 Y-23.8043 F75.00
G01 X9.7177 Y-23.8182 F75.00
G01 X9.7329 Y-23.8306 F75.00
G01 X9.7450 Y-23.8390 F75.00
G01 X9.7621 Y-23.8486 F75.00
G01 X9.7800 Y-23.8566 F75.00
G01 X9.7987 Y-23.8628 F75.00
G01 X9.8178 Y-23.8671 F75.00
G01 X9.8373 Y-23.8695 F75.00
G01 X9.8520 Y-23.8700 F75.00
G00 Z2.0000
G00 X7.3120 Y-20.3200
G01 F45.00
G01 Z-0.0850
G01 F75.00
G01 X7.8068 Y-20.3200 F75.00
G01 X7.8068 Y-26.1620 F75.00
G01 X7.8089 Y-26.2086 F75.00
G01 X7.8108 Y-26.2281 F75.00
G01 X7.8179 Y-26.2742 F75.00
G01 X7.8290 Y-26.3195 F75.00
G01 X7.8347 Y-26.3383 F75.00
G01 X7.8506 Y-26.3821 F75.00
G01 X7.8703 Y-26.4244 F75.00
G01 X7.8771 Y-26.4374 F75.00
G01 X7.9037 Y-26.4816 F75.00
G01 X7.9313 Y-26.5192 F75.00
G01 X7.9438 Y-26.5343 F75.00
G01 X7.9753 Y-26.5687 F75.00
G01 X9.4933 Y-28.0867 F75.00
G01 X9.5351 Y-28.1246 F75.00
G01 X9.5764 Y-28.1555 F75.00
G01 X9.5887 Y-28.1635 F75.00
G01 X9.6246 Y-28.1849 F75.00
G01 X9.6332 Y-28.1895 F75.00
G01 X9.6520 Y-28.1985 F75.00
G01 X9.6520 Y-28.7500 F75.00
G01 X9.6522 Y-28.7598 F75.00
G01 X9.6535 Y-28.7745 F75.00
G01 X9.6558 Y-28.7890 F75.00
G01 X9.6580 Y-28.7986 F75.00
G01 X9.6606 Y-28.8081 F75.00
G01 X9.6654 Y-28.8220 F75.00
G01 X9.6734 Y-28.8399 F75.00
G01 X9.6780 Y-28.8486 F75.00
G01 X9.6857 Y-28.8611 F75.00
G01 X9.6974 Y-28.8769 F75.00
G01 X9.7072 Y-28.8879 F75.00
G01 X9.7141 Y-28.8948 F75.00
G01 X9.7290 Y-28.9077 F75.00
G01 X9.7409 Y-28.9163 F75.00
G01 X9.7492 Y-28.9215 F75.00
G01 X9.7621 Y-28.9286 F75.00
G01 X9.7755 Y-28.9348 F75.00
G01 X9.7893 Y-28.9399 F75.00
G01 X9.7987 Y-28.9428 F75.00
G01 X9.8130 Y-28.9462 F75.00
G01 X9.8227 Y-28.9478 F75.00
G01 X9.8373 Y-28.9495 F75.00
G01 X9.8520 Y-28.9500 F75.00
G01 X11.9920 Y-28.9500 F75.00
G01 X12.0067 Y-28.9495 F75.00
G01 X12.0165 Y-28.9485 F75.00
G01 X12.0262 Y-28.9471 F75.00
G01 X12.0406 Y-28.9440 F75.00
G01 X12.0547 Y-28.9399 F75.00
G01 X12.0685 Y-28.9348 F75.00
G01 X12.0819 Y-28.9286 F75.00
G01 X12.0906 Y-28.9240 F75.00
G01 X12.1031 Y-28.9163 F75.00
G01 X12.1150 Y-28.9077 F75.00
G01 X12.1263 Y-28.8982 F75.00
G01 X12.1334 Y-28.8914 F75.00
G01 X12.1434 Y-28.8806 F75.00
G01 X12.1497 Y-28.8730 F75.00
G01 X12.1555 Y-28.8652 F75.00
G01 X12.1635 Y-28.8528 F75.00
G01 X12.1706 Y-28.8399 F75.00
G01 X12.1768 Y-28.8265 F75.00
G01 X12.1803 Y-28.8174 F75.00
G01 X12.1848 Y-28.8033 F75.00
G01 X12.1871 Y-28.7938 F75.00
G01 X12.1898 Y-28.7793 F75.00
G01 X12.1915 Y-28.7647 F75.00
G01 X12.1919 Y-28.7549 F75.00
G01 X12.1919 Y-26.6051 F75.00
G01 X12.1905 Y-26.5855 F75.00
G01 X12.1871 Y-26.5662 F75.00
G01 X12.1819 Y-26.5473 F75.00
G01 X12.1748 Y-26.5290 F75.00
G01 X12.1660 Y-26.5114 F75.00
G01 X12.1555 Y-26.4948 F75.00
G01 X12.1434 Y-26.4794 F75.00
G01 X12.1299 Y-26.4652 F75.00
G01 X12.1150 Y-26.4523 F75.00
G01 X12.1031 Y-26.4437 F75.00
G01 X12.0863 Y-26.4336 F75.00
G01 X12.0685 Y-26.4252 F75.00
G01 X12.0547 Y-26.4201 F75.00
G01 X12.0358 Y-26.4149 F75.00
G01 X12.0165 Y-26.4115 F75.00
G01 X11.9969 Y-26.4101 F75.00
G01 X9.8520 Y-26.4100 F75.00
G01 X9.8373 Y-26.4105 F75.00
G01 X9.8227 Y-26.4122 F75.00
G01 X9.8034 Y-26.4160 F75.00
G01 X9.7846 Y-26.4217 F75.00
G01 X9.7665 Y-26.4292 F75.00
G01 X9.7492 Y-26.4385 F75.00
G01 X9.7329 Y-26.4494 F75.00
G01 X9.7177 Y-26.4618 F75.00
G01 X9.7038 Y-26.4757 F75.00
G01 X9.6914 Y-26.4909 F75.00
G01 X9.6805 Y-26.5072 F75.00
G01 X9.6712 Y-26.5245 F75.00
G01 X9.6637 Y-26.5426 F75.00
G01 X9.6580 Y-26.5614 F75.00
G01 X9.6542 Y-26.5807 F75.00
G01 X9.6522 Y-26.6002 F75.00
G01 X9.6520 Y-26.6186 F75.00
G01 X8.9572 Y-25.9237 F75.00
G01 X8.9572 Y-20.3200 F75.00
G01 X9.4520 Y-20.3200 F75.00
G01 X9.4618 Y-20.3198 F75.00
G01 X9.4765 Y-20.3185 F75.00
G01 X9.4958 Y-20.3151 F75.00
G01 X9.5101 Y-20.3114 F75.00
G01 X9.5240 Y-20.3066 F75.00
G01 X9.5330 Y-20.3028 F75.00
G01 X9.5463 Y-20.2964 F75.00
G01 X9.5590 Y-20.2890 F75.00
G01 X9.5711 Y-20.2806 F75.00
G01 X9.5826 Y-20.2714 F75.00
G01 X9.5899 Y-20.2648 F75.00
G01 X9.5968 Y-20.2579 F75.00
G01 X9.6066 Y-20.2469 F75.00
G01 X9.6155 Y-20.2352 F75.00
G01 X9.6235 Y-20.2228 F75.00
G01 X9.6306 Y-20.2099 F75.00
G01 X9.6368 Y-20.1965 F75.00
G01 X9.6419 Y-20.1827 F75.00
G01 X9.6460 Y-20.1686 F75.00
G01 X9.6482 Y-20.1590 F75.00
G01 X9.6505 Y-20.1445 F75.00
G01 X9.6518 Y-20.1298 F75.00
G01 X9.6520 Y-20.1200 F75.00
G01 X9.6519 Y-17.9751 F75.00
G01 X9.6505 Y-17.9555 F75.00
G01 X9.6471 Y-17.9362 F75.00
G01 X9.6419 Y-17.9173 F75.00
G01 X9.6348 Y-17.8990 F75.00
G01 X9.6260 Y-17.8814 F75.00
G01 X9.6210 Y-17.8730 F75.00
G01 X9.6126 Y-17.8609 F75.00
G01 X9.6002 Y-17.8457 F75.00
G01 X9.5863 Y-17.8318 F75.00
G01 X9.5711 Y-17.8194 F75.00
G01 X9.5548 Y-17.8085 F75.00
G01 X9.5419 Y-17.8014 F75.00
G01 X9.5240 Y-17.7934 F75.00
G01 X9.5053 Y-17.7872 F75.00
G01 X9.4910 Y-17.7838 F75.00
G01 X9.4716 Y-17.7810 F75.00
G01 X9.4569 Y-17.7801 F75.00
G01 X7.3120 Y-17.7800 F75.00
G01 X7.2924 Y-17.7810 F75.00
G01 X7.2730 Y-17.7838 F75.00
G01 X7.2539 Y-17.7886 F75.00
G01 X7.2446 Y-17.7917 F75.00
G01 X7.2310 Y-17.7972 F75.00
G01 X7.2134 Y-17.8060 F75.00
G01 X7.1968 Y-17.8165 F75.00
G01 X7.1814 Y-17.8286 F75.00
G01 X7.1741 Y-17.8352 F75.00
G01 X7.1638 Y-17.8457 F75.00
G01 X7.1514 Y-17.8609 F75.00
G01 X7.1405 Y-17.8772 F75.00
G01 X7.1334 Y-17.8901 F75.00
G01 X7.1254 Y-17.9080 F75.00
G01 X7.1206 Y-17.9219 F75.00
G01 X7.1158 Y-17.9410 F75.00
G01 X7.1130 Y-17.9604 F75.00
G01 X7.1121 Y-17.9751 F75.00
G01 X7.1122 Y-20.1298 F75.00
G01 X7.1142 Y-20.1493 F75.00
G01 X7.1180 Y-20.1686 F75.00
G01 X7.1221 Y-20.1827 F75.00
G01 X7.1292 Y-20.2010 F75.00
G01 X7.1380 Y-20.2186 F75.00
G01 X7.1485 Y-20.2352 F75.00
G01 X7.1606 Y-20.2506 F75.00
G01 X7.1741 Y-20.2648 F75.00
G01 X7.1890 Y-20.2777 F75.00
G01 X7.2050 Y-20.2890 F75.00
G01 X7.2221 Y-20.2986 F75.00
G01 X7.2400 Y-20.3066 F75.00
G01 X7.2587 Y-20.3128 F75.00
G01 X7.2730 Y-20.3162 F75.00
G01 X7.2924 Y-20.3190 F75.00
G01 X7.3120 Y-20.3200 F75.00
G00 Z2.0000
G00 X4.7720 Y-20.3200
G01 F45.00
G01 Z-0.0850
G01 F75.00
G01 X5.2668 Y-20.3200 F75.00
G01 X5.2668 Y-28.8800 F75.00
G01 X5.2696 Y-28.9364 F75.00
G01 X5.2762 Y-28.9825 F75.00
G01 X5.2800 Y-29.0018 F75.00
G01 X5.2916 Y-29.0470 F75.00
G01 X5.3071 Y-29.0910 F75.00
G01 X5.3146 Y-29.1091 F75.00
G01 X5.3347 Y-29.1511 F75.00
G01 X5.3637 Y-29.1996 F75.00
G01 X5.3913 Y-29.2372 F75.00
G01 X5.4038 Y-29.2523 F75.00
G01 X5.4353 Y-29.2867 F75.00
G01 X9.3188 Y-33.1701 F75.00
G01 X9.3571 Y-33.2046 F75.00
G01 X9.3984 Y-33.2355 F75.00
G01 X9.4107 Y-33.2435 F75.00
G01 X9.4423 Y-33.2624 F75.00
G01 X9.4596 Y-33.2717 F75.00
G01 X9.5019 Y-33.2914 F75.00
G01 X9.5550 Y-33.3104 F75.00
G01 X9.6098 Y-33.3241 F75.00
G01 X9.6520 Y-33.3306 F75.00
G01 X9.6520 Y-33.8300 F75.00
G01 X9.6522 Y-33.8398 F75.00
G01 X9.6535 Y-33.8545 F75.00
G01 X9.6569 Y-33.8738 F75.00
G01 X9.6592 Y-33.8833 F75.00
G01 X9.6637 Y-33.8974 F75.00
G01 X9.6712 Y-33.9155 F75.00
G01 X9.6805 Y-33.9328 F75.00
G01 X9.6857 Y-33.9411 F75.00
G01 X9.6943 Y-33.9530 F75.00
G01 X9.7072 Y-33.9679 F75.00
G01 X9.7214 Y-33.9814 F75.00
G01 X9.7368 Y-33.9935 F75.00
G01 X9.7534 Y-34.0040 F75.00
G01 X9.7665 Y-34.0108 F75.00
G01 X9.7800 Y-34.0166 F75.00
G01 X9.7939 Y-34.0214 F75.00
G01 X9.8082 Y-34.0251 F75.00
G01 X9.8227 Y-34.0278 F75.00
G01 X9.8373 Y-34.0295 F75.00
G01 X9.8520 Y-34.0300 F75.00
G01 X11.9920 Y-34.0300 F75.00
G01 X12.0018 Y-34.0298 F75.00
G01 X12.0165 Y-34.0285 F75.00
G01 X12.0310 Y-34.0262 F75.00
G01 X12.0406 Y-34.0240 F75.00
G01 X12.0547 Y-34.0199 F75.00
G01 X12.0640 Y-34.0166 F75.00
G01 X12.0775 Y-34.0108 F75.00
G01 X12.0863 Y-34.0064 F75.00
G01 X12.0990 Y-33.9990 F75.00
G01 X12.1072 Y-33.9935 F75.00
G01 X12.1189 Y-33.9846 F75.00
G01 X12.1263 Y-33.9782 F75.00
G01 X12.1368 Y-33.9679 F75.00
G01 X12.1466 Y-33.9569 F75.00
G01 X12.1526 Y-33.9491 F75.00
G01 X12.1610 Y-33.9370 F75.00
G01 X12.1684 Y-33.9243 F75.00
G01 X12.1748 Y-33.9110 F75.00
G01 X12.1786 Y-33.9020 F75.00
G01 X12.1834 Y-33.8881 F75.00
G01 X12.1871 Y-33.8738 F75.00
G01 X12.1898 Y-33.8593 F75.00
G01 X12.1915 Y-33.8447 F75.00
G01 X12.1919 Y-33.8349 F75.00
G01 X12.1919 Y-31.6851 F75.00
G01 X12.1905 Y-31.6655 F75.00
G01 X12.1871 Y-31.6462 F75.00
G01 X12.1819 Y-31.6273 F75.00
G01 X12.1748 Y-31.6090 F75.00
G01 X12.1660 Y-31.5914 F75.00
G01 X12.1555 Y-31.5748 F75.00
G01 X12.1434 Y-31.5594 F75.00
G01 X12.1299 Y-31.5452 F75.00
G01 X12.1150 Y-31.5323 F75.00
G01 X12.1031 Y-31.5237 F75.00
G01 X12.0863 Y-31.5136 F75.00
G01 X12.0685 Y-31.5052 F75.00
G01 X12.0547 Y-31.5001 F75.00
G01 X12.0358 Y-31.4949 F75.00
G01 X12.0165 Y-31.4915 F75.00
G01 X11.9969 Y-31.4901 F75.00
G01 X9.8520 Y-31.4900 F75.00
G01 X9.8422 Y-31.4902 F75.00
G01 X9.8275 Y-31.4915 F75.00
G01 X9.8178 Y-31.4929 F75.00
G01 X9.8034 Y-31.4960 F75.00
G01 X9.7893 Y-31.5001 F75.00
G01 X9.7755 Y-31.5052 F75.00
G01 X9.7621 Y-31.5114 F75.00
G01 X9.7534 Y-31.5160 F75.00
G01 X9.7409 Y-31.5237 F75.00
G01 X9.7329 Y-31.5294 F75.00
G01 X9.7214 Y-31.5386 F75.00
G01 X9.7141 Y-31.5452 F75.00
G01 X9.7072 Y-31.5521 F75.00
G01 X9.6974 Y-31.5631 F75.00
G01 X9.6885 Y-31.5748 F75.00
G01 X9.6805 Y-31.5872 F75.00
G01 X9.6756 Y-31.5957 F75.00
G01 X9.6692 Y-31.6090 F75.00
G01 X9.6637 Y-31.6226 F75.00
G01 X9.6580 Y-31.6414 F75.00
G01 X9.6542 Y-31.6607 F75.00
G01 X9.6525 Y-31.6753 F75.00
G01 X9.6520 Y-31.6900 F75.00
G01 X9.6520 Y-31.8766 F75.00
G01 X6.4172 Y-28.6417 F75.00
G01 X6.4172 Y-20.3200 F75.00
G01 X6.9120 Y-20.3200 F75.00
G01 X6.9218 Y-20.3198 F75.00
G01 X6.9365 Y-20.3185 F75.00
G01 X6.9558 Y-20.3151 F75.00
G01 X6.9701 Y-20.3114 F75.00
G01 X6.9840 Y-20.3066 F75.00
G01 X6.9975 Y-20.3008 F75.00
G01 X7.0106 Y-20.2940 F75.00
G01 X7.0190 Y-20.2890 F75.00
G01 X7.0311 Y-20.2806 F75.00
G01 X7.0426 Y-20.2714 F75.00
G01 X7.0534 Y-20.2614 F75.00
G01 X7.0634 Y-20.2506 F75.00
G01 X7.0697 Y-20.2430 F75.00
G01 X7.0783 Y-20.2311 F75.00
G01 X7.0860 Y-20.2186 F75.00
G01 X7.0906 Y-20.2099 F75.00
G01 X7.0968 Y-20.1965 F75.00
G01 X7.1019 Y-20.1827 F75.00
G01 X7.1060 Y-20.1686 F75.00
G01 X7.1091 Y-20.1542 F75.00
G01 X7.1105 Y-20.1445 F75.00
G01 X7.1115 Y-20.1347 F75.00
G01 X7.1120 Y-20.1200 F75.00
G01 X7.1119 Y-17.9751 F75.00
G01 X7.1110 Y-17.9604 F75.00
G01 X7.1098 Y-17.9507 F75.00
G01 X7.1060 Y-17.9314 F75.00
G01 X7.1003 Y-17.9126 F75.00
G01 X7.0928 Y-17.8945 F75.00
G01 X7.0835 Y-17.8772 F75.00
G01 X7.0726 Y-17.8609 F75.00
G01 X7.0602 Y-17.8457 F75.00
G01 X7.0463 Y-17.8318 F75.00
G01 X7.0311 Y-17.8194 F75.00
G01 X7.0148 Y-17.8085 F75.00
G01 X7.0019 Y-17.8014 F75.00
G01 X6.9840 Y-17.7934 F75.00
G01 X6.9653 Y-17.7872 F75.00
G01 X6.9510 Y-17.7838 F75.00
G01 X6.9316 Y-17.7810 F75.00
G01 X6.9169 Y-17.7801 F75.00
G01 X4.7720 Y-17.7800 F75.00
G01 X4.7524 Y-17.7810 F75.00
G01 X4.7330 Y-17.7838 F75.00
G01 X4.7139 Y-17.7886 F75.00
G01 X4.7046 Y-17.7917 F75.00
G01 X4.6910 Y-17.7972 F75.00
G01 X4.6734 Y-17.8060 F75.00
G01 X4.6568 Y-17.8165 F75.00
G01 X4.6414 Y-17.8286 F75.00
G01 X4.6341 Y-17.8352 F75.00
G01 X4.6238 Y-17.8457 F75.00
G01 X4.6114 Y-17.8609 F75.00
G01 X4.6005 Y-17.8772 F75.00
G01 X4.5934 Y-17.8901 F75.00
G01 X4.5854 Y-17.9080 F75.00
G01 X4.5806 Y-17.9219 F75.00
G01 X4.5758 Y-17.9410 F75.00
G01 X4.5730 Y-17.9604 F75.00
G01 X4.5721 Y-17.9751 F75.00
G01 X4.5722 Y-20.1298 F75.00
G01 X4.5742 Y-20.1493 F75.00
G01 X4.5769 Y-20.1638 F75.00
G01 X4.5821 Y-20.1827 F75.00
G01 X4.5892 Y-20.2010 F75.00
G01 X4.5980 Y-20.2186 F75.00
G01 X4.6085 Y-20.2352 F75.00
G01 X4.6206 Y-20.2506 F75.00
G01 X4.6341 Y-20.2648 F75.00
G01 X4.6490 Y-20.2777 F75.00
G01 X4.6650 Y-20.2890 F75.00
G01 X4.6821 Y-20.2986 F75.00
G01 X4.7000 Y-20.3066 F75.00
G01 X4.7187 Y-20.3128 F75.00
G01 X4.7330 Y-20.3162 F75.00
G01 X4.7524 Y-20.3190 F75.00
G01 X4.7720 Y-20.3200 F75.00
G00 Z2.0000
G00 X18.4652 Y-17.9760
G01 F45.00
G01 Z-0.0850
G01 F75.00
G01 X18.5086 Y-18.0662 F75.00
G01 X18.5141 Y-18.0795 F75.00
G01 X18.5172 Y-18.0886 F75.00
G01 X18.5221 Y-18.1072 F75.00
G01 X18.5245 Y-18.1214 F75.00
G01 X18.5302 Y-18.1716 F75.00
G01 X18.5314 Y-18.1895 F75.00
G01 X18.5315 Y-20.1366 F75.00
G01 X18.5393 Y-20.1859 F75.00
G01 X18.5696 Y-20.2453 F75.00
G01 X18.6167 Y-20.2924 F75.00
G01 X18.6761 Y-20.3227 F75.00
G01 X18.7254 Y-20.3305 F75.00
G01 X18.8275 Y-20.3306 F75.00
G01 X18.8474 Y-20.3321 F75.00
G01 X18.8621 Y-20.3345 F75.00
G01 X18.9555 Y-20.3557 F75.00
G01 X18.9747 Y-20.3611 F75.00
G01 X18.9887 Y-20.3664 F75.00
G01 X19.0067 Y-20.3751 F75.00
G01 X19.0195 Y-20.3827 F75.00
G01 X19.0357 Y-20.3943 F75.00
G01 X19.1067 Y-20.4509 F75.00
G01 X19.1180 Y-20.4607 F75.00
G01 X19.1286 Y-20.4713 F75.00
G01 X19.1384 Y-20.4826 F75.00
G01 X19.1472 Y-20.4946 F75.00
G01 X19.1552 Y-20.5073 F75.00
G01 X19.1622 Y-20.5205 F75.00
G01 X19.2016 Y-20.6023 F75.00
G01 X19.2055 Y-20.6111 F75.00
G01 X19.2107 Y-20.6246 F75.00
G01 X19.2148 Y-20.6384 F75.00
G01 X19.2188 Y-20.6572 F75.00
G01 X19.2260 Y-20.7210 F75.00
G01 X19.2265 Y-20.7345 F75.00
G01 X19.2265 Y-28.7172 F75.00
G01 X19.2300 Y-28.7328 F75.00
G01 X19.2348 Y-28.7609 F75.00
G01 X19.2376 Y-28.7823 F75.00
G01 X19.2444 Y-28.8028 F75.00
G01 X19.2522 Y-28.8302 F75.00
G01 X19.2559 Y-28.8458 F75.00
G01 X19.2650 Y-28.8654 F75.00
G01 X19.2758 Y-28.8918 F75.00
G01 X19.2811 Y-28.9068 F75.00
G01 X19.2896 Y-28.9204 F75.00
G01 X19.3034 Y-28.9453 F75.00
G01 X19.3131 Y-28.9647 F75.00
G01 X19.3263 Y-28.9818 F75.00
G01 X19.3428 Y-29.0050 F75.00
G01 X19.3513 Y-29.0186 F75.00
G01 X23.4912 Y-33.1584 F75.00
G01 X23.4980 Y-33.1656 F75.00
G01 X23.5077 Y-33.1771 F75.00
G01 X23.5191 Y-33.1934 F75.00
G01 X23.5700 Y-33.2745 F75.00
G01 X23.5770 Y-33.2874 F75.00
G01 X23.5831 Y-33.3008 F75.00
G01 X23.5896 Y-33.3193 F75.00
G01 X23.5943 Y-33.3384 F75.00
G01 X23.6067 Y-33.4106 F75.00
G01 X23.6090 Y-33.4297 F75.00
G01 X23.6095 Y-33.4441 F75.00
G01 X23.6095 Y-33.8366 F75.00
G01 X23.6199 Y-33.9024 F75.00
G01 X23.6242 Y-33.9201 F75.00
G01 X23.6265 Y-33.9349 F75.00
G01 X23.6351 Y-34.0303 F75.00
G01 X23.6359 Y-34.0496 F75.00
G01 X23.6353 Y-34.0641 F75.00
G01 X23.6328 Y-34.0832 F75.00
G01 X23.6205 Y-34.1373 F75.00
G01 X23.6100 Y-34.2035 F75.00
G01 X23.6100 Y-34.5900 F75.00
G01 X23.6200 Y-34.5900 F75.00
G01 X23.6201 Y-34.2151 F75.00
G01 X23.6210 Y-34.2004 F75.00
G01 X23.6222 Y-34.1907 F75.00
G01 X23.6238 Y-34.1810 F75.00
G01 X23.6272 Y-34.1667 F75.00
G01 X23.6317 Y-34.1526 F75.00
G01 X23.6372 Y-34.1390 F75.00
G01 X23.6436 Y-34.1257 F75.00
G01 X23.6485 Y-34.1172 F75.00
G01 X23.6565 Y-34.1048 F75.00
G01 X23.6623 Y-34.0970 F75.00
G01 X23.6718 Y-34.0857 F75.00
G01 X23.6821 Y-34.0752 F75.00
G01 X23.6931 Y-34.0654 F75.00
G01 X23.7009 Y-34.0594 F75.00
G01 X23.7130 Y-34.0510 F75.00
G01 X23.7214 Y-34.0460 F75.00
G01 X23.7345 Y-34.0392 F75.00
G01 X23.7480 Y-34.0334 F75.00
G01 X23.7619 Y-34.0286 F75.00
G01 X23.7714 Y-34.0260 F75.00
G01 X23.7810 Y-34.0238 F75.00
G01 X23.7955 Y-34.0215 F75.00
G01 X23.8053 Y-34.0205 F75.00
G01 X23.8200 Y-34.0200 F75.00
G01 X25.9600 Y-34.0200 F75.00
G01 X25.9747 Y-34.0205 F75.00
G01 X25.9893 Y-34.0222 F75.00
G01 X26.0038 Y-34.0249 F75.00
G01 X26.0181 Y-34.0286 F75.00
G01 X26.0320 Y-34.0334 F75.00
G01 X26.0455 Y-34.0392 F75.00
G01 X26.0586 Y-34.0460 F75.00
G01 X26.0752 Y-34.0565 F75.00
G01 X26.0869 Y-34.0654 F75.00
G01 X26.0979 Y-34.0752 F75.00
G01 X26.1082 Y-34.0857 F75.00
G01 X26.1177 Y-34.0970 F75.00
G01 X26.1263 Y-34.1089 F75.00
G01 X26.1340 Y-34.1214 F75.00
G01 X26.1408 Y-34.1345 F75.00
G01 X26.1483 Y-34.1526 F75.00
G01 X26.1528 Y-34.1667 F75.00
G01 X26.1562 Y-34.1810 F75.00
G01 X26.1590 Y-34.2004 F75.00
G01 X26.1599 Y-34.2151 F75.00
G01 X26.1600 Y-34.5900 F75.00
G01 X26.1700 Y-34.5900 F75.00
G01 X26.1700 Y-34.2035 F75.00
G01 X26.1595 Y-34.1373 F75.00
G01 X26.1558 Y-34.1215 F75.00
G01 X26.1536 Y-34.1067 F75.00
G01 X26.1449 Y-34.0114 F75.00
G01 X26.1441 Y-33.9921 F75.00
G01 X26.1452 Y-33.9728 F75.00
G01 X26.1472 Y-33.9584 F75.00
G01 X26.1573 Y-33.9133 F75.00
G01 X26.1601 Y-33.9024 F75.00
G01 X26.1705 Y-33.8366 F75.00
G01 X26.1705 Y-31.6634 F75.00
G01 X26.1600 Y-31.5973 F75.00
G01 X26.1561 Y-31.5807 F75.00
G01 X26.1538 Y-31.5659 F75.00
G01 X26.1452 Y-31.4706 F75.00
G01 X26.1444 Y-31.4512 F75.00
G01 X26.1450 Y-31.4368 F75.00
G01 X26.1475 Y-31.4176 F75.00
G01 X26.1575 Y-31.3724 F75.00
G01 X26.1600 Y-31.3626 F75.00
G01 X26.1705 Y-31.2966 F75.00
G01 X26.1705 Y-30.9589 F75.00
G01 X26.1715 Y-30.9390 F75.00
G01 X26.1727 Y-30.9291 F75.00
G01 X26.1755 Y-30.9144 F75.00
G01 X26.1981 Y-30.8163 F75.00
G01 X26.2026 Y-30.8023 F75.00
G01 X26.2062 Y-30.7932 F75.00
G01 X26.2124 Y-30.7798 F75.00
G01 X26.2170 Y-30.7712 F75.00
G01 X26.2276 Y-30.7546 F75.00
G01 X26.2700 Y-30.6950 F75.00
G01 X26.2790 Y-30.6838 F75.00
G01 X26.2888 Y-30.6732 F75.00
G01 X31.0747 Y-25.8874 F75.00
G01 X31.0832 Y-25.8738 F75.00
G01 X31.0997 Y-25.8506 F75.00
G01 X31.1129 Y-25.8335 F75.00
G01 X31.1226 Y-25.8141 F75.00
G01 X31.1364 Y-25.7892 F75.00
G01 X31.1449 Y-25.7756 F75.00
G01 X31.1523 Y-25.7553 F75.00
G01 X31.1633 Y-25.7290 F75.00
G01 X31.1701 Y-25.7146 F75.00
G01 X31.1753 Y-25.6936 F75.00
G01 X31.1832 Y-25.6662 F75.00
G01 X31.1884 Y-25.6511 F75.00
G01 X31.1903 Y-25.6352 F75.00
G01 X31.1950 Y-25.6071 F75.00
G01 X31.1995 Y-25.5860 F75.00
G01 X31.1995 Y-15.6629 F75.00
G01 X31.1960 Y-15.6473 F75.00
G01 X31.1912 Y-15.6192 F75.00
G01 X31.1884 Y-15.5977 F75.00
G01 X31.1816 Y-15.5772 F75.00
G01 X31.1738 Y-15.5498 F75.00
G01 X31.1701 Y-15.5343 F75.00
G01 X31.1633 Y-15.5198 F75.00
G01 X31.1523 Y-15.4935 F75.00
G01 X31.1449 Y-15.4732 F75.00
G01 X31.1336 Y-15.4547 F75.00
G01 X31.1199 Y-15.4298 F75.00
G01 X31.1129 Y-15.4154 F75.00
G01 X31.0996 Y-15.3983 F75.00
G01 X31.0832 Y-15.3750 F75.00
G01 X31.0747 Y-15.3615 F75.00
G01 X28.5805 Y-12.8673 F75.00
G01 X28.5670 Y-12.8588 F75.00
G01 X28.5437 Y-12.8423 F75.00
G01 X28.5266 Y-12.8291 F75.00
G01 X28.5073 Y-12.8194 F75.00
G01 X28.4824 Y-12.8056 F75.00
G01 X28.4688 Y-12.7971 F75.00
G01 X28.4537 Y-12.7918 F75.00
G01 X28.4274 Y-12.7810 F75.00
G01 X28.4078 Y-12.7719 F75.00
G01 X28.3921 Y-12.7682 F75.00
G01 X28.3648 Y-12.7604 F75.00
G01 X28.3443 Y-12.7536 F75.00
G01 X28.3228 Y-12.7508 F75.00
G01 X28.2947 Y-12.7460 F75.00
G01 X28.2791 Y-12.7425 F75.00
G01 X23.1820 Y-12.7425 F75.00
G01 X23.1609 Y-12.7470 F75.00
G01 X23.1328 Y-12.7517 F75.00
G01 X23.1169 Y-12.7536 F75.00
G01 X23.1017 Y-12.7588 F75.00
G01 X23.0744 Y-12.7667 F75.00
G01 X23.0534 Y-12.7719 F75.00
G01 X23.0389 Y-12.7787 F75.00
G01 X23.0126 Y-12.7897 F75.00
G01 X22.9924 Y-12.7971 F75.00
G01 X22.9739 Y-12.8084 F75.00
G01 X22.9489 Y-12.8221 F75.00
G01 X22.9345 Y-12.8291 F75.00
G01 X22.9220 Y-12.8390 F75.00
G01 X22.8988 Y-12.8556 F75.00
G01 X22.8806 Y-12.8673 F75.00
G01 X20.6368 Y-15.1112 F75.00
G01 X20.6296 Y-15.1180 F75.00
G01 X20.6181 Y-15.1277 F75.00
G01 X20.6018 Y-15.1391 F75.00
G01 X20.5207 Y-15.1900 F75.00
G01 X20.5034 Y-15.1991 F75.00
G01 X20.4898 Y-15.2049 F75.00
G01 X20.4759 Y-15.2096 F75.00
G01 X20.4568 Y-15.2143 F75.00
G01 X20.3846 Y-15.2267 F75.00
G01 X20.3655 Y-15.2290 F75.00
G01 X20.3511 Y-15.2295 F75.00
G01 X19.9954 Y-15.2295 F75.00
G01 X19.9296 Y-15.2399 F75.00
G01 X19.9119 Y-15.2442 F75.00
G01 X19.8971 Y-15.2465 F75.00
G01 X19.8017 Y-15.2551 F75.00
G01 X19.7824 Y-15.2559 F75.00
G01 X19.7631 Y-15.2548 F75.00
G01 X19.7488 Y-15.2528 F75.00
G01 X19.6946 Y-15.2405 F75.00
G01 X19.6285 Y-15.2300 F75.00
G01 X19.2420 Y-15.2300 F75.00
G01 X19.2420 Y-15.2400 F75.00
G01 X19.6169 Y-15.2401 F75.00
G01 X19.6267 Y-15.2405 F75.00
G01 X19.6413 Y-15.2422 F75.00
G01 X19.6558 Y-15.2449 F75.00
G01 X19.6701 Y-15.2486 F75.00
G01 X19.6840 Y-15.2534 F75.00
G01 X19.6975 Y-15.2592 F75.00
G01 X19.7106 Y-15.2660 F75.00
G01 X19.7190 Y-15.2710 F75.00
G01 X19.7272 Y-15.2765 F75.00
G01 X19.7389 Y-15.2854 F75.00
G01 X19.7463 Y-15.2918 F75.00
G01 X19.7568 Y-15.3021 F75.00
G01 X19.7666 Y-15.3131 F75.00
G01 X19.7755 Y-15.3248 F75.00
G01 X19.7810 Y-15.3330 F75.00
G01 X19.7884 Y-15.3457 F75.00
G01 X19.7948 Y-15.3590 F75.00
G01 X19.8003 Y-15.3726 F75.00
G01 X19.8034 Y-15.3819 F75.00
G01 X19.8071 Y-15.3962 F75.00
G01 X19.8091 Y-15.4058 F75.00
G01 X19.8110 Y-15.4204 F75.00
G01 X19.8120 Y-15.4400 F75.00
G01 X19.8120 Y-17.5800 F75.00
G01 X19.8118 Y-17.5898 F75.00
G01 X19.8105 Y-17.6045 F75.00
G01 X19.8082 Y-17.6190 F75.00
G01 X19.8048 Y-17.6333 F75.00
G01 X19.8003 Y-17.6474 F75.00
G01 X19.7948 Y-17.6610 F75.00
G01 X19.7884 Y-17.6743 F75.00
G01 X19.7810 Y-17.6870 F75.00
G01 X19.7726 Y-17.6991 F75.00
G01 X19.7634 Y-17.7106 F75.00
G01 X19.7534 Y-17.7214 F75.00
G01 X19.7426 Y-17.7314 F75.00
G01 X19.7311 Y-17.7406 F75.00
G01 X19.7190 Y-17.7490 F75.00
G01 X19.7019 Y-17.7586 F75.00
G01 X19.6885 Y-17.7648 F75.00
G01 X19.6747 Y-17.7699 F75.00
G01 X19.6606 Y-17.7740 F75.00
G01 X19.6462 Y-17.7771 F75.00
G01 X19.6316 Y-17.7790 F75.00
G01 X19.6120 Y-17.7800 F75.00
G01 X18.4652 Y-17.7800 F75.00
G01 X18.4652 Y-17.9760 F75.00
G00 Z2.0000
G00 X20.0120 Y-17.7800
G01 F45.00
G01 Z-0.0850
G01 F75.00
G01 X22.1569 Y-17.7799 F75.00
G01 X22.1765 Y-17.7785 F75.00
G01 X22.1958 Y-17.7751 F75.00
G01 X22.2147 Y-17.7699 F75.00
G01 X22.2330 Y-17.7628 F75.00
G01 X22.2506 Y-17.7540 F75.00
G01 X22.2672 Y-17.7435 F75.00
G01 X22.2826 Y-17.7314 F75.00
G01 X22.2934 Y-17.7214 F75.00
G01 X22.3002 Y-17.7143 F75.00
G01 X22.3126 Y-17.6991 F75.00
G01 X22.3210 Y-17.6870 F75.00
G01 X22.3306 Y-17.6699 F75.00
G01 X22.3368 Y-17.6565 F75.00
G01 X22.3419 Y-17.6427 F75.00
G01 X22.3471 Y-17.6238 F75.00
G01 X22.3505 Y-17.6045 F75.00
G01 X22.3519 Y-17.5849 F75.00
G01 X22.3518 Y-15.4302 F75.00
G01 X22.3505 Y-15.4155 F75.00
G01 X22.3471 Y-15.3962 F75.00
G01 X22.3419 Y-15.3773 F75.00
G01 X22.3348 Y-15.3590 F75.00
G01 X22.3260 Y-15.3414 F75.00
G01 X22.3155 Y-15.3248 F75.00
G01 X22.3034 Y-15.3094 F75.00
G01 X22.2899 Y-15.2952 F75.00
G01 X22.2750 Y-15.2823 F75.00
G01 X22.2590 Y-15.2710 F75.00
G01 X22.2419 Y-15.2614 F75.00
G01 X22.2240 Y-15.2534 F75.00
G01 X22.2053 Y-15.2472 F75.00
G01 X22.1862 Y-15.2429 F75.00
G01 X22.1667 Y-15.2405 F75.00
G01 X22.1494 Y-15.2400 F75.00
G01 X23.4863 Y-13.9032 F75.00
G01 X27.9749 Y-13.9032 F75.00
G01 X30.0388 Y-15.9671 F75.00
G01 X30.0388 Y-25.2817 F75.00
G01 X26.1600 Y-29.1606 F75.00
G01 X26.1599 Y-29.1351 F75.00
G01 X26.1585 Y-29.1155 F75.00
G01 X26.1551 Y-29.0962 F75.00
G01 X26.1499 Y-29.0773 F75.00
G01 X26.1448 Y-29.0635 F75.00
G01 X26.1408 Y-29.0545 F75.00
G01 X26.1315 Y-29.0372 F75.00
G01 X26.1206 Y-29.0209 F75.00
G01 X26.1082 Y-29.0057 F75.00
G01 X26.0943 Y-28.9918 F75.00
G01 X26.0791 Y-28.9794 F75.00
G01 X26.0711 Y-28.9737 F75.00
G01 X26.0586 Y-28.9660 F75.00
G01 X26.0410 Y-28.9572 F75.00
G01 X26.0227 Y-28.9501 F75.00
G01 X26.0038 Y-28.9449 F75.00
G01 X25.9845 Y-28.9415 F75.00
G01 X25.9649 Y-28.9401 F75.00
G01 X23.8200 Y-28.9400 F75.00
G01 X23.8053 Y-28.9405 F75.00
G01 X23.7907 Y-28.9422 F75.00
G01 X23.7762 Y-28.9449 F75.00
G01 X23.7573 Y-28.9501 F75.00
G01 X23.7435 Y-28.9552 F75.00
G01 X23.7301 Y-28.9614 F75.00
G01 X23.7172 Y-28.9685 F75.00
G01 X23.7048 Y-28.9765 F75.00
G01 X23.6931 Y-28.9854 F75.00
G01 X23.6821 Y-28.9952 F75.00
G01 X23.6718 Y-29.0057 F75.00
G01 X23.6594 Y-29.0209 F75.00
G01 X23.6510 Y-29.0330 F75.00
G01 X23.6414 Y-29.0501 F75.00
G01 X23.6352 Y-29.0635 F75.00
G01 X23.6301 Y-29.0773 F75.00
G01 X23.6260 Y-29.0914 F75.00
G01 X23.6238 Y-29.1010 F75.00
G01 X23.6215 Y-29.1155 F75.00
G01 X23.6202 Y-29.1302 F75.00
G01 X23.6200 Y-29.1400 F75.00
G01 X23.6201 Y-31.2849 F75.00
G01 X23.6215 Y-31.3045 F75.00
G01 X23.6249 Y-31.3238 F75.00
G01 X23.6301 Y-31.3427 F75.00
G01 X23.6352 Y-31.3565 F75.00
G01 X23.6436 Y-31.3743 F75.00
G01 X23.6537 Y-31.3911 F75.00
G01 X23.6654 Y-31.4069 F75.00
G01 X23.6786 Y-31.4214 F75.00
G01 X23.6931 Y-31.4346 F75.00
G01 X23.7089 Y-31.4463 F75.00
G01 X23.7257 Y-31.4564 F75.00
G01 X23.7435 Y-31.4648 F75.00
G01 X23.7573 Y-31.4699 F75.00
G01 X23.7762 Y-31.4751 F75.00
G01 X23.7955 Y-31.4785 F75.00
G01 X23.8151 Y-31.4799 F75.00
G01 X25.9600 Y-31.4800 F75.00
G01 X25.9796 Y-31.4790 F75.00
G01 X25.9942 Y-31.4771 F75.00
G01 X26.0038 Y-31.4751 F75.00
G01 X26.0227 Y-31.4699 F75.00
G01 X26.0410 Y-31.4629 F75.00
G01 X26.0542 Y-31.4564 F75.00
G01 X26.0628 Y-31.4516 F75.00
G01 X26.0751 Y-31.4436 F75.00
G01 X26.0830 Y-31.4377 F75.00
G01 X26.0942 Y-31.4283 F75.00
G01 X26.1013 Y-31.4215 F75.00
G01 X26.1114 Y-31.4107 F75.00
G01 X26.1176 Y-31.4031 F75.00
G01 X26.1262 Y-31.3912 F75.00
G01 X26.1315 Y-31.3829 F75.00
G01 X26.1363 Y-31.3744 F75.00
G01 X26.1428 Y-31.3612 F75.00
G01 X26.1483 Y-31.3475 F75.00
G01 X26.1513 Y-31.3382 F75.00
G01 X26.1540 Y-31.3288 F75.00
G01 X26.1570 Y-31.3144 F75.00
G01 X26.1594 Y-31.2949 F75.00
G01 X26.1600 Y-31.2802 F75.00
G01 X26.1606 Y-30.7339 F75.00
G01 X26.1908 Y-30.7195 F75.00
G01 X26.1994 Y-30.7149 F75.00
G01 X26.2353 Y-30.6935 F75.00
G01 X26.2476 Y-30.6855 F75.00
G01 X26.2889 Y-30.6546 F75.00
G01 X26.3307 Y-30.6167 F75.00
G01 X31.0207 Y-25.9267 F75.00
G01 X31.0586 Y-25.8849 F75.00
G01 X31.0866 Y-25.8476 F75.00
G01 X31.0975 Y-25.8313 F75.00
G01 X31.1213 Y-25.7911 F75.00
G01 X31.1414 Y-25.7491 F75.00
G01 X31.1472 Y-25.7356 F75.00
G01 X31.1629 Y-25.6916 F75.00
G01 X31.1670 Y-25.6775 F75.00
G01 X31.1760 Y-25.6418 F75.00
G01 X31.1798 Y-25.6225 F75.00
G01 X31.1864 Y-25.5764 F75.00
G01 X31.1892 Y-25.5200 F75.00
G01 X31.1892 Y-15.7289 F75.00
G01 X31.1864 Y-15.6725 F75.00
G01 X31.1781 Y-15.6166 F75.00
G01 X31.1644 Y-15.5619 F75.00
G01 X31.1489 Y-15.5179 F75.00
G01 X31.1435 Y-15.5042 F75.00
G01 X31.1213 Y-15.4577 F75.00
G01 X31.0923 Y-15.4093 F75.00
G01 X31.0586 Y-15.3640 F75.00
G01 X31.0207 Y-15.3221 F75.00
G01 X28.6199 Y-12.9213 F75.00
G01 X28.5780 Y-12.8834 F75.00
G01 X28.5407 Y-12.8554 F75.00
G01 X28.5244 Y-12.8445 F75.00
G01 X28.4843 Y-12.8207 F75.00
G01 X28.4422 Y-12.8006 F75.00
G01 X28.4287 Y-12.7948 F75.00
G01 X28.3848 Y-12.7791 F75.00
G01 X28.3707 Y-12.7750 F75.00
G01 X28.3349 Y-12.7660 F75.00
G01 X28.3157 Y-12.7622 F75.00
G01 X28.2695 Y-12.7556 F75.00
G01 X28.2131 Y-12.7528 F75.00
G01 X23.2480 Y-12.7528 F75.00
G01 X23.1916 Y-12.7556 F75.00
G01 X23.1358 Y-12.7639 F75.00
G01 X23.0905 Y-12.7750 F75.00
G01 X23.0717 Y-12.7807 F75.00
G01 X23.0279 Y-12.7966 F75.00
G01 X22.9769 Y-12.8207 F75.00
G01 X22.9367 Y-12.8445 F75.00
G01 X22.9204 Y-12.8554 F75.00
G01 X22.8831 Y-12.8834 F75.00
G01 X22.8448 Y-12.9179 F75.00
G01 X20.6753 Y-15.0873 F75.00
G01 X20.6374 Y-15.1291 F75.00
G01 X20.6065 Y-15.1704 F75.00
G01 X20.5985 Y-15.1827 F75.00
G01 X20.5771 Y-15.2186 F75.00
G01 X20.5725 Y-15.2272 F75.00
G01 X20.5664 Y-15.2400 F75.00
G01 X20.0120 Y-15.2400 F75.00
G01 X20.0022 Y-15.2402 F75.00
G01 X19.9875 Y-15.2415 F75.00
G01 X19.9682 Y-15.2449 F75.00
G01 X19.9539 Y-15.2486 F75.00
G01 X19.9446 Y-15.2517 F75.00
G01 X19.9310 Y-15.2572 F75.00
G01 X19.9221 Y-15.2614 F75.00
G01 X19.9050 Y-15.2710 F75.00
G01 X19.8968 Y-15.2765 F75.00
G01 X19.8851 Y-15.2854 F75.00
G01 X19.8706 Y-15.2986 F75.00
G01 X19.8638 Y-15.3057 F75.00
G01 X19.8543 Y-15.3170 F75.00
G01 X19.8430 Y-15.3330 F75.00
G01 X19.8356 Y-15.3457 F75.00
G01 X19.8292 Y-15.3590 F75.00
G01 X19.8254 Y-15.3680 F75.00
G01 X19.8206 Y-15.3819 F75.00
G01 X19.8169 Y-15.3962 F75.00
G01 X19.8142 Y-15.4107 F75.00
G01 X19.8130 Y-15.4204 F75.00
G01 X19.8121 Y-15.4351 F75.00
G01 X19.8120 Y-17.5800 F75.00
G01 X19.8125 Y-17.5947 F75.00
G01 X19.8149 Y-17.6142 F75.00
G01 X19.8192 Y-17.6333 F75.00
G01 X19.8237 Y-17.6474 F75.00
G01 X19.8312 Y-17.6655 F75.00
G01 X19.8405 Y-17.6828 F75.00
G01 X19.8514 Y-17.6991 F75.00
G01 X19.8638 Y-17.7143 F75.00
G01 X19.8777 Y-17.7282 F75.00
G01 X19.8929 Y-17.7406 F75.00
G01 X19.9050 Y-17.7490 F75.00
G01 X19.9221 Y-17.7586 F75.00
G01 X19.9400 Y-17.7666 F75.00
G01 X19.9587 Y-17.7728 F75.00
G01 X19.9778 Y-17.7771 F75.00
G01 X19.9973 Y-17.7795 F75.00
G01 X20.0120 Y-17.7800 F75.00
G00 Z2.0000
G00 X22.5520 Y-17.7800
G01 F45.00
G01 Z-0.0850
G01 F75.00
G01 X24.6969 Y-17.7799 F75.00
G01 X24.7165 Y-17.7785 F75.00
G01 X24.7262 Y-17.7771 F75.00
G01 X24.7406 Y-17.7740 F75.00
G01 X24.7547 Y-17.7699 F75.00
G01 X24.7640 Y-17.7666 F75.00
G01 X24.7819 Y-17.7586 F75.00
G01 X24.7906 Y-17.7540 F75.00
G01 X24.8031 Y-17.7463 F75.00
G01 X24.8189 Y-17.7346 F75.00
G01 X24.8334 Y-17.7214 F75.00
G01 X24.8402 Y-17.7143 F75.00
G01 X24.8497 Y-17.7030 F75.00
G01 X24.8583 Y-17.6911 F75.00
G01 X24.8684 Y-17.6743 F75.00
G01 X24.8748 Y-17.6610 F75.00
G01 X24.8803 Y-17.6474 F75.00
G01 X24.8848 Y-17.6333 F75.00
G01 X24.8882 Y-17.6190 F75.00
G01 X24.8910 Y-17.5996 F75.00
G01 X24.8919 Y-17.5849 F75.00
G01 X24.8920 Y-15.4400 F75.00
G01 X24.8915 Y-15.4253 F75.00
G01 X24.8898 Y-15.4107 F75.00
G01 X24.8871 Y-15.3962 F75.00
G01 X24.8848 Y-15.3867 F75.00
G01 X24.8819 Y-15.3773 F75.00
G01 X24.8768 Y-15.3635 F75.00
G01 X24.8706 Y-15.3501 F75.00
G01 X24.8660 Y-15.3414 F75.00
G01 X24.8583 Y-15.3289 F75.00
G01 X24.8526 Y-15.3209 F75.00
G01 X24.8434 Y-15.3094 F75.00
G01 X24.8368 Y-15.3021 F75.00
G01 X24.8299 Y-15.2952 F75.00
G01 X24.8189 Y-15.2854 F75.00
G01 X24.8072 Y-15.2765 F75.00
G01 X24.7948 Y-15.2685 F75.00
G01 X24.7863 Y-15.2636 F75.00
G01 X24.7730 Y-15.2572 F75.00
G01 X24.7594 Y-15.2517 F75.00
G01 X24.7406 Y-15.2460 F75.00
G01 X24.7213 Y-15.2422 F75.00
G01 X24.7067 Y-15.2405 F75.00
G01 X24.6920 Y-15.2400 F75.00
G01 X24.5054 Y-15.2400 F75.00
G01 X24.6823 Y-15.0632 F75.00
G01 X27.4944 Y-15.0632 F75.00
G01 X28.8788 Y-16.4476 F75.00
G01 X28.8788 Y-21.3617 F75.00
G01 X26.1600 Y-24.0806 F75.00
G01 X26.1599 Y-24.0551 F75.00
G01 X26.1585 Y-24.0355 F75.00
G01 X26.1551 Y-24.0162 F75.00
G01 X26.1499 Y-23.9973 F75.00
G01 X26.1448 Y-23.9835 F75.00
G01 X26.1408 Y-23.9745 F75.00
G01 X26.1315 Y-23.9572 F75.00
G01 X26.1206 Y-23.9409 F75.00
G01 X26.1082 Y-23.9257 F75.00
G01 X26.0943 Y-23.9118 F75.00
G01 X26.0791 Y-23.8994 F75.00
G01 X26.0711 Y-23.8937 F75.00
G01 X26.0586 Y-23.8860 F75.00
G01 X26.0410 Y-23.8772 F75.00
G01 X26.0227 Y-23.8701 F75.00
G01 X26.0038 Y-23.8649 F75.00
G01 X25.9845 Y-23.8615 F75.00
G01 X25.9649 Y-23.8601 F75.00
G01 X23.8200 Y-23.8600 F75.00
G01 X23.8053 Y-23.8605 F75.00
G01 X23.7907 Y-23.8622 F75.00
G01 X23.7762 Y-23.8649 F75.00
G01 X23.7573 Y-23.8701 F75.00
G01 X23.7435 Y-23.8752 F75.00
G01 X23.7301 Y-23.8814 F75.00
G01 X23.7172 Y-23.8885 F75.00
G01 X23.7048 Y-23.8965 F75.00
G01 X23.6931 Y-23.9054 F75.00
G01 X23.6821 Y-23.9152 F75.00
G01 X23.6718 Y-23.9257 F75.00
G01 X23.6623 Y-23.9370 F75.00
G01 X23.6537 Y-23.9489 F75.00
G01 X23.6460 Y-23.9614 F75.00
G01 X23.6392 Y-23.9745 F75.00
G01 X23.6317 Y-23.9926 F75.00
G01 X23.6272 Y-24.0067 F75.00
G01 X23.6238 Y-24.0210 F75.00
G01 X23.6215 Y-24.0355 F75.00
G01 X23.6202 Y-24.0502 F75.00
G01 X23.6200 Y-24.0600 F75.00
G01 X23.6201 Y-26.2049 F75.00
G01 X23.6215 Y-26.2245 F75.00
G01 X23.6249 Y-26.2438 F75.00
G01 X23.6301 Y-26.2627 F75.00
G01 X23.6352 Y-26.2765 F75.00
G01 X23.6436 Y-26.2943 F75.00
G01 X23.6537 Y-26.3111 F75.00
G01 X23.6654 Y-26.3269 F75.00
G01 X23.6786 Y-26.3414 F75.00
G01 X23.6931 Y-26.3546 F75.00
G01 X23.7089 Y-26.3663 F75.00
G01 X23.7257 Y-26.3764 F75.00
G01 X23.7435 Y-26.3848 F75.00
G01 X23.7573 Y-26.3899 F75.00
G01 X23.7762 Y-26.3951 F75.00
G01 X23.7955 Y-26.3985 F75.00
G01 X23.8151 Y-26.3999 F75.00
G01 X25.9600 Y-26.4000 F75.00
G01 X25.9796 Y-26.3990 F75.00
G01 X25.9990 Y-26.3962 F75.00
G01 X26.0180 Y-26.3914 F75.00
G01 X26.0365 Y-26.3848 F75.00
G01 X26.0455 Y-26.3808 F75.00
G01 X26.0585 Y-26.3741 F75.00
G01 X26.0710 Y-26.3663 F75.00
G01 X26.0791 Y-26.3607 F75.00
G01 X26.0868 Y-26.3547 F75.00
G01 X26.0978 Y-26.3449 F75.00
G01 X26.1081 Y-26.3344 F75.00
G01 X26.1176 Y-26.3231 F75.00
G01 X26.1262 Y-26.3112 F75.00
G01 X26.1315 Y-26.3029 F75.00
G01 X26.1363 Y-26.2944 F75.00
G01 X26.1428 Y-26.2812 F75.00
G01 X26.1483 Y-26.2675 F75.00
G01 X26.1513 Y-26.2582 F75.00
G01 X26.1540 Y-26.2488 F75.00
G01 X26.1570 Y-26.2344 F75.00
G01 X26.1594 Y-26.2149 F75.00
G01 X26.1600 Y-26.2002 F75.00
G01 X26.1606 Y-25.6539 F75.00
G01 X26.1908 Y-25.6395 F75.00
G01 X26.1994 Y-25.6349 F75.00
G01 X26.2353 Y-25.6135 F75.00
G01 X26.2476 Y-25.6055 F75.00
G01 X26.2889 Y-25.5746 F75.00
G01 X26.3307 Y-25.5367 F75.00
G01 X29.8607 Y-22.0067 F75.00
G01 X29.8986 Y-21.9649 F75.00
G01 X29.9323 Y-21.9196 F75.00
G01 X29.9613 Y-21.8711 F75.00
G01 X29.9814 Y-21.8291 F75.00
G01 X29.9872 Y-21.8156 F75.00
G01 X30.0044 Y-21.7670 F75.00
G01 X30.0181 Y-21.7122 F75.00
G01 X30.0264 Y-21.6564 F75.00
G01 X30.0292 Y-21.6000 F75.00
G01 X30.0292 Y-16.2093 F75.00
G01 X30.0264 Y-16.1530 F75.00
G01 X30.0181 Y-16.0971 F75.00
G01 X30.0044 Y-16.0424 F75.00
G01 X29.9854 Y-15.9892 F75.00
G01 X29.9613 Y-15.9382 F75.00
G01 X29.9323 Y-15.8898 F75.00
G01 X29.8986 Y-15.8444 F75.00
G01 X29.8641 Y-15.8061 F75.00
G01 X28.1394 Y-14.0813 F75.00
G01 X28.0976 Y-14.0434 F75.00
G01 X28.0522 Y-14.0097 F75.00
G01 X28.0038 Y-13.9807 F75.00
G01 X27.9617 Y-13.9606 F75.00
G01 X27.9436 Y-13.9531 F75.00
G01 X27.8996 Y-13.9376 F75.00
G01 X27.8449 Y-13.9239 F75.00
G01 X27.7890 Y-13.9156 F75.00
G01 X27.7327 Y-13.9128 F75.00
G01 X24.4440 Y-13.9128 F75.00
G01 X24.3876 Y-13.9156 F75.00
G01 X24.3415 Y-13.9222 F75.00
G01 X24.3222 Y-13.9260 F75.00
G01 X24.2770 Y-13.9376 F75.00
G01 X24.2330 Y-13.9531 F75.00
G01 X24.2194 Y-13.9585 F75.00
G01 X24.1772 Y-13.9785 F75.00
G01 X24.1643 Y-13.9856 F75.00
G01 X24.1244 Y-14.0097 F75.00
G01 X24.0868 Y-14.0373 F75.00
G01 X24.0753 Y-14.0465 F75.00
G01 X24.0373 Y-14.0813 F75.00
G01 X23.2119 Y-14.9068 F75.00
G01 X23.1774 Y-14.9451 F75.00
G01 X23.1465 Y-14.9864 F75.00
G01 X23.1385 Y-14.9987 F75.00
G01 X23.1196 Y-15.0303 F75.00
G01 X23.1103 Y-15.0476 F75.00
G01 X23.0906 Y-15.0899 F75.00
G01 X23.0716 Y-15.1430 F75.00
G01 X23.0579 Y-15.1978 F75.00
G01 X23.0514 Y-15.2400 F75.00
G01 X22.5520 Y-15.2400 F75.00
G01 X22.5373 Y-15.2405 F75.00
G01 X22.5178 Y-15.2429 F75.00
G01 X22.5082 Y-15.2449 F75.00
G01 X22.4939 Y-15.2486 F75.00
G01 X22.4800 Y-15.2534 F75.00
G01 X22.4710 Y-15.2572 F75.00
G01 X22.4621 Y-15.2614 F75.00
G01 X22.4492 Y-15.2685 F75.00
G01 X22.4409 Y-15.2737 F75.00
G01 X22.4290 Y-15.2823 F75.00
G01 X22.4177 Y-15.2918 F75.00
G01 X22.4106 Y-15.2986 F75.00
G01 X22.4038 Y-15.3057 F75.00
G01 X22.3943 Y-15.3170 F75.00
G01 X22.3830 Y-15.3330 F75.00
G01 X22.3756 Y-15.3457 F75.00
G01 X22.3712 Y-15.3545 F75.00
G01 X22.3637 Y-15.3726 F75.00
G01 X22.3606 Y-15.3819 F75.00
G01 X22.3569 Y-15.3962 F75.00
G01 X22.3535 Y-15.4155 F75.00
G01 X22.3522 Y-15.4302 F75.00
G01 X22.3520 Y-15.4400 F75.00
G01 X22.3520 Y-17.5800 F75.00
G01 X22.3525 Y-17.5947 F75.00
G01 X22.3549 Y-17.6142 F75.00
G01 X22.3592 Y-17.6333 F75.00
G01 X22.3637 Y-17.6474 F75.00
G01 X22.3712 Y-17.6655 F75.00
G01 X22.3805 Y-17.6828 F75.00
G01 X22.3914 Y-17.6991 F75.00
G01 X22.4038 Y-17.7143 F75.00
G01 X22.4177 Y-17.7282 F75.00
G01 X22.4329 Y-17.7406 F75.00
G01 X22.4450 Y-17.7490 F75.00
G01 X22.4621 Y-17.7586 F75.00
G01 X22.4800 Y-17.7666 F75.00
G01 X22.4987 Y-17.7728 F75.00
G01 X22.5178 Y-17.7771 F75.00
G01 X22.5373 Y-17.7795 F75.00
G01 X22.5520 Y-17.7800 F75.00
G00 Z2.0000
G00 X25.0920 Y-17.7800
G01 F45.00
G01 Z-0.0850
G01 F75.00
G01 X27.2369 Y-17.7799 F75.00
G01 X27.2565 Y-17.7785 F75.00
G01 X27.2758 Y-17.7751 F75.00
G01 X27.2947 Y-17.7699 F75.00
G01 X27.3130 Y-17.7628 F75.00
G01 X27.3306 Y-17.7540 F75.00
G01 X27.3472 Y-17.7435 F75.00
G01 X27.3626 Y-17.7314 F75.00
G01 X27.3734 Y-17.7214 F75.00
G01 X27.3802 Y-17.7143 F75.00
G01 X27.3926 Y-17.6991 F75.00
G01 X27.4010 Y-17.6870 F75.00
G01 X27.4106 Y-17.6699 F75.00
G01 X27.4168 Y-17.6565 F75.00
G01 X27.4219 Y-17.6427 F75.00
G01 X27.4271 Y-17.6238 F75.00
G01 X27.4305 Y-17.6045 F75.00
G01 X27.4319 Y-17.5849 F75.00
G01 X27.4320 Y-15.4400 F75.00
G01 X27.4310 Y-15.4204 F75.00
G01 X27.4291 Y-15.4058 F75.00
G01 X27.4271 Y-15.3962 F75.00
G01 X27.4219 Y-15.3773 F75.00
G01 X27.4148 Y-15.3590 F75.00
G01 X27.4060 Y-15.3414 F75.00
G01 X27.3955 Y-15.3248 F75.00
G01 X27.3866 Y-15.3131 F75.00
G01 X27.3802 Y-15.3057 F75.00
G01 X27.3663 Y-15.2918 F75.00
G01 X27.3511 Y-15.2794 F75.00
G01 X27.3390 Y-15.2710 F75.00
G01 X27.3219 Y-15.2614 F75.00
G01 X27.3040 Y-15.2534 F75.00
G01 X27.2853 Y-15.2472 F75.00
G01 X27.2710 Y-15.2438 F75.00
G01 X27.2565 Y-15.2415 F75.00
G01 X27.2369 Y-15.2401 F75.00
G01 X25.0920 Y-15.2400 F75.00
G01 X25.0724 Y-15.2410 F75.00
G01 X25.0530 Y-15.2438 F75.00
G01 X25.0339 Y-15.2486 F75.00
G01 X25.0200 Y-15.2534 F75.00
G01 X25.0110 Y-15.2572 F75.00
G01 X24.9934 Y-15.2660 F75.00
G01 X24.9768 Y-15.2765 F75.00
G01 X24.9651 Y-15.2854 F75.00
G01 X24.9577 Y-15.2918 F75.00
G01 X24.9438 Y-15.3057 F75.00
G01 X24.9314 Y-15.3209 F75.00
G01 X24.9205 Y-15.3372 F75.00
G01 X24.9112 Y-15.3545 F75.00
G01 X24.9054 Y-15.3680 F75.00
G01 X24.8992 Y-15.3867 F75.00
G01 X24.8958 Y-15.4010 F75.00
G01 X24.8930 Y-15.4204 F75.00
G01 X24.8921 Y-15.4351 F75.00
G01 X24.8922 Y-17.5898 F75.00
G01 X24.8942 Y-17.6093 F75.00
G01 X24.8980 Y-17.6286 F75.00
G01 X24.9037 Y-17.6474 F75.00
G01 X24.9092 Y-17.6610 F75.00
G01 X24.9180 Y-17.6786 F75.00
G01 X24.9285 Y-17.6952 F75.00
G01 X24.9406 Y-17.7106 F75.00
G01 X24.9541 Y-17.7248 F75.00
G01 X24.9690 Y-17.7377 F75.00
G01 X24.9850 Y-17.7490 F75.00
G01 X25.0021 Y-17.7586 F75.00
G01 X25.0200 Y-17.7666 F75.00
G01 X25.0387 Y-17.7728 F75.00
G01 X25.0578 Y-17.7771 F75.00
G01 X25.0773 Y-17.7795 F75.00
G01 X25.0920 Y-17.7800 F75.00
G00 Z2.0000
G00 X26.3620 Y-20.3200
G01 F45.00
G01 Z-0.0850
G01 F75.00
G01 X28.5069 Y-20.3199 F75.00
G01 X28.5265 Y-20.3185 F75.00
G01 X28.5458 Y-20.3151 F75.00
G01 X28.5647 Y-20.3099 F75.00
G01 X28.5830 Y-20.3028 F75.00
G01 X28.6006 Y-20.2940 F75.00
G01 X28.6172 Y-20.2835 F75.00
G01 X28.6326 Y-20.2714 F75.00
G01 X28.6434 Y-20.2614 F75.00
G01 X28.6502 Y-20.2543 F75.00
G01 X28.6626 Y-20.2391 F75.00
G01 X28.6710 Y-20.2270 F75.00
G01 X28.6806 Y-20.2099 F75.00
G01 X28.6868 Y-20.1965 F75.00
G01 X28.6919 Y-20.1827 F75.00
G01 X28.6971 Y-20.1638 F75.00
G01 X28.7005 Y-20.1445 F75.00
G01 X28.7019 Y-20.1249 F75.00
G01 X28.7020 Y-17.9800 F75.00
G01 X28.7010 Y-17.9604 F75.00
G01 X28.6991 Y-17.9458 F75.00
G01 X28.6971 Y-17.9362 F75.00
G01 X28.6919 Y-17.9173 F75.00
G01 X28.6848 Y-17.8990 F75.00
G01 X28.6760 Y-17.8814 F75.00
G01 X28.6655 Y-17.8648 F75.00
G01 X28.6534 Y-17.8494 F75.00
G01 X28.6434 Y-17.8386 F75.00
G01 X28.6363 Y-17.8318 F75.00
G01 X28.6211 Y-17.8194 F75.00
G01 X28.6090 Y-17.8110 F75.00
G01 X28.5919 Y-17.8014 F75.00
G01 X28.5785 Y-17.7952 F75.00
G01 X28.5647 Y-17.7901 F75.00
G01 X28.5458 Y-17.7849 F75.00
G01 X28.5265 Y-17.7815 F75.00
G01 X28.5069 Y-17.7801 F75.00
G01 X26.3620 Y-17.7800 F75.00
G01 X26.3424 Y-17.7810 F75.00
G01 X26.3230 Y-17.7838 F75.00
G01 X26.3039 Y-17.7886 F75.00
G01 X26.2900 Y-17.7934 F75.00
G01 X26.2810 Y-17.7972 F75.00
G01 X26.2721 Y-17.8014 F75.00
G01 X26.2592 Y-17.8085 F75.00
G01 X26.2429 Y-17.8194 F75.00
G01 X26.2277 Y-17.8318 F75.00
G01 X26.2138 Y-17.8457 F75.00
G01 X26.2014 Y-17.8609 F75.00
G01 X26.1905 Y-17.8772 F75.00
G01 X26.1812 Y-17.8945 F75.00
G01 X26.1754 Y-17.9080 F75.00
G01 X26.1692 Y-17.9267 F75.00
G01 X26.1658 Y-17.9410 F75.00
G01 X26.1630 Y-17.9604 F75.00
G01 X26.1621 Y-17.9751 F75.00
G01 X26.1622 Y-20.1298 F75.00
G01 X26.1642 Y-20.1493 F75.00
G01 X26.1680 Y-20.1686 F75.00
G01 X26.1737 Y-20.1874 F75.00
G01 X26.1792 Y-20.2010 F75.00
G01 X26.1880 Y-20.2186 F75.00
G01 X26.1985 Y-20.2352 F75.00
G01 X26.2106 Y-20.2506 F75.00
G01 X26.2241 Y-20.2648 F75.00
G01 X26.2390 Y-20.2777 F75.00
G01 X26.2550 Y-20.2890 F75.00
G01 X26.2721 Y-20.2986 F75.00
G01 X26.2900 Y-20.3066 F75.00
G01 X26.3087 Y-20.3128 F75.00
G01 X26.3278 Y-20.3171 F75.00
G01 X26.3473 Y-20.3195 F75.00
G01 X26.3620 Y-20.3200 F75.00
G00 Z2.0000
G00 X23.8200 Y-23.8600
G01 F45.00
G01 Z-0.0850
G01 F75.00
G01 X25.9698 Y-23.8598 F75.00
G01 X25.9845 Y-23.8585 F75.00
G01 X25.9990 Y-23.8562 F75.00
G01 X26.0133 Y-23.8528 F75.00
G01 X26.0274 Y-23.8483 F75.00
G01 X26.0410 Y-23.8428 F75.00
G01 X26.0543 Y-23.8364 F75.00
G01 X26.0670 Y-23.8290 F75.00
G01 X26.0791 Y-23.8206 F75.00
G01 X26.0906 Y-23.8114 F75.00
G01 X26.1014 Y-23.8014 F75.00
G01 X26.1114 Y-23.7906 F75.00
G01 X26.1206 Y-23.7791 F75.00
G01 X26.1290 Y-23.7670 F75.00
G01 X26.1364 Y-23.7543 F75.00
G01 X26.1428 Y-23.7410 F75.00
G01 X26.1483 Y-23.7274 F75.00
G01 X26.1528 Y-23.7133 F75.00
G01 X26.1571 Y-23.6942 F75.00
G01 X26.1590 Y-23.6796 F75.00
G01 X26.1600 Y-23.6600 F75.00
G01 X26.1600 Y-21.5200 F75.00
G01 X26.1595 Y-21.5053 F75.00
G01 X26.1578 Y-21.4907 F75.00
G01 X26.1551 Y-21.4762 F75.00
G01 X26.1528 Y-21.4667 F75.00
G01 X26.1499 Y-21.4573 F75.00
G01 X26.1448 Y-21.4435 F75.00
G01 X26.1386 Y-21.4301 F75.00
G01 X26.1315 Y-21.4172 F75.00
G01 X26.1263 Y-21.4089 F75.00
G01 X26.1177 Y-21.3970 F75.00
G01 X26.1082 Y-21.3857 F75.00
G01 X26.0979 Y-21.3752 F75.00
G01 X26.0869 Y-21.3654 F75.00
G01 X26.0752 Y-21.3565 F75.00
G01 X26.0628 Y-21.3485 F75.00
G01 X26.0543 Y-21.3436 F75.00
G01 X26.0410 Y-21.3372 F75.00
G01 X26.0320 Y-21.3334 F75.00
G01 X26.0181 Y-21.3286 F75.00
G01 X26.0038 Y-21.3249 F75.00
G01 X25.9893 Y-21.3222 F75.00
G01 X25.9796 Y-21.3210 F75.00
G01 X25.9600 Y-21.3200 F75.00
G01 X25.4672 Y-21.3200 F75.00
G01 X25.4672 Y-20.3200 F75.00
G01 X25.9620 Y-20.3200 F75.00
G01 X25.9718 Y-20.3198 F75.00
G01 X25.9865 Y-20.3185 F75.00
G01 X25.9962 Y-20.3171 F75.00
G01 X26.0106 Y-20.3140 F75.00
G01 X26.0247 Y-20.3099 F75.00
G01 X26.0385 Y-20.3048 F75.00
G01 X26.0519 Y-20.2986 F75.00
G01 X26.0648 Y-20.2915 F75.00
G01 X26.0772 Y-20.2835 F75.00
G01 X26.0889 Y-20.2746 F75.00
G01 X26.0999 Y-20.2648 F75.00
G01 X26.1102 Y-20.2543 F75.00
G01 X26.1197 Y-20.2430 F75.00
G01 X26.1283 Y-20.2311 F75.00
G01 X26.1360 Y-20.2186 F75.00
G01 X26.1428 Y-20.2055 F75.00
G01 X26.1486 Y-20.1920 F75.00
G01 X26.1534 Y-20.1781 F75.00
G01 X26.1571 Y-20.1638 F75.00
G01 X26.1598 Y-20.1493 F75.00
G01 X26.1615 Y-20.1347 F75.00
G01 X26.1620 Y-20.1200 F75.00
G01 X26.1618 Y-17.9702 F75.00
G01 X26.1605 Y-17.9555 F75.00
G01 X26.1582 Y-17.9410 F75.00
G01 X26.1548 Y-17.9267 F75.00
G01 X26.1503 Y-17.9126 F75.00
G01 X26.1448 Y-17.8990 F75.00
G01 X26.1384 Y-17.8857 F75.00
G01 X26.1310 Y-17.8730 F75.00
G01 X26.1226 Y-17.8609 F75.00
G01 X26.1134 Y-17.8494 F75.00
G01 X26.1034 Y-17.8386 F75.00
G01 X26.0926 Y-17.8286 F75.00
G01 X26.0811 Y-17.8194 F75.00
G01 X26.0690 Y-17.8110 F75.00
G01 X26.0563 Y-17.8036 F75.00
G01 X26.0430 Y-17.7972 F75.00
G01 X26.0294 Y-17.7917 F75.00
G01 X26.0153 Y-17.7872 F75.00
G01 X25.9962 Y-17.7829 F75.00
G01 X25.9816 Y-17.7810 F75.00
G01 X25.9620 Y-17.7800 F75.00
G01 X23.8122 Y-17.7802 F75.00
G01 X23.7975 Y-17.7815 F75.00
G01 X23.7830 Y-17.7838 F75.00
G01 X23.7687 Y-17.7872 F75.00
G01 X23.7546 Y-17.7917 F75.00
G01 X23.7410 Y-17.7972 F75.00
G01 X23.7277 Y-17.8036 F75.00
G01 X23.7150 Y-17.8110 F75.00
G01 X23.7029 Y-17.8194 F75.00
G01 X23.6914 Y-17.8286 F75.00
G01 X23.6806 Y-17.8386 F75.00
G01 X23.6706 Y-17.8494 F75.00
G01 X23.6614 Y-17.8609 F75.00
G01 X23.6530 Y-17.8730 F75.00
G01 X23.6456 Y-17.8857 F75.00
G01 X23.6392 Y-17.8990 F75.00
G01 X23.6337 Y-17.9126 F75.00
G01 X23.6292 Y-17.9267 F75.00
G01 X23.6249 Y-17.9458 F75.00
G01 X23.6225 Y-17.9653 F75.00
G01 X23.6220 Y-17.9800 F75.00
G01 X23.6220 Y-20.1200 F75.00
G01 X23.6225 Y-20.1347 F75.00
G01 X23.6242 Y-20.1493 F75.00
G01 X23.6269 Y-20.1638 F75.00
G01 X23.6292 Y-20.1733 F75.00
G01 X23.6337 Y-20.1874 F75.00
G01 X23.6372 Y-20.1965 F75.00
G01 X23.6434 Y-20.2099 F75.00
G01 X23.6505 Y-20.2228 F75.00
G01 X23.6585 Y-20.2352 F75.00
G01 X23.6674 Y-20.2469 F75.00
G01 X23.6738 Y-20.2543 F75.00
G01 X23.6841 Y-20.2648 F75.00
G01 X23.6914 Y-20.2714 F75.00
G01 X23.7029 Y-20.2806 F75.00
G01 X23.7150 Y-20.2890 F75.00
G01 X23.7277 Y-20.2964 F75.00
G01 X23.7410 Y-20.3028 F75.00
G01 X23.7546 Y-20.3083 F75.00
G01 X23.7687 Y-20.3128 F75.00
G01 X23.7782 Y-20.3151 F75.00
G01 X23.7878 Y-20.3171 F75.00
G01 X23.8024 Y-20.3190 F75.00
G01 X23.8220 Y-20.3200 F75.00
G01 X24.3168 Y-20.3200 F75.00
G01 X24.3168 Y-21.3200 F75.00
G01 X23.8200 Y-21.3200 F75.00
G01 X23.8102 Y-21.3202 F75.00
G01 X23.7955 Y-21.3215 F75.00
G01 X23.7858 Y-21.3229 F75.00
G01 X23.7714 Y-21.3260 F75.00
G01 X23.7573 Y-21.3301 F75.00
G01 X23.7435 Y-21.3352 F75.00
G01 X23.7301 Y-21.3414 F75.00
G01 X23.7172 Y-21.3485 F75.00
G01 X23.7048 Y-21.3565 F75.00
G01 X23.6931 Y-21.3654 F75.00
G01 X23.6821 Y-21.3752 F75.00
G01 X23.6718 Y-21.3857 F75.00
G01 X23.6623 Y-21.3970 F75.00
G01 X23.6537 Y-21.4089 F75.00
G01 X23.6460 Y-21.4214 F75.00
G01 X23.6392 Y-21.4345 F75.00
G01 X23.6334 Y-21.4480 F75.00
G01 X23.6286 Y-21.4619 F75.00
G01 X23.6249 Y-21.4762 F75.00
G01 X23.6222 Y-21.4907 F75.00
G01 X23.6205 Y-21.5053 F75.00
G01 X23.6200 Y-21.5200 F75.00
G01 X23.6200 Y-23.6600 F75.00
G01 X23.6205 Y-23.6747 F75.00
G01 X23.6229 Y-23.6942 F75.00
G01 X23.6272 Y-23.7133 F75.00
G01 X23.6317 Y-23.7274 F75.00
G01 X23.6392 Y-23.7455 F75.00
G01 X23.6485 Y-23.7628 F75.00
G01 X23.6594 Y-23.7791 F75.00
G01 X23.6718 Y-23.7943 F75.00
G01 X23.6857 Y-23.8082 F75.00
G01 X23.7009 Y-23.8206 F75.00
G01 X23.7130 Y-23.8290 F75.00
G01 X23.7301 Y-23.8386 F75.00
G01 X23.7480 Y-23.8466 F75.00
G01 X23.7667 Y-23.8528 F75.00
G01 X23.7858 Y-23.8571 F75.00
G01 X23.8053 Y-23.8595 F75.00
G01 X23.8200 Y-23.8600 F75.00
G00 Z2.0000
G00 X21.2820 Y-20.3200
G01 F45.00
G01 Z-0.0850
G01 F75.00
G01 X21.7768 Y-20.3200 F75.00
G01 X21.7768 Y-26.3020 F75.00
G01 X21.7789 Y-26.3486 F75.00
G01 X21.7808 Y-26.3681 F75.00
G01 X21.7879 Y-26.4142 F75.00
G01 X21.7990 Y-26.4595 F75.00
G01 X21.8047 Y-26.4783 F75.00
G01 X21.8206 Y-26.5221 F75.00
G01 X21.8403 Y-26.5644 F75.00
G01 X21.8471 Y-26.5774 F75.00
G01 X21.8737 Y-26.6216 F75.00
G01 X21.9013 Y-26.6592 F75.00
G01 X21.9138 Y-26.6743 F75.00
G01 X21.9453 Y-26.7087 F75.00
G01 X23.3168 Y-28.0801 F75.00
G01 X23.3551 Y-28.1146 F75.00
G01 X23.3924 Y-28.1426 F75.00
G01 X23.4087 Y-28.1535 F75.00
G01 X23.4403 Y-28.1724 F75.00
G01 X23.4532 Y-28.1795 F75.00
G01 X23.4999 Y-28.2014 F75.00
G01 X23.5484 Y-28.2189 F75.00
G01 X23.5625 Y-28.2230 F75.00
G01 X23.5982 Y-28.2320 F75.00
G01 X23.6078 Y-28.2341 F75.00
G01 X23.6200 Y-28.2362 F75.00
G01 X23.6200 Y-28.7400 F75.00
G01 X23.6205 Y-28.7547 F75.00
G01 X23.6222 Y-28.7693 F75.00
G01 X23.6249 Y-28.7838 F75.00
G01 X23.6272 Y-28.7933 F75.00
G01 X23.6334 Y-28.8120 F75.00
G01 X23.6372 Y-28.8210 F75.00
G01 X23.6436 Y-28.8343 F75.00
G01 X23.6537 Y-28.8511 F75.00
G01 X23.6594 Y-28.8591 F75.00
G01 X23.6686 Y-28.8706 F75.00
G01 X23.6786 Y-28.8814 F75.00
G01 X23.6857 Y-28.8882 F75.00
G01 X23.6931 Y-28.8946 F75.00
G01 X23.7048 Y-28.9035 F75.00
G01 X23.7214 Y-28.9140 F75.00
G01 X23.7345 Y-28.9208 F75.00
G01 X23.7435 Y-28.9248 F75.00
G01 X23.7573 Y-28.9299 F75.00
G01 X23.7714 Y-28.9340 F75.00
G01 X23.7858 Y-28.9371 F75.00
G01 X23.7955 Y-28.9385 F75.00
G01 X23.8053 Y-28.9395 F75.00
G01 X23.8200 Y-28.9400 F75.00
G01 X25.9600 Y-28.9400 F75.00
G01 X25.9747 Y-28.9395 F75.00
G01 X25.9845 Y-28.9385 F75.00
G01 X25.9942 Y-28.9371 F75.00
G01 X26.0086 Y-28.9340 F75.00
G01 X26.0227 Y-28.9299 F75.00
G01 X26.0365 Y-28.9248 F75.00
G01 X26.0499 Y-28.9186 F75.00
G01 X26.0586 Y-28.9140 F75.00
G01 X26.0711 Y-28.9063 F75.00
G01 X26.0830 Y-28.8977 F75.00
G01 X26.0906 Y-28.8914 F75.00
G01 X26.1014 Y-28.8814 F75.00
G01 X26.1082 Y-28.8743 F75.00
G01 X26.1177 Y-28.8630 F75.00
G01 X26.1235 Y-28.8552 F75.00
G01 X26.1315 Y-28.8428 F75.00
G01 X26.1386 Y-28.8299 F75.00
G01 X26.1448 Y-28.8165 F75.00
G01 X26.1499 Y-28.8027 F75.00
G01 X26.1528 Y-28.7933 F75.00
G01 X26.1551 Y-28.7838 F75.00
G01 X26.1578 Y-28.7693 F75.00
G01 X26.1590 Y-28.7596 F75.00
G01 X26.1599 Y-28.7449 F75.00
G01 X26.1599 Y-26.5951 F75.00
G01 X26.1585 Y-26.5755 F75.00
G01 X26.1551 Y-26.5562 F75.00
G01 X26.1499 Y-26.5373 F75.00
G01 X26.1428 Y-26.5190 F75.00
G01 X26.1340 Y-26.5014 F75.00
G01 X26.1235 Y-26.4848 F75.00
G01 X26.1114 Y-26.4694 F75.00
G01 X26.1014 Y-26.4586 F75.00
G01 X26.0943 Y-26.4518 F75.00
G01 X26.0791 Y-26.4394 F75.00
G01 X26.0670 Y-26.4310 F75.00
G01 X26.0499 Y-26.4214 F75.00
G01 X26.0365 Y-26.4152 F75.00
G01 X26.0227 Y-26.4101 F75.00
G01 X26.0038 Y-26.4049 F75.00
G01 X25.9845 Y-26.4015 F75.00
G01 X25.9649 Y-26.4001 F75.00
G01 X23.8200 Y-26.4000 F75.00
G01 X23.8102 Y-26.4002 F75.00
G01 X23.7955 Y-26.4015 F75.00
G01 X23.7810 Y-26.4038 F75.00
G01 X23.7714 Y-26.4060 F75.00
G01 X23.7619 Y-26.4086 F75.00
G01 X23.7480 Y-26.4134 F75.00
G01 X23.7390 Y-26.4172 F75.00
G01 X23.7257 Y-26.4236 F75.00
G01 X23.7172 Y-26.4285 F75.00
G01 X23.7048 Y-26.4365 F75.00
G01 X23.6970 Y-26.4423 F75.00
G01 X23.6857 Y-26.4518 F75.00
G01 X23.6752 Y-26.4621 F75.00
G01 X23.6686 Y-26.4694 F75.00
G01 X23.6623 Y-26.4770 F75.00
G01 X23.6537 Y-26.4889 F75.00
G01 X23.6460 Y-26.5014 F75.00
G01 X23.6414 Y-26.5101 F75.00
G01 X23.6352 Y-26.5235 F75.00
G01 X23.6286 Y-26.5419 F75.00
G01 X23.6238 Y-26.5610 F75.00
G01 X23.6210 Y-26.5804 F75.00
G01 X23.6200 Y-26.6000 F75.00
G01 X23.6200 Y-26.7566 F75.00
G01 X22.9272 Y-26.0637 F75.00
G01 X22.9272 Y-20.3200 F75.00
G01 X23.4220 Y-20.3200 F75.00
G01 X23.4416 Y-20.3190 F75.00
G01 X23.4562 Y-20.3171 F75.00
G01 X23.4658 Y-20.3151 F75.00
G01 X23.4801 Y-20.3114 F75.00
G01 X23.4940 Y-20.3066 F75.00
G01 X23.5030 Y-20.3028 F75.00
G01 X23.5163 Y-20.2964 F75.00
G01 X23.5290 Y-20.2890 F75.00
G01 X23.5411 Y-20.2806 F75.00
G01 X23.5526 Y-20.2714 F75.00
G01 X23.5599 Y-20.2648 F75.00
G01 X23.5702 Y-20.2543 F75.00
G01 X23.5797 Y-20.2430 F75.00
G01 X23.5883 Y-20.2311 F75.00
G01 X23.5960 Y-20.2186 F75.00
G01 X23.6028 Y-20.2055 F75.00
G01 X23.6068 Y-20.1965 F75.00
G01 X23.6119 Y-20.1827 F75.00
G01 X23.6160 Y-20.1686 F75.00
G01 X23.6191 Y-20.1542 F75.00
G01 X23.6205 Y-20.1445 F75.00
G01 X23.6215 Y-20.1347 F75.00
G01 X23.6220 Y-20.1200 F75.00
G01 X23.6219 Y-17.9751 F75.00
G01 X23.6205 Y-17.9555 F75.00
G01 X23.6171 Y-17.9362 F75.00
G01 X23.6119 Y-17.9173 F75.00
G01 X23.6048 Y-17.8990 F75.00
G01 X23.5960 Y-17.8814 F75.00
G01 X23.5855 Y-17.8648 F75.00
G01 X23.5734 Y-17.8494 F75.00
G01 X23.5634 Y-17.8386 F75.00
G01 X23.5563 Y-17.8318 F75.00
G01 X23.5411 Y-17.8194 F75.00
G01 X23.5290 Y-17.8110 F75.00
G01 X23.5119 Y-17.8014 F75.00
G01 X23.4985 Y-17.7952 F75.00
G01 X23.4847 Y-17.7901 F75.00
G01 X23.4658 Y-17.7849 F75.00
G01 X23.4465 Y-17.7815 F75.00
G01 X23.4269 Y-17.7801 F75.00
G01 X21.2820 Y-17.7800 F75.00
G01 X21.2624 Y-17.7810 F75.00
G01 X21.2430 Y-17.7838 F75.00
G01 X21.2239 Y-17.7886 F75.00
G01 X21.2100 Y-17.7934 F75.00
G01 X21.2010 Y-17.7972 F75.00
G01 X21.1921 Y-17.8014 F75.00
G01 X21.1792 Y-17.8085 F75.00
G01 X21.1629 Y-17.8194 F75.00
G01 X21.1477 Y-17.8318 F75.00
G01 X21.1338 Y-17.8457 F75.00
G01 X21.1214 Y-17.8609 F75.00
G01 X21.1105 Y-17.8772 F75.00
G01 X21.1012 Y-17.8945 F75.00
G01 X21.0954 Y-17.9080 F75.00
G01 X21.0892 Y-17.9267 F75.00
G01 X21.0858 Y-17.9410 F75.00
G01 X21.0830 Y-17.9604 F75.00
G01 X21.0821 Y-17.9751 F75.00
G01 X21.0822 Y-20.1298 F75.00
G01 X21.0842 Y-20.1493 F75.00
G01 X21.0880 Y-20.1686 F75.00
G01 X21.0937 Y-20.1874 F75.00
G01 X21.0992 Y-20.2010 F75.00
G01 X21.1080 Y-20.2186 F75.00
G01 X21.1185 Y-20.2352 F75.00
G01 X21.1306 Y-20.2506 F75.00
G01 X21.1441 Y-20.2648 F75.00
G01 X21.1590 Y-20.2777 F75.00
G01 X21.1750 Y-20.2890 F75.00
G01 X21.1921 Y-20.2986 F75.00
G01 X21.2100 Y-20.3066 F75.00
G01 X21.2287 Y-20.3128 F75.00
G01 X21.2430 Y-20.3162 F75.00
G01 X21.2624 Y-20.3190 F75.00
G01 X21.2820 Y-20.3200 F75.00
G00 Z2.0000
G00 X18.7420 Y-20.3200
G01 F45.00
G01 Z-0.0850
G01 F75.00
G01 X19.2368 Y-20.3200 F75.00
G01 X19.2368 Y-28.6512 F75.00
G01 X19.2396 Y-28.7076 F75.00
G01 X19.2462 Y-28.7537 F75.00
G01 X19.2500 Y-28.7730 F75.00
G01 X19.2616 Y-28.8182 F75.00
G01 X19.2771 Y-28.8622 F75.00
G01 X19.2846 Y-28.8803 F75.00
G01 X19.3047 Y-28.9223 F75.00
G01 X19.3337 Y-28.9708 F75.00
G01 X19.3613 Y-29.0084 F75.00
G01 X19.3738 Y-29.0235 F75.00
G01 X19.4053 Y-29.0579 F75.00
G01 X23.5041 Y-33.1567 F75.00
G01 X23.5385 Y-33.1882 F75.00
G01 X23.5497 Y-33.1977 F75.00
G01 X23.5912 Y-33.2283 F75.00
G01 X23.6200 Y-33.2458 F75.00
G01 X23.6200 Y-33.8200 F75.00
G01 X23.6210 Y-33.8396 F75.00
G01 X23.6238 Y-33.8590 F75.00
G01 X23.6286 Y-33.8781 F75.00
G01 X23.6317 Y-33.8874 F75.00
G01 X23.6372 Y-33.9010 F75.00
G01 X23.6460 Y-33.9186 F75.00
G01 X23.6565 Y-33.9352 F75.00
G01 X23.6686 Y-33.9506 F75.00
G01 X23.6752 Y-33.9579 F75.00
G01 X23.6857 Y-33.9682 F75.00
G01 X23.7009 Y-33.9806 F75.00
G01 X23.7130 Y-33.9890 F75.00
G01 X23.7301 Y-33.9986 F75.00
G01 X23.7435 Y-34.0048 F75.00
G01 X23.7573 Y-34.0099 F75.00
G01 X23.7762 Y-34.0151 F75.00
G01 X23.7907 Y-34.0178 F75.00
G01 X23.8053 Y-34.0195 F75.00
G01 X23.8200 Y-34.0200 F75.00
G01 X25.9600 Y-34.0200 F75.00
G01 X25.9698 Y-34.0198 F75.00
G01 X25.9845 Y-34.0185 F75.00
G01 X25.9942 Y-34.0171 F75.00
G01 X26.0086 Y-34.0140 F75.00
G01 X26.0227 Y-34.0099 F75.00
G01 X26.0320 Y-34.0066 F75.00
G01 X26.0455 Y-34.0008 F75.00
G01 X26.0543 Y-33.9964 F75.00
G01 X26.0670 Y-33.9890 F75.00
G01 X26.0752 Y-33.9835 F75.00
G01 X26.0869 Y-33.9746 F75.00
G01 X26.0943 Y-33.9682 F75.00
G01 X26.1014 Y-33.9614 F75.00
G01 X26.1114 Y-33.9506 F75.00
G01 X26.1206 Y-33.9391 F75.00
G01 X26.1290 Y-33.9270 F75.00
G01 X26.1364 Y-33.9143 F75.00
G01 X26.1428 Y-33.9010 F75.00
G01 X26.1466 Y-33.8920 F75.00
G01 X26.1514 Y-33.8781 F75.00
G01 X26.1540 Y-33.8686 F75.00
G01 X26.1571 Y-33.8542 F75.00
G01 X26.1590 Y-33.8396 F75.00
G01 X26.1599 Y-33.8249 F75.00
G01 X26.1599 Y-31.6751 F75.00
G01 X26.1585 Y-31.6555 F75.00
G01 X26.1551 Y-31.6362 F75.00
G01 X26.1499 Y-31.6173 F75.00
G01 X26.1448 Y-31.6035 F75.00
G01 X26.1364 Y-31.5857 F75.00
G01 X26.1263 Y-31.5689 F75.00
G01 X26.1146 Y-31.5531 F75.00
G01 X26.1014 Y-31.5386 F75.00
G01 X26.0869 Y-31.5254 F75.00
G01 X26.0711 Y-31.5137 F75.00
G01 X26.0543 Y-31.5036 F75.00
G01 X26.0365 Y-31.4952 F75.00
G01 X26.0227 Y-31.4901 F75.00
G01 X26.0038 Y-31.4849 F75.00
G01 X25.9845 Y-31.4815 F75.00
G01 X25.9649 Y-31.4801 F75.00
G01 X23.8102 Y-31.4802 F75.00
G01 X23.7955 Y-31.4815 F75.00
G01 X23.7762 Y-31.4849 F75.00
G01 X23.7619 Y-31.4886 F75.00
G01 X23.7435 Y-31.4952 F75.00
G01 X23.7257 Y-31.5036 F75.00
G01 X23.7130 Y-31.5110 F75.00
G01 X23.7009 Y-31.5194 F75.00
G01 X23.6857 Y-31.5318 F75.00
G01 X23.6752 Y-31.5421 F75.00
G01 X23.6623 Y-31.5570 F75.00
G01 X23.6510 Y-31.5730 F75.00
G01 X23.6436 Y-31.5857 F75.00
G01 X23.6372 Y-31.5990 F75.00
G01 X23.6301 Y-31.6173 F75.00
G01 X23.6260 Y-31.6314 F75.00
G01 X23.6225 Y-31.6483 F75.00
G01 X20.3872 Y-28.4129 F75.00
G01 X20.3872 Y-20.3200 F75.00
G01 X20.8820 Y-20.3200 F75.00
G01 X20.9016 Y-20.3190 F75.00
G01 X20.9162 Y-20.3171 F75.00
G01 X20.9258 Y-20.3151 F75.00
G01 X20.9401 Y-20.3114 F75.00
G01 X20.9540 Y-20.3066 F75.00
G01 X20.9630 Y-20.3028 F75.00
G01 X20.9763 Y-20.2964 F75.00
G01 X20.9890 Y-20.2890 F75.00
G01 X21.0011 Y-20.2806 F75.00
G01 X21.0126 Y-20.2714 F75.00
G01 X21.0199 Y-20.2648 F75.00
G01 X21.0302 Y-20.2543 F75.00
G01 X21.0397 Y-20.2430 F75.00
G01 X21.0483 Y-20.2311 F75.00
G01 X21.0560 Y-20.2186 F75.00
G01 X21.0628 Y-20.2055 F75.00
G01 X21.0668 Y-20.1965 F75.00
G01 X21.0719 Y-20.1827 F75.00
G01 X21.0760 Y-20.1686 F75.00
G01 X21.0791 Y-20.1542 F75.00
G01 X21.0805 Y-20.1445 F75.00
G01 X21.0815 Y-20.1347 F75.00
G01 X21.0820 Y-20.1200 F75.00
G01 X21.0819 Y-17.9751 F75.00
G01 X21.0805 Y-17.9555 F75.00
G01 X21.0771 Y-17.9362 F75.00
G01 X21.0719 Y-17.9173 F75.00
G01 X21.0648 Y-17.8990 F75.00
G01 X21.0560 Y-17.8814 F75.00
G01 X21.0455 Y-17.8648 F75.00
G01 X21.0334 Y-17.8494 F75.00
G01 X21.0234 Y-17.8386 F75.00
G01 X21.0163 Y-17.8318 F75.00
G01 X21.0011 Y-17.8194 F75.00
G01 X20.9890 Y-17.8110 F75.00
G01 X20.9719 Y-17.8014 F75.00
G01 X20.9585 Y-17.7952 F75.00
G01 X20.9447 Y-17.7901 F75.00
G01 X20.9258 Y-17.7849 F75.00
G01 X20.9065 Y-17.7815 F75.00
G01 X20.8869 Y-17.7801 F75.00
G01 X18.7420 Y-17.7800 F75.00
G01 X18.7224 Y-17.7810 F75.00
G01 X18.7030 Y-17.7838 F75.00
G01 X18.6839 Y-17.7886 F75.00
G01 X18.6700 Y-17.7934 F75.00
G01 X18.6610 Y-17.7972 F75.00
G01 X18.6521 Y-17.8014 F75.00
G01 X18.6392 Y-17.8085 F75.00
G01 X18.6229 Y-17.8194 F75.00
G01 X18.6077 Y-17.8318 F75.00
G01 X18.5938 Y-17.8457 F75.00
G01 X18.5814 Y-17.8609 F75.00
G01 X18.5705 Y-17.8772 F75.00
G01 X18.5612 Y-17.8945 F75.00
G01 X18.5554 Y-17.9080 F75.00
G01 X18.5492 Y-17.9267 F75.00
G01 X18.5458 Y-17.9410 F75.00
G01 X18.5430 Y-17.9604 F75.00
G01 X18.5421 Y-17.9751 F75.00
G01 X18.5422 Y-20.1298 F75.00
G01 X18.5442 Y-20.1493 F75.00
G01 X18.5480 Y-20.1686 F75.00
G01 X18.5537 Y-20.1874 F75.00
G01 X18.5592 Y-20.2010 F75.00
G01 X18.5680 Y-20.2186 F75.00
G01 X18.5785 Y-20.2352 F75.00
G01 X18.5906 Y-20.2506 F75.00
G01 X18.6041 Y-20.2648 F75.00
G01 X18.6190 Y-20.2777 F75.00
G01 X18.6350 Y-20.2890 F75.00
G01 X18.6521 Y-20.2986 F75.00
G01 X18.6700 Y-20.3066 F75.00
G01 X18.6887 Y-20.3128 F75.00
G01 X18.7030 Y-20.3162 F75.00
G01 X18.7224 Y-20.3190 F75.00
G01 X18.7420 Y-20.3200 F75.00
G00 Z2.0000
G00 X26.9220 Y-10.1600
G01 F45.00
G01 Z-0.0850
G01 F75.00
G01 X26.9401 Y-10.4133 F75.00
G01 X26.9941 Y-10.6615 F75.00
G01 X27.0828 Y-10.8994 F75.00
G01 X27.2045 Y-11.1224 F75.00
G01 X27.3567 Y-11.3257 F75.00
G01 X27.5363 Y-11.5053 F75.00
G01 X27.7396 Y-11.6575 F75.00
G01 X27.9625 Y-11.7792 F75.00
G01 X28.2005 Y-11.8679 F75.00
G01 X28.4487 Y-11.9219 F75.00
G01 X28.6386 Y-11.9355 F75.00
G01 X28.7654 Y-11.9355 F75.00
G01 X28.9553 Y-11.9219 F75.00
G01 X29.2035 Y-11.8679 F75.00
G01 X29.4415 Y-11.7792 F75.00
G01 X29.6644 Y-11.6575 F75.00
G01 X29.8677 Y-11.5053 F75.00
G01 X30.0473 Y-11.3257 F75.00
G01 X30.1995 Y-11.1224 F75.00
G01 X30.3212 Y-10.8995 F75.00
G01 X30.4099 Y-10.6615 F75.00
G01 X30.4639 Y-10.4133 F75.00
G01 X30.4820 Y-10.1600 F75.00
G01 X30.4639 Y-9.9067 F75.00
G01 X30.4099 Y-9.6585 F75.00
G01 X30.3212 Y-9.4205 F75.00
G01 X30.1995 Y-9.1976 F75.00
G01 X30.0473 Y-8.9943 F75.00
G01 X29.8677 Y-8.8147 F75.00
G01 X29.6644 Y-8.6625 F75.00
G01 X29.4415 Y-8.5408 F75.00
G01 X29.2035 Y-8.4521 F75.00
G01 X28.9553 Y-8.3981 F75.00
G01 X28.7654 Y-8.3845 F75.00
G01 X28.6386 Y-8.3845 F75.00
G01 X28.4487 Y-8.3981 F75.00
G01 X28.2005 Y-8.4521 F75.00
G01 X27.9626 Y-8.5408 F75.00
G01 X27.7396 Y-8.6625 F75.00
G01 X27.5363 Y-8.8147 F75.00
G01 X27.3567 Y-8.9943 F75.00
G01 X27.2045 Y-9.1976 F75.00
G01 X27.0828 Y-9.4206 F75.00
G01 X26.9941 Y-9.6585 F75.00
G01 X26.9401 Y-9.9067 F75.00
G01 X26.9220 Y-10.1600 F75.00
G00 Z2.0000
G00 X25.9765 Y-36.5700
G01 F45.00
G01 Z-0.0850
G01 F75.00
G01 X26.0257 Y-36.5622 F75.00
G01 X26.0850 Y-36.5320 F75.00
G01 X26.1320 Y-36.4850 F75.00
G01 X26.1622 Y-36.4257 F75.00
G01 X26.1700 Y-36.3765 F75.00
G01 X26.1700 Y-35.9900 F75.00
G01 X26.1600 Y-35.9900 F75.00
G01 X26.1600 Y-36.3600 F75.00
G01 X26.1598 Y-36.3698 F75.00
G01 X26.1585 Y-36.3845 F75.00
G01 X26.1562 Y-36.3990 F75.00
G01 X26.1514 Y-36.4181 F75.00
G01 X26.1448 Y-36.4365 F75.00
G01 X26.1386 Y-36.4499 F75.00
G01 X26.1315 Y-36.4628 F75.00
G01 X26.1235 Y-36.4752 F75.00
G01 X26.1114 Y-36.4906 F75.00
G01 X26.1014 Y-36.5014 F75.00
G01 X26.0869 Y-36.5146 F75.00
G01 X26.0752 Y-36.5235 F75.00
G01 X26.0628 Y-36.5315 F75.00
G01 X26.0455 Y-36.5408 F75.00
G01 X26.0320 Y-36.5466 F75.00
G01 X26.0181 Y-36.5514 F75.00
G01 X25.9990 Y-36.5562 F75.00
G01 X25.9845 Y-36.5585 F75.00
G01 X25.9698 Y-36.5598 F75.00
G01 X25.9600 Y-36.5600 F75.00
G01 X25.5900 Y-36.5600 F75.00
G01 X25.5900 Y-36.5700 F75.00
G01 X25.9765 Y-36.5700 F75.00
G00 Z2.0000
G00 X23.8200 Y-36.5600
G01 F45.00
G01 Z-0.0850
G01 F75.00
G01 X23.8053 Y-36.5595 F75.00
G01 X23.7907 Y-36.5578 F75.00
G01 X23.7762 Y-36.5551 F75.00
G01 X23.7619 Y-36.5514 F75.00
G01 X23.7480 Y-36.5466 F75.00
