(G-CODE GENERATED BY FLATCAM v8.994 - www.flatcam.org - Version Date: 2020/11/7)

(Name: Duel_Mux-F_Cu.gbr_iso_combined_cnc)
(Type: G-code from Geometry)
(Units: MM)

(Created on Wednesday, 20 March 2024 at 01:02)

(This preprocessor is used with a motion controller loaded with GRBL firmware.)
(It is configured to be compatible with almost any version of GRBL firmware.)

(TOOL DIAMETER: 0.4 mm)
(Feedrate_XY: 75.0 mm/min)
(Feedrate_Z: 45.0 mm/min)
(Feedrate rapids 1500.0 mm/min)

(Z_Cut: -0.09 mm)
(Z_Move: 2.0 mm)
(Z Start: None mm)
(Z End: 15.0 mm)
(X,Y End: 0.0000, 0.0000 mm)
(Steps per circle: 64)
(Steps per circle: 64)
(Preprocessor Geometry: GRBL_11_no_M6)

(X range:   -0.1995 ...   97.1995  mm)
(Y range:  -65.1995 ...    0.1995  mm)

(Spindle Speed: 0.0 RPM)
G21
G90
G17
G94


G01 F75.00

M5             
G00 Z15.0000
G00 X0.0000 Y0.0000                
T1
(MSG, Change to Tool Dia = 0.4000)
M0
G00 Z15.0000
        
M03
G01 F75.00
G00 X-0.1995 Y-0.2045
G01 F45.00
G01 Z-0.0900
G01 F75.00
G01 X-0.1995 Y-64.7955 F75.00
G01 X-0.1987 Y-64.8134 F75.00
G01 X-0.1925 Y-64.8681 F75.00
G01 X-0.1890 Y-64.8870 F75.00
G01 X-0.1852 Y-64.9009 F75.00
G01 X-0.1804 Y-64.9145 F75.00
G01 X-0.1746 Y-64.9277 F75.00
G01 X-0.1352 Y-65.0095 F75.00
G01 X-0.1282 Y-65.0227 F75.00
G01 X-0.1202 Y-65.0354 F75.00
G01 X-0.1114 Y-65.0474 F75.00
G01 X-0.1016 Y-65.0587 F75.00
G01 X-0.0910 Y-65.0693 F75.00
G01 X-0.0797 Y-65.0791 F75.00
G01 X-0.0087 Y-65.1357 F75.00
G01 X0.0033 Y-65.1445 F75.00
G01 X0.0160 Y-65.1525 F75.00
G01 X0.0292 Y-65.1595 F75.00
G01 X0.0429 Y-65.1655 F75.00
G01 X0.0618 Y-65.1718 F75.00
G01 X0.1649 Y-65.1955 F75.00
G01 X0.1846 Y-65.1985 F75.00
G01 X0.2045 Y-65.1995 F75.00
G01 X96.7955 Y-65.1995 F75.00
G01 X96.8134 Y-65.1987 F75.00
G01 X96.8681 Y-65.1925 F75.00
G01 X96.8870 Y-65.1890 F75.00
G01 X96.9009 Y-65.1852 F75.00
G01 X96.9145 Y-65.1804 F75.00
G01 X96.9277 Y-65.1746 F75.00
G01 X97.0095 Y-65.1352 F75.00
G01 X97.0227 Y-65.1282 F75.00
G01 X97.0354 Y-65.1202 F75.00
G01 X97.0474 Y-65.1114 F75.00
G01 X97.0587 Y-65.1016 F75.00
G01 X97.0693 Y-65.0910 F75.00
G01 X97.0791 Y-65.0797 F75.00
G01 X97.1357 Y-65.0087 F75.00
G01 X97.1445 Y-64.9967 F75.00
G01 X97.1525 Y-64.9840 F75.00
G01 X97.1616 Y-64.9663 F75.00
G01 X97.1672 Y-64.9524 F75.00
G01 X97.1718 Y-64.9382 F75.00
G01 X97.1955 Y-64.8351 F75.00
G01 X97.1985 Y-64.8154 F75.00
G01 X97.1995 Y-64.7955 F75.00
G01 X97.1995 Y-0.2045 F75.00
G01 X97.1987 Y-0.1866 F75.00
G01 X97.1925 Y-0.1319 F75.00
G01 X97.1890 Y-0.1130 F75.00
G01 X97.1852 Y-0.0991 F75.00
G01 X97.1804 Y-0.0855 F75.00
G01 X97.1746 Y-0.0723 F75.00
G01 X97.1352 Y0.0095 F75.00
G01 X97.1282 Y0.0227 F75.00
G01 X97.1202 Y0.0354 F75.00
G01 X97.1114 Y0.0474 F75.00
G01 X97.1016 Y0.0587 F75.00
G01 X97.0910 Y0.0693 F75.00
G01 X97.0797 Y0.0791 F75.00
G01 X97.0087 Y0.1357 F75.00
G01 X96.9967 Y0.1445 F75.00
G01 X96.9840 Y0.1525 F75.00
G01 X96.9708 Y0.1595 F75.00
G01 X96.9571 Y0.1655 F75.00
G01 X96.9382 Y0.1718 F75.00
G01 X96.8351 Y0.1955 F75.00
G01 X96.8154 Y0.1985 F75.00
G01 X96.7955 Y0.1995 F75.00
G01 X0.2045 Y0.1995 F75.00
G01 X0.1866 Y0.1987 F75.00
G01 X0.1272 Y0.1918 F75.00
G01 X0.1177 Y0.1901 F75.00
G01 X0.1037 Y0.1866 F75.00
G01 X0.0855 Y0.1804 F75.00
G01 X0.0723 Y0.1746 F75.00
G01 X-0.0095 Y0.1352 F75.00
G01 X-0.0227 Y0.1282 F75.00
G01 X-0.0354 Y0.1202 F75.00
G01 X-0.0435 Y0.1144 F75.00
G01 X-0.0550 Y0.1050 F75.00
G01 X-0.0659 Y0.0946 F75.00
G01 X-0.0791 Y0.0797 F75.00
G01 X-0.1387 Y0.0048 F75.00
G01 X-0.1445 Y-0.0033 F75.00
G01 X-0.1525 Y-0.0160 F75.00
G01 X-0.1616 Y-0.0337 F75.00
G01 X-0.1672 Y-0.0476 F75.00
G01 X-0.1731 Y-0.0666 F75.00
G01 X-0.1945 Y-0.1600 F75.00
G01 X-0.1973 Y-0.1747 F75.00
G01 X-0.1985 Y-0.1846 F75.00
G01 X-0.1995 Y-0.2045 F75.00
G00 Z2.0000
G00 X4.6485 Y-4.6412
G01 F45.00
G01 Z-0.0900
G01 F75.00
G01 X4.6563 Y-4.6905 F75.00
G01 X4.6866 Y-4.7499 F75.00
G01 X4.7337 Y-4.7970 F75.00
G01 X4.7931 Y-4.8273 F75.00
G01 X4.8424 Y-4.8351 F75.00
G01 X4.8745 Y-4.8353 F75.00
G01 X4.8894 Y-4.8367 F75.00
G01 X4.8992 Y-4.8381 F75.00
G01 X5.0024 Y-4.8615 F75.00
G01 X5.0167 Y-4.8657 F75.00
G01 X5.0261 Y-4.8691 F75.00
G01 X5.0353 Y-4.8730 F75.00
G01 X5.0487 Y-4.8797 F75.00
G01 X5.0615 Y-4.8873 F75.00
G01 X5.0698 Y-4.8929 F75.00
G01 X5.1487 Y-4.9555 F75.00
G01 X5.1600 Y-4.9653 F75.00
G01 X5.1706 Y-4.9759 F75.00
G01 X5.1804 Y-4.9872 F75.00
G01 X5.1892 Y-4.9992 F75.00
G01 X5.1972 Y-5.0119 F75.00
G01 X5.2042 Y-5.0251 F75.00
G01 X5.2475 Y-5.1157 F75.00
G01 X5.2542 Y-5.1337 F75.00
G01 X5.2580 Y-5.1476 F75.00
G01 X5.2600 Y-5.1570 F75.00
G01 X5.2621 Y-5.1713 F75.00
G01 X5.2677 Y-5.2212 F75.00
G01 X5.2685 Y-5.2391 F75.00
G01 X5.2685 Y-13.7811 F75.00
G01 X5.2675 Y-13.8099 F75.00
G01 X5.2648 Y-13.8424 F75.00
G01 X5.2736 Y-13.9075 F75.00
G01 X5.2811 Y-13.9762 F75.00
G01 X5.3068 Y-14.0464 F75.00
G01 X5.3289 Y-14.1120 F75.00
G01 X5.3662 Y-14.1703 F75.00
G01 X5.4048 Y-14.2342 F75.00
G01 X5.4575 Y-14.2871 F75.00
G01 X5.5064 Y-14.3387 F75.00
G01 X5.5271 Y-14.3569 F75.00
G01 X5.5335 Y-14.3630 F75.00
G01 X24.0585 Y-32.8880 F75.00
G01 X24.0719 Y-32.9028 F75.00
G01 X24.0838 Y-32.9189 F75.00
G01 X24.1374 Y-33.0042 F75.00
G01 X24.1445 Y-33.0173 F75.00
G01 X24.1507 Y-33.0309 F75.00
G01 X24.1558 Y-33.0450 F75.00
G01 X24.1609 Y-33.0643 F75.00
G01 X24.1642 Y-33.0839 F75.00
G01 X24.1752 Y-33.1841 F75.00
G01 X24.1754 Y-33.2040 F75.00
G01 X24.1748 Y-33.2140 F75.00
G01 X24.1730 Y-33.2288 F75.00
G01 X24.1700 Y-33.2435 F75.00
G01 X24.1660 Y-33.2579 F75.00
G01 X24.1327 Y-33.3530 F75.00
G01 X24.1269 Y-33.3668 F75.00
G01 X24.1224 Y-33.3757 F75.00
G01 X24.1149 Y-33.3886 F75.00
G01 X24.1094 Y-33.3969 F75.00
G01 X24.1004 Y-33.4089 F75.00
G01 X24.0905 Y-33.4201 F75.00
G01 X24.0193 Y-33.4913 F75.00
G01 X24.0119 Y-33.4980 F75.00
G01 X24.0002 Y-33.5074 F75.00
G01 X23.9836 Y-33.5184 F75.00
G01 X23.9704 Y-33.5255 F75.00
G01 X23.9521 Y-33.5335 F75.00
G01 X23.8569 Y-33.5668 F75.00
G01 X23.8422 Y-33.5709 F75.00
G01 X23.8322 Y-33.5731 F75.00
G01 X23.8171 Y-33.5753 F75.00
G01 X23.8069 Y-33.5761 F75.00
G01 X23.7729 Y-33.5777 F75.00
G01 X15.5153 Y-33.5777 F75.00
G01 X15.4865 Y-33.5767 F75.00
G01 X15.4540 Y-33.5740 F75.00
G01 X15.3890 Y-33.5828 F75.00
G01 X15.3202 Y-33.5903 F75.00
G01 X15.2552 Y-33.6142 F75.00
G01 X15.1844 Y-33.6381 F75.00
G01 X15.1215 Y-33.6783 F75.00
G01 X15.0622 Y-33.7140 F75.00
G01 X15.0092 Y-33.7667 F75.00
G01 X14.9577 Y-33.8156 F75.00
G01 X14.9395 Y-33.8363 F75.00
G01 X14.9334 Y-33.8427 F75.00
G01 X14.4255 Y-34.3506 F75.00
G01 X14.4045 Y-34.3701 F75.00
G01 X14.3796 Y-34.3913 F75.00
G01 X14.3398 Y-34.4435 F75.00
G01 X14.2965 Y-34.4974 F75.00
G01 X14.2674 Y-34.5602 F75.00
G01 X14.2343 Y-34.6272 F75.00
G01 X14.2194 Y-34.6948 F75.00
G01 X14.2015 Y-34.7673 F75.00
G01 X14.2014 Y-34.8420 F75.00
G01 X14.1995 Y-34.9130 F75.00
G01 X14.2013 Y-34.9406 F75.00
G01 X14.2015 Y-34.9494 F75.00
G01 X14.2014 Y-35.7587 F75.00
G01 X14.1999 Y-35.7786 F75.00
G01 X14.1965 Y-35.7982 F75.00
G01 X14.1751 Y-35.8916 F75.00
G01 X14.1709 Y-35.9059 F75.00
G01 X14.1656 Y-35.9199 F75.00
G01 X14.1593 Y-35.9335 F75.00
G01 X14.1545 Y-35.9422 F75.00
G01 X14.1437 Y-35.9590 F75.00
G01 X14.0779 Y-36.0418 F75.00
G01 X14.0643 Y-36.0564 F75.00
G01 X14.0494 Y-36.0696 F75.00
G01 X14.0332 Y-36.0812 F75.00
G01 X14.0203 Y-36.0888 F75.00
G01 X13.9253 Y-36.1348 F75.00
G01 X13.9120 Y-36.1403 F75.00
G01 X13.9029 Y-36.1434 F75.00
G01 X13.8843 Y-36.1483 F75.00
G01 X13.8701 Y-36.1507 F75.00
G01 X13.8110 Y-36.1572 F75.00
G01 X13.8020 Y-36.1576 F75.00
G01 X13.7754 Y-36.1577 F75.00
G01 X13.7261 Y-36.1655 F75.00
G01 X13.6667 Y-36.1958 F75.00
G01 X13.6196 Y-36.2429 F75.00
G01 X13.5893 Y-36.3023 F75.00
G01 X13.5815 Y-36.3516 F75.00
G01 X13.5815 Y-38.5248 F75.00
G01 X13.5920 Y-38.5909 F75.00
G01 X13.5959 Y-38.6075 F75.00
G01 X13.5982 Y-38.6223 F75.00
G01 X13.6068 Y-38.7177 F75.00
G01 X13.6076 Y-38.7370 F75.00
G01 X13.6070 Y-38.7515 F75.00
G01 X13.6045 Y-38.7706 F75.00
G01 X13.5945 Y-38.8157 F75.00
G01 X13.5920 Y-38.8256 F75.00
G01 X13.5815 Y-38.8916 F75.00
G01 X13.5815 Y-41.0648 F75.00
G01 X13.5920 Y-41.1309 F75.00
G01 X13.5959 Y-41.1475 F75.00
G01 X13.5982 Y-41.1623 F75.00
G01 X13.6068 Y-41.2577 F75.00
G01 X13.6076 Y-41.2770 F75.00
G01 X13.6070 Y-41.2915 F75.00
G01 X13.6045 Y-41.3106 F75.00
G01 X13.5945 Y-41.3557 F75.00
G01 X13.5920 Y-41.3656 F75.00
G01 X13.5815 Y-41.4316 F75.00
G01 X13.5815 Y-43.6048 F75.00
G01 X13.5919 Y-43.6706 F75.00
G01 X13.5962 Y-43.6883 F75.00
G01 X13.5985 Y-43.7031 F75.00
G01 X13.6071 Y-43.7985 F75.00
G01 X13.6079 Y-43.8178 F75.00
G01 X13.6068 Y-43.8371 F75.00
G01 X13.6048 Y-43.8514 F75.00
G01 X13.5925 Y-43.9055 F75.00
G01 X13.5820 Y-43.9717 F75.00
G01 X13.5820 Y-44.3582 F75.00
G01 X13.5920 Y-44.3582 F75.00
G01 X13.5921 Y-43.9833 F75.00
G01 X13.5930 Y-43.9686 F75.00
G01 X13.5949 Y-43.9540 F75.00
G01 X13.5969 Y-43.9444 F75.00
G01 X13.6006 Y-43.9301 F75.00
G01 X13.6054 Y-43.9162 F75.00
G01 X13.6092 Y-43.9072 F75.00
G01 X13.6156 Y-43.8939 F75.00
G01 X13.6230 Y-43.8812 F75.00
G01 X13.6285 Y-43.8730 F75.00
G01 X13.6374 Y-43.8613 F75.00
G01 X13.6472 Y-43.8503 F75.00
G01 X13.6577 Y-43.8400 F75.00
G01 X13.6690 Y-43.8305 F75.00
G01 X13.6768 Y-43.8247 F75.00
G01 X13.6892 Y-43.8167 F75.00
G01 X13.7021 Y-43.8096 F75.00
G01 X13.7155 Y-43.8034 F75.00
G01 X13.7246 Y-43.7999 F75.00
G01 X13.7387 Y-43.7954 F75.00
G01 X13.7530 Y-43.7920 F75.00
G01 X13.7724 Y-43.7892 F75.00
G01 X13.7920 Y-43.7882 F75.00
G01 X15.9369 Y-43.7883 F75.00
G01 X15.9565 Y-43.7897 F75.00
G01 X15.9758 Y-43.7931 F75.00
G01 X15.9947 Y-43.7983 F75.00
G01 X16.0130 Y-43.8054 F75.00
G01 X16.0306 Y-43.8142 F75.00
G01 X16.0472 Y-43.8247 F75.00
G01 X16.0589 Y-43.8336 F75.00
G01 X16.0734 Y-43.8468 F75.00
G01 X16.0866 Y-43.8613 F75.00
G01 X16.0983 Y-43.8771 F75.00
G01 X16.1084 Y-43.8939 F75.00
G01 X16.1148 Y-43.9072 F75.00
G01 X16.1219 Y-43.9255 F75.00
G01 X16.1271 Y-43.9444 F75.00
G01 X16.1305 Y-43.9637 F75.00
G01 X16.1319 Y-43.9833 F75.00
G01 X16.1320 Y-46.1282 F75.00
G01 X16.1310 Y-46.1478 F75.00
G01 X16.1282 Y-46.1672 F75.00
G01 X16.1248 Y-46.1815 F75.00
G01 X16.1203 Y-46.1956 F75.00
G01 X16.1148 Y-46.2092 F75.00
G01 X16.1106 Y-46.2181 F75.00
G01 X16.1060 Y-46.2268 F75.00
G01 X16.0983 Y-46.2393 F75.00
G01 X16.0897 Y-46.2512 F75.00
G01 X16.0802 Y-46.2625 F75.00
G01 X16.0699 Y-46.2730 F75.00
G01 X16.0589 Y-46.2828 F75.00
G01 X16.0472 Y-46.2917 F75.00
G01 X16.0390 Y-46.2972 F75.00
G01 X16.0263 Y-46.3046 F75.00
G01 X16.0175 Y-46.3090 F75.00
G01 X16.0040 Y-46.3148 F75.00
G01 X15.9901 Y-46.3196 F75.00
G01 X15.9806 Y-46.3222 F75.00
G01 X15.9662 Y-46.3253 F75.00
G01 X15.9516 Y-46.3272 F75.00
G01 X15.9369 Y-46.3281 F75.00
G01 X15.5620 Y-46.3282 F75.00
G01 X15.5620 Y-46.3382 F75.00
G01 X15.9485 Y-46.3382 F75.00
G01 X15.9977 Y-46.3304 F75.00
G01 X16.0570 Y-46.3002 F75.00
G01 X16.1040 Y-46.2532 F75.00
G01 X16.1342 Y-46.1939 F75.00
G01 X16.1420 Y-46.1447 F75.00
G01 X16.1422 Y-45.4627 F75.00
G01 X16.1442 Y-45.4429 F75.00
G01 X16.1470 Y-45.4282 F75.00
G01 X16.1684 Y-45.3348 F75.00
G01 X16.1743 Y-45.3158 F75.00
G01 X16.1799 Y-45.3019 F75.00
G01 X16.1890 Y-45.2842 F75.00
G01 X16.1970 Y-45.2715 F75.00
G01 X16.2058 Y-45.2595 F75.00
G01 X16.2689 Y-45.1809 F75.00
G01 X16.2756 Y-45.1736 F75.00
G01 X16.2865 Y-45.1632 F75.00
G01 X16.2980 Y-45.1538 F75.00
G01 X16.3061 Y-45.1480 F75.00
G01 X16.3188 Y-45.1400 F75.00
G01 X16.3320 Y-45.1330 F75.00
G01 X16.4182 Y-45.0916 F75.00
G01 X16.4361 Y-45.0845 F75.00
G01 X16.4545 Y-45.0792 F75.00
G01 X16.4734 Y-45.0757 F75.00
G01 X16.5281 Y-45.0695 F75.00
G01 X16.5460 Y-45.0687 F75.00
G01 X17.5861 Y-45.0688 F75.00
G01 X17.6059 Y-45.0703 F75.00
G01 X17.6256 Y-45.0737 F75.00
G01 X17.7189 Y-45.0951 F75.00
G01 X17.7330 Y-45.0992 F75.00
G01 X17.7422 Y-45.1026 F75.00
G01 X17.7557 Y-45.1084 F75.00
G01 X17.7645 Y-45.1128 F75.00
G01 X17.7813 Y-45.1230 F75.00
G01 X17.8449 Y-45.1682 F75.00
G01 X17.8562 Y-45.1772 F75.00
G01 X17.8633 Y-45.1837 F75.00
G01 X18.4030 Y-45.7232 F75.00
G01 X18.4225 Y-45.7443 F75.00
G01 X18.4437 Y-45.7691 F75.00
G01 X18.4959 Y-45.8090 F75.00
G01 X18.5498 Y-45.8523 F75.00
G01 X18.6127 Y-45.8814 F75.00
G01 X18.6796 Y-45.9145 F75.00
G01 X18.7525 Y-45.9306 F75.00
G01 X18.8197 Y-45.9473 F75.00
G01 X18.8944 Y-45.9474 F75.00
G01 X18.9654 Y-45.9493 F75.00
G01 X18.9930 Y-45.9475 F75.00
G01 X19.0018 Y-45.9473 F75.00
G01 X25.1619 Y-45.9473 F75.00
G01 X25.1768 Y-45.9479 F75.00
G01 X25.1867 Y-45.9489 F75.00
G01 X25.2015 Y-45.9513 F75.00
G01 X25.2949 Y-45.9725 F75.00
G01 X25.3088 Y-45.9762 F75.00
G01 X25.3224 Y-45.9809 F75.00
G01 X25.3356 Y-45.9866 F75.00
G01 X25.3484 Y-45.9932 F75.00
G01 X25.3647 Y-46.0034 F75.00
G01 X25.4390 Y-46.0604 F75.00
G01 X25.4471 Y-46.0669 F75.00
G01 X25.4548 Y-46.0739 F75.00
G01 X25.4621 Y-46.0812 F75.00
G01 X25.4691 Y-46.0889 F75.00
G01 X25.5779 Y-46.2163 F75.00
G01 X25.7347 Y-46.3503 F75.00
G01 X25.9106 Y-46.4581 F75.00
G01 X26.1012 Y-46.5370 F75.00
G01 X26.3018 Y-46.5852 F75.00
G01 X26.5074 Y-46.6014 F75.00
G01 X26.7130 Y-46.5852 F75.00
G01 X26.9136 Y-46.5370 F75.00
G01 X27.1042 Y-46.4581 F75.00
G01 X27.2801 Y-46.3503 F75.00
G01 X27.4171 Y-46.2332 F75.00
G01 X27.4289 Y-46.2240 F75.00
G01 X27.4370 Y-46.2183 F75.00
G01 X27.4542 Y-46.2082 F75.00
G01 X27.5391 Y-46.1638 F75.00
G01 X27.5574 Y-46.1559 F75.00
G01 X27.5716 Y-46.1512 F75.00
G01 X27.5861 Y-46.1475 F75.00
G01 X27.5959 Y-46.1457 F75.00
G01 X27.6157 Y-46.1435 F75.00
G01 X27.7164 Y-46.1402 F75.00
G01 X27.7314 Y-46.1406 F75.00
G01 X27.7463 Y-46.1421 F75.00
G01 X27.7658 Y-46.1459 F75.00
G01 X27.7802 Y-46.1500 F75.00
G01 X27.7896 Y-46.1533 F75.00
G01 X27.8819 Y-46.1938 F75.00
G01 X27.8954 Y-46.2003 F75.00
G01 X27.9083 Y-46.2078 F75.00
G01 X27.9206 Y-46.2163 F75.00
G01 X27.9360 Y-46.2290 F75.00
G01 X27.9467 Y-46.2395 F75.00
G01 X28.0155 Y-46.3197 F75.00
G01 X28.0216 Y-46.3276 F75.00
G01 X28.0300 Y-46.3400 F75.00
G01 X28.0350 Y-46.3486 F75.00
G01 X28.0418 Y-46.3620 F75.00
G01 X28.0475 Y-46.3758 F75.00
G01 X28.0508 Y-46.3852 F75.00
G01 X28.0768 Y-46.4825 F75.00
G01 X28.0790 Y-46.4919 F75.00
G01 X28.0815 Y-46.5062 F75.00
G01 X28.0830 Y-46.5206 F75.00
G01 X28.0835 Y-46.5404 F75.00
G01 X28.0835 Y-47.9761 F75.00
G01 X28.0825 Y-48.0048 F75.00
G01 X28.0798 Y-48.0373 F75.00
G01 X28.0886 Y-48.1024 F75.00
G01 X28.0961 Y-48.1712 F75.00
G01 X28.1200 Y-48.2361 F75.00
G01 X28.1439 Y-48.3069 F75.00
G01 X28.1812 Y-48.3652 F75.00
G01 X28.2198 Y-48.4292 F75.00
G01 X28.2725 Y-48.4821 F75.00
G01 X28.3214 Y-48.5336 F75.00
G01 X28.3421 Y-48.5518 F75.00
G01 X28.3485 Y-48.5579 F75.00
G01 X35.6784 Y-55.8878 F75.00
G01 X35.6918 Y-55.9026 F75.00
G01 X35.7036 Y-55.9187 F75.00
G01 X35.7573 Y-56.0040 F75.00
G01 X35.7644 Y-56.0171 F75.00
G01 X35.7706 Y-56.0307 F75.00
G01 X35.7757 Y-56.0448 F75.00
G01 X35.7797 Y-56.0592 F75.00
G01 X35.7827 Y-56.0739 F75.00
G01 X35.7841 Y-56.0837 F75.00
G01 X35.7947 Y-56.1789 F75.00
G01 X35.7953 Y-56.1889 F75.00
G01 X35.7953 Y-56.2038 F75.00
G01 X35.7942 Y-56.2187 F75.00
G01 X35.7929 Y-56.2286 F75.00
G01 X35.7899 Y-56.2433 F75.00
G01 X35.7858 Y-56.2577 F75.00
G01 X35.7526 Y-56.3528 F75.00
G01 X35.7468 Y-56.3666 F75.00
G01 X35.7423 Y-56.3755 F75.00
G01 X35.7348 Y-56.3884 F75.00
G01 X35.7264 Y-56.4008 F75.00
G01 X35.7171 Y-56.4125 F75.00
G01 X35.7104 Y-56.4199 F75.00
G01 X35.6391 Y-56.4911 F75.00
G01 X35.6318 Y-56.4978 F75.00
G01 X35.6201 Y-56.5072 F75.00
G01 X35.6077 Y-56.5156 F75.00
G01 X35.5991 Y-56.5207 F75.00
G01 X35.5858 Y-56.5275 F75.00
G01 X35.5720 Y-56.5333 F75.00
G01 X35.4719 Y-56.5681 F75.00
G01 X35.4571 Y-56.5719 F75.00
G01 X35.4420 Y-56.5745 F75.00
G01 X35.4319 Y-56.5756 F75.00
G01 X35.4040 Y-56.5772 F75.00
G01 X35.3928 Y-56.5775 F75.00
G01 X26.6413 Y-56.5775 F75.00
G01 X26.6214 Y-56.5765 F75.00
G01 X26.6017 Y-56.5735 F75.00
G01 X26.5083 Y-56.5523 F75.00
G01 X26.4988 Y-56.5499 F75.00
G01 X26.4848 Y-56.5454 F75.00
G01 X26.4711 Y-56.5399 F75.00
G01 X26.4623 Y-56.5356 F75.00
G01 X26.4536 Y-56.5310 F75.00
G01 X26.4411 Y-56.5232 F75.00
G01 X26.3775 Y-56.4780 F75.00
G01 X26.3662 Y-56.4690 F75.00
G01 X26.3557 Y-56.4592 F75.00
G01 X19.5982 Y-49.7017 F75.00
G01 X19.5787 Y-49.6807 F75.00
G01 X19.5575 Y-49.6559 F75.00
G01 X19.5053 Y-49.6161 F75.00
G01 X19.4514 Y-49.5727 F75.00
G01 X19.3885 Y-49.5436 F75.00
G01 X19.3216 Y-49.5105 F75.00
G01 X19.2487 Y-49.4944 F75.00
G01 X19.1815 Y-49.4777 F75.00
G01 X19.1123 Y-49.4777 F75.00
G01 X19.0756 Y-49.4768 F75.00
G01 X19.0606 Y-49.4758 F75.00
G01 X19.0458 Y-49.4737 F75.00
G01 X19.0312 Y-49.4706 F75.00
G01 X18.9337 Y-49.4452 F75.00
G01 X18.9150 Y-49.4384 F75.00
G01 X18.9014 Y-49.4320 F75.00
G01 X18.8884 Y-49.4247 F75.00
G01 X18.8759 Y-49.4164 F75.00
G01 X18.8641 Y-49.4072 F75.00
G01 X18.7947 Y-49.3487 F75.00
G01 X18.7837 Y-49.3386 F75.00
G01 X18.7734 Y-49.3278 F75.00
G01 X18.7639 Y-49.3162 F75.00
G01 X18.7554 Y-49.3039 F75.00
G01 X18.7478 Y-49.2910 F75.00
G01 X18.7411 Y-49.2776 F75.00
G01 X18.7040 Y-49.1948 F75.00
G01 X18.6968 Y-49.1763 F75.00
G01 X18.6914 Y-49.1571 F75.00
G01 X18.6880 Y-49.1376 F75.00
G01 X18.6830 Y-49.0877 F75.00
G01 X18.6826 Y-49.0779 F75.00
G01 X18.6825 Y-49.0516 F75.00
G01 X18.6747 Y-49.0023 F75.00
G01 X18.6444 Y-48.9429 F75.00
G01 X18.5973 Y-48.8958 F75.00
G01 X18.5379 Y-48.8655 F75.00
G01 X18.4886 Y-48.8577 F75.00
G01 X16.3154 Y-48.8577 F75.00
G01 X16.2661 Y-48.8655 F75.00
G01 X16.2067 Y-48.8958 F75.00
G01 X16.1596 Y-48.9429 F75.00
G01 X16.1293 Y-49.0023 F75.00
G01 X16.1215 Y-49.0516 F75.00
G01 X16.1213 Y-49.7342 F75.00
G01 X16.1199 Y-49.7491 F75.00
G01 X16.1175 Y-49.7638 F75.00
G01 X16.0951 Y-49.8621 F75.00
G01 X16.0909 Y-49.8764 F75.00
G01 X16.0875 Y-49.8858 F75.00
G01 X16.0836 Y-49.8950 F75.00
G01 X16.0769 Y-49.9084 F75.00
G01 X16.0693 Y-49.9212 F75.00
G01 X16.0607 Y-49.9335 F75.00
G01 X16.0011 Y-50.0084 F75.00
G01 X15.9879 Y-50.0233 F75.00
G01 X15.9732 Y-50.0369 F75.00
G01 X15.9574 Y-50.0489 F75.00
G01 X15.9403 Y-50.0593 F75.00
G01 X15.8409 Y-50.1072 F75.00
G01 X15.8229 Y-50.1139 F75.00
G01 X15.8090 Y-50.1177 F75.00
G01 X15.7996 Y-50.1197 F75.00
G01 X15.7853 Y-50.1218 F75.00
G01 X15.7310 Y-50.1277 F75.00
G01 X15.7175 Y-50.1282 F75.00
G01 X15.5620 Y-50.1282 F75.00
G01 X15.5620 Y-50.1382 F75.00
G01 X15.9369 Y-50.1383 F75.00
G01 X15.9467 Y-50.1387 F75.00
G01 X15.9613 Y-50.1404 F75.00
G01 X15.9758 Y-50.1431 F75.00
G01 X15.9901 Y-50.1468 F75.00
G01 X16.0040 Y-50.1516 F75.00
G01 X16.0175 Y-50.1574 F75.00
G01 X16.0306 Y-50.1642 F75.00
G01 X16.0390 Y-50.1692 F75.00
G01 X16.0511 Y-50.1776 F75.00
G01 X16.0589 Y-50.1836 F75.00
G01 X16.0699 Y-50.1934 F75.00
G01 X16.0802 Y-50.2039 F75.00
G01 X16.0866 Y-50.2113 F75.00
G01 X16.0955 Y-50.2230 F75.00
G01 X16.1035 Y-50.2354 F75.00
G01 X16.1084 Y-50.2439 F75.00
G01 X16.1128 Y-50.2527 F75.00
G01 X16.1186 Y-50.2662 F75.00
G01 X16.1234 Y-50.2801 F75.00
G01 X16.1271 Y-50.2944 F75.00
G01 X16.1291 Y-50.3040 F75.00
G01 X16.1310 Y-50.3186 F75.00
G01 X16.1320 Y-50.3382 F75.00
G01 X16.1319 Y-52.4831 F75.00
G01 X16.1310 Y-52.4978 F75.00
G01 X16.1291 Y-52.5124 F75.00
G01 X16.1248 Y-52.5315 F75.00
G01 X16.1203 Y-52.5456 F75.00
G01 X16.1148 Y-52.5592 F75.00
G01 X16.1060 Y-52.5768 F75.00
G01 X16.0983 Y-52.5893 F75.00
G01 X16.0866 Y-52.6051 F75.00
G01 X16.0734 Y-52.6196 F75.00
G01 X16.0626 Y-52.6296 F75.00
G01 X16.0550 Y-52.6359 F75.00
G01 X16.0390 Y-52.6472 F75.00
G01 X16.0263 Y-52.6546 F75.00
G01 X16.0175 Y-52.6590 F75.00
G01 X16.0085 Y-52.6630 F75.00
G01 X15.9947 Y-52.6681 F75.00
G01 X15.9758 Y-52.6733 F75.00
G01 X15.9565 Y-52.6767 F75.00
G01 X15.9369 Y-52.6781 F75.00
G01 X13.7920 Y-52.6782 F75.00
G01 X13.7724 Y-52.6772 F75.00
G01 X13.7530 Y-52.6744 F75.00
G01 X13.7434 Y-52.6722 F75.00
G01 X13.7293 Y-52.6681 F75.00
G01 X13.7155 Y-52.6630 F75.00
G01 X13.7021 Y-52.6568 F75.00
G01 X13.6892 Y-52.6497 F75.00
G01 X13.6809 Y-52.6445 F75.00
G01 X13.6690 Y-52.6359 F75.00
G01 X13.6577 Y-52.6264 F75.00
G01 X13.6506 Y-52.6196 F75.00
G01 X13.6406 Y-52.6088 F75.00
G01 X13.6314 Y-52.5973 F75.00
G01 X13.6230 Y-52.5852 F75.00
G01 X13.6180 Y-52.5768 F75.00
G01 X13.6112 Y-52.5637 F75.00
G01 X13.6054 Y-52.5502 F75.00
G01 X13.6006 Y-52.5363 F75.00
G01 X13.5969 Y-52.5220 F75.00
G01 X13.5942 Y-52.5075 F75.00
G01 X13.5925 Y-52.4929 F75.00
G01 X13.5921 Y-52.4831 F75.00
G01 X13.5920 Y-52.1082 F75.00
G01 X13.5820 Y-52.1082 F75.00
G01 X13.5820 Y-52.4947 F75.00
G01 X13.5925 Y-52.5609 F75.00
G01 X13.5962 Y-52.5767 F75.00
G01 X13.5984 Y-52.5915 F75.00
G01 X13.6071 Y-52.6868 F75.00
G01 X13.6079 Y-52.7062 F75.00
G01 X13.6073 Y-52.7206 F75.00
G01 X13.6048 Y-52.7398 F75.00
G01 X13.5947 Y-52.7849 F75.00
G01 X13.5919 Y-52.7958 F75.00
G01 X13.5815 Y-52.8616 F75.00
G01 X13.5815 Y-55.0348 F75.00
G01 X13.5920 Y-55.1009 F75.00
G01 X13.5959 Y-55.1175 F75.00
G01 X13.5982 Y-55.1323 F75.00
G01 X13.6068 Y-55.2277 F75.00
G01 X13.6076 Y-55.2470 F75.00
G01 X13.6070 Y-55.2615 F75.00
G01 X13.6045 Y-55.2806 F75.00
G01 X13.5945 Y-55.3257 F75.00
G01 X13.5920 Y-55.3356 F75.00
G01 X13.5815 Y-55.4016 F75.00
G01 X13.5815 Y-57.5748 F75.00
G01 X13.5920 Y-57.6409 F75.00
G01 X13.5959 Y-57.6575 F75.00
G01 X13.5982 Y-57.6723 F75.00
G01 X13.6068 Y-57.7677 F75.00
G01 X13.6076 Y-57.7870 F75.00
G01 X13.6070 Y-57.8015 F75.00
G01 X13.6045 Y-57.8206 F75.00
G01 X13.5945 Y-57.8657 F75.00
G01 X13.5920 Y-57.8756 F75.00
G01 X13.5815 Y-57.9416 F75.00
G01 X13.5815 Y-60.1148 F75.00
G01 X13.5893 Y-60.1641 F75.00
G01 X13.6196 Y-60.2235 F75.00
G01 X13.6667 Y-60.2706 F75.00
G01 X13.7261 Y-60.3009 F75.00
G01 X13.7754 Y-60.3087 F75.00
G01 X15.0461 Y-60.3088 F75.00
G01 X15.0659 Y-60.3103 F75.00
G01 X15.0807 Y-60.3127 F75.00
G01 X15.1836 Y-60.3363 F75.00
G01 X15.2022 Y-60.3426 F75.00
G01 X15.2157 Y-60.3484 F75.00
G01 X15.2288 Y-60.3552 F75.00
G01 X15.2413 Y-60.3630 F75.00
G01 X15.3049 Y-60.4082 F75.00
G01 X15.3162 Y-60.4172 F75.00
G01 X15.3267 Y-60.4270 F75.00
G01 X17.8142 Y-62.9144 F75.00
G01 X17.8337 Y-62.9355 F75.00
G01 X17.8549 Y-62.9603 F75.00
G01 X17.9071 Y-63.0002 F75.00
G01 X17.9610 Y-63.0435 F75.00
G01 X18.0239 Y-63.0726 F75.00
G01 X18.0908 Y-63.1057 F75.00
G01 X18.1637 Y-63.1218 F75.00
G01 X18.2309 Y-63.1385 F75.00
G01 X18.3056 Y-63.1386 F75.00
G01 X18.3766 Y-63.1405 F75.00
G01 X18.4042 Y-63.1387 F75.00
G01 X18.4130 Y-63.1385 F75.00
G01 X65.0323 Y-63.1385 F75.00
G01 X65.0611 Y-63.1395 F75.00
G01 X65.0936 Y-63.1422 F75.00
G01 X65.1586 Y-63.1334 F75.00
G01 X65.2274 Y-63.1259 F75.00
G01 X65.2924 Y-63.1020 F75.00
G01 X65.3632 Y-63.0781 F75.00
G01 X65.4261 Y-63.0380 F75.00
G01 X65.4854 Y-63.0022 F75.00
G01 X65.5345 Y-62.9533 F75.00
G01 X65.5899 Y-62.9006 F75.00
G01 X65.6081 Y-62.8799 F75.00
G01 X65.6142 Y-62.8735 F75.00
G01 X94.8889 Y-33.5988 F75.00
G01 X94.9099 Y-33.5792 F75.00
G01 X94.9347 Y-33.5581 F75.00
G01 X94.9746 Y-33.5059 F75.00
G01 X95.0179 Y-33.4520 F75.00
G01 X95.0493 Y-33.3843 F75.00
G01 X95.0801 Y-33.3222 F75.00
G01 X95.0962 Y-33.2493 F75.00
G01 X95.1129 Y-33.1821 F75.00
G01 X95.1130 Y-33.1074 F75.00
G01 X95.1149 Y-33.0364 F75.00
G01 X95.1131 Y-33.0088 F75.00
G01 X95.1129 Y-33.0000 F75.00
G01 X95.1129 Y-19.6754 F75.00
G01 X95.1139 Y-19.6466 F75.00
G01 X95.1166 Y-19.6141 F75.00
G01 X95.1078 Y-19.5490 F75.00
G01 X95.1003 Y-19.4803 F75.00
G01 X95.0764 Y-19.4153 F75.00
G01 X95.0525 Y-19.3445 F75.00
G01 X95.0152 Y-19.2862 F75.00
G01 X94.9766 Y-19.2223 F75.00
G01 X94.9239 Y-19.1694 F75.00
G01 X94.8750 Y-19.1178 F75.00
G01 X94.8543 Y-19.0996 F75.00
G01 X94.8479 Y-19.0935 F75.00
G01 X93.5584 Y-17.8039 F75.00
G01 X93.5454 Y-17.7888 F75.00
G01 X93.5366 Y-17.7766 F75.00
G01 X93.4830 Y-17.6913 F75.00
G01 X93.4781 Y-17.6826 F75.00
G01 X93.4717 Y-17.6691 F75.00
G01 X93.4679 Y-17.6599 F75.00
G01 X93.4631 Y-17.6457 F75.00
G01 X93.4594 Y-17.6312 F75.00
G01 X93.4568 Y-17.6165 F75.00
G01 X93.4461 Y-17.5213 F75.00
G01 X93.4448 Y-17.5014 F75.00
G01 X93.4456 Y-17.4815 F75.00
G01 X93.4483 Y-17.4618 F75.00
G01 X93.4530 Y-17.4424 F75.00
G01 X93.4895 Y-17.3379 F75.00
G01 X93.4980 Y-17.3198 F75.00
G01 X93.5054 Y-17.3068 F75.00
G01 X93.5169 Y-17.2905 F75.00
G01 X93.5265 Y-17.2791 F75.00
G01 X93.6011 Y-17.2042 F75.00
G01 X93.6159 Y-17.1914 F75.00
G01 X93.6294 Y-17.1818 F75.00
G01 X93.6815 Y-17.1298 F75.00
G01 X93.7117 Y-17.0705 F75.00
G01 X93.7195 Y-17.0212 F75.00
G01 X93.7195 Y-14.8480 F75.00
G01 X93.7117 Y-14.7987 F75.00
G01 X93.6814 Y-14.7393 F75.00
G01 X93.6343 Y-14.6922 F75.00
G01 X93.5749 Y-14.6619 F75.00
G01 X93.5256 Y-14.6541 F75.00
G01 X91.3524 Y-14.6541 F75.00
G01 X91.2863 Y-14.6646 F75.00
G01 X91.2697 Y-14.6685 F75.00
G01 X91.2549 Y-14.6708 F75.00
G01 X91.1595 Y-14.6794 F75.00
G01 X91.1402 Y-14.6802 F75.00
G01 X91.1257 Y-14.6796 F75.00
G01 X91.1066 Y-14.6771 F75.00
G01 X91.0614 Y-14.6671 F75.00
G01 X91.0516 Y-14.6646 F75.00
G01 X90.9856 Y-14.6541 F75.00
G01 X88.8124 Y-14.6541 F75.00
G01 X88.7466 Y-14.6645 F75.00
G01 X88.7289 Y-14.6688 F75.00
G01 X88.7141 Y-14.6711 F75.00
G01 X88.6187 Y-14.6797 F75.00
G01 X88.5994 Y-14.6805 F75.00
G01 X88.5849 Y-14.6799 F75.00
G01 X88.5658 Y-14.6774 F75.00
G01 X88.5116 Y-14.6651 F75.00
G01 X88.4455 Y-14.6546 F75.00
G01 X88.0590 Y-14.6546 F75.00
G01 X88.0590 Y-14.6646 F75.00
G01 X88.4339 Y-14.6647 F75.00
G01 X88.4437 Y-14.6651 F75.00
G01 X88.4583 Y-14.6668 F75.00
G01 X88.4728 Y-14.6695 F75.00
G01 X88.4823 Y-14.6718 F75.00
G01 X88.4964 Y-14.6763 F75.00
G01 X88.5100 Y-14.6818 F75.00
G01 X88.5233 Y-14.6882 F75.00
G01 X88.5318 Y-14.6931 F75.00
G01 X88.5401 Y-14.6983 F75.00
G01 X88.5520 Y-14.7069 F75.00
G01 X88.5633 Y-14.7164 F75.00
G01 X88.5704 Y-14.7232 F75.00
G01 X88.5804 Y-14.7340 F75.00
G01 X88.5896 Y-14.7455 F75.00
G01 X88.5980 Y-14.7576 F75.00
G01 X88.6030 Y-14.7660 F75.00
G01 X88.6098 Y-14.7791 F75.00
G01 X88.6138 Y-14.7881 F75.00
G01 X88.6189 Y-14.8019 F75.00
G01 X88.6230 Y-14.8160 F75.00
G01 X88.6261 Y-14.8304 F75.00
G01 X88.6275 Y-14.8401 F75.00
G01 X88.6288 Y-14.8548 F75.00
G01 X88.6290 Y-14.8646 F75.00
G01 X88.6290 Y-17.0046 F75.00
G01 X88.6285 Y-17.0193 F75.00
G01 X88.6268 Y-17.0339 F75.00
G01 X88.6241 Y-17.0484 F75.00
G01 X88.6204 Y-17.0627 F75.00
G01 X88.6156 Y-17.0766 F75.00
G01 X88.6098 Y-17.0901 F75.00
G01 X88.6005 Y-17.1074 F75.00
G01 X88.5925 Y-17.1198 F75.00
G01 X88.5836 Y-17.1315 F75.00
G01 X88.5738 Y-17.1425 F75.00
G01 X88.5596 Y-17.1560 F75.00
G01 X88.5481 Y-17.1652 F75.00
G01 X88.5360 Y-17.1736 F75.00
G01 X88.5233 Y-17.1810 F75.00
G01 X88.5100 Y-17.1874 F75.00
G01 X88.4964 Y-17.1929 F75.00
G01 X88.4823 Y-17.1974 F75.00
G01 X88.4680 Y-17.2008 F75.00
G01 X88.4535 Y-17.2031 F75.00
G01 X88.4339 Y-17.2045 F75.00
G01 X88.0590 Y-17.2046 F75.00
G01 X88.0590 Y-17.2146 F75.00
G01 X88.4455 Y-17.2146 F75.00
G01 X88.5117 Y-17.2041 F75.00
G01 X88.5275 Y-17.2004 F75.00
G01 X88.5422 Y-17.1982 F75.00
G01 X88.6376 Y-17.1895 F75.00
G01 X88.6569 Y-17.1887 F75.00
G01 X88.6762 Y-17.1898 F75.00
G01 X88.6906 Y-17.1918 F75.00
G01 X88.7357 Y-17.2019 F75.00
G01 X88.7466 Y-17.2047 F75.00
G01 X88.8124 Y-17.2151 F75.00
G01 X90.9856 Y-17.2151 F75.00
G01 X91.0517 Y-17.2046 F75.00
G01 X91.0683 Y-17.2007 F75.00
G01 X91.0831 Y-17.1984 F75.00
G01 X91.1784 Y-17.1898 F75.00
G01 X91.1978 Y-17.1890 F75.00
G01 X91.2171 Y-17.1900 F75.00
G01 X91.2314 Y-17.1921 F75.00
G01 X91.2766 Y-17.2021 F75.00
G01 X91.2864 Y-17.2046 F75.00
G01 X91.3524 Y-17.2151 F75.00
G01 X91.3759 Y-17.2152 F75.00
G01 X91.3859 Y-17.2157 F75.00
G01 X91.4007 Y-17.2173 F75.00
G01 X91.4106 Y-17.2191 F75.00
G01 X91.5088 Y-17.2415 F75.00
G01 X91.5279 Y-17.2474 F75.00
G01 X91.5462 Y-17.2551 F75.00
G01 X91.5594 Y-17.2621 F75.00
G01 X91.5680 Y-17.2673 F75.00
G01 X91.5841 Y-17.2789 F75.00
G01 X91.6590 Y-17.3387 F75.00
G01 X91.6701 Y-17.3487 F75.00
G01 X91.6804 Y-17.3596 F75.00
G01 X91.6868 Y-17.3672 F75.00
G01 X91.6957 Y-17.3792 F75.00
G01 X91.7061 Y-17.3962 F75.00
G01 X91.7500 Y-17.4869 F75.00
G01 X91.7560 Y-17.5007 F75.00
G01 X91.7610 Y-17.5150 F75.00
G01 X91.7649 Y-17.5296 F75.00
G01 X91.7677 Y-17.5444 F75.00
G01 X91.7693 Y-17.5594 F75.00
G01 X91.7738 Y-17.6213 F75.00
G01 X91.7742 Y-17.6322 F75.00
G01 X91.7836 Y-17.7018 F75.00
G01 X91.7911 Y-17.7705 F75.00
G01 X91.8168 Y-17.8407 F75.00
G01 X91.8389 Y-17.9063 F75.00
G01 X91.8762 Y-17.9646 F75.00
G01 X91.9148 Y-18.0285 F75.00
G01 X91.9675 Y-18.0814 F75.00
G01 X92.0164 Y-18.1330 F75.00
G01 X92.0371 Y-18.1512 F75.00
G01 X92.0435 Y-18.1573 F75.00
G01 X93.6771 Y-19.7909 F75.00
G01 X93.6869 Y-19.8021 F75.00
G01 X93.6988 Y-19.8182 F75.00
G01 X93.7498 Y-19.8992 F75.00
G01 X93.7572 Y-19.9120 F75.00
G01 X93.7615 Y-19.9208 F75.00
G01 X93.7690 Y-19.9389 F75.00
G01 X93.7734 Y-19.9530 F75.00
G01 X93.7776 Y-19.9722 F75.00
G01 X93.7898 Y-20.0443 F75.00
G01 X93.7914 Y-20.0586 F75.00
G01 X93.7919 Y-20.0730 F75.00
G01 X93.7918 Y-29.4951 F75.00
G01 X93.7903 Y-29.5150 F75.00
G01 X93.7879 Y-29.5297 F75.00
G01 X93.7655 Y-29.6280 F75.00
G01 X93.7628 Y-29.6376 F75.00
G01 X93.7579 Y-29.6517 F75.00
G01 X93.7540 Y-29.6609 F75.00
G01 X93.7473 Y-29.6743 F75.00
G01 X93.7397 Y-29.6871 F75.00
G01 X93.7311 Y-29.6994 F75.00
G01 X93.6715 Y-29.7743 F75.00
G01 X93.6617 Y-29.7856 F75.00
G01 X93.6474 Y-29.7996 F75.00
G01 X93.6359 Y-29.8090 F75.00
G01 X93.6236 Y-29.8176 F75.00
G01 X93.6063 Y-29.8276 F75.00
G01 X93.5157 Y-29.8712 F75.00
G01 X93.5069 Y-29.8750 F75.00
G01 X93.4933 Y-29.8798 F75.00
G01 X93.4794 Y-29.8836 F75.00
G01 X93.4605 Y-29.8871 F75.00
G01 X93.4103 Y-29.8928 F75.00
G01 X93.3969 Y-29.8939 F75.00
G01 X91.3524 Y-29.8941 F75.00
G01 X91.2863 Y-29.9046 F75.00
G01 X91.2697 Y-29.9085 F75.00
G01 X91.2549 Y-29.9108 F75.00
G01 X91.1595 Y-29.9194 F75.00
G01 X91.1402 Y-29.9202 F75.00
G01 X91.1209 Y-29.9192 F75.00
G01 X91.1066 Y-29.9171 F75.00
G01 X91.0614 Y-29.9071 F75.00
G01 X91.0516 Y-29.9046 F75.00
G01 X90.9856 Y-29.8941 F75.00
G01 X88.8124 Y-29.8941 F75.00
G01 X88.7463 Y-29.9046 F75.00
G01 X88.7297 Y-29.9085 F75.00
G01 X88.7149 Y-29.9108 F75.00
G01 X88.6195 Y-29.9194 F75.00
G01 X88.6002 Y-29.9202 F75.00
G01 X88.5857 Y-29.9196 F75.00
G01 X88.5666 Y-29.9171 F75.00
G01 X88.5214 Y-29.9071 F75.00
G01 X88.5116 Y-29.9046 F75.00
G01 X88.4456 Y-29.8941 F75.00
G01 X86.2724 Y-29.8941 F75.00
G01 X86.2063 Y-29.9046 F75.00
G01 X86.1897 Y-29.9085 F75.00
G01 X86.1749 Y-29.9108 F75.00
G01 X86.0795 Y-29.9194 F75.00
G01 X86.0602 Y-29.9202 F75.00
G01 X86.0409 Y-29.9192 F75.00
G01 X86.0266 Y-29.9171 F75.00
G01 X85.9814 Y-29.9071 F75.00
G01 X85.9716 Y-29.9046 F75.00
G01 X85.9056 Y-29.8941 F75.00
G01 X83.7324 Y-29.8941 F75.00
G01 X83.6663 Y-29.9046 F75.00
G01 X83.6497 Y-29.9085 F75.00
G01 X83.6349 Y-29.9108 F75.00
G01 X83.5395 Y-29.9194 F75.00
G01 X83.5202 Y-29.9202 F75.00
G01 X83.5057 Y-29.9196 F75.00
G01 X83.4866 Y-29.9171 F75.00
G01 X83.4414 Y-29.9071 F75.00
G01 X83.4316 Y-29.9046 F75.00
G01 X83.3656 Y-29.8941 F75.00
G01 X81.1924 Y-29.8941 F75.00
G01 X81.1263 Y-29.9046 F75.00
G01 X81.1097 Y-29.9085 F75.00
G01 X81.0949 Y-29.9108 F75.00
G01 X80.9995 Y-29.9194 F75.00
G01 X80.9802 Y-29.9202 F75.00
G01 X80.9609 Y-29.9192 F75.00
G01 X80.9466 Y-29.9171 F75.00
G01 X80.9014 Y-29.9071 F75.00
G01 X80.8916 Y-29.9046 F75.00
G01 X80.8256 Y-29.8941 F75.00
G01 X78.6524 Y-29.8941 F75.00
G01 X78.5863 Y-29.9046 F75.00
G01 X78.5697 Y-29.9085 F75.00
G01 X78.5549 Y-29.9108 F75.00
G01 X78.4595 Y-29.9194 F75.00
G01 X78.4402 Y-29.9202 F75.00
G01 X78.4257 Y-29.9196 F75.00
G01 X78.4066 Y-29.9171 F75.00
G01 X78.3614 Y-29.9071 F75.00
G01 X78.3516 Y-29.9046 F75.00
G01 X78.2856 Y-29.8941 F75.00
G01 X76.1124 Y-29.8941 F75.00
G01 X76.0463 Y-29.9046 F75.00
G01 X76.0297 Y-29.9085 F75.00
G01 X76.0149 Y-29.9108 F75.00
G01 X75.9195 Y-29.9194 F75.00
G01 X75.9002 Y-29.9202 F75.00
G01 X75.8809 Y-29.9192 F75.00
G01 X75.8666 Y-29.9171 F75.00
G01 X75.8214 Y-29.9071 F75.00
G01 X75.8116 Y-29.9046 F75.00
G01 X75.7456 Y-29.8941 F75.00
G01 X73.5724 Y-29.8941 F75.00
G01 X73.5063 Y-29.9046 F75.00
G01 X73.4897 Y-29.9085 F75.00
G01 X73.4749 Y-29.9108 F75.00
G01 X73.3795 Y-29.9194 F75.00
G01 X73.3602 Y-29.9202 F75.00
G01 X73.3457 Y-29.9196 F75.00
G01 X73.3266 Y-29.9171 F75.00
G01 X73.2814 Y-29.9071 F75.00
G01 X73.2716 Y-29.9046 F75.00
G01 X73.2056 Y-29.8941 F75.00
G01 X71.0324 Y-29.8941 F75.00
G01 X70.9663 Y-29.9046 F75.00
G01 X70.9497 Y-29.9085 F75.00
G01 X70.9349 Y-29.9108 F75.00
G01 X70.8395 Y-29.9194 F75.00
G01 X70.8202 Y-29.9202 F75.00
G01 X70.8057 Y-29.9196 F75.00
G01 X70.7866 Y-29.9171 F75.00
G01 X70.7414 Y-29.9071 F75.00
G01 X70.7316 Y-29.9046 F75.00
G01 X70.6656 Y-29.8941 F75.00
G01 X68.4924 Y-29.8941 F75.00
G01 X68.4263 Y-29.9046 F75.00
G01 X68.4097 Y-29.9085 F75.00
G01 X68.3949 Y-29.9108 F75.00
G01 X68.2995 Y-29.9194 F75.00
G01 X68.2802 Y-29.9202 F75.00
G01 X68.2609 Y-29.9192 F75.00
G01 X68.2466 Y-29.9171 F75.00
G01 X68.2014 Y-29.9071 F75.00
G01 X68.1916 Y-29.9046 F75.00
G01 X68.1256 Y-29.8941 F75.00
G01 X65.9524 Y-29.8941 F75.00
G01 X65.8863 Y-29.9046 F75.00
G01 X65.8697 Y-29.9085 F75.00
G01 X65.8549 Y-29.9108 F75.00
G01 X65.7595 Y-29.9194 F75.00
G01 X65.7402 Y-29.9202 F75.00
G01 X65.7257 Y-29.9196 F75.00
G01 X65.7066 Y-29.9171 F75.00
G01 X65.6614 Y-29.9071 F75.00
G01 X65.6516 Y-29.9046 F75.00
G01 X65.5856 Y-29.8941 F75.00
G01 X63.4124 Y-29.8941 F75.00
G01 X63.3463 Y-29.9046 F75.00
G01 X63.3297 Y-29.9085 F75.00
G01 X63.3149 Y-29.9108 F75.00
G01 X63.2195 Y-29.9194 F75.00
G01 X63.2002 Y-29.9202 F75.00
G01 X63.1809 Y-29.9192 F75.00
G01 X63.1666 Y-29.9171 F75.00
G01 X63.1214 Y-29.9071 F75.00
G01 X63.1116 Y-29.9046 F75.00
G01 X63.0456 Y-29.8941 F75.00
G01 X60.8724 Y-29.8941 F75.00
G01 X60.8063 Y-29.9046 F75.00
G01 X60.7897 Y-29.9085 F75.00
G01 X60.7749 Y-29.9108 F75.00
G01 X60.6795 Y-29.9194 F75.00
G01 X60.6602 Y-29.9202 F75.00
G01 X60.6409 Y-29.9192 F75.00
G01 X60.6266 Y-29.9171 F75.00
G01 X60.5814 Y-29.9071 F75.00
G01 X60.5716 Y-29.9046 F75.00
G01 X60.5056 Y-29.8941 F75.00
G01 X58.3324 Y-29.8941 F75.00
G01 X58.2831 Y-29.9019 F75.00
G01 X58.2237 Y-29.9322 F75.00
G01 X58.1766 Y-29.9793 F75.00
G01 X58.1463 Y-30.0387 F75.00
G01 X58.1385 Y-30.0880 F75.00
G01 X58.1384 Y-30.1405 F75.00
G01 X58.1375 Y-30.1554 F75.00
G01 X58.1363 Y-30.1653 F75.00
G01 X58.1335 Y-30.1800 F75.00
G01 X58.1108 Y-30.2782 F75.00
G01 X58.1045 Y-30.2971 F75.00
G01 X58.0963 Y-30.3153 F75.00
G01 X58.0863 Y-30.3325 F75.00
G01 X58.0747 Y-30.3487 F75.00
G01 X58.0116 Y-30.4273 F75.00
G01 X57.9977 Y-30.4416 F75.00
G01 X57.9825 Y-30.4544 F75.00
G01 X57.9660 Y-30.4657 F75.00
G01 X57.9485 Y-30.4752 F75.00
G01 X57.8623 Y-30.5166 F75.00
G01 X57.8490 Y-30.5221 F75.00
G01 X57.8353 Y-30.5266 F75.00
G01 X57.8213 Y-30.5301 F75.00
G01 X57.8071 Y-30.5325 F75.00
G01 X57.7569 Y-30.5382 F75.00
G01 X57.7390 Y-30.5394 F75.00
G01 X57.5032 Y-30.5395 F75.00
G01 X57.4885 Y-30.5390 F75.00
G01 X57.4738 Y-30.5373 F75.00
G01 X57.3861 Y-30.5201 F75.00
G01 X57.3765 Y-30.5180 F75.00
G01 X57.3624 Y-30.5139 F75.00
G01 X57.3486 Y-30.5087 F75.00
G01 X57.2062 Y-30.4498 F75.00
G01 X57.0056 Y-30.4016 F75.00
G01 X56.8000 Y-30.3854 F75.00
G01 X56.5944 Y-30.4016 F75.00
G01 X56.3938 Y-30.4498 F75.00
G01 X56.2032 Y-30.5287 F75.00
G01 X56.0273 Y-30.6365 F75.00
G01 X55.8705 Y-30.7705 F75.00
G01 X55.7365 Y-30.9273 F75.00
G01 X55.6287 Y-31.1032 F75.00
G01 X55.5498 Y-31.2938 F75.00
G01 X55.5016 Y-31.4944 F75.00
G01 X55.4854 Y-31.7000 F75.00
G01 X55.5016 Y-31.9056 F75.00
G01 X55.5498 Y-32.1062 F75.00
G01 X55.6287 Y-32.2968 F75.00
G01 X55.7365 Y-32.4727 F75.00
G01 X55.8705 Y-32.6295 F75.00
G01 X56.0273 Y-32.7635 F75.00
G01 X56.2032 Y-32.8713 F75.00
G01 X56.3938 Y-32.9502 F75.00
G01 X56.5943 Y-32.9984 F75.00
G01 X56.8000 Y-33.0146 F75.00
G01 X57.0056 Y-32.9984 F75.00
G01 X57.2062 Y-32.9502 F75.00
G01 X57.3968 Y-32.8713 F75.00
G01 X57.5727 Y-32.7635 F75.00
G01 X57.7295 Y-32.6295 F75.00
G01 X57.7990 Y-32.5482 F75.00
G01 X57.8057 Y-32.5408 F75.00
G01 X57.8163 Y-32.5303 F75.00
G01 X57.8317 Y-32.5176 F75.00
G01 X57.9046 Y-32.4634 F75.00
G01 X57.9211 Y-32.4523 F75.00
G01 X57.9342 Y-32.4451 F75.00
G01 X57.9479 Y-32.4389 F75.00
G01 X57.9619 Y-32.4338 F75.00
G01 X57.9763 Y-32.4297 F75.00
G01 X58.0752 Y-32.4103 F75.00
G01 X58.0946 Y-32.4075 F75.00
G01 X58.1094 Y-32.4067 F75.00
G01 X58.1242 Y-32.4070 F75.00
G01 X58.1389 Y-32.4083 F75.00
G01 X58.1534 Y-32.4108 F75.00
G01 X58.2535 Y-32.4364 F75.00
G01 X58.2673 Y-32.4409 F75.00
G01 X58.2826 Y-32.4472 F75.00
G01 X58.3324 Y-32.4551 F75.00
G01 X60.4862 Y-32.4553 F75.00
G01 X60.5011 Y-32.4567 F75.00
G01 X60.5159 Y-32.4591 F75.00
G01 X60.6141 Y-32.4815 F75.00
G01 X60.6285 Y-32.4857 F75.00
G01 X60.6378 Y-32.4891 F75.00
G01 X60.6516 Y-32.4951 F75.00
G01 X60.6604 Y-32.4997 F75.00
G01 X60.6733 Y-32.5073 F75.00
G01 X60.6855 Y-32.5159 F75.00
G01 X60.7681 Y-32.5820 F75.00
G01 X60.7824 Y-32.5959 F75.00
G01 X60.7921 Y-32.6072 F75.00
G01 X60.8038 Y-32.6234 F75.00
G01 X60.8114 Y-32.6363 F75.00
G01 X60.8553 Y-32.7269 F75.00
G01 X60.8631 Y-32.7453 F75.00
G01 X60.8677 Y-32.7595 F75.00
G01 X60.8721 Y-32.7790 F75.00
G01 X60.8742 Y-32.7938 F75.00
G01 X60.8752 Y-32.8137 F75.00
G01 X60.8751 Y-32.9095 F75.00
G01 X60.8736 Y-32.9294 F75.00
G01 X60.8701 Y-32.9490 F75.00
G01 X60.8647 Y-32.9682 F75.00
G01 X60.8575 Y-32.9867 F75.00
G01 X60.8155 Y-33.0740 F75.00
G01 X60.8109 Y-33.0829 F75.00
G01 X60.8058 Y-33.0915 F75.00
G01 X60.8004 Y-33.0999 F75.00
G01 X60.7945 Y-33.1080 F75.00
G01 X60.7849 Y-33.1196 F75.00
G01 X60.7619 Y-33.1448 F75.00
G01 X49.9575 Y-43.9492 F75.00
G01 X49.9428 Y-43.9625 F75.00
G01 X49.9267 Y-43.9744 F75.00
G01 X49.8457 Y-44.0254 F75.00
G01 X49.8372 Y-44.0304 F75.00
G01 X49.8241 Y-44.0371 F75.00
G01 X49.8060 Y-44.0446 F75.00
G01 X49.7919 Y-44.0490 F75.00
G01 X49.7824 Y-44.0513 F75.00
G01 X49.7054 Y-44.0647 F75.00
G01 X49.6863 Y-44.0670 F75.00
G01 X49.6719 Y-44.0675 F75.00
G01 X45.9301 Y-44.0675 F75.00
G01 X45.9102 Y-44.0665 F75.00
G01 X45.8905 Y-44.0635 F75.00
G01 X45.7923 Y-44.0411 F75.00
G01 X45.7779 Y-44.0369 F75.00
G01 X45.7685 Y-44.0335 F75.00
G01 X45.7548 Y-44.0275 F75.00
G01 X45.7416 Y-44.0205 F75.00
G01 X45.7289 Y-44.0125 F75.00
G01 X45.7169 Y-44.0037 F75.00
G01 X45.6459 Y-43.9471 F75.00
G01 X45.6346 Y-43.9373 F75.00
G01 X45.6207 Y-43.9230 F75.00
G01 X45.6112 Y-43.9115 F75.00
G01 X45.6026 Y-43.8992 F75.00
G01 X45.5926 Y-43.8819 F75.00
G01 X45.5489 Y-43.7911 F75.00
G01 X45.5416 Y-43.7726 F75.00
G01 X45.5362 Y-43.7534 F75.00
G01 X45.5328 Y-43.7338 F75.00
G01 X45.5313 Y-43.7139 F75.00
G01 X45.5312 Y-43.6181 F75.00
G01 X45.5318 Y-43.6032 F75.00
G01 X45.5335 Y-43.5883 F75.00
G01 X45.5362 Y-43.5736 F75.00
G01 X45.5401 Y-43.5592 F75.00
G01 X45.5451 Y-43.5450 F75.00
G01 X45.5510 Y-43.5313 F75.00
G01 X45.5915 Y-43.4474 F75.00
G01 X45.5988 Y-43.4340 F75.00
G01 X45.6071 Y-43.4211 F75.00
G01 X45.6164 Y-43.4090 F75.00
G01 X45.6303 Y-43.3925 F75.00
G01 X45.7381 Y-43.2166 F75.00
G01 X45.8170 Y-43.0260 F75.00
G01 X45.8652 Y-42.8254 F75.00
G01 X45.8814 Y-42.6198 F75.00
G01 X45.8652 Y-42.4142 F75.00
G01 X45.8170 Y-42.2136 F75.00
G01 X45.7381 Y-42.0230 F75.00
G01 X45.6303 Y-41.8471 F75.00
G01 X45.4963 Y-41.6903 F75.00
G01 X45.3395 Y-41.5563 F75.00
G01 X45.1636 Y-41.4485 F75.00
G01 X44.9730 Y-41.3696 F75.00
G01 X44.7724 Y-41.3214 F75.00
G01 X44.5668 Y-41.3052 F75.00
G01 X44.3612 Y-41.3214 F75.00
G01 X44.1606 Y-41.3696 F75.00
G01 X43.9700 Y-41.4485 F75.00
G01 X43.8419 Y-41.5270 F75.00
G01 X43.8287 Y-41.5340 F75.00
G01 X43.8196 Y-41.5381 F75.00
G01 X43.8056 Y-41.5434 F75.00
G01 X43.7101 Y-41.5754 F75.00
G01 X43.6955 Y-41.5789 F75.00
G01 X43.6808 Y-41.5813 F75.00
G01 X43.6659 Y-41.5826 F75.00
G01 X43.6559 Y-41.5829 F75.00
G01 X43.6459 Y-41.5827 F75.00
G01 X43.6310 Y-41.5814 F75.00
G01 X43.5360 Y-41.5695 F75.00
G01 X43.5213 Y-41.5668 F75.00
G01 X43.5021 Y-41.5614 F75.00
G01 X43.4835 Y-41.5541 F75.00
G01 X43.4658 Y-41.5450 F75.00
G01 X43.3809 Y-41.4907 F75.00
G01 X43.3647 Y-41.4791 F75.00
G01 X43.3534 Y-41.4693 F75.00
G01 X43.3394 Y-41.4551 F75.00
G01 X43.3270 Y-41.4395 F75.00
G01 X43.3187 Y-41.4271 F75.00
G01 X43.2713 Y-41.3496 F75.00
G01 X43.2641 Y-41.3370 F75.00
G01 X43.2580 Y-41.3239 F75.00
G01 X43.2512 Y-41.3057 F75.00
G01 X43.2485 Y-41.2965 F75.00
G01 X43.2453 Y-41.2823 F75.00
G01 X43.2330 Y-41.2077 F75.00
G01 X43.2316 Y-41.1939 F75.00
G01 X43.2312 Y-41.1846 F75.00
G01 X43.2311 Y-39.0694 F75.00
G01 X43.2207 Y-39.0036 F75.00
G01 X43.2164 Y-38.9859 F75.00
G01 X43.2142 Y-38.9711 F75.00
G01 X43.2055 Y-38.8757 F75.00
G01 X43.2047 Y-38.8613 F75.00
G01 X43.2050 Y-38.8468 F75.00
G01 X43.2070 Y-38.8275 F75.00
G01 X43.2097 Y-38.8133 F75.00
G01 X43.2201 Y-38.7687 F75.00
G01 X43.2306 Y-38.7025 F75.00
G01 X43.2306 Y-38.3160 F75.00
G01 X43.2206 Y-38.3160 F75.00
G01 X43.2205 Y-38.6909 F75.00
G01 X43.2201 Y-38.7007 F75.00
G01 X43.2184 Y-38.7153 F75.00
G01 X43.2157 Y-38.7298 F75.00
G01 X43.2120 Y-38.7441 F75.00
G01 X43.2089 Y-38.7534 F75.00
G01 X43.2034 Y-38.7670 F75.00
G01 X43.1970 Y-38.7803 F75.00
G01 X43.1896 Y-38.7930 F75.00
G01 X43.1812 Y-38.8051 F75.00
G01 X43.1752 Y-38.8129 F75.00
G01 X43.1654 Y-38.8239 F75.00
G01 X43.1549 Y-38.8342 F75.00
G01 X43.1436 Y-38.8437 F75.00
G01 X43.1358 Y-38.8495 F75.00
G01 X43.1234 Y-38.8575 F75.00
G01 X43.1105 Y-38.8646 F75.00
G01 X43.0971 Y-38.8708 F75.00
G01 X43.0833 Y-38.8759 F75.00
G01 X43.0692 Y-38.8800 F75.00
G01 X43.0548 Y-38.8831 F75.00
G01 X43.0402 Y-38.8850 F75.00
G01 X43.0206 Y-38.8860 F75.00
G01 X40.8708 Y-38.8858 F75.00
G01 X40.8561 Y-38.8845 F75.00
G01 X40.8368 Y-38.8811 F75.00
G01 X40.8225 Y-38.8774 F75.00
G01 X40.8086 Y-38.8726 F75.00
G01 X40.7951 Y-38.8668 F75.00
G01 X40.7820 Y-38.8600 F75.00
G01 X40.7695 Y-38.8523 F75.00
G01 X40.7576 Y-38.8437 F75.00
G01 X40.7463 Y-38.8342 F75.00
G01 X40.7358 Y-38.8239 F75.00
G01 X40.7260 Y-38.8129 F75.00
G01 X40.7171 Y-38.8012 F75.00
G01 X40.7091 Y-38.7888 F75.00
G01 X40.6998 Y-38.7715 F75.00
G01 X40.6940 Y-38.7580 F75.00
G01 X40.6892 Y-38.7441 F75.00
G01 X40.6855 Y-38.7298 F75.00
G01 X40.6828 Y-38.7153 F75.00
G01 X40.6811 Y-38.7007 F75.00
G01 X40.6806 Y-38.6860 F75.00
G01 X40.6807 Y-36.5411 F75.00
G01 X40.6821 Y-36.5215 F75.00
G01 X40.6835 Y-36.5118 F75.00
G01 X40.6866 Y-36.4974 F75.00
G01 X40.6907 Y-36.4833 F75.00
G01 X40.6940 Y-36.4740 F75.00
G01 X40.6978 Y-36.4650 F75.00
G01 X40.7042 Y-36.4517 F75.00
G01 X40.7116 Y-36.4390 F75.00
G01 X40.7171 Y-36.4308 F75.00
G01 X40.7260 Y-36.4191 F75.00
G01 X40.7324 Y-36.4117 F75.00
G01 X40.7392 Y-36.4046 F75.00
G01 X40.7500 Y-36.3946 F75.00
G01 X40.7615 Y-36.3854 F75.00
G01 X40.7695 Y-36.3797 F75.00
G01 X40.7820 Y-36.3720 F75.00
G01 X40.7951 Y-36.3652 F75.00
G01 X40.8041 Y-36.3612 F75.00
G01 X40.8179 Y-36.3561 F75.00
G01 X40.8320 Y-36.3520 F75.00
G01 X40.8464 Y-36.3489 F75.00
G01 X40.8610 Y-36.3470 F75.00
G01 X40.8757 Y-36.3461 F75.00
G01 X43.0206 Y-36.3460 F75.00
G01 X43.0353 Y-36.3465 F75.00
G01 X43.0451 Y-36.3475 F75.00
G01 X43.0644 Y-36.3509 F75.00
G01 X43.0739 Y-36.3532 F75.00
G01 X43.0880 Y-36.3577 F75.00
G01 X43.0971 Y-36.3612 F75.00
G01 X43.1105 Y-36.3674 F75.00
G01 X43.1234 Y-36.3745 F75.00
G01 X43.1358 Y-36.3825 F75.00
G01 X43.1475 Y-36.3914 F75.00
G01 X43.1549 Y-36.3978 F75.00
G01 X43.1654 Y-36.4081 F75.00
G01 X43.1752 Y-36.4191 F75.00
G01 X43.1812 Y-36.4269 F75.00
G01 X43.1896 Y-36.4390 F75.00
G01 X43.1970 Y-36.4517 F75.00
G01 X43.2014 Y-36.4605 F75.00
G01 X43.2072 Y-36.4740 F75.00
G01 X43.2120 Y-36.4879 F75.00
G01 X43.2157 Y-36.5022 F75.00
G01 X43.2177 Y-36.5118 F75.00
G01 X43.2196 Y-36.5264 F75.00
G01 X43.2205 Y-36.5411 F75.00
G01 X43.2206 Y-36.9160 F75.00
G01 X43.2306 Y-36.9160 F75.00
G01 X43.2306 Y-36.5295 F75.00
G01 X43.2201 Y-36.4633 F75.00
G01 X43.2164 Y-36.4475 F75.00
G01 X43.2142 Y-36.4327 F75.00
G01 X43.2055 Y-36.3374 F75.00
G01 X43.2049 Y-36.3277 F75.00
G01 X43.2048 Y-36.3132 F75.00
G01 X43.2058 Y-36.2988 F75.00
G01 X43.2078 Y-36.2844 F75.00
G01 X43.2179 Y-36.2393 F75.00
G01 X43.2207 Y-36.2284 F75.00
G01 X43.2311 Y-36.1626 F75.00
G01 X43.2313 Y-36.1305 F75.00
G01 X43.2321 Y-36.1206 F75.00
G01 X43.2341 Y-36.1058 F75.00
G01 X43.2575 Y-36.0026 F75.00
G01 X43.2617 Y-35.9883 F75.00
G01 X43.2690 Y-35.9697 F75.00
G01 X43.2757 Y-35.9563 F75.00
G01 X43.2861 Y-35.9393 F75.00
G01 X43.2949 Y-35.9273 F75.00
G01 X43.3547 Y-35.8524 F75.00
G01 X43.3647 Y-35.8414 F75.00
G01 X43.3756 Y-35.8310 F75.00
G01 X43.3832 Y-35.8246 F75.00
G01 X43.3952 Y-35.8158 F75.00
G01 X43.4079 Y-35.8078 F75.00
G01 X43.4167 Y-35.8030 F75.00
G01 X43.5073 Y-35.7594 F75.00
G01 X43.5252 Y-35.7523 F75.00
G01 X43.5436 Y-35.7470 F75.00
G01 X43.5530 Y-35.7450 F75.00
G01 X43.5673 Y-35.7429 F75.00
G01 X43.6172 Y-35.7373 F75.00
G01 X43.6351 Y-35.7365 F75.00
G01 X48.1391 Y-35.7365 F75.00
G01 X48.1679 Y-35.7375 F75.00
G01 X48.2004 Y-35.7402 F75.00
G01 X48.2654 Y-35.7314 F75.00
G01 X48.3342 Y-35.7239 F75.00
G01 X48.3992 Y-35.7000 F75.00
G01 X48.4700 Y-35.6761 F75.00
G01 X48.5329 Y-35.6360 F75.00
G01 X48.5922 Y-35.6002 F75.00
G01 X48.6413 Y-35.5513 F75.00
G01 X48.6967 Y-35.4986 F75.00
G01 X48.7149 Y-35.4779 F75.00
G01 X48.7210 Y-35.4715 F75.00
G01 X55.6707 Y-28.5218 F75.00
G01 X55.6854 Y-28.5085 F75.00
G01 X55.7015 Y-28.4966 F75.00
G01 X55.7825 Y-28.4456 F75.00
G01 X55.7953 Y-28.4382 F75.00
G01 X55.8085 Y-28.4318 F75.00
G01 X55.8222 Y-28.4264 F75.00
G01 X55.8316 Y-28.4234 F75.00
G01 X55.8506 Y-28.4187 F75.00
G01 X55.9228 Y-28.4063 F75.00
G01 X55.9419 Y-28.4040 F75.00
G01 X55.9563 Y-28.4035 F75.00
G01 X74.6523 Y-28.4035 F75.00
G01 X74.6811 Y-28.4045 F75.00
G01 X74.7136 Y-28.4072 F75.00
G01 X74.7786 Y-28.3984 F75.00
G01 X74.8474 Y-28.3909 F75.00
G01 X74.9124 Y-28.3670 F75.00
G01 X74.9832 Y-28.3431 F75.00
G01 X75.0461 Y-28.3030 F75.00
G01 X75.1054 Y-28.2672 F75.00
G01 X75.1545 Y-28.2183 F75.00
G01 X75.2099 Y-28.1656 F75.00
G01 X75.2281 Y-28.1449 F75.00
G01 X75.2342 Y-28.1385 F75.00
G01 X85.2555 Y-18.1172 F75.00
G01 X85.2765 Y-18.0976 F75.00
G01 X85.3013 Y-18.0765 F75.00
G01 X85.3412 Y-18.0243 F75.00
G01 X85.3845 Y-17.9704 F75.00
G01 X85.4159 Y-17.9027 F75.00
G01 X85.4467 Y-17.8406 F75.00
G01 X85.4628 Y-17.7678 F75.00
G01 X85.4795 Y-17.7005 F75.00
G01 X85.4795 Y-17.6340 F75.00
G01 X85.4801 Y-17.6082 F75.00
G01 X85.4810 Y-17.5932 F75.00
G01 X85.4831 Y-17.5784 F75.00
G01 X85.4863 Y-17.5638 F75.00
G01 X85.5089 Y-17.4759 F75.00
G01 X85.5131 Y-17.4615 F75.00
G01 X85.5184 Y-17.4476 F75.00
G01 X85.5226 Y-17.4385 F75.00
G01 X85.5296 Y-17.4253 F75.00
G01 X85.5376 Y-17.4126 F75.00
G01 X85.5434 Y-17.4045 F75.00
G01 X85.6081 Y-17.3273 F75.00
G01 X85.6217 Y-17.3127 F75.00
G01 X85.6328 Y-17.3027 F75.00
G01 X85.6447 Y-17.2936 F75.00
G01 X85.6572 Y-17.2853 F75.00
G01 X85.6702 Y-17.2781 F75.00
G01 X85.7620 Y-17.2366 F75.00
G01 X85.7759 Y-17.2310 F75.00
G01 X85.7853 Y-17.2278 F75.00
G01 X85.8046 Y-17.2230 F75.00
G01 X85.8242 Y-17.2200 F75.00
G01 X85.8740 Y-17.2153 F75.00
G01 X85.9056 Y-17.2151 F75.00
G01 X85.9714 Y-17.2047 F75.00
G01 X85.9891 Y-17.2004 F75.00
G01 X86.0088 Y-17.1976 F75.00
G01 X86.1041 Y-17.1891 F75.00
G01 X86.1234 Y-17.1888 F75.00
G01 X86.1379 Y-17.1898 F75.00
G01 X86.1522 Y-17.1918 F75.00
G01 X86.2063 Y-17.2041 F75.00
G01 X86.2725 Y-17.2146 F75.00
G01 X86.6590 Y-17.2146 F75.00
G01 X86.6590 Y-17.2046 F75.00
G01 X86.2841 Y-17.2045 F75.00
G01 X86.2694 Y-17.2036 F75.00
G01 X86.2597 Y-17.2024 F75.00
G01 X86.2452 Y-17.1997 F75.00
G01 X86.2357 Y-17.1974 F75.00
G01 X86.2263 Y-17.1945 F75.00
G01 X86.2125 Y-17.1894 F75.00
G01 X86.2035 Y-17.1854 F75.00
G01 X86.1904 Y-17.1786 F75.00
G01 X86.1779 Y-17.1709 F75.00
G01 X86.1660 Y-17.1623 F75.00
G01 X86.1547 Y-17.1528 F75.00
G01 X86.1476 Y-17.1460 F75.00
G01 X86.1376 Y-17.1352 F75.00
G01 X86.1284 Y-17.1237 F75.00
G01 X86.1200 Y-17.1116 F75.00
G01 X86.1150 Y-17.1032 F75.00
G01 X86.1082 Y-17.0901 F75.00
G01 X86.1042 Y-17.0811 F75.00
G01 X86.0991 Y-17.0673 F75.00
G01 X86.0950 Y-17.0532 F75.00
G01 X86.0919 Y-17.0388 F75.00
G01 X86.0905 Y-17.0291 F75.00
G01 X86.0892 Y-17.0144 F75.00
G01 X86.0890 Y-17.0046 F75.00
G01 X86.0890 Y-14.8646 F75.00
G01 X86.0895 Y-14.8499 F75.00
G01 X86.0912 Y-14.8353 F75.00
G01 X86.0939 Y-14.8208 F75.00
G01 X86.0976 Y-14.8065 F75.00
G01 X86.1024 Y-14.7926 F75.00
G01 X86.1104 Y-14.7747 F75.00
G01 X86.1175 Y-14.7618 F75.00
G01 X86.1255 Y-14.7494 F75.00
G01 X86.1344 Y-14.7377 F75.00
G01 X86.1442 Y-14.7267 F75.00
G01 X86.1584 Y-14.7132 F75.00
G01 X86.1699 Y-14.7040 F75.00
G01 X86.1820 Y-14.6956 F75.00
G01 X86.1947 Y-14.6882 F75.00
G01 X86.2080 Y-14.6818 F75.00
G01 X86.2216 Y-14.6763 F75.00
G01 X86.2357 Y-14.6718 F75.00
G01 X86.2500 Y-14.6684 F75.00
G01 X86.2645 Y-14.6661 F75.00
G01 X86.2841 Y-14.6647 F75.00
G01 X86.6590 Y-14.6646 F75.00
G01 X86.6590 Y-14.6546 F75.00
G01 X86.2725 Y-14.6546 F75.00
G01 X86.2063 Y-14.6651 F75.00
G01 X86.1905 Y-14.6688 F75.00
G01 X86.1757 Y-14.6711 F75.00
G01 X86.0803 Y-14.6797 F75.00
G01 X86.0659 Y-14.6805 F75.00
G01 X86.0562 Y-14.6804 F75.00
G01 X86.0417 Y-14.6794 F75.00
G01 X86.0274 Y-14.6774 F75.00
G01 X85.9823 Y-14.6673 F75.00
G01 X85.9714 Y-14.6645 F75.00
G01 X85.9056 Y-14.6541 F75.00
G01 X85.7975 Y-14.6541 F75.00
G01 X85.7826 Y-14.6535 F75.00
G01 X85.7726 Y-14.6525 F75.00
G01 X85.7530 Y-14.6491 F75.00
G01 X85.6645 Y-14.6289 F75.00
G01 X85.6500 Y-14.6250 F75.00
G01 X85.6313 Y-14.6182 F75.00
G01 X85.6177 Y-14.6119 F75.00
G01 X85.6005 Y-14.6019 F75.00
G01 X85.5882 Y-14.5933 F75.00
G01 X85.5057 Y-14.5272 F75.00
G01 X85.4984 Y-14.5205 F75.00
G01 X85.4880 Y-14.5096 F75.00
G01 X85.4756 Y-14.4940 F75.00
G01 X85.4673 Y-14.4816 F75.00
G01 X85.4578 Y-14.4641 F75.00
G01 X85.4164 Y-14.3779 F75.00
G01 X85.4093 Y-14.3600 F75.00
G01 X85.4052 Y-14.3462 F75.00
G01 X85.4012 Y-14.3274 F75.00
G01 X85.3948 Y-14.2725 F75.00
G01 X85.3937 Y-14.2591 F75.00
G01 X85.3937 Y-5.2291 F75.00
G01 X85.3951 Y-5.2142 F75.00
G01 X85.3975 Y-5.1995 F75.00
G01 X85.4187 Y-5.1061 F75.00
G01 X85.4241 Y-5.0869 F75.00
G01 X85.4275 Y-5.0775 F75.00
G01 X85.4335 Y-5.0638 F75.00
G01 X85.4430 Y-5.0463 F75.00
G01 X85.4485 Y-5.0379 F75.00
G01 X85.4573 Y-5.0259 F75.00
G01 X85.5171 Y-4.9510 F75.00
G01 X85.5271 Y-4.9400 F75.00
G01 X85.5380 Y-4.9296 F75.00
G01 X85.5495 Y-4.9202 F75.00
G01 X85.5576 Y-4.9144 F75.00
G01 X85.5660 Y-4.9089 F75.00
G01 X85.5791 Y-4.9016 F75.00
G01 X85.6653 Y-4.8600 F75.00
G01 X85.6741 Y-4.8561 F75.00
G01 X85.6876 Y-4.8509 F75.00
G01 X85.7060 Y-4.8456 F75.00
G01 X85.7249 Y-4.8421 F75.00
G01 X85.7840 Y-4.8356 F75.00
G01 X85.7930 Y-4.8351 F75.00
G01 X85.8196 Y-4.8351 F75.00
G01 X85.8689 Y-4.8273 F75.00
G01 X85.9283 Y-4.7970 F75.00
G01 X85.9754 Y-4.7499 F75.00
G01 X86.0057 Y-4.6905 F75.00
G01 X86.0135 Y-4.6412 F75.00
G01 X86.0135 Y-2.4680 F75.00
G01 X86.0057 Y-2.4187 F75.00
G01 X85.9754 Y-2.3593 F75.00
G01 X85.9283 Y-2.3122 F75.00
G01 X85.8689 Y-2.2819 F75.00
G01 X85.8196 Y-2.2741 F75.00
G01 X83.6464 Y-2.2741 F75.00
G01 X83.5803 Y-2.2846 F75.00
G01 X83.5637 Y-2.2885 F75.00
G01 X83.5489 Y-2.2908 F75.00
G01 X83.4535 Y-2.2994 F75.00
G01 X83.4342 Y-2.3002 F75.00
G01 X83.4149 Y-2.2992 F75.00
G01 X83.4006 Y-2.2971 F75.00
G01 X83.3554 Y-2.2871 F75.00
G01 X83.3456 Y-2.2846 F75.00
G01 X83.2796 Y-2.2741 F75.00
G01 X81.1064 Y-2.2741 F75.00
G01 X81.0403 Y-2.2846 F75.00
G01 X81.0237 Y-2.2885 F75.00
G01 X81.0089 Y-2.2908 F75.00
G01 X80.9135 Y-2.2994 F75.00
G01 X80.8942 Y-2.3002 F75.00
G01 X80.8749 Y-2.2992 F75.00
G01 X80.8606 Y-2.2971 F75.00
G01 X80.8154 Y-2.2871 F75.00
G01 X80.8056 Y-2.2846 F75.00
G01 X80.7396 Y-2.2741 F75.00
G01 X78.5664 Y-2.2741 F75.00
G01 X78.5003 Y-2.2846 F75.00
G01 X78.4837 Y-2.2885 F75.00
G01 X78.4689 Y-2.2908 F75.00
G01 X78.3735 Y-2.2994 F75.00
G01 X78.3542 Y-2.3002 F75.00
G01 X78.3349 Y-2.2992 F75.00
G01 X78.3206 Y-2.2971 F75.00
G01 X78.2754 Y-2.2871 F75.00
G01 X78.2656 Y-2.2846 F75.00
G01 X78.1996 Y-2.2741 F75.00
G01 X76.0264 Y-2.2741 F75.00
G01 X75.9603 Y-2.2846 F75.00
G01 X75.9437 Y-2.2885 F75.00
G01 X75.9289 Y-2.2908 F75.00
G01 X75.8335 Y-2.2994 F75.00
G01 X75.8142 Y-2.3002 F75.00
G01 X75.7949 Y-2.2992 F75.00
G01 X75.7806 Y-2.2971 F75.00
G01 X75.7354 Y-2.2871 F75.00
G01 X75.7256 Y-2.2846 F75.00
G01 X75.6596 Y-2.2741 F75.00
G01 X73.4864 Y-2.2741 F75.00
G01 X73.4203 Y-2.2846 F75.00
G01 X73.4037 Y-2.2885 F75.00
G01 X73.3889 Y-2.2908 F75.00
G01 X73.2935 Y-2.2994 F75.00
G01 X73.2742 Y-2.3002 F75.00
G01 X73.2549 Y-2.2992 F75.00
G01 X73.2406 Y-2.2971 F75.00
G01 X73.1954 Y-2.2871 F75.00
G01 X73.1856 Y-2.2846 F75.00
G01 X73.1196 Y-2.2741 F75.00
G01 X70.9464 Y-2.2741 F75.00
G01 X70.8803 Y-2.2846 F75.00
G01 X70.8637 Y-2.2885 F75.00
G01 X70.8489 Y-2.2908 F75.00
G01 X70.7535 Y-2.2994 F75.00
G01 X70.7342 Y-2.3002 F75.00
G01 X70.7149 Y-2.2992 F75.00
G01 X70.7006 Y-2.2971 F75.00
G01 X70.6554 Y-2.2871 F75.00
G01 X70.6456 Y-2.2846 F75.00
G01 X70.5796 Y-2.2741 F75.00
G01 X68.4064 Y-2.2741 F75.00
G01 X68.3403 Y-2.2846 F75.00
G01 X68.3237 Y-2.2885 F75.00
G01 X68.3089 Y-2.2908 F75.00
G01 X68.2135 Y-2.2994 F75.00
G01 X68.1942 Y-2.3002 F75.00
G01 X68.1749 Y-2.2992 F75.00
G01 X68.1606 Y-2.2971 F75.00
G01 X68.1154 Y-2.2871 F75.00
G01 X68.1056 Y-2.2846 F75.00
G01 X68.0396 Y-2.2741 F75.00
G01 X65.8664 Y-2.2741 F75.00
G01 X65.8171 Y-2.2819 F75.00
G01 X65.7577 Y-2.3122 F75.00
G01 X65.7106 Y-2.3593 F75.00
G01 X65.6803 Y-2.4187 F75.00
G01 X65.6725 Y-2.4680 F75.00
G01 X65.6725 Y-4.6412 F75.00
G01 X65.6803 Y-4.6905 F75.00
G01 X65.7106 Y-4.7499 F75.00
G01 X65.7577 Y-4.7970 F75.00
G01 X65.8171 Y-4.8273 F75.00
G01 X65.8664 Y-4.8351 F75.00
G01 X65.9795 Y-4.8352 F75.00
G01 X65.9944 Y-4.8361 F75.00
G01 X66.0092 Y-4.8381 F75.00
G01 X66.1075 Y-4.8603 F75.00
G01 X66.1267 Y-4.8657 F75.00
G01 X66.1407 Y-4.8710 F75.00
G01 X66.1543 Y-4.8773 F75.00
G01 X66.1715 Y-4.8873 F75.00
G01 X66.1838 Y-4.8959 F75.00
G01 X66.2587 Y-4.9555 F75.00
G01 X66.2700 Y-4.9653 F75.00
G01 X66.2806 Y-4.9759 F75.00
G01 X66.2904 Y-4.9872 F75.00
G01 X66.2992 Y-4.9992 F75.00
G01 X66.3072 Y-5.0119 F75.00
G01 X66.3142 Y-5.0251 F75.00
G01 X66.3536 Y-5.1069 F75.00
G01 X66.3594 Y-5.1201 F75.00
G01 X66.3642 Y-5.1337 F75.00
G01 X66.3680 Y-5.1476 F75.00
G01 X66.3715 Y-5.1665 F75.00
G01 X66.3772 Y-5.2167 F75.00
G01 X66.3783 Y-5.2301 F75.00
G01 X66.3785 Y-14.2501 F75.00
G01 X66.3775 Y-14.2700 F75.00
G01 X66.3745 Y-14.2897 F75.00
G01 X66.3533 Y-14.3831 F75.00
G01 X66.3494 Y-14.3976 F75.00
G01 X66.3462 Y-14.4070 F75.00
G01 X66.3406 Y-14.4209 F75.00
G01 X66.3363 Y-14.4299 F75.00
G01 X66.3263 Y-14.4471 F75.00
G01 X66.3177 Y-14.4594 F75.00
G01 X66.2549 Y-14.5382 F75.00
G01 X66.2449 Y-14.5492 F75.00
G01 X66.2340 Y-14.5596 F75.00
G01 X66.2264 Y-14.5660 F75.00
G01 X66.2144 Y-14.5748 F75.00
G01 X66.2060 Y-14.5803 F75.00
G01 X66.1929 Y-14.5876 F75.00
G01 X66.1023 Y-14.6312 F75.00
G01 X66.0844 Y-14.6383 F75.00
G01 X66.0660 Y-14.6436 F75.00
G01 X66.0471 Y-14.6471 F75.00
G01 X65.9924 Y-14.6533 F75.00
G01 X65.9790 Y-14.6540 F75.00
G01 X65.9524 Y-14.6541 F75.00
G01 X65.8863 Y-14.6646 F75.00
G01 X65.8697 Y-14.6685 F75.00
G01 X65.8549 Y-14.6708 F75.00
G01 X65.7595 Y-14.6794 F75.00
G01 X65.7451 Y-14.6802 F75.00
G01 X65.7306 Y-14.6799 F75.00
G01 X65.7113 Y-14.6779 F75.00
G01 X65.6971 Y-14.6752 F75.00
G01 X65.6516 Y-14.6646 F75.00
G01 X65.5856 Y-14.6541 F75.00
G01 X63.4124 Y-14.6541 F75.00
G01 X63.3463 Y-14.6646 F75.00
G01 X63.3297 Y-14.6685 F75.00
G01 X63.3149 Y-14.6708 F75.00
G01 X63.2195 Y-14.6794 F75.00
G01 X63.2002 Y-14.6802 F75.00
G01 X63.1857 Y-14.6796 F75.00
G01 X63.1666 Y-14.6771 F75.00
G01 X63.1214 Y-14.6671 F75.00
G01 X63.1116 Y-14.6646 F75.00
G01 X63.0456 Y-14.6541 F75.00
G01 X60.8724 Y-14.6541 F75.00
G01 X60.8063 Y-14.6646 F75.00
G01 X60.7897 Y-14.6685 F75.00
G01 X60.7749 Y-14.6708 F75.00
G01 X60.6795 Y-14.6794 F75.00
G01 X60.6699 Y-14.6801 F75.00
G01 X60.6554 Y-14.6801 F75.00
G01 X60.6409 Y-14.6792 F75.00
G01 X60.6266 Y-14.6771 F75.00
G01 X60.5814 Y-14.6671 F75.00
G01 X60.5716 Y-14.6646 F75.00
G01 X60.5056 Y-14.6541 F75.00
G01 X60.4179 Y-14.6540 F75.00
G01 X60.4080 Y-14.6535 F75.00
G01 X60.3931 Y-14.6519 F75.00
G01 X60.3784 Y-14.6491 F75.00
G01 X60.2899 Y-14.6289 F75.00
G01 X60.2707 Y-14.6235 F75.00
G01 X60.2521 Y-14.6162 F75.00
G01 X60.2387 Y-14.6095 F75.00
G01 X60.2259 Y-14.6019 F75.00
G01 X60.2136 Y-14.5933 F75.00
G01 X60.1311 Y-14.5272 F75.00
G01 X60.1202 Y-14.5169 F75.00
G01 X60.1134 Y-14.5096 F75.00
G01 X60.1040 Y-14.4981 F75.00
G01 X60.0982 Y-14.4900 F75.00
G01 X60.0902 Y-14.4773 F75.00
G01 X60.0832 Y-14.4641 F75.00
G01 X60.0418 Y-14.3779 F75.00
G01 X60.0347 Y-14.3600 F75.00
G01 X60.0294 Y-14.3416 F75.00
G01 X60.0259 Y-14.3227 F75.00
G01 X60.0197 Y-14.2680 F75.00
G01 X60.0189 Y-14.2501 F75.00
G01 X60.0191 Y-5.4577 F75.00
G01 X60.0205 Y-5.4428 F75.00
G01 X60.0229 Y-5.4281 F75.00
G01 X60.0441 Y-5.3347 F75.00
G01 X60.0495 Y-5.3155 F75.00
G01 X60.0529 Y-5.3061 F75.00
G01 X60.0589 Y-5.2924 F75.00
G01 X60.0635 Y-5.2835 F75.00
G01 X60.0711 Y-5.2707 F75.00
G01 X60.0827 Y-5.2545 F75.00
G01 X60.1425 Y-5.1796 F75.00
G01 X60.1525 Y-5.1686 F75.00
G01 X60.1634 Y-5.1582 F75.00
G01 X60.1710 Y-5.1518 F75.00
G01 X60.1830 Y-5.1430 F75.00
G01 X60.1957 Y-5.1350 F75.00
G01 X60.2045 Y-5.1302 F75.00
G01 X60.2907 Y-5.0886 F75.00
G01 X60.2995 Y-5.0847 F75.00
G01 X60.3130 Y-5.0795 F75.00
G01 X60.3314 Y-5.0742 F75.00
G01 X60.3503 Y-5.0707 F75.00
G01 X60.4094 Y-5.0642 F75.00
G01 X60.4184 Y-5.0637 F75.00
G01 X60.4450 Y-5.0637 F75.00
G01 X60.4943 Y-5.0559 F75.00
G01 X60.5537 Y-5.0256 F75.00
G01 X60.6008 Y-4.9785 F75.00
G01 X60.6311 Y-4.9191 F75.00
G01 X60.6389 Y-4.8698 F75.00
G01 X60.6389 Y-2.6966 F75.00
G01 X60.6311 Y-2.6473 F75.00
G01 X60.6008 Y-2.5879 F75.00
G01 X60.5537 Y-2.5408 F75.00
G01 X60.4943 Y-2.5105 F75.00
G01 X60.4450 Y-2.5027 F75.00
G01 X58.2718 Y-2.5027 F75.00
G01 X58.2060 Y-2.5131 F75.00
G01 X58.1883 Y-2.5174 F75.00
G01 X58.1735 Y-2.5197 F75.00
G01 X58.0781 Y-2.5283 F75.00
G01 X58.0588 Y-2.5291 F75.00
G01 X58.0443 Y-2.5285 F75.00
G01 X58.0252 Y-2.5260 F75.00
G01 X57.9710 Y-2.5137 F75.00
G01 X57.9049 Y-2.5032 F75.00
G01 X57.5184 Y-2.5032 F75.00
G01 X57.5184 Y-2.5132 F75.00
G01 X57.8933 Y-2.5133 F75.00
G01 X57.9031 Y-2.5137 F75.00
G01 X57.9177 Y-2.5154 F75.00
G01 X57.9322 Y-2.5181 F75.00
G01 X57.9417 Y-2.5204 F75.00
G01 X57.9558 Y-2.5249 F75.00
G01 X57.9694 Y-2.5304 F75.00
G01 X57.9827 Y-2.5368 F75.00
G01 X57.9912 Y-2.5417 F75.00
G01 X57.9995 Y-2.5469 F75.00
G01 X58.0114 Y-2.5555 F75.00
G01 X58.0227 Y-2.5650 F75.00
G01 X58.0298 Y-2.5718 F75.00
G01 X58.0366 Y-2.5789 F75.00
G01 X58.0461 Y-2.5902 F75.00
G01 X58.0547 Y-2.6021 F75.00
G01 X58.0624 Y-2.6146 F75.00
G01 X58.0670 Y-2.6233 F75.00
G01 X58.0732 Y-2.6367 F75.00
G01 X58.0783 Y-2.6505 F75.00
G01 X58.0824 Y-2.6646 F75.00
G01 X58.0846 Y-2.6742 F75.00
G01 X58.0869 Y-2.6887 F75.00
G01 X58.0879 Y-2.6985 F75.00
G01 X58.0884 Y-2.7132 F75.00
G01 X58.0884 Y-4.8532 F75.00
G01 X58.0874 Y-4.8728 F75.00
G01 X58.0855 Y-4.8874 F75.00
G01 X58.0824 Y-4.9018 F75.00
G01 X58.0783 Y-4.9159 F75.00
G01 X58.0732 Y-4.9297 F75.00
G01 X58.0670 Y-4.9431 F75.00
G01 X58.0599 Y-4.9560 F75.00
G01 X58.0519 Y-4.9684 F75.00
G01 X58.0430 Y-4.9801 F75.00
G01 X58.0332 Y-4.9911 F75.00
G01 X58.0227 Y-5.0014 F75.00
G01 X58.0114 Y-5.0109 F75.00
G01 X57.9954 Y-5.0222 F75.00
G01 X57.9827 Y-5.0296 F75.00
G01 X57.9694 Y-5.0360 F75.00
G01 X57.9558 Y-5.0415 F75.00
G01 X57.9417 Y-5.0460 F75.00
G01 X57.9274 Y-5.0494 F75.00
G01 X57.9129 Y-5.0517 F75.00
G01 X57.8933 Y-5.0531 F75.00
G01 X57.5184 Y-5.0532 F75.00
G01 X57.5184 Y-5.0632 F75.00
G01 X57.9049 Y-5.0632 F75.00
G01 X57.9711 Y-5.0527 F75.00
G01 X57.9869 Y-5.0490 F75.00
G01 X58.0016 Y-5.0468 F75.00
G01 X58.0970 Y-5.0381 F75.00
G01 X58.1067 Y-5.0375 F75.00
G01 X58.1212 Y-5.0374 F75.00
G01 X58.1356 Y-5.0384 F75.00
G01 X58.1500 Y-5.0404 F75.00
G01 X58.1951 Y-5.0505 F75.00
G01 X58.2060 Y-5.0533 F75.00
G01 X58.2718 Y-5.0637 F75.00
G01 X58.3039 Y-5.0639 F75.00
G01 X58.3188 Y-5.0653 F75.00
G01 X58.3286 Y-5.0667 F75.00
G01 X58.4269 Y-5.0889 F75.00
G01 X58.4461 Y-5.0943 F75.00
G01 X58.4601 Y-5.0996 F75.00
G01 X58.4736 Y-5.1059 F75.00
G01 X58.4867 Y-5.1132 F75.00
G01 X58.5032 Y-5.1245 F75.00
G01 X58.5857 Y-5.1905 F75.00
G01 X58.5930 Y-5.1973 F75.00
G01 X58.6033 Y-5.2082 F75.00
G01 X58.6128 Y-5.2197 F75.00
G01 X58.6186 Y-5.2278 F75.00
G01 X58.6266 Y-5.2405 F75.00
G01 X58.6336 Y-5.2537 F75.00
G01 X58.6750 Y-5.3399 F75.00
G01 X58.6821 Y-5.3578 F75.00
G01 X58.6862 Y-5.3716 F75.00
G01 X58.6902 Y-5.3904 F75.00
G01 X58.6966 Y-5.4453 F75.00
G01 X58.6978 Y-5.4632 F75.00
G01 X58.6979 Y-14.2513 F75.00
G01 X58.6969 Y-14.2712 F75.00
G01 X58.6957 Y-14.2811 F75.00
G01 X58.6929 Y-14.2958 F75.00
G01 X58.6715 Y-14.3891 F75.00
G01 X58.6656 Y-14.4082 F75.00
G01 X58.6579 Y-14.4266 F75.00
G01 X58.6484 Y-14.4441 F75.00
G01 X58.6429 Y-14.4524 F75.00
G01 X58.6341 Y-14.4645 F75.00
G01 X58.5743 Y-14.5393 F75.00
G01 X58.5643 Y-14.5504 F75.00
G01 X58.5534 Y-14.5607 F75.00
G01 X58.5458 Y-14.5671 F75.00
G01 X58.5338 Y-14.5760 F75.00
G01 X58.5167 Y-14.5864 F75.00
G01 X58.4261 Y-14.6303 F75.00
G01 X58.4078 Y-14.6380 F75.00
G01 X58.3937 Y-14.6426 F75.00
G01 X58.3793 Y-14.6461 F75.00
G01 X58.3559 Y-14.6504 F75.00
G01 X58.2831 Y-14.6619 F75.00
G01 X58.2237 Y-14.6922 F75.00
G01 X58.1766 Y-14.7393 F75.00
G01 X58.1463 Y-14.7987 F75.00
G01 X58.1385 Y-14.8480 F75.00
G01 X58.1383 Y-14.8801 F75.00
G01 X58.1375 Y-14.8900 F75.00
G01 X58.1355 Y-14.9048 F75.00
G01 X58.1121 Y-15.0080 F75.00
G01 X58.1079 Y-15.0223 F75.00
G01 X58.1045 Y-15.0317 F75.00
G01 X58.1006 Y-15.0409 F75.00
G01 X58.0939 Y-15.0543 F75.00
G01 X58.0863 Y-15.0671 F75.00
G01 X58.0807 Y-15.0754 F75.00
G01 X58.0181 Y-15.1543 F75.00
G01 X58.0049 Y-15.1692 F75.00
G01 X57.9940 Y-15.1796 F75.00
G01 X57.9864 Y-15.1860 F75.00
G01 X57.9744 Y-15.1948 F75.00
G01 X57.9617 Y-15.2028 F75.00
G01 X57.9485 Y-15.2098 F75.00
G01 X57.8667 Y-15.2492 F75.00
G01 X57.8535 Y-15.2550 F75.00
G01 X57.8444 Y-15.2583 F75.00
G01 X57.8306 Y-15.2624 F75.00
G01 X57.8118 Y-15.2664 F75.00
G01 X57.7569 Y-15.2728 F75.00
G01 X57.7390 Y-15.2740 F75.00
G01 X50.3353 Y-15.2741 F75.00
G01 X50.3154 Y-15.2731 F75.00
G01 X50.3006 Y-15.2711 F75.00
G01 X50.2908 Y-15.2691 F75.00
G01 X50.1975 Y-15.2477 F75.00
G01 X50.1834 Y-15.2436 F75.00
G01 X50.1651 Y-15.2365 F75.00
G01 X50.1476 Y-15.2276 F75.00
G01 X50.1311 Y-15.2170 F75.00
G01 X50.0715 Y-15.1746 F75.00
G01 X50.0602 Y-15.1656 F75.00
G01 X50.0497 Y-15.1558 F75.00
G01 X44.1334 Y-9.2395 F75.00
G01 X44.1139 Y-9.2185 F75.00
G01 X44.0927 Y-9.1937 F75.00
G01 X44.0405 Y-9.1539 F75.00
G01 X43.9866 Y-9.1105 F75.00
G01 X43.9555 Y-9.0958 F75.00
G01 X43.9428 Y-9.0885 F75.00
G01 X43.9307 Y-9.0803 F75.00
G01 X43.8549 Y-9.0218 F75.00
G01 X43.8472 Y-9.0155 F75.00
G01 X43.8362 Y-9.0054 F75.00
G01 X43.8293 Y-8.9982 F75.00
G01 X43.8196 Y-8.9868 F75.00
G01 X43.8109 Y-8.9746 F75.00
G01 X43.8055 Y-8.9662 F75.00
G01 X43.7983 Y-8.9531 F75.00
G01 X43.7577 Y-8.8719 F75.00
G01 X43.7497 Y-8.8537 F75.00
G01 X43.7449 Y-8.8395 F75.00
G01 X43.7411 Y-8.8250 F75.00
G01 X43.7378 Y-8.8054 F75.00
G01 X43.7365 Y-8.7855 F75.00
G01 X43.7351 Y-8.6897 F75.00
G01 X43.7363 Y-8.6698 F75.00
G01 X43.7376 Y-8.6599 F75.00
G01 X43.7406 Y-8.6452 F75.00
G01 X43.7446 Y-8.6308 F75.00
G01 X43.7516 Y-8.6122 F75.00
G01 X43.7917 Y-8.5252 F75.00
G01 X43.7985 Y-8.5119 F75.00
G01 X43.8036 Y-8.5033 F75.00
G01 X43.8091 Y-8.4950 F75.00
G01 X43.8181 Y-8.4830 F75.00
G01 X43.8314 Y-8.4682 F75.00
G01 X43.8423 Y-8.4580 F75.00
G01 X43.9162 Y-8.3971 F75.00
G01 X43.9241 Y-8.3909 F75.00
G01 X43.9364 Y-8.3825 F75.00
G01 X43.9538 Y-8.3727 F75.00
G01 X43.9720 Y-8.3646 F75.00
G01 X43.9910 Y-8.3585 F75.00
G01 X44.0890 Y-8.3345 F75.00
G01 X44.0992 Y-8.3326 F75.00
G01 X44.1145 Y-8.3306 F75.00
G01 X44.1347 Y-8.3299 F75.00
G01 X50.3489 Y-8.3299 F75.00
G01 X50.3777 Y-8.3309 F75.00
G01 X50.4102 Y-8.3336 F75.00
G01 X50.4752 Y-8.3248 F75.00
G01 X50.5440 Y-8.3173 F75.00
G01 X50.6090 Y-8.2934 F75.00
G01 X50.6798 Y-8.2695 F75.00
G01 X50.7427 Y-8.2294 F75.00
G01 X50.8020 Y-8.1936 F75.00
G01 X50.8511 Y-8.1447 F75.00
G01 X50.9065 Y-8.0920 F75.00
G01 X50.9247 Y-8.0713 F75.00
G01 X50.9308 Y-8.0649 F75.00
G01 X53.8137 Y-5.1820 F75.00
G01 X53.8284 Y-5.1686 F75.00
G01 X53.8445 Y-5.1568 F75.00
G01 X53.9297 Y-5.1032 F75.00
G01 X53.9427 Y-5.0962 F75.00
G01 X53.9561 Y-5.0901 F75.00
G01 X53.9699 Y-5.0850 F75.00
G01 X53.9840 Y-5.0810 F75.00
G01 X53.9985 Y-5.0780 F75.00
G01 X54.0706 Y-5.0658 F75.00
G01 X54.0849 Y-5.0642 F75.00
G01 X54.0945 Y-5.0638 F75.00
G01 X55.3650 Y-5.0637 F75.00
G01 X55.4308 Y-5.0533 F75.00
G01 X55.4485 Y-5.0490 F75.00
G01 X55.4633 Y-5.0468 F75.00
G01 X55.5587 Y-5.0381 F75.00
G01 X55.5780 Y-5.0373 F75.00
G01 X55.5925 Y-5.0379 F75.00
G01 X55.6116 Y-5.0404 F75.00
G01 X55.6657 Y-5.0527 F75.00
G01 X55.7319 Y-5.0632 F75.00
G01 X56.1184 Y-5.0632 F75.00
G01 X56.1184 Y-5.0532 F75.00
G01 X55.7435 Y-5.0531 F75.00
G01 X55.7337 Y-5.0527 F75.00
G01 X55.7191 Y-5.0510 F75.00
G01 X55.7046 Y-5.0483 F75.00
G01 X55.6951 Y-5.0460 F75.00
G01 X55.6810 Y-5.0415 F75.00
G01 X55.6719 Y-5.0380 F75.00
G01 X55.6629 Y-5.0340 F75.00
G01 X55.6498 Y-5.0272 F75.00
G01 X55.6373 Y-5.0195 F75.00
G01 X55.6254 Y-5.0109 F75.00
G01 X55.6178 Y-5.0046 F75.00
G01 X55.6070 Y-4.9946 F75.00
G01 X55.6002 Y-4.9875 F75.00
G01 X55.5907 Y-4.9762 F75.00
G01 X55.5821 Y-4.9643 F75.00
G01 X55.5744 Y-4.9518 F75.00
G01 X55.5698 Y-4.9431 F75.00
G01 X55.5636 Y-4.9297 F75.00
G01 X55.5585 Y-4.9159 F75.00
G01 X55.5544 Y-4.9018 F75.00
G01 X55.5513 Y-4.8874 F75.00
G01 X55.5499 Y-4.8777 F75.00
G01 X55.5489 Y-4.8679 F75.00
G01 X55.5484 Y-4.8532 F75.00
G01 X55.5484 Y-2.7132 F75.00
G01 X55.5494 Y-2.6936 F75.00
G01 X55.5513 Y-2.6790 F75.00
G01 X55.5544 Y-2.6646 F75.00
G01 X55.5585 Y-2.6505 F75.00
G01 X55.5636 Y-2.6367 F75.00
G01 X55.5698 Y-2.6233 F75.00
G01 X55.5769 Y-2.6104 F75.00
G01 X55.5849 Y-2.5980 F75.00
G01 X55.5938 Y-2.5863 F75.00
G01 X55.6036 Y-2.5753 F75.00
G01 X55.6141 Y-2.5650 F75.00
G01 X55.6254 Y-2.5555 F75.00
G01 X55.6414 Y-2.5442 F75.00
G01 X55.6541 Y-2.5368 F75.00
G01 X55.6674 Y-2.5304 F75.00
G01 X55.6810 Y-2.5249 F75.00
G01 X55.6998 Y-2.5192 F75.00
G01 X55.7142 Y-2.5161 F75.00
G01 X55.7288 Y-2.5142 F75.00
G01 X55.7435 Y-2.5133 F75.00
G01 X56.1184 Y-2.5132 F75.00
G01 X56.1184 Y-2.5032 F75.00
G01 X55.7319 Y-2.5032 F75.00
G01 X55.6657 Y-2.5137 F75.00
G01 X55.6499 Y-2.5174 F75.00
G01 X55.6351 Y-2.5197 F75.00
G01 X55.5397 Y-2.5283 F75.00
G01 X55.5204 Y-2.5291 F75.00
G01 X55.5011 Y-2.5280 F75.00
G01 X55.4868 Y-2.5260 F75.00
G01 X55.4417 Y-2.5159 F75.00
G01 X55.4308 Y-2.5131 F75.00
G01 X55.3650 Y-2.5027 F75.00
G01 X53.1918 Y-2.5027 F75.00
G01 X53.1425 Y-2.5105 F75.00
G01 X53.0831 Y-2.5408 F75.00
G01 X53.0360 Y-2.5879 F75.00
G01 X53.0057 Y-2.6473 F75.00
G01 X52.9979 Y-2.6966 F75.00
G01 X52.9978 Y-3.9673 F75.00
G01 X52.9969 Y-3.9822 F75.00
G01 X52.9939 Y-4.0019 F75.00
G01 X52.9703 Y-4.1048 F75.00
G01 X52.9658 Y-4.1188 F75.00
G01 X52.9603 Y-4.1325 F75.00
G01 X52.9538 Y-4.1457 F75.00
G01 X52.9436 Y-4.1625 F75.00
G01 X52.8984 Y-4.2261 F75.00
G01 X52.8894 Y-4.2374 F75.00
G01 X52.8796 Y-4.2479 F75.00
G01 X50.2369 Y-6.8906 F75.00
G01 X50.2222 Y-6.9039 F75.00
G01 X50.2061 Y-6.9158 F75.00
G01 X50.1251 Y-6.9668 F75.00
G01 X50.1166 Y-6.9718 F75.00
G01 X50.1035 Y-6.9785 F75.00
G01 X50.0900 Y-6.9843 F75.00
G01 X50.0760 Y-6.9890 F75.00
G01 X50.0570 Y-6.9937 F75.00
G01 X49.9848 Y-7.0061 F75.00
G01 X49.9657 Y-7.0084 F75.00
G01 X49.9513 Y-7.0089 F75.00
G01 X40.5295 Y-7.0089 F75.00
G01 X40.5007 Y-7.0079 F75.00
G01 X40.4682 Y-7.0052 F75.00
G01 X40.4031 Y-7.0140 F75.00
G01 X40.3344 Y-7.0215 F75.00
G01 X40.2643 Y-7.0472 F75.00
G01 X40.1986 Y-7.0693 F75.00
G01 X40.1403 Y-7.1066 F75.00
G01 X40.0764 Y-7.1452 F75.00
G01 X40.0234 Y-7.1979 F75.00
G01 X39.9719 Y-7.2468 F75.00
G01 X39.9537 Y-7.2675 F75.00
G01 X39.9476 Y-7.2739 F75.00
G01 X39.5075 Y-7.7140 F75.00
G01 X39.4865 Y-7.7335 F75.00
G01 X39.4616 Y-7.7547 F75.00
G01 X39.4218 Y-7.8069 F75.00
G01 X39.3785 Y-7.8608 F75.00
G01 X39.3494 Y-7.9236 F75.00
G01 X39.3163 Y-7.9906 F75.00
G01 X39.3014 Y-8.0582 F75.00
G01 X39.2835 Y-8.1307 F75.00
G01 X39.2834 Y-8.2054 F75.00
G01 X39.2815 Y-8.2764 F75.00
G01 X39.2833 Y-8.3040 F75.00
G01 X39.2835 Y-8.3128 F75.00
G01 X39.2834 Y-10.1799 F75.00
G01 X39.2825 Y-10.1948 F75.00
G01 X39.2795 Y-10.2145 F75.00
G01 X39.2583 Y-10.3079 F75.00
G01 X39.2545 Y-10.3221 F75.00
G01 X39.2514 Y-10.3314 F75.00
G01 X39.2459 Y-10.3451 F75.00
G01 X39.2416 Y-10.3539 F75.00
G01 X39.2345 Y-10.3668 F75.00
G01 X39.2264 Y-10.3791 F75.00
G01 X39.1840 Y-10.4387 F75.00
G01 X39.1781 Y-10.4463 F75.00
G01 X39.1685 Y-10.4571 F75.00
G01 X38.1813 Y-11.4440 F75.00
G01 X38.1699 Y-11.4537 F75.00
G01 X38.1535 Y-11.4651 F75.00
G01 X38.0725 Y-11.5160 F75.00
G01 X38.0595 Y-11.5230 F75.00
G01 X38.0461 Y-11.5291 F75.00
G01 X38.0276 Y-11.5356 F75.00
G01 X38.0086 Y-11.5403 F75.00
G01 X37.9316 Y-11.5534 F75.00
G01 X37.9173 Y-11.5550 F75.00
G01 X37.9077 Y-11.5554 F75.00
G01 X28.3951 Y-11.5555 F75.00
G01 X28.3752 Y-11.5545 F75.00
G01 X28.3555 Y-11.5515 F75.00
G01 X28.2572 Y-11.5291 F75.00
G01 X28.2429 Y-11.5249 F75.00
G01 X28.2335 Y-11.5215 F75.00
G01 X28.2198 Y-11.5155 F75.00
G01 X28.2109 Y-11.5109 F75.00
G01 X28.1981 Y-11.5033 F75.00
G01 X28.1858 Y-11.4947 F75.00
G01 X28.1070 Y-11.4319 F75.00
G01 X28.0960 Y-11.4219 F75.00
G01 X28.0890 Y-11.4147 F75.00
G01 X28.0824 Y-11.4072 F75.00
G01 X28.0732 Y-11.3954 F75.00
G01 X28.0676 Y-11.3872 F75.00
G01 X28.0600 Y-11.3743 F75.00
G01 X28.0140 Y-11.2793 F75.00
G01 X28.0085 Y-11.2660 F75.00
G01 X28.0040 Y-11.2523 F75.00
G01 X28.0005 Y-11.2383 F75.00
G01 X27.9981 Y-11.2241 F75.00
G01 X27.9916 Y-11.1650 F75.00
G01 X27.9911 Y-11.1560 F75.00
G01 X27.9911 Y-11.1294 F75.00
G01 X27.9806 Y-11.0633 F75.00
G01 X27.9777 Y-11.0516 F75.00
G01 X27.9751 Y-11.0369 F75.00
G01 X27.9658 Y-10.9366 F75.00
G01 X27.9650 Y-10.9221 F75.00
G01 X27.9651 Y-10.9124 F75.00
G01 X27.9660 Y-10.8979 F75.00
G01 X27.9673 Y-10.8884 F75.00
G01 X27.9700 Y-10.8741 F75.00
G01 X27.9806 Y-10.8286 F75.00
G01 X27.9911 Y-10.7626 F75.00
G01 X27.9911 Y-8.5894 F75.00
G01 X27.9833 Y-8.5401 F75.00
G01 X27.9530 Y-8.4807 F75.00
G01 X27.9059 Y-8.4336 F75.00
G01 X27.8465 Y-8.4033 F75.00
G01 X27.7972 Y-8.3955 F75.00
G01 X27.7651 Y-8.3953 F75.00
G01 X27.7453 Y-8.3933 F75.00
G01 X27.7306 Y-8.3905 F75.00
G01 X27.6421 Y-8.3703 F75.00
G01 X27.6229 Y-8.3649 F75.00
G01 X27.6043 Y-8.3576 F75.00
G01 X27.5866 Y-8.3485 F75.00
G01 X27.5698 Y-8.3377 F75.00
G01 X27.4870 Y-8.2719 F75.00
G01 X27.4724 Y-8.2583 F75.00
G01 X27.4592 Y-8.2434 F75.00
G01 X27.4476 Y-8.2272 F75.00
G01 X27.4376 Y-8.2099 F75.00
G01 X27.3940 Y-8.1193 F75.00
G01 X27.3885 Y-8.1060 F75.00
G01 X27.3854 Y-8.0969 F75.00
G01 X27.3816 Y-8.0830 F75.00
G01 X27.3796 Y-8.0736 F75.00
G01 X27.3775 Y-8.0593 F75.00
G01 X27.3724 Y-8.0139 F75.00
G01 X27.3713 Y-8.0005 F75.00
G01 X27.3712 Y-7.4449 F75.00
G01 X27.3727 Y-7.4251 F75.00
G01 X27.3761 Y-7.4054 F75.00
G01 X27.3975 Y-7.3121 F75.00
G01 X27.4016 Y-7.2980 F75.00
G01 X27.4068 Y-7.2842 F75.00
G01 X27.4152 Y-7.2665 F75.00
G01 X27.4254 Y-7.2497 F75.00
G01 X27.4706 Y-7.1861 F75.00
G01 X27.4796 Y-7.1748 F75.00
G01 X27.4894 Y-7.1643 F75.00
G01 X30.0663 Y-4.5874 F75.00
G01 X30.0810 Y-4.5741 F75.00
G01 X30.0971 Y-4.5622 F75.00
G01 X30.1866 Y-4.5062 F75.00
G01 X30.1997 Y-4.4995 F75.00
G01 X30.2178 Y-4.4920 F75.00
G01 X30.2319 Y-4.4876 F75.00
G01 X30.2511 Y-4.4834 F75.00
G01 X30.3232 Y-4.4712 F75.00
G01 X30.3375 Y-4.4696 F75.00
G01 X30.3519 Y-4.4691 F75.00
G01 X41.9055 Y-4.4692 F75.00
G01 X41.9204 Y-4.4701 F75.00
G01 X41.9401 Y-4.4731 F75.00
G01 X42.0335 Y-4.4943 F75.00
G01 X42.0527 Y-4.4997 F75.00
G01 X42.0713 Y-4.5070 F75.00
G01 X42.0890 Y-4.5161 F75.00
G01 X42.1017 Y-4.5241 F75.00
G01 X42.1098 Y-4.5299 F75.00
G01 X42.1847 Y-4.5895 F75.00
G01 X42.1960 Y-4.5993 F75.00
G01 X42.2032 Y-4.6063 F75.00
G01 X42.2132 Y-4.6174 F75.00
G01 X42.2224 Y-4.6292 F75.00
G01 X42.2280 Y-4.6374 F75.00
G01 X42.2356 Y-4.6503 F75.00
G01 X42.2796 Y-4.7409 F75.00
G01 X42.2854 Y-4.7541 F75.00
G01 X42.2887 Y-4.7632 F75.00
G01 X42.2940 Y-4.7816 F75.00
G01 X42.2975 Y-4.8005 F75.00
G01 X42.3040 Y-4.8596 F75.00
G01 X42.3045 Y-4.8686 F75.00
G01 X42.3045 Y-4.8952 F75.00
G01 X42.3123 Y-4.9445 F75.00
G01 X42.3426 Y-5.0039 F75.00
G01 X42.3897 Y-5.0510 F75.00
G01 X42.4491 Y-5.0813 F75.00
G01 X42.4984 Y-5.0891 F75.00
G01 X44.6716 Y-5.0891 F75.00
G01 X44.7377 Y-5.0786 F75.00
G01 X44.7543 Y-5.0747 F75.00
G01 X44.7691 Y-5.0724 F75.00
G01 X44.8644 Y-5.0638 F75.00
G01 X44.8838 Y-5.0630 F75.00
G01 X44.9031 Y-5.0640 F75.00
G01 X44.9174 Y-5.0661 F75.00
G01 X44.9626 Y-5.0761 F75.00
G01 X44.9724 Y-5.0786 F75.00
G01 X45.0384 Y-5.0891 F75.00
G01 X47.2116 Y-5.0891 F75.00
G01 X47.2609 Y-5.0813 F75.00
G01 X47.3203 Y-5.0510 F75.00
G01 X47.3674 Y-5.0039 F75.00
G01 X47.3977 Y-4.9445 F75.00
G01 X47.4055 Y-4.8952 F75.00
G01 X47.4057 Y-4.8631 F75.00
G01 X47.4071 Y-4.8482 F75.00
G01 X47.4085 Y-4.8384 F75.00
G01 X47.4319 Y-4.7352 F75.00
G01 X47.4361 Y-4.7209 F75.00
G01 X47.4434 Y-4.7023 F75.00
G01 X47.4525 Y-4.6846 F75.00
G01 X47.4633 Y-4.6678 F75.00
G01 X47.5291 Y-4.5850 F75.00
G01 X47.5391 Y-4.5740 F75.00
G01 X47.5538 Y-4.5604 F75.00
G01 X47.5656 Y-4.5512 F75.00
G01 X47.5823 Y-4.5404 F75.00
G01 X47.5955 Y-4.5334 F75.00
G01 X47.6773 Y-4.4940 F75.00
G01 X47.6861 Y-4.4901 F75.00
G01 X47.6996 Y-4.4849 F75.00
G01 X47.7134 Y-4.4808 F75.00
G01 X47.7322 Y-4.4768 F75.00
G01 X47.7916 Y-4.4699 F75.00
G01 X47.8095 Y-4.4691 F75.00
G01 X48.2896 Y-4.4692 F75.00
G01 X48.3046 Y-4.4701 F75.00
G01 X48.3243 Y-4.4731 F75.00
G01 X48.4270 Y-4.4967 F75.00
G01 X48.4407 Y-4.5010 F75.00
G01 X48.4584 Y-4.5084 F75.00
G01 X48.4754 Y-4.5174 F75.00
G01 X48.4875 Y-4.5252 F75.00
G01 X48.5618 Y-4.5822 F75.00
G01 X48.5699 Y-4.5887 F75.00
G01 X48.5776 Y-4.5957 F75.00
G01 X48.5849 Y-4.6030 F75.00
G01 X48.5919 Y-4.6107 F75.00
G01 X48.7007 Y-4.7381 F75.00
G01 X48.8575 Y-4.8721 F75.00
G01 X49.0334 Y-4.9799 F75.00
G01 X49.2240 Y-5.0588 F75.00
G01 X49.4245 Y-5.1070 F75.00
G01 X49.6302 Y-5.1232 F75.00
G01 X49.8358 Y-5.1070 F75.00
G01 X50.0364 Y-5.0588 F75.00
G01 X50.2270 Y-4.9799 F75.00
G01 X50.4029 Y-4.8721 F75.00
G01 X50.5597 Y-4.7381 F75.00
G01 X50.6937 Y-4.5813 F75.00
G01 X50.8015 Y-4.4054 F75.00
G01 X50.8804 Y-4.2148 F75.00
G01 X50.9286 Y-4.0142 F75.00
G01 X50.9448 Y-3.8086 F75.00
G01 X50.9286 Y-3.6030 F75.00
G01 X50.8804 Y-3.4024 F75.00
G01 X50.8015 Y-3.2118 F75.00
G01 X50.6937 Y-3.0359 F75.00
G01 X50.5597 Y-2.8791 F75.00
G01 X50.4029 Y-2.7451 F75.00
G01 X50.2270 Y-2.6373 F75.00
G01 X50.0364 Y-2.5584 F75.00
G01 X49.8358 Y-2.5102 F75.00
G01 X49.6302 Y-2.4940 F75.00
G01 X49.4246 Y-2.5102 F75.00
G01 X49.2240 Y-2.5584 F75.00
G01 X49.0334 Y-2.6373 F75.00
G01 X48.8575 Y-2.7451 F75.00
G01 X48.7007 Y-2.8791 F75.00
G01 X48.5919 Y-3.0065 F75.00
G01 X48.5817 Y-3.0175 F75.00
G01 X48.5745 Y-3.0244 F75.00
G01 X48.5591 Y-3.0371 F75.00
G01 X48.4785 Y-3.0968 F75.00
G01 X48.4620 Y-3.1067 F75.00
G01 X48.4491 Y-3.1131 F75.00
G01 X48.4313 Y-3.1201 F75.00
G01 X48.4175 Y-3.1243 F75.00
G01 X48.3208 Y-3.1448 F75.00
G01 X48.3105 Y-3.1464 F75.00
G01 X48.3002 Y-3.1475 F75.00
G01 X48.2847 Y-3.1481 F75.00
G01 X47.8095 Y-3.1481 F75.00
G01 X47.7946 Y-3.1475 F75.00
G01 X47.7797 Y-3.1459 F75.00
G01 X47.7699 Y-3.1441 F75.00
G01 X47.6716 Y-3.1217 F75.00
G01 X47.6620 Y-3.1190 F75.00
G01 X47.6479 Y-3.1141 F75.00
G01 X47.6342 Y-3.1081 F75.00
G01 X47.6210 Y-3.1011 F75.00
G01 X47.6083 Y-3.0931 F75.00
G01 X47.5963 Y-3.0843 F75.00
G01 X47.5253 Y-3.0277 F75.00
G01 X47.5140 Y-3.0179 F75.00
G01 X47.5000 Y-3.0036 F75.00
G01 X47.4906 Y-2.9921 F75.00
G01 X47.4820 Y-2.9798 F75.00
G01 X47.4720 Y-2.9625 F75.00
G01 X47.4284 Y-2.8719 F75.00
G01 X47.4229 Y-2.8586 F75.00
G01 X47.4184 Y-2.8449 F75.00
G01 X47.4140 Y-2.8262 F75.00
G01 X47.4119 Y-2.8119 F75.00
G01 X47.4060 Y-2.7576 F75.00
G01 X47.4055 Y-2.7486 F75.00
G01 X47.4055 Y-2.7220 F75.00
G01 X47.3977 Y-2.6727 F75.00
G01 X47.3674 Y-2.6133 F75.00
G01 X47.3203 Y-2.5662 F75.00
G01 X47.2609 Y-2.5359 F75.00
G01 X47.2116 Y-2.5281 F75.00
G01 X45.0384 Y-2.5281 F75.00
G01 X44.9723 Y-2.5386 F75.00
G01 X44.9557 Y-2.5425 F75.00
G01 X44.9409 Y-2.5448 F75.00
G01 X44.8455 Y-2.5534 F75.00
G01 X44.8262 Y-2.5542 F75.00
G01 X44.8117 Y-2.5536 F75.00
G01 X44.7926 Y-2.5511 F75.00
G01 X44.7474 Y-2.5411 F75.00
G01 X44.7376 Y-2.5386 F75.00
G01 X44.6716 Y-2.5281 F75.00
G01 X42.4984 Y-2.5281 F75.00
G01 X42.4491 Y-2.5359 F75.00
G01 X42.3897 Y-2.5662 F75.00
G01 X42.3426 Y-2.6133 F75.00
G01 X42.3123 Y-2.6727 F75.00
G01 X42.3045 Y-2.7220 F75.00
G01 X42.3043 Y-2.7541 F75.00
G01 X42.3035 Y-2.7640 F75.00
G01 X42.3015 Y-2.7788 F75.00
G01 X42.2781 Y-2.8820 F75.00
G01 X42.2739 Y-2.8963 F75.00
G01 X42.2705 Y-2.9057 F75.00
G01 X42.2666 Y-2.9149 F75.00
G01 X42.2599 Y-2.9283 F75.00
G01 X42.2523 Y-2.9411 F75.00
G01 X42.2467 Y-2.9494 F75.00
G01 X42.1841 Y-3.0283 F75.00
G01 X42.1743 Y-3.0396 F75.00
G01 X42.1637 Y-3.0502 F75.00
G01 X42.1524 Y-3.0600 F75.00
G01 X42.1404 Y-3.0688 F75.00
G01 X42.1277 Y-3.0768 F75.00
G01 X42.1145 Y-3.0838 F75.00
G01 X42.0327 Y-3.1232 F75.00
G01 X42.0195 Y-3.1290 F75.00
G01 X42.0013 Y-3.1352 F75.00
G01 X41.9920 Y-3.1376 F75.00
G01 X41.9778 Y-3.1404 F75.00
G01 X41.9229 Y-3.1468 F75.00
G01 X41.9095 Y-3.1479 F75.00
G01 X29.9543 Y-3.1481 F75.00
G01 X29.9255 Y-3.1471 F75.00
G01 X29.8930 Y-3.1444 F75.00
G01 X29.8280 Y-3.1532 F75.00
G01 X29.7592 Y-3.1607 F75.00
G01 X29.6942 Y-3.1846 F75.00
G01 X29.6234 Y-3.2085 F75.00
G01 X29.5605 Y-3.2487 F75.00
G01 X29.5012 Y-3.2844 F75.00
G01 X29.4482 Y-3.3371 F75.00
G01 X29.3967 Y-3.3860 F75.00
G01 X29.3785 Y-3.4067 F75.00
G01 X29.3724 Y-3.4131 F75.00
G01 X26.2741 Y-6.5114 F75.00
G01 X26.2531 Y-6.5309 F75.00
G01 X26.2282 Y-6.5521 F75.00
G01 X26.1884 Y-6.6043 F75.00
G01 X26.1451 Y-6.6582 F75.00
G01 X26.1160 Y-6.7210 F75.00
G01 X26.0829 Y-6.7880 F75.00
G01 X26.0680 Y-6.8556 F75.00
G01 X26.0501 Y-6.9281 F75.00
G01 X26.0500 Y-7.0028 F75.00
G01 X26.0481 Y-7.0738 F75.00
G01 X26.0499 Y-7.1014 F75.00
G01 X26.0501 Y-7.1102 F75.00
G01 X26.0500 Y-7.9965 F75.00
G01 X26.0485 Y-8.0164 F75.00
G01 X26.0461 Y-8.0311 F75.00
G01 X26.0249 Y-8.1245 F75.00
G01 X26.0210 Y-8.1390 F75.00
G01 X26.0178 Y-8.1484 F75.00
G01 X26.0142 Y-8.1577 F75.00
G01 X26.0079 Y-8.1713 F75.00
G01 X26.0006 Y-8.1843 F75.00
G01 X25.9951 Y-8.1927 F75.00
G01 X25.9863 Y-8.2047 F75.00
G01 X25.9265 Y-8.2796 F75.00
G01 X25.9129 Y-8.2942 F75.00
G01 X25.9018 Y-8.3042 F75.00
G01 X25.8860 Y-8.3162 F75.00
G01 X25.8733 Y-8.3242 F75.00
G01 X25.8601 Y-8.3312 F75.00
G01 X25.7783 Y-8.3706 F75.00
G01 X25.7651 Y-8.3764 F75.00
G01 X25.7515 Y-8.3812 F75.00
G01 X25.7376 Y-8.3850 F75.00
G01 X25.7187 Y-8.3885 F75.00
G01 X25.6596 Y-8.3950 F75.00
G01 X25.6506 Y-8.3954 F75.00
G01 X25.6240 Y-8.3955 F75.00
G01 X25.5747 Y-8.4033 F75.00
G01 X25.5153 Y-8.4336 F75.00
G01 X25.4682 Y-8.4807 F75.00
G01 X25.4379 Y-8.5401 F75.00
G01 X25.4301 Y-8.5894 F75.00
G01 X25.4301 Y-10.7626 F75.00
G01 X25.4406 Y-10.8287 F75.00
G01 X25.4445 Y-10.8453 F75.00
G01 X25.4468 Y-10.8601 F75.00
G01 X25.4554 Y-10.9555 F75.00
G01 X25.4562 Y-10.9748 F75.00
G01 X25.4552 Y-10.9941 F75.00
G01 X25.4531 Y-11.0084 F75.00
G01 X25.4431 Y-11.0535 F75.00
G01 X25.4406 Y-11.0634 F75.00
G01 X25.4301 Y-11.1294 F75.00
G01 X25.4301 Y-13.2471 F75.00
G01 X25.4295 Y-13.2620 F75.00
G01 X25.4285 Y-13.2719 F75.00
G01 X25.4261 Y-13.2867 F75.00
G01 X25.4049 Y-13.3801 F75.00
G01 X25.3995 Y-13.3993 F75.00
G01 X25.3922 Y-13.4178 F75.00
G01 X25.3879 Y-13.4268 F75.00
G01 X25.3806 Y-13.4399 F75.00
G01 X25.3693 Y-13.4563 F75.00
G01 X25.3097 Y-13.5313 F75.00
G01 X25.2999 Y-13.5426 F75.00
G01 X25.2893 Y-13.5532 F75.00
G01 X25.2780 Y-13.5629 F75.00
G01 X25.2660 Y-13.5718 F75.00
G01 X25.2533 Y-13.5798 F75.00
G01 X25.2401 Y-13.5868 F75.00
G01 X25.1583 Y-13.6261 F75.00
G01 X25.1399 Y-13.6339 F75.00
G01 X25.1208 Y-13.6398 F75.00
G01 X25.1013 Y-13.6437 F75.00
G01 X25.0815 Y-13.6457 F75.00
G01 X24.9707 Y-13.6457 F75.00
G01 X24.9558 Y-13.6444 F75.00
G01 X24.9460 Y-13.6429 F75.00
G01 X24.9362 Y-13.6409 F75.00
G01 X24.9218 Y-13.6371 F75.00
G01 X24.9076 Y-13.6321 F75.00
G01 X24.8985 Y-13.6283 F75.00
G01 X24.8121 Y-13.5868 F75.00
G01 X24.8023 Y-13.5817 F75.00
G01 X24.7895 Y-13.5740 F75.00
G01 X24.7772 Y-13.5653 F75.00
G01 X24.7694 Y-13.5590 F75.00
G01 X24.7486 Y-13.5404 F75.00
G01 X24.7404 Y-13.5327 F75.00
G01 X24.4878 Y-13.2801 F75.00
G01 X24.4745 Y-13.2654 F75.00
G01 X24.4654 Y-13.2534 F75.00
G01 X24.4090 Y-13.1641 F75.00
G01 X24.3999 Y-13.1467 F75.00
G01 X24.3941 Y-13.1332 F75.00
G01 X24.3894 Y-13.1192 F75.00
G01 X24.3847 Y-13.1002 F75.00
G01 X24.3716 Y-13.0232 F75.00
G01 X24.3700 Y-13.0089 F75.00
G01 X24.3696 Y-12.9993 F75.00
G01 X24.3697 Y-5.2291 F75.00
G01 X24.3711 Y-5.2142 F75.00
G01 X24.3735 Y-5.1995 F75.00
G01 X24.3947 Y-5.1061 F75.00
G01 X24.4001 Y-5.0869 F75.00
G01 X24.4054 Y-5.0729 F75.00
G01 X24.4095 Y-5.0638 F75.00
G01 X24.4165 Y-5.0506 F75.00
G01 X24.4217 Y-5.0421 F75.00
G01 X24.4333 Y-5.0259 F75.00
G01 X24.4931 Y-4.9510 F75.00
G01 X24.5031 Y-4.9400 F75.00
G01 X24.5140 Y-4.9296 F75.00
G01 X24.5255 Y-4.9202 F75.00
G01 X24.5336 Y-4.9144 F75.00
G01 X24.5463 Y-4.9064 F75.00
G01 X24.5551 Y-4.9016 F75.00
G01 X24.6413 Y-4.8600 F75.00
G01 X24.6545 Y-4.8542 F75.00
G01 X24.6636 Y-4.8509 F75.00
G01 X24.6820 Y-4.8456 F75.00
G01 X24.7009 Y-4.8421 F75.00
G01 X24.7600 Y-4.8356 F75.00
G01 X24.7690 Y-4.8351 F75.00
G01 X24.7956 Y-4.8351 F75.00
G01 X24.8449 Y-4.8273 F75.00
G01 X24.9043 Y-4.7970 F75.00
G01 X24.9514 Y-4.7499 F75.00
G01 X24.9817 Y-4.6905 F75.00
G01 X24.9895 Y-4.6412 F75.00
G01 X24.9895 Y-2.4680 F75.00
G01 X24.9817 Y-2.4187 F75.00
G01 X24.9514 Y-2.3593 F75.00
G01 X24.9043 Y-2.3122 F75.00
G01 X24.8449 Y-2.2819 F75.00
G01 X24.7956 Y-2.2741 F75.00
G01 X22.6224 Y-2.2741 F75.00
G01 X22.5563 Y-2.2846 F75.00
G01 X22.5397 Y-2.2885 F75.00
G01 X22.5249 Y-2.2908 F75.00
G01 X22.4295 Y-2.2994 F75.00
G01 X22.4102 Y-2.3002 F75.00
G01 X22.3957 Y-2.2996 F75.00
G01 X22.3766 Y-2.2971 F75.00
G01 X22.3314 Y-2.2871 F75.00
G01 X22.3216 Y-2.2846 F75.00
G01 X22.2556 Y-2.2741 F75.00
G01 X20.0824 Y-2.2741 F75.00
G01 X20.0163 Y-2.2846 F75.00
G01 X19.9997 Y-2.2885 F75.00
G01 X19.9849 Y-2.2908 F75.00
G01 X19.8895 Y-2.2994 F75.00
G01 X19.8702 Y-2.3002 F75.00
G01 X19.8509 Y-2.2992 F75.00
G01 X19.8366 Y-2.2971 F75.00
G01 X19.7914 Y-2.2871 F75.00
G01 X19.7816 Y-2.2846 F75.00
G01 X19.7156 Y-2.2741 F75.00
G01 X17.5424 Y-2.2741 F75.00
G01 X17.4763 Y-2.2846 F75.00
G01 X17.4597 Y-2.2885 F75.00
G01 X17.4449 Y-2.2908 F75.00
G01 X17.3495 Y-2.2994 F75.00
G01 X17.3302 Y-2.3002 F75.00
G01 X17.3157 Y-2.2996 F75.00
G01 X17.2966 Y-2.2971 F75.00
G01 X17.2514 Y-2.2871 F75.00
G01 X17.2416 Y-2.2846 F75.00
G01 X17.1756 Y-2.2741 F75.00
G01 X15.0024 Y-2.2741 F75.00
G01 X14.9363 Y-2.2846 F75.00
G01 X14.9197 Y-2.2885 F75.00
G01 X14.9049 Y-2.2908 F75.00
G01 X14.8095 Y-2.2994 F75.00
G01 X14.7902 Y-2.3002 F75.00
G01 X14.7709 Y-2.2992 F75.00
G01 X14.7566 Y-2.2971 F75.00
G01 X14.7114 Y-2.2871 F75.00
G01 X14.7016 Y-2.2846 F75.00
G01 X14.6356 Y-2.2741 F75.00
G01 X12.4624 Y-2.2741 F75.00
G01 X12.3963 Y-2.2846 F75.00
G01 X12.3797 Y-2.2885 F75.00
G01 X12.3649 Y-2.2908 F75.00
G01 X12.2695 Y-2.2994 F75.00
G01 X12.2502 Y-2.3002 F75.00
G01 X12.2357 Y-2.2996 F75.00
G01 X12.2166 Y-2.2971 F75.00
G01 X12.1714 Y-2.2871 F75.00
G01 X12.1616 Y-2.2846 F75.00
G01 X12.0956 Y-2.2741 F75.00
G01 X9.9224 Y-2.2741 F75.00
G01 X9.8563 Y-2.2846 F75.00
G01 X9.8397 Y-2.2885 F75.00
G01 X9.8249 Y-2.2908 F75.00
G01 X9.7295 Y-2.2994 F75.00
G01 X9.7102 Y-2.3002 F75.00
G01 X9.6909 Y-2.2992 F75.00
G01 X9.6766 Y-2.2971 F75.00
G01 X9.6314 Y-2.2871 F75.00
G01 X9.6216 Y-2.2846 F75.00
G01 X9.5556 Y-2.2741 F75.00
G01 X7.3824 Y-2.2741 F75.00
G01 X7.3163 Y-2.2846 F75.00
G01 X7.2997 Y-2.2885 F75.00
G01 X7.2849 Y-2.2908 F75.00
G01 X7.1895 Y-2.2994 F75.00
G01 X7.1702 Y-2.3002 F75.00
G01 X7.1509 Y-2.2992 F75.00
G01 X7.1366 Y-2.2971 F75.00
G01 X7.0914 Y-2.2871 F75.00
G01 X7.0816 Y-2.2846 F75.00
G01 X7.0156 Y-2.2741 F75.00
G01 X4.8424 Y-2.2741 F75.00
G01 X4.7931 Y-2.2819 F75.00
G01 X4.7337 Y-2.3122 F75.00
G01 X4.6866 Y-2.3593 F75.00
G01 X4.6563 Y-2.4187 F75.00
G01 X4.6485 Y-2.4680 F75.00
G01 X4.6485 Y-4.6412 F75.00
G00 Z2.0000
G00 X12.4790 Y-4.8246
G01 F45.00
G01 Z-0.0900
G01 F75.00
G01 X12.8988 Y-4.8246 F75.00
G01 X12.8988 Y-13.4564 F75.00
G01 X12.9019 Y-13.5152 F75.00
G01 X12.9113 Y-13.5783 F75.00
G01 X12.9268 Y-13.6402 F75.00
G01 X12.9447 Y-13.6911 F75.00
G01 X12.9522 Y-13.7093 F75.00
G01 X12.9733 Y-13.7536 F75.00
G01 X12.9804 Y-13.7665 F75.00
G01 X13.0084 Y-13.8127 F75.00
G01 X13.0433 Y-13.8601 F75.00
G01 X13.0528 Y-13.8714 F75.00
G01 X13.0892 Y-13.9112 F75.00
G01 X24.5538 Y-25.3758 F75.00
G01 X24.6011 Y-25.4186 F75.00
G01 X24.6443 Y-25.4510 F75.00
G01 X24.6606 Y-25.4619 F75.00
G01 X24.7070 Y-25.4894 F75.00
G01 X24.7557 Y-25.5128 F75.00
G01 X24.7739 Y-25.5203 F75.00
G01 X24.8248 Y-25.5382 F75.00
G01 X24.8771 Y-25.5516 F75.00
G01 X24.8915 Y-25.5546 F75.00
G01 X24.9498 Y-25.5631 F75.00
G01 X25.0086 Y-25.5662 F75.00
G01 X25.4406 Y-25.5662 F75.00
G01 X25.4407 Y-25.9909 F75.00
G01 X25.4416 Y-26.0056 F75.00
G01 X25.4435 Y-26.0202 F75.00
G01 X25.4455 Y-26.0298 F75.00
G01 X25.4492 Y-26.0441 F75.00
G01 X25.4540 Y-26.0580 F75.00
G01 X25.4598 Y-26.0715 F75.00
G01 X25.4666 Y-26.0846 F75.00
G01 X25.4743 Y-26.0971 F75.00
G01 X25.4829 Y-26.1090 F75.00
G01 X25.4924 Y-26.1203 F75.00
G01 X25.5027 Y-26.1308 F75.00
G01 X25.5176 Y-26.1437 F75.00
G01 X25.5295 Y-26.1523 F75.00
G01 X25.5420 Y-26.1600 F75.00
G01 X25.5551 Y-26.1668 F75.00
G01 X25.5732 Y-26.1743 F75.00
G01 X25.5873 Y-26.1788 F75.00
G01 X25.6016 Y-26.1822 F75.00
G01 X25.6161 Y-26.1845 F75.00
G01 X25.6308 Y-26.1858 F75.00
G01 X27.7806 Y-26.1860 F75.00
G01 X27.7953 Y-26.1855 F75.00
G01 X27.8051 Y-26.1845 F75.00
G01 X27.8196 Y-26.1822 F75.00
G01 X27.8292 Y-26.1800 F75.00
G01 X27.8433 Y-26.1759 F75.00
G01 X27.8526 Y-26.1726 F75.00
G01 X27.8661 Y-26.1668 F75.00
G01 X27.8792 Y-26.1600 F75.00
G01 X27.8917 Y-26.1523 F75.00
G01 X27.9036 Y-26.1437 F75.00
G01 X27.9149 Y-26.1342 F75.00
G01 X27.9220 Y-26.1274 F75.00
G01 X27.9320 Y-26.1166 F75.00
G01 X27.9383 Y-26.1090 F75.00
G01 X27.9469 Y-26.0971 F75.00
G01 X27.9546 Y-26.0846 F75.00
G01 X27.9614 Y-26.0715 F75.00
G01 X27.9672 Y-26.0580 F75.00
G01 X27.9720 Y-26.0441 F75.00
G01 X27.9746 Y-26.0346 F75.00
G01 X27.9784 Y-26.0153 F75.00
G01 X27.9796 Y-26.0056 F75.00
G01 X27.9805 Y-25.9909 F75.00
G01 X27.9806 Y-25.5662 F75.00
G01 X28.1431 Y-25.5662 F75.00
G01 X32.2938 Y-29.7169 F75.00
G01 X32.2938 Y-46.6615 F75.00
G01 X32.2962 Y-46.7154 F75.00
G01 X32.2969 Y-46.7255 F75.00
G01 X32.3046 Y-46.7786 F75.00
G01 X32.3081 Y-46.7964 F75.00
G01 X32.3220 Y-46.8510 F75.00
G01 X32.3397 Y-46.9011 F75.00
G01 X32.3472 Y-46.9193 F75.00
G01 X32.3701 Y-46.9671 F75.00
G01 X32.3981 Y-47.0144 F75.00
G01 X32.4090 Y-47.0307 F75.00
G01 X32.4353 Y-47.0662 F75.00
G01 X32.4427 Y-47.0756 F75.00
G01 X32.4835 Y-47.1205 F75.00
G01 X37.5508 Y-52.1878 F75.00
G01 X37.5906 Y-52.2242 F75.00
G01 X37.5990 Y-52.2314 F75.00
G01 X37.6482 Y-52.2679 F75.00
G01 X37.6576 Y-52.2739 F75.00
G01 X37.7029 Y-52.3009 F75.00
G01 X37.7128 Y-52.3059 F75.00
G01 X37.7577 Y-52.3270 F75.00
G01 X37.7709 Y-52.3323 F75.00
G01 X37.8197 Y-52.3496 F75.00
G01 X37.8313 Y-52.3528 F75.00
G01 X37.8825 Y-52.3655 F75.00
G01 X37.8934 Y-52.3674 F75.00
G01 X37.9466 Y-52.3751 F75.00
G01 X38.0105 Y-52.3782 F75.00
G01 X55.7912 Y-52.3782 F75.00
G01 X55.8451 Y-52.3758 F75.00
G01 X55.8647 Y-52.3739 F75.00
G01 X55.9181 Y-52.3657 F75.00
G01 X55.9705 Y-52.3528 F75.00
G01 X55.9893 Y-52.3471 F75.00
G01 X56.0400 Y-52.3287 F75.00
G01 X56.0977 Y-52.3014 F75.00
G01 X56.1442 Y-52.2739 F75.00
G01 X56.1605 Y-52.2630 F75.00
G01 X56.2037 Y-52.2306 F75.00
G01 X56.2510 Y-52.1878 F75.00
G01 X75.1222 Y-33.3165 F75.00
G01 X75.1616 Y-33.2727 F75.00
G01 X75.1940 Y-33.2295 F75.00
G01 X75.2049 Y-33.2132 F75.00
G01 X75.2324 Y-33.1667 F75.00
G01 X75.2558 Y-33.1180 F75.00
G01 X75.2633 Y-33.0999 F75.00
G01 X75.2812 Y-33.0490 F75.00
G01 X75.2957 Y-32.9919 F75.00
G01 X75.2984 Y-32.9774 F75.00
G01 X75.3061 Y-32.9239 F75.00
G01 X75.3092 Y-32.8651 F75.00
G01 X75.3092 Y-32.4446 F75.00
G01 X75.7290 Y-32.4446 F75.00
G01 X75.7486 Y-32.4436 F75.00
G01 X75.7680 Y-32.4408 F75.00
G01 X75.7823 Y-32.4374 F75.00
G01 X75.7917 Y-32.4345 F75.00
G01 X75.8010 Y-32.4312 F75.00
G01 X75.8145 Y-32.4254 F75.00
G01 X75.8233 Y-32.4210 F75.00
G01 X75.8360 Y-32.4136 F75.00
G01 X75.8481 Y-32.4052 F75.00
G01 X75.8559 Y-32.3992 F75.00
G01 X75.8669 Y-32.3894 F75.00
G01 X75.8738 Y-32.3825 F75.00
G01 X75.8867 Y-32.3676 F75.00
G01 X75.8953 Y-32.3557 F75.00
G01 X75.9005 Y-32.3474 F75.00
G01 X75.9076 Y-32.3345 F75.00
G01 X75.9118 Y-32.3256 F75.00
G01 X75.9189 Y-32.3073 F75.00
G01 X75.9241 Y-32.2884 F75.00
G01 X75.9268 Y-32.2739 F75.00
G01 X75.9280 Y-32.2642 F75.00
G01 X75.9290 Y-32.2446 F75.00
G01 X75.9289 Y-30.0997 F75.00
G01 X75.9275 Y-30.0801 F75.00
G01 X75.9241 Y-30.0608 F75.00
G01 X75.9189 Y-30.0419 F75.00
G01 X75.9118 Y-30.0236 F75.00
G01 X75.9030 Y-30.0060 F75.00
G01 X75.8925 Y-29.9894 F75.00
G01 X75.8804 Y-29.9740 F75.00
G01 X75.8669 Y-29.9598 F75.00
G01 X75.8520 Y-29.9469 F75.00
G01 X75.8360 Y-29.9356 F75.00
G01 X75.8189 Y-29.9260 F75.00
G01 X75.8010 Y-29.9180 F75.00
G01 X75.7823 Y-29.9118 F75.00
G01 X75.7680 Y-29.9084 F75.00
G01 X75.7486 Y-29.9056 F75.00
G01 X75.7290 Y-29.9046 F75.00
G01 X73.5841 Y-29.9047 F75.00
G01 X73.5645 Y-29.9061 F75.00
G01 X73.5500 Y-29.9084 F75.00
G01 X73.5357 Y-29.9118 F75.00
G01 X73.5170 Y-29.9180 F75.00
G01 X73.4991 Y-29.9260 F75.00
G01 X73.4820 Y-29.9356 F75.00
G01 X73.4699 Y-29.9440 F75.00
G01 X73.4547 Y-29.9564 F75.00
G01 X73.4408 Y-29.9703 F75.00
G01 X73.4284 Y-29.9855 F75.00
G01 X73.4175 Y-30.0018 F75.00
G01 X73.4082 Y-30.0191 F75.00
G01 X73.4007 Y-30.0372 F75.00
G01 X73.3976 Y-30.0465 F75.00
G01 X73.3939 Y-30.0608 F75.00
G01 X73.3905 Y-30.0801 F75.00
G01 X73.3891 Y-30.0997 F75.00
G01 X73.3890 Y-32.2446 F75.00
G01 X73.3900 Y-32.2642 F75.00
G01 X73.3928 Y-32.2836 F75.00
G01 X73.3962 Y-32.2979 F75.00
G01 X73.4007 Y-32.3120 F75.00
G01 X73.4062 Y-32.3256 F75.00
G01 X73.4126 Y-32.3389 F75.00
G01 X73.4200 Y-32.3516 F75.00
G01 X73.4255 Y-32.3598 F75.00
G01 X73.4344 Y-32.3715 F75.00
G01 X73.4442 Y-32.3825 F75.00
G01 X73.4547 Y-32.3928 F75.00
G01 X73.4621 Y-32.3992 F75.00
G01 X73.4738 Y-32.4081 F75.00
G01 X73.4862 Y-32.4161 F75.00
G01 X73.4991 Y-32.4232 F75.00
G01 X73.5125 Y-32.4294 F75.00
G01 X73.5263 Y-32.4345 F75.00
G01 X73.5404 Y-32.4386 F75.00
G01 X73.5500 Y-32.4408 F75.00
G01 X73.5645 Y-32.4431 F75.00
G01 X73.5841 Y-32.4445 F75.00
G01 X74.0088 Y-32.4446 F75.00
G01 X74.0088 Y-32.5909 F75.00
G01 X55.5219 Y-51.0778 F75.00
G01 X38.2799 Y-51.0778 F75.00
G01 X33.5942 Y-46.3921 F75.00
G01 X33.5942 Y-29.4476 F75.00
G01 X33.5918 Y-29.3937 F75.00
G01 X33.5899 Y-29.3741 F75.00
G01 X33.5817 Y-29.3207 F75.00
G01 X33.5688 Y-29.2683 F75.00
G01 X33.5631 Y-29.2495 F75.00
G01 X33.5447 Y-29.1988 F75.00
G01 X33.5219 Y-29.1499 F75.00
G01 X33.5151 Y-29.1368 F75.00
G01 X33.4846 Y-29.0864 F75.00
G01 X33.4527 Y-29.0428 F75.00
G01 X33.4402 Y-29.0277 F75.00
G01 X33.4038 Y-28.9878 F75.00
G01 X28.8722 Y-24.4562 F75.00
G01 X28.8287 Y-24.4165 F75.00
G01 X28.8172 Y-24.4073 F75.00
G01 X28.7817 Y-24.3810 F75.00
G01 X28.7654 Y-24.3701 F75.00
G01 X28.7189 Y-24.3426 F75.00
G01 X28.6702 Y-24.3192 F75.00
G01 X28.6521 Y-24.3117 F75.00
G01 X28.6012 Y-24.2938 F75.00
G01 X28.5488 Y-24.2804 F75.00
G01 X28.5344 Y-24.2774 F75.00
G01 X28.4761 Y-24.2689 F75.00
G01 X28.4173 Y-24.2658 F75.00
G01 X27.9806 Y-24.2658 F75.00
G01 X27.9806 Y-23.8460 F75.00
G01 X27.9796 Y-23.8264 F75.00
G01 X27.9777 Y-23.8118 F75.00
G01 X27.9734 Y-23.7927 F75.00
G01 X27.9689 Y-23.7786 F75.00
G01 X27.9654 Y-23.7695 F75.00
G01 X27.9570 Y-23.7517 F75.00
G01 X27.9469 Y-23.7349 F75.00
G01 X27.9412 Y-23.7269 F75.00
G01 X27.9320 Y-23.7154 F75.00
G01 X27.9185 Y-23.7012 F75.00
G01 X27.9075 Y-23.6914 F75.00
G01 X27.8997 Y-23.6854 F75.00
G01 X27.8834 Y-23.6745 F75.00
G01 X27.8749 Y-23.6696 F75.00
G01 X27.8616 Y-23.6632 F75.00
G01 X27.8480 Y-23.6577 F75.00
G01 X27.8339 Y-23.6532 F75.00
G01 X27.8196 Y-23.6498 F75.00
G01 X27.8051 Y-23.6475 F75.00
G01 X27.7904 Y-23.6462 F75.00
G01 X27.7806 Y-23.6460 F75.00
G01 X25.6406 Y-23.6460 F75.00
G01 X25.6259 Y-23.6465 F75.00
G01 X25.6161 Y-23.6475 F75.00
G01 X25.5968 Y-23.6509 F75.00
G01 X25.5825 Y-23.6546 F75.00
G01 X25.5686 Y-23.6594 F75.00
G01 X25.5551 Y-23.6652 F75.00
G01 X25.5420 Y-23.6720 F75.00
G01 X25.5295 Y-23.6797 F75.00
G01 X25.5176 Y-23.6883 F75.00
G01 X25.5063 Y-23.6978 F75.00
G01 X25.4992 Y-23.7046 F75.00
G01 X25.4892 Y-23.7154 F75.00
G01 X25.4829 Y-23.7230 F75.00
G01 X25.4743 Y-23.7349 F75.00
G01 X25.4666 Y-23.7474 F75.00
G01 X25.4598 Y-23.7605 F75.00
G01 X25.4540 Y-23.7740 F75.00
G01 X25.4492 Y-23.7879 F75.00
G01 X25.4466 Y-23.7974 F75.00
G01 X25.4428 Y-23.8167 F75.00
G01 X25.4416 Y-23.8264 F75.00
G01 X25.4407 Y-23.8411 F75.00
G01 X25.4406 Y-24.2658 F75.00
G01 X25.2829 Y-24.2658 F75.00
G01 X14.1992 Y-13.1821 F75.00
G01 X14.1992 Y-4.8246 F75.00
G01 X14.6239 Y-4.8245 F75.00
G01 X14.6337 Y-4.8241 F75.00
G01 X14.6483 Y-4.8224 F75.00
G01 X14.6676 Y-4.8186 F75.00
G01 X14.6817 Y-4.8145 F75.00
G01 X14.6955 Y-4.8094 F75.00
G01 X14.7089 Y-4.8032 F75.00
G01 X14.7176 Y-4.7986 F75.00
G01 X14.7260 Y-4.7936 F75.00
G01 X14.7381 Y-4.7852 F75.00
G01 X14.7496 Y-4.7760 F75.00
G01 X14.7604 Y-4.7660 F75.00
G01 X14.7704 Y-4.7552 F75.00
G01 X14.7796 Y-4.7437 F75.00
G01 X14.7880 Y-4.7316 F75.00
G01 X14.7930 Y-4.7232 F75.00
G01 X14.7998 Y-4.7101 F75.00
G01 X14.8056 Y-4.6966 F75.00
G01 X14.8104 Y-4.6827 F75.00
G01 X14.8141 Y-4.6684 F75.00
G01 X14.8175 Y-4.6491 F75.00
G01 X14.8185 Y-4.6393 F75.00
G01 X14.8190 Y-4.6246 F75.00
G01 X14.8189 Y-2.4797 F75.00
G01 X14.8175 Y-2.4601 F75.00
G01 X14.8141 Y-2.4408 F75.00
G01 X14.8089 Y-2.4219 F75.00
G01 X14.8018 Y-2.4036 F75.00
G01 X14.7930 Y-2.3860 F75.00
G01 X14.7880 Y-2.3776 F75.00
G01 X14.7796 Y-2.3655 F75.00
G01 X14.7672 Y-2.3503 F75.00
G01 X14.7533 Y-2.3364 F75.00
G01 X14.7381 Y-2.3240 F75.00
G01 X14.7218 Y-2.3131 F75.00
G01 X14.7045 Y-2.3038 F75.00
G01 X14.6910 Y-2.2980 F75.00
G01 X14.6771 Y-2.2932 F75.00
G01 X14.6580 Y-2.2884 F75.00
G01 X14.6386 Y-2.2856 F75.00
G01 X14.6239 Y-2.2847 F75.00
G01 X12.4790 Y-2.2846 F75.00
G01 X12.4594 Y-2.2856 F75.00
G01 X12.4400 Y-2.2884 F75.00
G01 X12.4209 Y-2.2932 F75.00
G01 X12.4070 Y-2.2980 F75.00
G01 X12.3980 Y-2.3018 F75.00
G01 X12.3804 Y-2.3106 F75.00
G01 X12.3720 Y-2.3156 F75.00
G01 X12.3599 Y-2.3240 F75.00
G01 X12.3447 Y-2.3364 F75.00
G01 X12.3308 Y-2.3503 F75.00
G01 X12.3184 Y-2.3655 F75.00
G01 X12.3100 Y-2.3776 F75.00
G01 X12.3004 Y-2.3947 F75.00
G01 X12.2924 Y-2.4126 F75.00
G01 X12.2862 Y-2.4313 F75.00
G01 X12.2828 Y-2.4456 F75.00
G01 X12.2805 Y-2.4601 F75.00
G01 X12.2791 Y-2.4797 F75.00
G01 X12.2792 Y-4.6344 F75.00
G01 X12.2805 Y-4.6491 F75.00
G01 X12.2839 Y-4.6684 F75.00
G01 X12.2891 Y-4.6873 F75.00
G01 X12.2962 Y-4.7056 F75.00
G01 X12.3050 Y-4.7232 F75.00
G01 X12.3155 Y-4.7398 F75.00
G01 X12.3276 Y-4.7552 F75.00
G01 X12.3411 Y-4.7694 F75.00
G01 X12.3560 Y-4.7823 F75.00
G01 X12.3720 Y-4.7936 F75.00
G01 X12.3891 Y-4.8032 F75.00
G01 X12.4070 Y-4.8112 F75.00
G01 X12.4257 Y-4.8174 F75.00
G01 X12.4400 Y-4.8208 F75.00
G01 X12.4594 Y-4.8236 F75.00
G01 X12.4790 Y-4.8246 F75.00
G00 Z2.0000
G00 X10.3590 Y-13.4452
G01 F45.00
G01 Z-0.0900
G01 F75.00
G01 X10.3619 Y-13.4991 F75.00
G01 X10.3713 Y-13.5623 F75.00
G01 X10.3868 Y-13.6242 F75.00
G01 X10.4083 Y-13.6842 F75.00
G01 X10.4356 Y-13.7419 F75.00
G01 X10.4684 Y-13.7966 F75.00
G01 X10.5064 Y-13.8479 F75.00
G01 X10.5492 Y-13.8952 F75.00
G01 X24.5698 Y-27.9158 F75.00
G01 X24.6133 Y-27.9555 F75.00
G01 X24.6248 Y-27.9647 F75.00
G01 X24.6603 Y-27.9910 F75.00
G01 X24.6766 Y-28.0019 F75.00
G01 X24.7231 Y-28.0294 F75.00
G01 X24.7718 Y-28.0528 F75.00
G01 X24.7899 Y-28.0603 F75.00
G01 X24.8408 Y-28.0782 F75.00
G01 X24.8932 Y-28.0916 F75.00
G01 X24.9076 Y-28.0946 F75.00
G01 X24.9659 Y-28.1031 F75.00
G01 X25.0247 Y-28.1062 F75.00
G01 X25.4406 Y-28.1062 F75.00
G01 X25.4407 Y-28.5309 F75.00
G01 X25.4416 Y-28.5456 F75.00
G01 X25.4435 Y-28.5602 F75.00
G01 X25.4455 Y-28.5698 F75.00
G01 X25.4492 Y-28.5841 F75.00
G01 X25.4540 Y-28.5980 F75.00
G01 X25.4598 Y-28.6115 F75.00
G01 X25.4666 Y-28.6246 F75.00
G01 X25.4743 Y-28.6371 F75.00
G01 X25.4829 Y-28.6490 F75.00
G01 X25.4924 Y-28.6603 F75.00
G01 X25.5027 Y-28.6708 F75.00
G01 X25.5176 Y-28.6837 F75.00
G01 X25.5295 Y-28.6923 F75.00
G01 X25.5420 Y-28.7000 F75.00
G01 X25.5551 Y-28.7068 F75.00
G01 X25.5732 Y-28.7143 F75.00
G01 X25.5873 Y-28.7188 F75.00
G01 X25.6016 Y-28.7222 F75.00
G01 X25.6161 Y-28.7245 F75.00
G01 X25.6308 Y-28.7258 F75.00
G01 X27.7806 Y-28.7260 F75.00
G01 X27.7953 Y-28.7255 F75.00
G01 X27.8051 Y-28.7245 F75.00
G01 X27.8196 Y-28.7222 F75.00
G01 X27.8292 Y-28.7200 F75.00
G01 X27.8433 Y-28.7159 F75.00
G01 X27.8526 Y-28.7126 F75.00
G01 X27.8661 Y-28.7068 F75.00
G01 X27.8792 Y-28.7000 F75.00
G01 X27.8917 Y-28.6923 F75.00
G01 X27.9036 Y-28.6837 F75.00
G01 X27.9149 Y-28.6742 F75.00
G01 X27.9220 Y-28.6674 F75.00
G01 X27.9320 Y-28.6566 F75.00
G01 X27.9383 Y-28.6490 F75.00
G01 X27.9469 Y-28.6371 F75.00
G01 X27.9546 Y-28.6246 F75.00
G01 X27.9614 Y-28.6115 F75.00
G01 X27.9672 Y-28.5980 F75.00
G01 X27.9720 Y-28.5841 F75.00
G01 X27.9746 Y-28.5746 F75.00
G01 X27.9784 Y-28.5553 F75.00
G01 X27.9796 Y-28.5456 F75.00
G01 X27.9805 Y-28.5309 F75.00
G01 X27.9806 Y-28.1062 F75.00
G01 X28.1431 Y-28.1062 F75.00
G01 X30.8938 Y-30.8569 F75.00
G01 X30.8938 Y-47.1141 F75.00
G01 X30.8962 Y-47.1680 F75.00
G01 X30.8981 Y-47.1876 F75.00
G01 X30.9061 Y-47.2402 F75.00
G01 X30.9203 Y-47.2978 F75.00
G01 X30.9249 Y-47.3122 F75.00
G01 X30.9435 Y-47.3635 F75.00
G01 X30.9661 Y-47.4118 F75.00
G01 X30.9754 Y-47.4291 F75.00
G01 X31.0040 Y-47.4763 F75.00
G01 X31.0353 Y-47.5188 F75.00
G01 X31.0478 Y-47.5340 F75.00
G01 X31.0842 Y-47.5739 F75.00
G01 X37.0981 Y-53.5878 F75.00
G01 X37.1409 Y-53.6268 F75.00
G01 X37.1532 Y-53.6367 F75.00
G01 X37.1887 Y-53.6630 F75.00
G01 X37.1980 Y-53.6695 F75.00
G01 X37.2429 Y-53.6966 F75.00
G01 X37.2602 Y-53.7059 F75.00
G01 X37.3080 Y-53.7283 F75.00
G01 X37.3599 Y-53.7471 F75.00
G01 X37.3735 Y-53.7515 F75.00
G01 X37.4309 Y-53.7657 F75.00
G01 X37.4845 Y-53.7739 F75.00
G01 X37.5040 Y-53.7758 F75.00
G01 X37.5579 Y-53.7782 F75.00
G01 X56.9312 Y-53.7782 F75.00
G01 X56.9851 Y-53.7758 F75.00
G01 X57.0047 Y-53.7739 F75.00
G01 X57.0581 Y-53.7657 F75.00
G01 X57.1105 Y-53.7528 F75.00
G01 X57.1293 Y-53.7471 F75.00
G01 X57.1800 Y-53.7287 F75.00
G01 X57.2377 Y-53.7014 F75.00
G01 X57.2842 Y-53.6739 F75.00
G01 X57.3005 Y-53.6630 F75.00
G01 X57.3437 Y-53.6306 F75.00
G01 X57.3910 Y-53.5878 F75.00
G01 X77.6622 Y-33.3165 F75.00
G01 X77.7016 Y-33.2727 F75.00
G01 X77.7340 Y-33.2295 F75.00
G01 X77.7449 Y-33.2132 F75.00
G01 X77.7724 Y-33.1667 F75.00
G01 X77.7958 Y-33.1180 F75.00
G01 X77.8033 Y-33.0999 F75.00
G01 X77.8212 Y-33.0490 F75.00
G01 X77.8357 Y-32.9919 F75.00
G01 X77.8384 Y-32.9774 F75.00
G01 X77.8461 Y-32.9239 F75.00
G01 X77.8492 Y-32.8651 F75.00
G01 X77.8492 Y-32.4446 F75.00
G01 X78.2739 Y-32.4445 F75.00
G01 X78.2935 Y-32.4431 F75.00
G01 X78.3080 Y-32.4408 F75.00
G01 X78.3176 Y-32.4386 F75.00
G01 X78.3317 Y-32.4345 F75.00
G01 X78.3410 Y-32.4312 F75.00
G01 X78.3545 Y-32.4254 F75.00
G01 X78.3633 Y-32.4210 F75.00
G01 X78.3760 Y-32.4136 F75.00
G01 X78.3881 Y-32.4052 F75.00
G01 X78.3996 Y-32.3960 F75.00
G01 X78.4069 Y-32.3894 F75.00
G01 X78.4138 Y-32.3825 F75.00
G01 X78.4236 Y-32.3715 F75.00
G01 X78.4325 Y-32.3598 F75.00
G01 X78.4405 Y-32.3474 F75.00
G01 X78.4476 Y-32.3345 F75.00
G01 X78.4538 Y-32.3211 F75.00
G01 X78.4573 Y-32.3120 F75.00
G01 X78.4618 Y-32.2979 F75.00
G01 X78.4641 Y-32.2884 F75.00
G01 X78.4668 Y-32.2739 F75.00
G01 X78.4685 Y-32.2593 F75.00
G01 X78.4690 Y-32.2446 F75.00
G01 X78.4689 Y-30.0997 F75.00
G01 X78.4675 Y-30.0801 F75.00
G01 X78.4641 Y-30.0608 F75.00
G01 X78.4589 Y-30.0419 F75.00
G01 X78.4518 Y-30.0236 F75.00
G01 X78.4430 Y-30.0060 F75.00
G01 X78.4325 Y-29.9894 F75.00
G01 X78.4204 Y-29.9740 F75.00
G01 X78.4069 Y-29.9598 F75.00
G01 X78.3920 Y-29.9469 F75.00
G01 X78.3760 Y-29.9356 F75.00
G01 X78.3589 Y-29.9260 F75.00
G01 X78.3410 Y-29.9180 F75.00
G01 X78.3223 Y-29.9118 F75.00
G01 X78.3080 Y-29.9084 F75.00
G01 X78.2886 Y-29.9056 F75.00
G01 X78.2690 Y-29.9046 F75.00
G01 X76.1241 Y-29.9047 F75.00
G01 X76.1045 Y-29.9061 F75.00
G01 X76.0900 Y-29.9084 F75.00
G01 X76.0757 Y-29.9118 F75.00
G01 X76.0570 Y-29.9180 F75.00
G01 X76.0391 Y-29.9260 F75.00
G01 X76.0220 Y-29.9356 F75.00
G01 X76.0099 Y-29.9440 F75.00
G01 X75.9947 Y-29.9564 F75.00
G01 X75.9808 Y-29.9703 F75.00
G01 X75.9684 Y-29.9855 F75.00
G01 X75.9575 Y-30.0018 F75.00
G01 X75.9482 Y-30.0191 F75.00
G01 X75.9407 Y-30.0372 F75.00
G01 X75.9376 Y-30.0465 F75.00
G01 X75.9339 Y-30.0608 F75.00
G01 X75.9305 Y-30.0801 F75.00
G01 X75.9291 Y-30.0997 F75.00
G01 X75.9290 Y-32.2446 F75.00
G01 X75.9300 Y-32.2642 F75.00
G01 X75.9328 Y-32.2836 F75.00
G01 X75.9362 Y-32.2979 F75.00
G01 X75.9407 Y-32.3120 F75.00
G01 X75.9462 Y-32.3256 F75.00
G01 X75.9526 Y-32.3389 F75.00
G01 X75.9600 Y-32.3516 F75.00
G01 X75.9655 Y-32.3598 F75.00
G01 X75.9744 Y-32.3715 F75.00
G01 X75.9842 Y-32.3825 F75.00
G01 X75.9947 Y-32.3928 F75.00
G01 X76.0021 Y-32.3992 F75.00
G01 X76.0138 Y-32.4081 F75.00
G01 X76.0262 Y-32.4161 F75.00
G01 X76.0391 Y-32.4232 F75.00
G01 X76.0525 Y-32.4294 F75.00
G01 X76.0663 Y-32.4345 F75.00
G01 X76.0804 Y-32.4386 F75.00
G01 X76.0900 Y-32.4408 F75.00
G01 X76.1045 Y-32.4431 F75.00
G01 X76.1241 Y-32.4445 F75.00
G01 X76.5488 Y-32.4446 F75.00
G01 X76.5488 Y-32.5909 F75.00
G01 X56.6619 Y-52.4778 F75.00
G01 X37.8273 Y-52.4778 F75.00
G01 X32.1942 Y-46.8448 F75.00
G01 X32.1942 Y-30.5876 F75.00
G01 X32.1918 Y-30.5337 F75.00
G01 X32.1899 Y-30.5141 F75.00
G01 X32.1817 Y-30.4607 F75.00
G01 X32.1662 Y-30.3988 F75.00
G01 X32.1483 Y-30.3479 F75.00
G01 X32.1408 Y-30.3298 F75.00
G01 X32.1174 Y-30.2811 F75.00
G01 X32.0846 Y-30.2264 F75.00
G01 X32.0466 Y-30.1751 F75.00
G01 X32.0038 Y-30.1278 F75.00
G01 X28.8722 Y-26.9962 F75.00
G01 X28.8249 Y-26.9534 F75.00
G01 X28.7817 Y-26.9210 F75.00
G01 X28.7654 Y-26.9101 F75.00
