(G-CODE GENERATED BY FLATCAM v8.994 - www.flatcam.org - Version Date: 2020/11/7)

(Name: Duel_Mux-F_Cu.gbr_iso_combined_cnc)
(Type: G-code from Geometry)
(Units: MM)

(Created on Monday, 08 April 2024 at 08:48)

(This preprocessor is used with a motion controller loaded with GRBL firmware.)
(It is configured to be compatible with almost any version of GRBL firmware.)

(TOOL DIAMETER: 0.4 mm)
(Feedrate_XY: 75.0 mm/min)
(Feedrate_Z: 45.0 mm/min)
(Feedrate rapids 1500.0 mm/min)

(Z_Cut: -0.13 mm)
(Z_Move: 2.0 mm)
(Z Start: None mm)
(Z End: 15.0 mm)
(X,Y End: 0.0000, 0.0000 mm)
(Steps per circle: 64)
(Steps per circle: 64)
(Preprocessor Geometry: GRBL_11_no_M6)

(X range:   -0.1995 ...   96.1995  mm)
(Y range:  -62.6995 ...    0.1995  mm)

(Spindle Speed: 0.0 RPM)
G21
G90
G17
G94


G01 F75.00

M5             
G00 Z15.0000
G00 X0.0000 Y0.0000                
T1
(MSG, Change to Tool Dia = 0.4000)
M0
G00 Z15.0000
        
M03
G01 F75.00
G00 X-0.1995 Y-0.2045
G01 F45.00
G01 Z-0.1300
G01 F75.00
G01 X-0.1995 Y-62.2955 F75.00
G01 X-0.1987 Y-62.3134 F75.00
G01 X-0.1925 Y-62.3681 F75.00
G01 X-0.1890 Y-62.3870 F75.00
G01 X-0.1852 Y-62.4009 F75.00
G01 X-0.1804 Y-62.4145 F75.00
G01 X-0.1746 Y-62.4277 F75.00
G01 X-0.1352 Y-62.5095 F75.00
G01 X-0.1282 Y-62.5227 F75.00
G01 X-0.1202 Y-62.5354 F75.00
G01 X-0.1114 Y-62.5474 F75.00
G01 X-0.1016 Y-62.5587 F75.00
G01 X-0.0910 Y-62.5693 F75.00
G01 X-0.0797 Y-62.5791 F75.00
G01 X-0.0087 Y-62.6357 F75.00
G01 X0.0075 Y-62.6473 F75.00
G01 X0.0203 Y-62.6549 F75.00
G01 X0.0337 Y-62.6616 F75.00
G01 X0.0523 Y-62.6689 F75.00
G01 X0.0666 Y-62.6731 F75.00
G01 X0.1649 Y-62.6955 F75.00
G01 X0.1846 Y-62.6985 F75.00
G01 X0.2045 Y-62.6995 F75.00
G01 X95.7955 Y-62.6995 F75.00
G01 X95.8134 Y-62.6987 F75.00
G01 X95.8681 Y-62.6925 F75.00
G01 X95.8823 Y-62.6901 F75.00
G01 X95.9009 Y-62.6852 F75.00
G01 X95.9145 Y-62.6804 F75.00
G01 X95.9277 Y-62.6746 F75.00
G01 X96.0095 Y-62.6352 F75.00
G01 X96.0227 Y-62.6282 F75.00
G01 X96.0354 Y-62.6202 F75.00
G01 X96.0474 Y-62.6114 F75.00
G01 X96.0587 Y-62.6016 F75.00
G01 X96.0693 Y-62.5910 F75.00
G01 X96.0791 Y-62.5797 F75.00
G01 X96.1357 Y-62.5087 F75.00
G01 X96.1473 Y-62.4925 F75.00
G01 X96.1549 Y-62.4797 F75.00
G01 X96.1616 Y-62.4663 F75.00
G01 X96.1672 Y-62.4524 F75.00
G01 X96.1731 Y-62.4334 F75.00
G01 X96.1955 Y-62.3351 F75.00
G01 X96.1985 Y-62.3154 F75.00
G01 X96.1995 Y-62.2955 F75.00
G01 X96.1995 Y-0.2045 F75.00
G01 X96.1987 Y-0.1866 F75.00
G01 X96.1925 Y-0.1319 F75.00
G01 X96.1890 Y-0.1130 F75.00
G01 X96.1852 Y-0.0991 F75.00
G01 X96.1804 Y-0.0855 F75.00
G01 X96.1746 Y-0.0723 F75.00
G01 X96.1352 Y0.0095 F75.00
G01 X96.1282 Y0.0227 F75.00
G01 X96.1202 Y0.0354 F75.00
G01 X96.1114 Y0.0474 F75.00
G01 X96.1016 Y0.0587 F75.00
G01 X96.0910 Y0.0693 F75.00
G01 X96.0797 Y0.0791 F75.00
G01 X96.0087 Y0.1357 F75.00
G01 X95.9925 Y0.1473 F75.00
G01 X95.9797 Y0.1549 F75.00
G01 X95.9617 Y0.1636 F75.00
G01 X95.9477 Y0.1689 F75.00
G01 X95.9334 Y0.1731 F75.00
G01 X95.8351 Y0.1955 F75.00
G01 X95.8154 Y0.1985 F75.00
G01 X95.7955 Y0.1995 F75.00
G01 X0.2045 Y0.1995 F75.00
G01 X0.1866 Y0.1987 F75.00
G01 X0.1272 Y0.1918 F75.00
G01 X0.1177 Y0.1901 F75.00
G01 X0.1037 Y0.1866 F75.00
G01 X0.0855 Y0.1804 F75.00
G01 X0.0723 Y0.1746 F75.00
G01 X-0.0095 Y0.1352 F75.00
G01 X-0.0227 Y0.1282 F75.00
G01 X-0.0354 Y0.1202 F75.00
G01 X-0.0435 Y0.1144 F75.00
G01 X-0.0550 Y0.1050 F75.00
G01 X-0.0659 Y0.0946 F75.00
G01 X-0.0791 Y0.0797 F75.00
G01 X-0.1387 Y0.0048 F75.00
G01 X-0.1445 Y-0.0033 F75.00
G01 X-0.1525 Y-0.0160 F75.00
G01 X-0.1616 Y-0.0337 F75.00
G01 X-0.1672 Y-0.0476 F75.00
G01 X-0.1731 Y-0.0666 F75.00
G01 X-0.1945 Y-0.1600 F75.00
G01 X-0.1973 Y-0.1747 F75.00
G01 X-0.1985 Y-0.1846 F75.00
G01 X-0.1995 Y-0.2045 F75.00
G00 Z2.0000
G00 X3.0925 Y-3.8679
G01 F45.00
G01 Z-0.1300
G01 F75.00
G01 X3.1003 Y-3.9172 F75.00
G01 X3.1306 Y-3.9766 F75.00
G01 X3.1777 Y-4.0237 F75.00
G01 X3.2371 Y-4.0540 F75.00
G01 X3.2864 Y-4.0618 F75.00
G01 X3.3185 Y-4.0620 F75.00
G01 X3.3334 Y-4.0634 F75.00
G01 X3.3432 Y-4.0648 F75.00
G01 X3.4464 Y-4.0882 F75.00
G01 X3.4607 Y-4.0924 F75.00
G01 X3.4701 Y-4.0958 F75.00
G01 X3.4838 Y-4.1018 F75.00
G01 X3.4927 Y-4.1064 F75.00
G01 X3.5013 Y-4.1113 F75.00
G01 X3.5138 Y-4.1196 F75.00
G01 X3.5927 Y-4.1822 F75.00
G01 X3.6040 Y-4.1920 F75.00
G01 X3.6146 Y-4.2026 F75.00
G01 X3.6244 Y-4.2139 F75.00
G01 X3.6332 Y-4.2259 F75.00
G01 X3.6412 Y-4.2386 F75.00
G01 X3.6482 Y-4.2518 F75.00
G01 X3.6915 Y-4.3424 F75.00
G01 X3.6967 Y-4.3559 F75.00
G01 X3.6996 Y-4.3650 F75.00
G01 X3.7040 Y-4.3837 F75.00
G01 X3.7061 Y-4.3980 F75.00
G01 X3.7117 Y-4.4479 F75.00
G01 X3.7125 Y-4.4658 F75.00
G01 X3.7125 Y-12.6737 F75.00
G01 X3.7115 Y-12.7025 F75.00
G01 X3.7088 Y-12.7350 F75.00
G01 X3.7176 Y-12.8001 F75.00
G01 X3.7251 Y-12.8688 F75.00
G01 X3.7508 Y-12.9390 F75.00
G01 X3.7729 Y-13.0046 F75.00
G01 X3.8102 Y-13.0629 F75.00
G01 X3.8488 Y-13.1268 F75.00
G01 X3.9015 Y-13.1797 F75.00
G01 X3.9504 Y-13.2313 F75.00
G01 X3.9711 Y-13.2495 F75.00
G01 X3.9775 Y-13.2556 F75.00
G01 X22.9211 Y-32.1991 F75.00
G01 X22.9406 Y-32.2202 F75.00
G01 X22.9618 Y-32.2450 F75.00
G01 X23.0140 Y-32.2849 F75.00
G01 X23.0679 Y-32.3282 F75.00
G01 X23.1357 Y-32.3596 F75.00
G01 X23.1977 Y-32.3904 F75.00
G01 X23.2706 Y-32.4065 F75.00
G01 X23.3378 Y-32.4232 F75.00
G01 X23.4125 Y-32.4233 F75.00
G01 X23.4835 Y-32.4252 F75.00
G01 X23.5111 Y-32.4234 F75.00
G01 X23.5199 Y-32.4232 F75.00
G01 X26.6821 Y-32.4232 F75.00
G01 X26.6970 Y-32.4238 F75.00
G01 X26.7070 Y-32.4248 F75.00
G01 X26.7266 Y-32.4282 F75.00
G01 X26.8200 Y-32.4496 F75.00
G01 X26.8390 Y-32.4555 F75.00
G01 X26.8574 Y-32.4632 F75.00
G01 X26.8749 Y-32.4727 F75.00
G01 X26.8914 Y-32.4840 F75.00
G01 X26.9739 Y-32.5501 F75.00
G01 X26.9882 Y-32.5640 F75.00
G01 X26.9980 Y-32.5753 F75.00
G01 X27.0068 Y-32.5873 F75.00
G01 X27.0172 Y-32.6044 F75.00
G01 X27.0651 Y-32.7038 F75.00
G01 X27.0687 Y-32.7127 F75.00
G01 X27.0732 Y-32.7264 F75.00
G01 X27.0776 Y-32.7451 F75.00
G01 X27.0797 Y-32.7594 F75.00
G01 X27.0853 Y-32.8093 F75.00
G01 X27.0861 Y-32.8227 F75.00
G01 X27.0861 Y-32.8493 F75.00
G01 X27.0966 Y-32.9154 F75.00
G01 X27.1005 Y-32.9320 F75.00
G01 X27.1028 Y-32.9468 F75.00
G01 X27.1114 Y-33.0422 F75.00
G01 X27.1122 Y-33.0566 F75.00
G01 X27.1121 Y-33.0663 F75.00
G01 X27.1112 Y-33.0808 F75.00
G01 X27.1091 Y-33.0951 F75.00
G01 X27.0991 Y-33.1402 F75.00
G01 X27.0966 Y-33.1501 F75.00
G01 X27.0861 Y-33.2161 F75.00
G01 X27.0859 Y-33.2482 F75.00
G01 X27.0851 Y-33.2581 F75.00
G01 X27.0831 Y-33.2729 F75.00
G01 X27.0609 Y-33.3712 F75.00
G01 X27.0555 Y-33.3904 F75.00
G01 X27.0502 Y-33.4044 F75.00
G01 X27.0439 Y-33.4180 F75.00
G01 X27.0366 Y-33.4310 F75.00
G01 X27.0283 Y-33.4435 F75.00
G01 X26.9625 Y-33.5263 F75.00
G01 X26.9525 Y-33.5373 F75.00
G01 X26.9416 Y-33.5477 F75.00
G01 X26.9301 Y-33.5571 F75.00
G01 X26.9220 Y-33.5629 F75.00
G01 X26.9093 Y-33.5709 F75.00
G01 X26.9005 Y-33.5757 F75.00
G01 X26.8099 Y-33.6193 F75.00
G01 X26.7966 Y-33.6248 F75.00
G01 X26.7829 Y-33.6293 F75.00
G01 X26.7689 Y-33.6328 F75.00
G01 X26.7547 Y-33.6352 F75.00
G01 X26.7000 Y-33.6414 F75.00
G01 X26.6821 Y-33.6422 F75.00
G01 X23.9066 Y-33.6422 F75.00
G01 X23.8778 Y-33.6412 F75.00
G01 X23.8453 Y-33.6385 F75.00
G01 X23.7802 Y-33.6473 F75.00
G01 X23.7115 Y-33.6548 F75.00
G01 X23.6413 Y-33.6805 F75.00
G01 X23.5757 Y-33.7026 F75.00
G01 X23.5128 Y-33.7428 F75.00
G01 X23.4535 Y-33.7785 F75.00
G01 X23.4005 Y-33.8312 F75.00
G01 X23.3490 Y-33.8801 F75.00
G01 X23.3308 Y-33.9008 F75.00
G01 X23.3247 Y-33.9072 F75.00
G01 X9.7825 Y-47.4494 F75.00
G01 X9.7615 Y-47.4689 F75.00
G01 X9.7367 Y-47.4901 F75.00
G01 X9.6968 Y-47.5423 F75.00
G01 X9.6535 Y-47.5962 F75.00
G01 X9.6244 Y-47.6590 F75.00
G01 X9.5913 Y-47.7260 F75.00
G01 X9.5764 Y-47.7936 F75.00
G01 X9.5585 Y-47.8661 F75.00
G01 X9.5585 Y-47.9353 F75.00
G01 X9.5565 Y-48.0128 F75.00
G01 X9.5567 Y-48.0266 F75.00
G01 X9.5563 Y-48.0366 F75.00
G01 X9.5547 Y-48.0515 F75.00
G01 X9.5417 Y-48.1413 F75.00
G01 X9.5379 Y-48.1609 F75.00
G01 X9.5338 Y-48.1753 F75.00
G01 X9.5286 Y-48.1893 F75.00
G01 X9.5224 Y-48.2029 F75.00
G01 X9.5151 Y-48.2160 F75.00
G01 X9.4563 Y-48.3038 F75.00
G01 X9.4472 Y-48.3157 F75.00
G01 X9.4372 Y-48.3269 F75.00
G01 X9.4301 Y-48.3339 F75.00
G01 X9.4188 Y-48.3437 F75.00
G01 X9.4069 Y-48.3527 F75.00
G01 X9.3985 Y-48.3581 F75.00
G01 X9.3116 Y-48.4091 F75.00
G01 X9.3026 Y-48.4137 F75.00
G01 X9.2935 Y-48.4179 F75.00
G01 X9.2794 Y-48.4233 F75.00
G01 X9.2650 Y-48.4277 F75.00
G01 X9.2502 Y-48.4309 F75.00
G01 X9.1839 Y-48.4412 F75.00
G01 X9.1738 Y-48.4425 F75.00
G01 X9.1636 Y-48.4432 F75.00
G01 X9.1324 Y-48.4435 F75.00
G01 X9.0831 Y-48.4513 F75.00
G01 X9.0237 Y-48.4816 F75.00
G01 X8.9766 Y-48.5287 F75.00
G01 X8.9463 Y-48.5881 F75.00
G01 X8.9385 Y-48.6374 F75.00
G01 X8.9385 Y-50.8106 F75.00
G01 X8.9463 Y-50.8599 F75.00
G01 X8.9766 Y-50.9193 F75.00
G01 X9.0237 Y-50.9664 F75.00
G01 X9.0831 Y-50.9967 F75.00
G01 X9.1324 Y-51.0045 F75.00
G01 X9.9150 Y-51.0047 F75.00
G01 X9.9299 Y-51.0061 F75.00
G01 X9.9446 Y-51.0085 F75.00
G01 X10.0380 Y-51.0297 F75.00
G01 X10.0572 Y-51.0351 F75.00
G01 X10.0758 Y-51.0424 F75.00
G01 X10.0892 Y-51.0491 F75.00
G01 X10.0978 Y-51.0540 F75.00
G01 X10.1143 Y-51.0653 F75.00
G01 X10.1931 Y-51.1281 F75.00
G01 X10.2041 Y-51.1381 F75.00
G01 X10.2145 Y-51.1490 F75.00
G01 X10.2239 Y-51.1605 F75.00
G01 X10.2297 Y-51.1686 F75.00
G01 X10.2401 Y-51.1857 F75.00
G01 X10.2861 Y-51.2807 F75.00
G01 X10.2899 Y-51.2895 F75.00
G01 X10.2947 Y-51.3031 F75.00
G01 X10.2996 Y-51.3217 F75.00
G01 X10.3020 Y-51.3359 F75.00
G01 X10.3082 Y-51.3906 F75.00
G01 X10.3090 Y-51.4085 F75.00
G01 X10.3090 Y-51.5640 F75.00
G01 X10.3190 Y-51.5640 F75.00
G01 X10.3191 Y-51.1891 F75.00
G01 X10.3200 Y-51.1744 F75.00
G01 X10.3219 Y-51.1598 F75.00
G01 X10.3239 Y-51.1502 F75.00
G01 X10.3276 Y-51.1359 F75.00
G01 X10.3324 Y-51.1220 F75.00
G01 X10.3362 Y-51.1130 F75.00
G01 X10.3426 Y-51.0997 F75.00
G01 X10.3500 Y-51.0870 F75.00
G01 X10.3555 Y-51.0788 F75.00
G01 X10.3644 Y-51.0671 F75.00
G01 X10.3742 Y-51.0561 F75.00
G01 X10.3847 Y-51.0458 F75.00
G01 X10.3960 Y-51.0363 F75.00
G01 X10.4038 Y-51.0305 F75.00
G01 X10.4162 Y-51.0225 F75.00
G01 X10.4291 Y-51.0154 F75.00
G01 X10.4425 Y-51.0092 F75.00
G01 X10.4516 Y-51.0057 F75.00
G01 X10.4657 Y-51.0012 F75.00
G01 X10.4800 Y-50.9978 F75.00
G01 X10.4994 Y-50.9950 F75.00
G01 X10.5190 Y-50.9940 F75.00
G01 X12.6639 Y-50.9941 F75.00
G01 X12.6835 Y-50.9955 F75.00
G01 X12.6932 Y-50.9969 F75.00
G01 X12.7076 Y-51.0000 F75.00
G01 X12.7217 Y-51.0041 F75.00
G01 X12.7310 Y-51.0074 F75.00
G01 X12.7445 Y-51.0132 F75.00
G01 X12.7533 Y-51.0176 F75.00
G01 X12.7660 Y-51.0250 F75.00
G01 X12.7742 Y-51.0305 F75.00
G01 X12.7859 Y-51.0394 F75.00
G01 X12.7933 Y-51.0458 F75.00
G01 X12.8004 Y-51.0526 F75.00
G01 X12.8104 Y-51.0634 F75.00
G01 X12.8167 Y-51.0710 F75.00
G01 X12.8253 Y-51.0829 F75.00
G01 X12.8330 Y-51.0954 F75.00
G01 X12.8398 Y-51.1085 F75.00
G01 X12.8456 Y-51.1220 F75.00
G01 X12.8504 Y-51.1359 F75.00
G01 X12.8541 Y-51.1502 F75.00
G01 X12.8561 Y-51.1598 F75.00
G01 X12.8580 Y-51.1744 F75.00
G01 X12.8589 Y-51.1891 F75.00
G01 X12.8590 Y-53.3340 F75.00
G01 X12.8585 Y-53.3487 F75.00
G01 X12.8575 Y-53.3585 F75.00
G01 X12.8541 Y-53.3778 F75.00
G01 X12.8504 Y-53.3921 F75.00
G01 X12.8473 Y-53.4014 F75.00
G01 X12.8418 Y-53.4150 F75.00
G01 X12.8354 Y-53.4283 F75.00
G01 X12.8280 Y-53.4410 F75.00
G01 X12.8225 Y-53.4492 F75.00
G01 X12.8167 Y-53.4570 F75.00
G01 X12.8072 Y-53.4683 F75.00
G01 X12.7969 Y-53.4789 F75.00
G01 X12.7859 Y-53.4886 F75.00
G01 X12.7742 Y-53.4975 F75.00
G01 X12.7660 Y-53.5030 F75.00
G01 X12.7533 Y-53.5104 F75.00
G01 X12.7445 Y-53.5148 F75.00
G01 X12.7310 Y-53.5206 F75.00
G01 X12.7171 Y-53.5254 F75.00
G01 X12.7076 Y-53.5280 F75.00
G01 X12.6932 Y-53.5311 F75.00
G01 X12.6786 Y-53.5330 F75.00
G01 X12.6639 Y-53.5339 F75.00
G01 X12.2890 Y-53.5340 F75.00
G01 X12.2890 Y-53.5440 F75.00
G01 X12.6755 Y-53.5440 F75.00
G01 X12.7247 Y-53.5362 F75.00
G01 X12.7840 Y-53.5063 F75.00
G01 X12.7979 Y-53.5007 F75.00
G01 X12.8121 Y-53.4961 F75.00
G01 X12.9147 Y-53.4705 F75.00
G01 X12.9345 Y-53.4675 F75.00
G01 X12.9544 Y-53.4666 F75.00
G01 X12.9743 Y-53.4676 F75.00
G01 X12.9891 Y-53.4697 F75.00
G01 X13.0829 Y-53.4889 F75.00
G01 X13.0973 Y-53.4924 F75.00
G01 X13.1114 Y-53.4969 F75.00
G01 X13.1251 Y-53.5025 F75.00
G01 X13.1418 Y-53.5106 F75.00
G01 X13.1931 Y-53.5367 F75.00
G01 X13.2424 Y-53.5445 F75.00
G01 X15.4156 Y-53.5445 F75.00
G01 X15.4649 Y-53.5367 F75.00
G01 X15.5246 Y-53.5065 F75.00
G01 X15.5385 Y-53.5009 F75.00
G01 X15.5527 Y-53.4964 F75.00
G01 X15.6553 Y-53.4707 F75.00
G01 X15.6750 Y-53.4678 F75.00
G01 X15.6949 Y-53.4669 F75.00
G01 X15.7099 Y-53.4675 F75.00
G01 X15.7296 Y-53.4700 F75.00
G01 X15.8235 Y-53.4891 F75.00
G01 X15.8379 Y-53.4926 F75.00
G01 X15.8519 Y-53.4972 F75.00
G01 X15.8657 Y-53.5028 F75.00
G01 X15.8824 Y-53.5108 F75.00
G01 X15.9331 Y-53.5367 F75.00
G01 X15.9824 Y-53.5445 F75.00
G01 X18.1556 Y-53.5445 F75.00
G01 X18.2049 Y-53.5367 F75.00
G01 X18.2646 Y-53.5065 F75.00
G01 X18.2785 Y-53.5009 F75.00
G01 X18.2927 Y-53.4964 F75.00
G01 X18.3953 Y-53.4707 F75.00
G01 X18.4150 Y-53.4678 F75.00
G01 X18.4349 Y-53.4669 F75.00
G01 X18.4548 Y-53.4679 F75.00
G01 X18.4696 Y-53.4700 F75.00
G01 X18.5635 Y-53.4891 F75.00
G01 X18.5779 Y-53.4926 F75.00
G01 X18.5919 Y-53.4972 F75.00
G01 X18.6056 Y-53.5028 F75.00
G01 X18.6224 Y-53.5108 F75.00
G01 X18.6731 Y-53.5367 F75.00
G01 X18.7224 Y-53.5445 F75.00
G01 X20.8956 Y-53.5445 F75.00
G01 X20.9449 Y-53.5367 F75.00
G01 X21.0043 Y-53.5064 F75.00
G01 X21.0514 Y-53.4593 F75.00
G01 X21.0817 Y-53.3999 F75.00
G01 X21.0895 Y-53.3506 F75.00
G01 X21.0896 Y-51.4035 F75.00
G01 X21.0905 Y-51.3886 F75.00
G01 X21.0935 Y-51.3689 F75.00
G01 X21.1159 Y-51.2706 F75.00
G01 X21.1186 Y-51.2610 F75.00
G01 X21.1235 Y-51.2469 F75.00
G01 X21.1274 Y-51.2377 F75.00
G01 X21.1341 Y-51.2243 F75.00
G01 X21.1417 Y-51.2115 F75.00
G01 X21.1503 Y-51.1992 F75.00
G01 X21.2131 Y-51.1204 F75.00
G01 X21.2197 Y-51.1130 F75.00
G01 X21.2303 Y-51.1024 F75.00
G01 X21.2455 Y-51.0896 F75.00
G01 X21.2620 Y-51.0783 F75.00
G01 X21.2751 Y-51.0710 F75.00
G01 X21.3657 Y-51.0274 F75.00
G01 X21.3745 Y-51.0236 F75.00
G01 X21.3881 Y-51.0188 F75.00
G01 X21.4020 Y-51.0150 F75.00
G01 X21.4114 Y-51.0130 F75.00
G01 X21.4257 Y-51.0109 F75.00
G01 X21.4711 Y-51.0058 F75.00
G01 X21.4890 Y-51.0046 F75.00
G01 X22.2656 Y-51.0045 F75.00
G01 X22.3149 Y-50.9967 F75.00
G01 X22.3743 Y-50.9664 F75.00
G01 X22.4214 Y-50.9193 F75.00
G01 X22.4517 Y-50.8599 F75.00
G01 X22.4595 Y-50.8106 F75.00
G01 X22.4595 Y-48.6374 F75.00
G01 X22.4517 Y-48.5881 F75.00
G01 X22.4214 Y-48.5287 F75.00
G01 X22.3743 Y-48.4816 F75.00
G01 X22.3149 Y-48.4513 F75.00
G01 X22.2656 Y-48.4435 F75.00
G01 X22.2335 Y-48.4433 F75.00
G01 X22.2236 Y-48.4425 F75.00
G01 X22.2088 Y-48.4405 F75.00
G01 X22.1056 Y-48.4171 F75.00
G01 X22.0913 Y-48.4129 F75.00
G01 X22.0727 Y-48.4056 F75.00
G01 X22.0550 Y-48.3965 F75.00
G01 X22.0382 Y-48.3857 F75.00
G01 X21.9554 Y-48.3199 F75.00
G01 X21.9444 Y-48.3099 F75.00
G01 X21.9340 Y-48.2990 F75.00
G01 X21.9276 Y-48.2914 F75.00
G01 X21.9188 Y-48.2794 F75.00
G01 X21.9108 Y-48.2667 F75.00
G01 X21.9038 Y-48.2535 F75.00
G01 X21.8624 Y-48.1673 F75.00
G01 X21.8553 Y-48.1494 F75.00
G01 X21.8500 Y-48.1310 F75.00
G01 X21.8472 Y-48.1168 F75.00
G01 X21.8408 Y-48.0619 F75.00
G01 X21.8397 Y-48.0485 F75.00
G01 X21.8396 Y-47.9639 F75.00
G01 X21.8411 Y-47.9441 F75.00
G01 X21.8435 Y-47.9293 F75.00
G01 X21.8647 Y-47.8359 F75.00
G01 X21.8700 Y-47.8170 F75.00
G01 X21.8752 Y-47.8032 F75.00
G01 X21.8814 Y-47.7899 F75.00
G01 X21.8885 Y-47.7770 F75.00
G01 X21.8966 Y-47.7647 F75.00
G01 X21.9390 Y-47.7051 F75.00
G01 X21.9480 Y-47.6938 F75.00
G01 X21.9578 Y-47.6833 F75.00
G01 X24.3488 Y-45.2923 F75.00
G01 X24.3635 Y-45.2790 F75.00
G01 X24.3796 Y-45.2671 F75.00
G01 X24.4606 Y-45.2161 F75.00
G01 X24.4734 Y-45.2087 F75.00
G01 X24.4866 Y-45.2023 F75.00
G01 X24.4957 Y-45.1986 F75.00
G01 X24.5097 Y-45.1939 F75.00
G01 X24.5239 Y-45.1902 F75.00
G01 X24.6057 Y-45.1761 F75.00
G01 X24.6200 Y-45.1745 F75.00
G01 X24.6296 Y-45.1741 F75.00
G01 X26.8278 Y-45.1742 F75.00
G01 X26.8427 Y-45.1756 F75.00
G01 X26.8575 Y-45.1780 F75.00
G01 X26.9602 Y-45.2016 F75.00
G01 X26.9784 Y-45.2076 F75.00
G01 X26.9916 Y-45.2133 F75.00
G01 X27.0044 Y-45.2199 F75.00
G01 X27.0207 Y-45.2301 F75.00
G01 X27.0950 Y-45.2871 F75.00
G01 X27.1031 Y-45.2936 F75.00
G01 X27.1108 Y-45.3006 F75.00
G01 X27.1181 Y-45.3079 F75.00
G01 X27.1251 Y-45.3156 F75.00
G01 X27.2339 Y-45.4430 F75.00
G01 X27.3907 Y-45.5770 F75.00
G01 X27.5666 Y-45.6848 F75.00
G01 X27.7572 Y-45.7637 F75.00
G01 X27.9578 Y-45.8119 F75.00
G01 X28.1634 Y-45.8281 F75.00
G01 X28.3690 Y-45.8119 F75.00
G01 X28.5696 Y-45.7637 F75.00
G01 X28.7602 Y-45.6848 F75.00
G01 X28.9361 Y-45.5770 F75.00
G01 X29.0631 Y-45.4685 F75.00
G01 X29.0749 Y-45.4592 F75.00
G01 X29.0872 Y-45.4508 F75.00
G01 X29.1002 Y-45.4434 F75.00
G01 X29.1896 Y-45.3969 F75.00
G01 X29.1987 Y-45.3929 F75.00
G01 X29.2128 Y-45.3879 F75.00
G01 X29.2321 Y-45.3828 F75.00
G01 X29.2468 Y-45.3802 F75.00
G01 X29.2617 Y-45.3788 F75.00
G01 X29.3624 Y-45.3754 F75.00
G01 X29.3724 Y-45.3756 F75.00
G01 X29.3873 Y-45.3767 F75.00
G01 X29.4021 Y-45.3790 F75.00
G01 X29.4118 Y-45.3812 F75.00
G01 X29.4262 Y-45.3853 F75.00
G01 X29.4403 Y-45.3904 F75.00
G01 X29.5369 Y-45.4332 F75.00
G01 X29.5500 Y-45.4404 F75.00
G01 X29.5626 Y-45.4486 F75.00
G01 X29.5745 Y-45.4577 F75.00
G01 X29.5856 Y-45.4676 F75.00
G01 X29.5993 Y-45.4821 F75.00
G01 X29.6615 Y-45.5550 F75.00
G01 X29.6733 Y-45.5711 F75.00
G01 X29.6834 Y-45.5883 F75.00
G01 X29.6917 Y-45.6064 F75.00
G01 X29.6983 Y-45.6252 F75.00
G01 X29.7239 Y-45.7225 F75.00
G01 X29.7259 Y-45.7319 F75.00
G01 X29.7281 Y-45.7462 F75.00
G01 X29.7292 Y-45.7606 F75.00
G01 X29.7295 Y-45.7757 F75.00
G01 X29.7295 Y-47.3342 F75.00
G01 X29.7285 Y-47.3629 F75.00
G01 X29.7258 Y-47.3954 F75.00
G01 X29.7346 Y-47.4605 F75.00
G01 X29.7421 Y-47.5293 F75.00
G01 X29.7660 Y-47.5943 F75.00
G01 X29.7899 Y-47.6650 F75.00
G01 X29.8272 Y-47.7233 F75.00
G01 X29.8658 Y-47.7873 F75.00
G01 X29.9185 Y-47.8402 F75.00
G01 X29.9674 Y-47.8917 F75.00
G01 X29.9881 Y-47.9100 F75.00
G01 X29.9945 Y-47.9161 F75.00
G01 X37.6796 Y-55.6011 F75.00
G01 X37.6992 Y-55.6222 F75.00
G01 X37.7204 Y-55.6470 F75.00
G01 X37.7726 Y-55.6868 F75.00
G01 X37.8265 Y-55.7302 F75.00
G01 X37.8893 Y-55.7593 F75.00
G01 X37.9563 Y-55.7924 F75.00
G01 X38.0292 Y-55.8085 F75.00
G01 X38.0964 Y-55.8252 F75.00
G01 X38.1711 Y-55.8253 F75.00
G01 X38.2421 Y-55.8272 F75.00
G01 X38.2697 Y-55.8254 F75.00
G01 X38.2785 Y-55.8252 F75.00
G01 X57.6019 Y-55.8252 F75.00
G01 X57.6307 Y-55.8262 F75.00
G01 X57.6632 Y-55.8289 F75.00
G01 X57.7282 Y-55.8201 F75.00
G01 X57.7970 Y-55.8126 F75.00
G01 X57.8620 Y-55.7887 F75.00
G01 X57.9328 Y-55.7648 F75.00
G01 X57.9957 Y-55.7247 F75.00
G01 X58.0550 Y-55.6889 F75.00
G01 X58.1041 Y-55.6400 F75.00
G01 X58.1595 Y-55.5873 F75.00
G01 X58.1777 Y-55.5666 F75.00
G01 X58.1838 Y-55.5602 F75.00
G01 X73.5114 Y-40.2326 F75.00
G01 X73.5224 Y-40.2224 F75.00
G01 X73.5301 Y-40.2161 F75.00
G01 X73.5464 Y-40.2046 F75.00
G01 X73.6276 Y-40.1537 F75.00
G01 X73.6452 Y-40.1444 F75.00
G01 X73.6590 Y-40.1386 F75.00
G01 X73.6780 Y-40.1325 F75.00
G01 X73.6876 Y-40.1302 F75.00
G01 X73.7024 Y-40.1276 F75.00
G01 X73.7975 Y-40.1168 F75.00
G01 X73.8174 Y-40.1155 F75.00
G01 X73.8274 Y-40.1157 F75.00
G01 X73.8423 Y-40.1168 F75.00
G01 X73.8571 Y-40.1190 F75.00
G01 X73.8717 Y-40.1223 F75.00
G01 X73.8860 Y-40.1267 F75.00
G01 X73.9764 Y-40.1584 F75.00
G01 X73.9946 Y-40.1664 F75.00
G01 X74.0120 Y-40.1762 F75.00
G01 X74.0284 Y-40.1876 F75.00
G01 X74.0435 Y-40.2006 F75.00
G01 X74.1181 Y-40.2755 F75.00
G01 X74.1307 Y-40.2909 F75.00
G01 X74.1365 Y-40.2991 F75.00
G01 X74.1443 Y-40.3119 F75.00
G01 X74.1511 Y-40.3252 F75.00
G01 X74.1569 Y-40.3390 F75.00
G01 X74.1901 Y-40.4340 F75.00
G01 X74.1929 Y-40.4434 F75.00
G01 X74.1962 Y-40.4577 F75.00
G01 X74.1985 Y-40.4722 F75.00
G01 X74.1996 Y-40.4869 F75.00
G01 X74.2010 Y-40.5245 F75.00
G01 X74.1995 Y-40.5823 F75.00
G01 X74.2013 Y-40.6099 F75.00
G01 X74.2015 Y-40.6187 F75.00
G01 X74.2014 Y-48.0445 F75.00
G01 X74.1999 Y-48.0644 F75.00
G01 X74.1975 Y-48.0791 F75.00
G01 X74.1763 Y-48.1725 F75.00
G01 X74.1724 Y-48.1870 F75.00
G01 X74.1692 Y-48.1964 F75.00
G01 X74.1615 Y-48.2148 F75.00
G01 X74.1520 Y-48.2323 F75.00
G01 X74.1465 Y-48.2407 F75.00
G01 X74.1377 Y-48.2527 F75.00
G01 X74.0779 Y-48.3276 F75.00
G01 X74.0679 Y-48.3386 F75.00
G01 X74.0570 Y-48.3490 F75.00
G01 X74.0455 Y-48.3584 F75.00
G01 X74.0374 Y-48.3642 F75.00
G01 X74.0247 Y-48.3722 F75.00
G01 X74.0159 Y-48.3770 F75.00
G01 X73.9297 Y-48.4186 F75.00
G01 X73.9209 Y-48.4225 F75.00
G01 X73.9074 Y-48.4277 F75.00
G01 X73.8890 Y-48.4330 F75.00
G01 X73.8701 Y-48.4365 F75.00
G01 X73.8110 Y-48.4430 F75.00
G01 X73.8020 Y-48.4435 F75.00
G01 X73.7754 Y-48.4435 F75.00
G01 X73.7261 Y-48.4513 F75.00
G01 X73.6667 Y-48.4816 F75.00
G01 X73.6196 Y-48.5287 F75.00
G01 X73.5893 Y-48.5881 F75.00
G01 X73.5815 Y-48.6374 F75.00
G01 X73.5815 Y-50.8106 F75.00
G01 X73.5893 Y-50.8599 F75.00
G01 X73.6196 Y-50.9193 F75.00
G01 X73.6667 Y-50.9664 F75.00
G01 X73.7261 Y-50.9967 F75.00
G01 X73.7754 Y-51.0045 F75.00
G01 X74.5580 Y-51.0047 F75.00
G01 X74.5729 Y-51.0061 F75.00
G01 X74.5876 Y-51.0085 F75.00
G01 X74.6810 Y-51.0297 F75.00
G01 X74.7002 Y-51.0351 F75.00
G01 X74.7142 Y-51.0404 F75.00
G01 X74.7233 Y-51.0445 F75.00
G01 X74.7408 Y-51.0540 F75.00
G01 X74.7533 Y-51.0623 F75.00
G01 X74.7612 Y-51.0683 F75.00
G01 X74.8361 Y-51.1281 F75.00
G01 X74.8471 Y-51.1381 F75.00
G01 X74.8575 Y-51.1490 F75.00
G01 X74.8699 Y-51.1646 F75.00
G01 X74.8755 Y-51.1728 F75.00
G01 X74.8831 Y-51.1857 F75.00
G01 X74.9291 Y-51.2807 F75.00
G01 X74.9362 Y-51.2986 F75.00
G01 X74.9403 Y-51.3124 F75.00
G01 X74.9426 Y-51.3217 F75.00
G01 X74.9450 Y-51.3359 F75.00
G01 X74.9512 Y-51.3906 F75.00
G01 X74.9520 Y-51.4085 F75.00
G01 X74.9520 Y-51.5640 F75.00
G01 X74.9620 Y-51.5640 F75.00
G01 X74.9621 Y-51.1891 F75.00
G01 X74.9625 Y-51.1793 F75.00
G01 X74.9642 Y-51.1647 F75.00
G01 X74.9669 Y-51.1502 F75.00
G01 X74.9706 Y-51.1359 F75.00
G01 X74.9737 Y-51.1266 F75.00
G01 X74.9792 Y-51.1130 F75.00
G01 X74.9856 Y-51.0997 F75.00
G01 X74.9930 Y-51.0870 F75.00
G01 X75.0014 Y-51.0749 F75.00
G01 X75.0106 Y-51.0634 F75.00
G01 X75.0172 Y-51.0561 F75.00
G01 X75.0277 Y-51.0458 F75.00
G01 X75.0351 Y-51.0394 F75.00
G01 X75.0468 Y-51.0305 F75.00
G01 X75.0592 Y-51.0225 F75.00
G01 X75.0721 Y-51.0154 F75.00
G01 X75.0855 Y-51.0092 F75.00
G01 X75.0946 Y-51.0057 F75.00
G01 X75.1039 Y-51.0026 F75.00
G01 X75.1182 Y-50.9989 F75.00
G01 X75.1375 Y-50.9955 F75.00
G01 X75.1473 Y-50.9945 F75.00
G01 X75.1620 Y-50.9940 F75.00
G01 X77.3069 Y-50.9941 F75.00
G01 X77.3265 Y-50.9955 F75.00
G01 X77.3410 Y-50.9978 F75.00
G01 X77.3553 Y-51.0012 F75.00
G01 X77.3694 Y-51.0057 F75.00
G01 X77.3830 Y-51.0112 F75.00
G01 X77.3963 Y-51.0176 F75.00
G01 X77.4131 Y-51.0277 F75.00
G01 X77.4250 Y-51.0363 F75.00
G01 X77.4399 Y-51.0492 F75.00
G01 X77.4469 Y-51.0561 F75.00
G01 X77.4566 Y-51.0671 F75.00
G01 X77.4626 Y-51.0749 F75.00
G01 X77.4710 Y-51.0870 F75.00
G01 X77.4806 Y-51.1041 F75.00
G01 X77.4868 Y-51.1175 F75.00
G01 X77.4903 Y-51.1266 F75.00
G01 X77.4960 Y-51.1454 F75.00
G01 X77.4998 Y-51.1647 F75.00
G01 X77.5010 Y-51.1744 F75.00
G01 X77.5019 Y-51.1891 F75.00
G01 X77.5020 Y-53.3340 F75.00
G01 X77.5010 Y-53.3536 F75.00
G01 X77.4982 Y-53.3730 F75.00
G01 X77.4948 Y-53.3873 F75.00
G01 X77.4903 Y-53.4014 F75.00
G01 X77.4868 Y-53.4105 F75.00
G01 X77.4806 Y-53.4239 F75.00
G01 X77.4735 Y-53.4368 F75.00
G01 X77.4683 Y-53.4451 F75.00
G01 X77.4597 Y-53.4570 F75.00
G01 X77.4502 Y-53.4683 F75.00
G01 X77.4399 Y-53.4789 F75.00
G01 X77.4326 Y-53.4854 F75.00
G01 X77.4211 Y-53.4946 F75.00
G01 X77.4090 Y-53.5030 F75.00
G01 X77.3963 Y-53.5104 F75.00
G01 X77.3875 Y-53.5148 F75.00
G01 X77.3740 Y-53.5206 F75.00
G01 X77.3601 Y-53.5254 F75.00
G01 X77.3458 Y-53.5291 F75.00
G01 X77.3362 Y-53.5311 F75.00
G01 X77.3216 Y-53.5330 F75.00
G01 X77.3069 Y-53.5339 F75.00
G01 X76.9320 Y-53.5340 F75.00
G01 X76.9320 Y-53.5440 F75.00
G01 X77.3185 Y-53.5440 F75.00
G01 X77.3677 Y-53.5362 F75.00
G01 X77.4270 Y-53.5063 F75.00
G01 X77.4409 Y-53.5007 F75.00
G01 X77.4551 Y-53.4961 F75.00
G01 X77.5577 Y-53.4705 F75.00
G01 X77.5775 Y-53.4675 F75.00
G01 X77.5974 Y-53.4666 F75.00
G01 X77.6173 Y-53.4676 F75.00
G01 X77.6321 Y-53.4697 F75.00
G01 X77.7259 Y-53.4889 F75.00
G01 X77.7403 Y-53.4924 F75.00
G01 X77.7544 Y-53.4969 F75.00
G01 X77.7681 Y-53.5025 F75.00
G01 X77.7848 Y-53.5106 F75.00
G01 X77.8361 Y-53.5367 F75.00
G01 X77.8854 Y-53.5445 F75.00
G01 X80.0586 Y-53.5445 F75.00
G01 X80.1079 Y-53.5367 F75.00
G01 X80.1676 Y-53.5065 F75.00
G01 X80.1815 Y-53.5009 F75.00
G01 X80.1957 Y-53.4964 F75.00
G01 X80.2983 Y-53.4707 F75.00
G01 X80.3180 Y-53.4678 F75.00
G01 X80.3379 Y-53.4669 F75.00
G01 X80.3529 Y-53.4675 F75.00
G01 X80.3726 Y-53.4700 F75.00
G01 X80.4665 Y-53.4891 F75.00
G01 X80.4809 Y-53.4926 F75.00
G01 X80.4949 Y-53.4972 F75.00
G01 X80.5087 Y-53.5028 F75.00
G01 X80.5254 Y-53.5108 F75.00
G01 X80.5761 Y-53.5367 F75.00
G01 X80.6254 Y-53.5445 F75.00
G01 X82.7986 Y-53.5445 F75.00
G01 X82.8479 Y-53.5367 F75.00
G01 X82.9076 Y-53.5065 F75.00
G01 X82.9215 Y-53.5009 F75.00
G01 X82.9357 Y-53.4964 F75.00
G01 X83.0383 Y-53.4707 F75.00
G01 X83.0580 Y-53.4678 F75.00
G01 X83.0779 Y-53.4669 F75.00
G01 X83.0978 Y-53.4679 F75.00
G01 X83.1126 Y-53.4700 F75.00
G01 X83.2065 Y-53.4891 F75.00
G01 X83.2209 Y-53.4926 F75.00
G01 X83.2349 Y-53.4972 F75.00
G01 X83.2486 Y-53.5028 F75.00
G01 X83.2654 Y-53.5108 F75.00
G01 X83.3161 Y-53.5367 F75.00
G01 X83.3654 Y-53.5445 F75.00
G01 X85.5386 Y-53.5445 F75.00
G01 X85.5879 Y-53.5367 F75.00
G01 X85.6473 Y-53.5064 F75.00
G01 X85.6944 Y-53.4593 F75.00
G01 X85.7247 Y-53.3999 F75.00
G01 X85.7325 Y-53.3506 F75.00
G01 X85.7326 Y-51.4035 F75.00
G01 X85.7335 Y-51.3886 F75.00
G01 X85.7365 Y-51.3689 F75.00
G01 X85.7589 Y-51.2706 F75.00
G01 X85.7631 Y-51.2563 F75.00
G01 X85.7665 Y-51.2469 F75.00
G01 X85.7704 Y-51.2377 F75.00
G01 X85.7771 Y-51.2243 F75.00
G01 X85.7847 Y-51.2115 F75.00
G01 X85.7933 Y-51.1992 F75.00
G01 X85.8561 Y-51.1204 F75.00
G01 X85.8661 Y-51.1094 F75.00
G01 X85.8733 Y-51.1024 F75.00
G01 X85.8885 Y-51.0896 F75.00
G01 X85.9008 Y-51.0810 F75.00
G01 X85.9181 Y-51.0710 F75.00
G01 X86.0087 Y-51.0274 F75.00
G01 X86.0175 Y-51.0236 F75.00
G01 X86.0311 Y-51.0188 F75.00
G01 X86.0450 Y-51.0150 F75.00
G01 X86.0544 Y-51.0130 F75.00
G01 X86.0687 Y-51.0109 F75.00
G01 X86.1141 Y-51.0058 F75.00
G01 X86.1320 Y-51.0046 F75.00
G01 X86.9086 Y-51.0045 F75.00
G01 X86.9579 Y-50.9967 F75.00
G01 X87.0173 Y-50.9664 F75.00
G01 X87.0644 Y-50.9193 F75.00
G01 X87.0947 Y-50.8599 F75.00
G01 X87.1025 Y-50.8106 F75.00
G01 X87.1025 Y-48.6374 F75.00
G01 X87.0947 Y-48.5881 F75.00
G01 X87.0644 Y-48.5287 F75.00
G01 X87.0173 Y-48.4816 F75.00
G01 X86.9579 Y-48.4513 F75.00
G01 X86.9086 Y-48.4435 F75.00
G01 X86.8765 Y-48.4433 F75.00
G01 X86.8666 Y-48.4425 F75.00
G01 X86.8518 Y-48.4405 F75.00
G01 X86.7486 Y-48.4171 F75.00
G01 X86.7343 Y-48.4129 F75.00
G01 X86.7249 Y-48.4095 F75.00
G01 X86.7112 Y-48.4035 F75.00
G01 X86.7023 Y-48.3989 F75.00
G01 X86.6895 Y-48.3913 F75.00
G01 X86.6812 Y-48.3857 F75.00
G01 X86.5947 Y-48.3166 F75.00
G01 X86.5838 Y-48.3063 F75.00
G01 X86.5738 Y-48.2953 F75.00
G01 X86.5618 Y-48.2794 F75.00
G01 X86.5538 Y-48.2667 F75.00
G01 X86.5468 Y-48.2535 F75.00
G01 X86.5035 Y-48.1629 F75.00
G01 X86.4968 Y-48.1449 F75.00
G01 X86.4942 Y-48.1356 F75.00
G01 X86.4910 Y-48.1216 F75.00
G01 X86.4889 Y-48.1073 F75.00
G01 X86.4838 Y-48.0619 F75.00
G01 X86.4827 Y-48.0485 F75.00
G01 X86.4825 Y-40.0949 F75.00
G01 X86.4835 Y-40.0750 F75.00
G01 X86.4865 Y-40.0553 F75.00
G01 X86.5089 Y-39.9571 F75.00
G01 X86.5130 Y-39.9430 F75.00
G01 X86.5164 Y-39.9338 F75.00
G01 X86.5201 Y-39.9247 F75.00
G01 X86.5266 Y-39.9115 F75.00
G01 X86.5368 Y-39.8947 F75.00
G01 X86.5820 Y-39.8311 F75.00
G01 X86.5910 Y-39.8198 F75.00
G01 X86.6008 Y-39.8093 F75.00
G01 X93.2995 Y-33.1106 F75.00
G01 X93.3205 Y-33.0910 F75.00
G01 X93.3453 Y-33.0699 F75.00
G01 X93.3852 Y-33.0177 F75.00
G01 X93.4285 Y-32.9638 F75.00
G01 X93.4599 Y-32.8961 F75.00
G01 X93.4907 Y-32.8340 F75.00
G01 X93.5068 Y-32.7611 F75.00
G01 X93.5235 Y-32.6939 F75.00
G01 X93.5236 Y-32.6192 F75.00
G01 X93.5255 Y-32.5482 F75.00
G01 X93.5237 Y-32.5206 F75.00
G01 X93.5235 Y-32.5118 F75.00
G01 X93.5235 Y-17.1846 F75.00
G01 X93.5245 Y-17.1558 F75.00
G01 X93.5272 Y-17.1233 F75.00
G01 X93.5184 Y-17.0582 F75.00
G01 X93.5109 Y-16.9895 F75.00
G01 X93.4870 Y-16.9245 F75.00
G01 X93.4631 Y-16.8537 F75.00
G01 X93.4229 Y-16.7907 F75.00
G01 X93.3872 Y-16.7315 F75.00
G01 X93.3345 Y-16.6786 F75.00
G01 X93.2856 Y-16.6270 F75.00
G01 X93.2649 Y-16.6088 F75.00
G01 X93.2585 Y-16.6027 F75.00
G01 X92.2783 Y-15.6225 F75.00
G01 X92.2684 Y-15.6113 F75.00
G01 X92.2566 Y-15.5952 F75.00
G01 X92.2056 Y-15.5142 F75.00
G01 X92.2006 Y-15.5057 F75.00
G01 X92.1939 Y-15.4926 F75.00
G01 X92.1899 Y-15.4836 F75.00
G01 X92.1848 Y-15.4698 F75.00
G01 X92.1820 Y-15.4604 F75.00
G01 X92.1787 Y-15.4461 F75.00
G01 X92.1656 Y-15.3691 F75.00
G01 X92.1644 Y-15.3596 F75.00
G01 X92.1636 Y-15.3452 F75.00
G01 X92.1635 Y-14.0747 F75.00
G01 X92.1557 Y-14.0254 F75.00
G01 X92.1254 Y-13.9660 F75.00
G01 X92.0783 Y-13.9189 F75.00
G01 X92.0189 Y-13.8886 F75.00
G01 X91.9696 Y-13.8808 F75.00
G01 X89.7964 Y-13.8808 F75.00
G01 X89.7303 Y-13.8913 F75.00
G01 X89.7137 Y-13.8952 F75.00
G01 X89.6989 Y-13.8975 F75.00
G01 X89.6035 Y-13.9061 F75.00
G01 X89.5842 Y-13.9069 F75.00
G01 X89.5697 Y-13.9063 F75.00
G01 X89.5506 Y-13.9038 F75.00
G01 X89.5054 Y-13.8938 F75.00
G01 X89.4956 Y-13.8913 F75.00
G01 X89.4296 Y-13.8808 F75.00
G01 X87.2564 Y-13.8808 F75.00
G01 X87.1906 Y-13.8912 F75.00
G01 X87.1729 Y-13.8955 F75.00
G01 X87.1581 Y-13.8978 F75.00
G01 X87.0627 Y-13.9064 F75.00
G01 X87.0434 Y-13.9072 F75.00
G01 X87.0289 Y-13.9066 F75.00
G01 X87.0098 Y-13.9041 F75.00
G01 X86.9556 Y-13.8918 F75.00
G01 X86.8895 Y-13.8813 F75.00
G01 X86.5030 Y-13.8813 F75.00
G01 X86.5030 Y-13.8913 F75.00
G01 X86.8779 Y-13.8914 F75.00
G01 X86.8877 Y-13.8918 F75.00
G01 X86.9023 Y-13.8935 F75.00
G01 X86.9168 Y-13.8962 F75.00
G01 X86.9263 Y-13.8985 F75.00
G01 X86.9404 Y-13.9030 F75.00
G01 X86.9540 Y-13.9085 F75.00
G01 X86.9673 Y-13.9149 F75.00
G01 X86.9758 Y-13.9198 F75.00
G01 X86.9841 Y-13.9250 F75.00
G01 X86.9960 Y-13.9336 F75.00
G01 X87.0073 Y-13.9431 F75.00
G01 X87.0144 Y-13.9499 F75.00
G01 X87.0244 Y-13.9607 F75.00
G01 X87.0336 Y-13.9722 F75.00
G01 X87.0420 Y-13.9843 F75.00
G01 X87.0470 Y-13.9927 F75.00
G01 X87.0538 Y-14.0058 F75.00
G01 X87.0578 Y-14.0148 F75.00
G01 X87.0629 Y-14.0286 F75.00
G01 X87.0670 Y-14.0427 F75.00
G01 X87.0701 Y-14.0571 F75.00
G01 X87.0715 Y-14.0668 F75.00
G01 X87.0728 Y-14.0815 F75.00
G01 X87.0730 Y-14.0913 F75.00
G01 X87.0730 Y-16.2313 F75.00
G01 X87.0725 Y-16.2460 F75.00
G01 X87.0708 Y-16.2606 F75.00
G01 X87.0681 Y-16.2751 F75.00
G01 X87.0644 Y-16.2894 F75.00
G01 X87.0596 Y-16.3033 F75.00
G01 X87.0538 Y-16.3168 F75.00
G01 X87.0445 Y-16.3341 F75.00
G01 X87.0365 Y-16.3465 F75.00
G01 X87.0276 Y-16.3582 F75.00
G01 X87.0178 Y-16.3692 F75.00
G01 X87.0036 Y-16.3827 F75.00
G01 X86.9921 Y-16.3919 F75.00
G01 X86.9800 Y-16.4003 F75.00
G01 X86.9673 Y-16.4077 F75.00
G01 X86.9540 Y-16.4141 F75.00
G01 X86.9404 Y-16.4196 F75.00
G01 X86.9263 Y-16.4241 F75.00
G01 X86.9120 Y-16.4275 F75.00
G01 X86.8975 Y-16.4298 F75.00
G01 X86.8779 Y-16.4312 F75.00
G01 X86.5030 Y-16.4313 F75.00
G01 X86.5030 Y-16.4413 F75.00
G01 X86.8895 Y-16.4413 F75.00
G01 X86.9557 Y-16.4308 F75.00
G01 X86.9715 Y-16.4271 F75.00
G01 X86.9862 Y-16.4249 F75.00
G01 X87.0816 Y-16.4162 F75.00
G01 X87.1009 Y-16.4154 F75.00
G01 X87.1202 Y-16.4165 F75.00
G01 X87.1346 Y-16.4185 F75.00
G01 X87.1797 Y-16.4286 F75.00
G01 X87.1906 Y-16.4314 F75.00
G01 X87.2564 Y-16.4418 F75.00
G01 X89.4296 Y-16.4418 F75.00
G01 X89.4957 Y-16.4313 F75.00
G01 X89.5123 Y-16.4274 F75.00
G01 X89.5271 Y-16.4251 F75.00
G01 X89.6224 Y-16.4165 F75.00
G01 X89.6418 Y-16.4157 F75.00
G01 X89.6611 Y-16.4167 F75.00
G01 X89.6754 Y-16.4188 F75.00
G01 X89.7206 Y-16.4288 F75.00
G01 X89.7304 Y-16.4313 F75.00
G01 X89.7964 Y-16.4418 F75.00
G01 X91.0621 Y-16.4418 F75.00
G01 X91.0770 Y-16.4424 F75.00
G01 X91.0968 Y-16.4448 F75.00
G01 X91.1999 Y-16.4682 F75.00
G01 X91.2186 Y-16.4739 F75.00
G01 X91.2323 Y-16.4794 F75.00
G01 X91.2498 Y-16.4883 F75.00
G01 X91.2623 Y-16.4961 F75.00
G01 X91.3259 Y-16.5413 F75.00
G01 X91.3408 Y-16.5535 F75.00
G01 X92.0877 Y-17.3001 F75.00
G01 X92.0975 Y-17.3113 F75.00
G01 X92.1094 Y-17.3274 F75.00
G01 X92.1604 Y-17.4084 F75.00
G01 X92.1678 Y-17.4212 F75.00
G01 X92.1721 Y-17.4300 F75.00
G01 X92.1796 Y-17.4481 F75.00
G01 X92.1840 Y-17.4622 F75.00
G01 X92.1882 Y-17.4814 F75.00
G01 X92.2004 Y-17.5535 F75.00
G01 X92.2020 Y-17.5678 F75.00
G01 X92.2025 Y-17.5822 F75.00
G01 X92.2024 Y-28.7218 F75.00
G01 X92.2009 Y-28.7417 F75.00
G01 X92.1985 Y-28.7564 F75.00
G01 X92.1761 Y-28.8547 F75.00
G01 X92.1734 Y-28.8643 F75.00
G01 X92.1685 Y-28.8784 F75.00
G01 X92.1625 Y-28.8921 F75.00
G01 X92.1555 Y-28.9053 F75.00
G01 X92.1475 Y-28.9180 F75.00
G01 X92.1387 Y-28.9300 F75.00
G01 X92.0821 Y-29.0010 F75.00
G01 X92.0723 Y-29.0123 F75.00
G01 X92.0580 Y-29.0263 F75.00
G01 X92.0465 Y-29.0357 F75.00
G01 X92.0300 Y-29.0470 F75.00
G01 X92.0125 Y-29.0565 F75.00
G01 X91.9263 Y-29.0979 F75.00
G01 X91.9175 Y-29.1017 F75.00
G01 X91.9039 Y-29.1065 F75.00
G01 X91.8900 Y-29.1103 F75.00
G01 X91.8711 Y-29.1138 F75.00
G01 X91.8209 Y-29.1195 F75.00
G01 X91.8075 Y-29.1206 F75.00
G01 X89.7964 Y-29.1208 F75.00
G01 X89.7303 Y-29.1313 F75.00
G01 X89.7137 Y-29.1352 F75.00
G01 X89.6989 Y-29.1375 F75.00
G01 X89.6035 Y-29.1461 F75.00
G01 X89.5842 Y-29.1469 F75.00
G01 X89.5697 Y-29.1463 F75.00
G01 X89.5506 Y-29.1438 F75.00
G01 X89.5054 Y-29.1338 F75.00
G01 X89.4956 Y-29.1313 F75.00
G01 X89.4296 Y-29.1208 F75.00
G01 X87.2564 Y-29.1208 F75.00
G01 X87.1903 Y-29.1313 F75.00
G01 X87.1737 Y-29.1352 F75.00
G01 X87.1589 Y-29.1375 F75.00
G01 X87.0635 Y-29.1461 F75.00
G01 X87.0442 Y-29.1469 F75.00
G01 X87.0249 Y-29.1459 F75.00
G01 X87.0106 Y-29.1438 F75.00
G01 X86.9654 Y-29.1338 F75.00
G01 X86.9556 Y-29.1313 F75.00
G01 X86.8896 Y-29.1208 F75.00
G01 X84.7164 Y-29.1208 F75.00
G01 X84.6503 Y-29.1313 F75.00
G01 X84.6337 Y-29.1352 F75.00
G01 X84.6189 Y-29.1375 F75.00
G01 X84.5235 Y-29.1461 F75.00
G01 X84.5042 Y-29.1469 F75.00
G01 X84.4897 Y-29.1463 F75.00
G01 X84.4706 Y-29.1438 F75.00
G01 X84.4254 Y-29.1338 F75.00
G01 X84.4156 Y-29.1313 F75.00
G01 X84.3496 Y-29.1208 F75.00
G01 X82.1764 Y-29.1208 F75.00
G01 X82.1103 Y-29.1313 F75.00
G01 X82.0937 Y-29.1352 F75.00
G01 X82.0789 Y-29.1375 F75.00
G01 X81.9835 Y-29.1461 F75.00
G01 X81.9642 Y-29.1469 F75.00
G01 X81.9449 Y-29.1459 F75.00
G01 X81.9306 Y-29.1438 F75.00
G01 X81.8854 Y-29.1338 F75.00
G01 X81.8756 Y-29.1313 F75.00
G01 X81.8096 Y-29.1208 F75.00
G01 X79.6364 Y-29.1208 F75.00
G01 X79.5703 Y-29.1313 F75.00
G01 X79.5537 Y-29.1352 F75.00
G01 X79.5389 Y-29.1375 F75.00
G01 X79.4435 Y-29.1461 F75.00
G01 X79.4242 Y-29.1469 F75.00
G01 X79.4049 Y-29.1459 F75.00
G01 X79.3906 Y-29.1438 F75.00
G01 X79.3454 Y-29.1338 F75.00
G01 X79.3356 Y-29.1313 F75.00
G01 X79.2696 Y-29.1208 F75.00
G01 X77.0964 Y-29.1208 F75.00
G01 X77.0303 Y-29.1313 F75.00
G01 X77.0137 Y-29.1352 F75.00
G01 X76.9989 Y-29.1375 F75.00
G01 X76.9035 Y-29.1461 F75.00
G01 X76.8842 Y-29.1469 F75.00
G01 X76.8697 Y-29.1463 F75.00
G01 X76.8506 Y-29.1438 F75.00
G01 X76.8054 Y-29.1338 F75.00
G01 X76.7956 Y-29.1313 F75.00
G01 X76.7296 Y-29.1208 F75.00
G01 X74.5564 Y-29.1208 F75.00
G01 X74.4903 Y-29.1313 F75.00
G01 X74.4737 Y-29.1352 F75.00
G01 X74.4589 Y-29.1375 F75.00
G01 X74.3635 Y-29.1461 F75.00
G01 X74.3442 Y-29.1469 F75.00
G01 X74.3249 Y-29.1459 F75.00
G01 X74.3106 Y-29.1438 F75.00
G01 X74.2654 Y-29.1338 F75.00
G01 X74.2556 Y-29.1313 F75.00
G01 X74.1896 Y-29.1208 F75.00
G01 X72.0164 Y-29.1208 F75.00
G01 X71.9503 Y-29.1313 F75.00
G01 X71.9337 Y-29.1352 F75.00
G01 X71.9189 Y-29.1375 F75.00
G01 X71.8235 Y-29.1461 F75.00
G01 X71.8042 Y-29.1469 F75.00
G01 X71.7897 Y-29.1463 F75.00
G01 X71.7706 Y-29.1438 F75.00
G01 X71.7254 Y-29.1338 F75.00
G01 X71.7156 Y-29.1313 F75.00
G01 X71.6496 Y-29.1208 F75.00
G01 X69.4764 Y-29.1208 F75.00
G01 X69.4103 Y-29.1313 F75.00
G01 X69.3937 Y-29.1352 F75.00
G01 X69.3789 Y-29.1375 F75.00
G01 X69.2835 Y-29.1461 F75.00
G01 X69.2642 Y-29.1469 F75.00
G01 X69.2449 Y-29.1459 F75.00
G01 X69.2306 Y-29.1438 F75.00
G01 X69.1854 Y-29.1338 F75.00
G01 X69.1756 Y-29.1313 F75.00
G01 X69.1096 Y-29.1208 F75.00
G01 X66.9364 Y-29.1208 F75.00
G01 X66.8703 Y-29.1313 F75.00
G01 X66.8537 Y-29.1352 F75.00
G01 X66.8389 Y-29.1375 F75.00
G01 X66.7435 Y-29.1461 F75.00
G01 X66.7242 Y-29.1469 F75.00
G01 X66.7097 Y-29.1463 F75.00
G01 X66.6906 Y-29.1438 F75.00
G01 X66.6454 Y-29.1338 F75.00
G01 X66.6356 Y-29.1313 F75.00
G01 X66.5696 Y-29.1208 F75.00
G01 X64.3964 Y-29.1208 F75.00
G01 X64.3303 Y-29.1313 F75.00
G01 X64.3137 Y-29.1352 F75.00
G01 X64.2989 Y-29.1375 F75.00
G01 X64.2035 Y-29.1461 F75.00
G01 X64.1842 Y-29.1469 F75.00
G01 X64.1649 Y-29.1459 F75.00
G01 X64.1506 Y-29.1438 F75.00
G01 X64.1054 Y-29.1338 F75.00
G01 X64.0956 Y-29.1313 F75.00
G01 X64.0296 Y-29.1208 F75.00
G01 X61.8564 Y-29.1208 F75.00
G01 X61.7903 Y-29.1313 F75.00
G01 X61.7737 Y-29.1352 F75.00
G01 X61.7589 Y-29.1375 F75.00
G01 X61.6635 Y-29.1461 F75.00
G01 X61.6442 Y-29.1469 F75.00
G01 X61.6297 Y-29.1463 F75.00
G01 X61.6106 Y-29.1438 F75.00
G01 X61.5654 Y-29.1338 F75.00
G01 X61.5556 Y-29.1313 F75.00
G01 X61.4896 Y-29.1208 F75.00
G01 X59.3164 Y-29.1208 F75.00
G01 X59.2503 Y-29.1313 F75.00
G01 X59.2337 Y-29.1352 F75.00
G01 X59.2189 Y-29.1375 F75.00
G01 X59.1235 Y-29.1461 F75.00
G01 X59.1042 Y-29.1469 F75.00
G01 X59.0897 Y-29.1463 F75.00
G01 X59.0706 Y-29.1438 F75.00
G01 X59.0254 Y-29.1338 F75.00
G01 X59.0156 Y-29.1313 F75.00
G01 X58.9496 Y-29.1208 F75.00
G01 X56.7764 Y-29.1208 F75.00
G01 X56.7271 Y-29.1286 F75.00
G01 X56.6677 Y-29.1589 F75.00
G01 X56.6206 Y-29.2060 F75.00
G01 X56.6073 Y-29.2315 F75.00
G01 X56.5994 Y-29.2441 F75.00
G01 X56.5936 Y-29.2522 F75.00
G01 X56.5260 Y-29.3335 F75.00
G01 X56.5157 Y-29.3444 F75.00
G01 X56.5084 Y-29.3512 F75.00
G01 X56.4969 Y-29.3607 F75.00
G01 X56.4847 Y-29.3693 F75.00
G01 X56.4718 Y-29.3769 F75.00
G01 X56.4584 Y-29.3836 F75.00
G01 X56.3758 Y-29.4212 F75.00
G01 X56.3619 Y-29.4269 F75.00
G01 X56.3477 Y-29.4315 F75.00
G01 X56.3283 Y-29.4360 F75.00
G01 X56.3085 Y-29.4385 F75.00
G01 X56.2936 Y-29.4391 F75.00
G01 X56.1978 Y-29.4370 F75.00
G01 X56.1832 Y-29.4361 F75.00
G01 X56.1687 Y-29.4342 F75.00
G01 X56.1543 Y-29.4312 F75.00
G01 X56.1402 Y-29.4272 F75.00
G01 X56.1265 Y-29.4221 F75.00
G01 X56.0475 Y-29.3854 F75.00
G01 X56.0314 Y-29.3770 F75.00
G01 X56.0167 Y-29.3675 F75.00
G01 X55.8338 Y-29.2554 F75.00
G01 X55.6432 Y-29.1765 F75.00
G01 X55.4426 Y-29.1283 F75.00
G01 X55.2370 Y-29.1121 F75.00
G01 X55.0314 Y-29.1283 F75.00
G01 X54.8308 Y-29.1765 F75.00
G01 X54.6402 Y-29.2554 F75.00
G01 X54.4643 Y-29.3632 F75.00
G01 X54.3075 Y-29.4972 F75.00
G01 X54.1735 Y-29.6540 F75.00
G01 X54.0657 Y-29.8299 F75.00
G01 X53.9868 Y-30.0205 F75.00
G01 X53.9386 Y-30.2211 F75.00
G01 X53.9224 Y-30.4267 F75.00
G01 X53.9386 Y-30.6323 F75.00
G01 X53.9868 Y-30.8329 F75.00
G01 X54.0657 Y-31.0235 F75.00
G01 X54.1735 Y-31.1994 F75.00
G01 X54.3075 Y-31.3562 F75.00
G01 X54.4643 Y-31.4902 F75.00
G01 X54.6402 Y-31.5980 F75.00
G01 X54.8308 Y-31.6769 F75.00
G01 X55.0314 Y-31.7251 F75.00
G01 X55.2370 Y-31.7413 F75.00
G01 X55.4426 Y-31.7251 F75.00
G01 X55.6432 Y-31.6769 F75.00
G01 X55.8338 Y-31.5980 F75.00
G01 X56.0098 Y-31.4901 F75.00
G01 X56.0237 Y-31.4796 F75.00
G01 X56.0363 Y-31.4715 F75.00
G01 X56.1254 Y-31.4245 F75.00
G01 X56.1389 Y-31.4181 F75.00
G01 X56.1528 Y-31.4127 F75.00
G01 X56.1671 Y-31.4083 F75.00
G01 X56.1817 Y-31.4050 F75.00
G01 X56.1965 Y-31.4029 F75.00
G01 X56.2115 Y-31.4018 F75.00
G01 X56.3072 Y-31.3986 F75.00
G01 X56.3221 Y-31.3991 F75.00
G01 X56.3419 Y-31.4014 F75.00
G01 X56.3566 Y-31.4044 F75.00
G01 X56.3757 Y-31.4101 F75.00
G01 X56.3896 Y-31.4156 F75.00
G01 X56.4727 Y-31.4522 F75.00
G01 X56.4861 Y-31.4588 F75.00
G01 X56.4948 Y-31.4637 F75.00
G01 X56.5073 Y-31.4718 F75.00
G01 X56.5153 Y-31.4778 F75.00
G01 X56.5268 Y-31.4874 F75.00
G01 X56.5374 Y-31.4979 F75.00
G01 X56.6031 Y-31.5744 F75.00
G01 X56.6095 Y-31.5823 F75.00
G01 X56.6174 Y-31.5934 F75.00
G01 X56.6677 Y-31.6437 F75.00
G01 X56.7271 Y-31.6740 F75.00
G01 X56.7764 Y-31.6818 F75.00
G01 X58.9203 Y-31.6818 F75.00
G01 X58.9352 Y-31.6824 F75.00
G01 X58.9501 Y-31.6840 F75.00
G01 X58.9648 Y-31.6868 F75.00
G01 X59.0629 Y-31.7095 F75.00
G01 X59.0818 Y-31.7158 F75.00
G01 X59.0910 Y-31.7197 F75.00
G01 X59.1044 Y-31.7264 F75.00
G01 X59.1173 Y-31.7340 F75.00
G01 X59.1295 Y-31.7426 F75.00
G01 X59.2121 Y-31.8087 F75.00
G01 X59.2229 Y-31.8190 F75.00
G01 X59.2330 Y-31.8300 F75.00
G01 X59.2392 Y-31.8378 F75.00
G01 X59.2478 Y-31.8501 F75.00
G01 X59.2554 Y-31.8630 F75.00
G01 X59.2600 Y-31.8718 F75.00
G01 X59.3034 Y-31.9627 F75.00
G01 X59.3071 Y-31.9720 F75.00
G01 X59.3117 Y-31.9862 F75.00
G01 X59.3152 Y-32.0008 F75.00
G01 X59.3169 Y-32.0106 F75.00
G01 X59.3186 Y-32.0255 F75.00
G01 X59.3192 Y-32.0404 F75.00
G01 X59.3192 Y-32.1312 F75.00
G01 X59.3186 Y-32.1461 F75.00
G01 X59.3161 Y-32.1659 F75.00
G01 X59.3117 Y-32.1854 F75.00
G01 X59.3071 Y-32.1996 F75.00
G01 X59.2993 Y-32.2180 F75.00
G01 X59.2595 Y-32.3007 F75.00
G01 X59.2549 Y-32.3096 F75.00
G01 X59.2498 Y-32.3182 F75.00
G01 X59.2444 Y-32.3266 F75.00
G01 X59.2354 Y-32.3386 F75.00
G01 X59.2136 Y-32.3633 F75.00
G01 X59.2059 Y-32.3715 F75.00
G01 X48.4015 Y-43.1759 F75.00
G01 X48.3868 Y-43.1892 F75.00
G01 X48.3748 Y-43.1983 F75.00
G01 X48.2855 Y-43.2547 F75.00
G01 X48.2725 Y-43.2617 F75.00
G01 X48.2591 Y-43.2678 F75.00
G01 X48.2406 Y-43.2743 F75.00
G01 X48.2264 Y-43.2780 F75.00
G01 X48.1399 Y-43.2928 F75.00
G01 X48.1303 Y-43.2937 F75.00
G01 X48.1159 Y-43.2942 F75.00
G01 X47.5861 Y-43.2942 F75.00
G01 X47.5712 Y-43.2936 F75.00
G01 X47.5563 Y-43.2920 F75.00
G01 X47.5465 Y-43.2902 F75.00
G01 X47.4483 Y-43.2678 F75.00
G01 X47.4339 Y-43.2636 F75.00
G01 X47.4245 Y-43.2602 F75.00
G01 X47.4153 Y-43.2563 F75.00
G01 X47.4020 Y-43.2496 F75.00
G01 X47.3891 Y-43.2420 F75.00
G01 X47.3768 Y-43.2334 F75.00
G01 X47.2943 Y-43.1673 F75.00
G01 X47.2834 Y-43.1570 F75.00
G01 X47.2734 Y-43.1459 F75.00
G01 X47.2642 Y-43.1341 F75.00
G01 X47.2534 Y-43.1174 F75.00
G01 X47.2464 Y-43.1042 F75.00
G01 X47.2049 Y-43.0178 F75.00
G01 X47.1993 Y-43.0040 F75.00
G01 X47.1961 Y-42.9945 F75.00
G01 X47.1912 Y-42.9752 F75.00
G01 X47.1882 Y-42.9555 F75.00
G01 X47.1872 Y-42.9356 F75.00
G01 X47.1873 Y-42.8398 F75.00
G01 X47.1882 Y-42.8249 F75.00
G01 X47.1903 Y-42.8101 F75.00
G01 X47.1947 Y-42.7906 F75.00
G01 X47.1993 Y-42.7764 F75.00
G01 X47.2029 Y-42.7671 F75.00
G01 X47.2464 Y-42.6762 F75.00
G01 X47.2522 Y-42.6651 F75.00
G01 X47.2602 Y-42.6521 F75.00
G01 X47.2661 Y-42.6437 F75.00
G01 X47.2863 Y-42.6192 F75.00
G01 X47.3941 Y-42.4433 F75.00
G01 X47.4730 Y-42.2527 F75.00
G01 X47.5212 Y-42.0521 F75.00
G01 X47.5374 Y-41.8465 F75.00
G01 X47.5212 Y-41.6409 F75.00
G01 X47.4730 Y-41.4403 F75.00
G01 X47.3941 Y-41.2497 F75.00
G01 X47.2863 Y-41.0738 F75.00
G01 X47.1523 Y-40.9170 F75.00
G01 X46.9955 Y-40.7830 F75.00
G01 X46.8196 Y-40.6752 F75.00
G01 X46.6290 Y-40.5963 F75.00
G01 X46.4284 Y-40.5481 F75.00
G01 X46.2228 Y-40.5319 F75.00
G01 X46.0172 Y-40.5481 F75.00
G01 X45.8166 Y-40.5963 F75.00
G01 X45.6260 Y-40.6752 F75.00
G01 X45.5022 Y-40.7511 F75.00
G01 X45.4936 Y-40.7561 F75.00
G01 X45.4802 Y-40.7628 F75.00
G01 X45.4616 Y-40.7701 F75.00
G01 X45.3709 Y-40.8006 F75.00
G01 X45.3515 Y-40.8056 F75.00
G01 X45.3318 Y-40.8086 F75.00
G01 X45.3119 Y-40.8096 F75.00
G01 X45.2920 Y-40.8086 F75.00
G01 X45.1920 Y-40.7962 F75.00
G01 X45.1773 Y-40.7935 F75.00
G01 X45.1676 Y-40.7910 F75.00
G01 X45.1581 Y-40.7881 F75.00
G01 X45.1441 Y-40.7828 F75.00
G01 X45.1305 Y-40.7765 F75.00
G01 X45.1175 Y-40.7692 F75.00
G01 X45.0369 Y-40.7174 F75.00
G01 X45.0247 Y-40.7088 F75.00
G01 X45.0094 Y-40.6960 F75.00
G01 X44.9954 Y-40.6818 F75.00
G01 X44.9860 Y-40.6702 F75.00
G01 X44.9747 Y-40.6538 F75.00
G01 X44.9248 Y-40.5722 F75.00
G01 X44.9159 Y-40.5550 F75.00
G01 X44.9104 Y-40.5416 F75.00
G01 X44.9045 Y-40.5232 F75.00
G01 X44.9013 Y-40.5090 F75.00
G01 X44.8890 Y-40.4344 F75.00
G01 X44.8876 Y-40.4206 F75.00
G01 X44.8872 Y-40.4113 F75.00
G01 X44.8871 Y-38.2961 F75.00
G01 X44.8767 Y-38.2303 F75.00
G01 X44.8724 Y-38.2126 F75.00
G01 X44.8702 Y-38.1978 F75.00
G01 X44.8615 Y-38.1024 F75.00
G01 X44.8607 Y-38.0831 F75.00
G01 X44.8613 Y-38.0686 F75.00
G01 X44.8638 Y-38.0495 F75.00
G01 X44.8761 Y-37.9954 F75.00
G01 X44.8866 Y-37.9292 F75.00
G01 X44.8866 Y-37.5427 F75.00
G01 X44.8766 Y-37.5427 F75.00
G01 X44.8765 Y-37.9176 F75.00
G01 X44.8756 Y-37.9323 F75.00
G01 X44.8737 Y-37.9469 F75.00
G01 X44.8706 Y-37.9613 F75.00
G01 X44.8665 Y-37.9754 F75.00
G01 X44.8632 Y-37.9847 F75.00
G01 X44.8574 Y-37.9982 F75.00
G01 X44.8506 Y-38.0113 F75.00
G01 X44.8429 Y-38.0238 F75.00
G01 X44.8343 Y-38.0357 F75.00
G01 X44.8248 Y-38.0470 F75.00
G01 X44.8180 Y-38.0541 F75.00
G01 X44.8072 Y-38.0641 F75.00
G01 X44.7957 Y-38.0733 F75.00
G01 X44.7836 Y-38.0817 F75.00
G01 X44.7709 Y-38.0891 F75.00
G01 X44.7576 Y-38.0955 F75.00
G01 X44.7440 Y-38.1010 F75.00
G01 X44.7299 Y-38.1055 F75.00
G01 X44.7204 Y-38.1078 F75.00
G01 X44.7059 Y-38.1105 F75.00
G01 X44.6913 Y-38.1122 F75.00
G01 X44.6766 Y-38.1127 F75.00
G01 X42.5366 Y-38.1127 F75.00
G01 X42.5219 Y-38.1122 F75.00
G01 X42.5024 Y-38.1098 F75.00
G01 X42.4833 Y-38.1055 F75.00
G01 X42.4646 Y-38.0993 F75.00
G01 X42.4511 Y-38.0935 F75.00
G01 X42.4338 Y-38.0842 F75.00
G01 X42.4175 Y-38.0733 F75.00
G01 X42.4060 Y-38.0641 F75.00
G01 X42.3918 Y-38.0506 F75.00
G01 X42.3789 Y-38.0357 F75.00
G01 X42.3676 Y-38.0197 F75.00
G01 X42.3602 Y-38.0070 F75.00
G01 X42.3518 Y-37.9892 F75.00
G01 X42.3467 Y-37.9754 F75.00
G01 X42.3415 Y-37.9565 F75.00
G01 X42.3381 Y-37.9372 F75.00
G01 X42.3367 Y-37.9176 F75.00
G01 X42.3367 Y-35.7678 F75.00
G01 X42.3381 Y-35.7482 F75.00
G01 X42.3415 Y-35.7289 F75.00
G01 X42.3467 Y-35.7100 F75.00
G01 X42.3538 Y-35.6917 F75.00
G01 X42.3626 Y-35.6741 F75.00
G01 X42.3731 Y-35.6575 F75.00
G01 X42.3852 Y-35.6421 F75.00
G01 X42.3987 Y-35.6279 F75.00
G01 X42.4136 Y-35.6150 F75.00
G01 X42.4296 Y-35.6037 F75.00
G01 X42.4467 Y-35.5941 F75.00
G01 X42.4601 Y-35.5879 F75.00
G01 X42.4739 Y-35.5828 F75.00
G01 X42.4928 Y-35.5776 F75.00
G01 X42.5121 Y-35.5742 F75.00
G01 X42.5317 Y-35.5728 F75.00
G01 X44.6766 Y-35.5727 F75.00
G01 X44.6962 Y-35.5737 F75.00
G01 X44.7156 Y-35.5765 F75.00
G01 X44.7252 Y-35.5787 F75.00
G01 X44.7393 Y-35.5828 F75.00
G01 X44.7531 Y-35.5879 F75.00
G01 X44.7665 Y-35.5941 F75.00
G01 X44.7794 Y-35.6012 F75.00
G01 X44.7918 Y-35.6092 F75.00
G01 X44.8035 Y-35.6181 F75.00
G01 X44.8109 Y-35.6245 F75.00
G01 X44.8214 Y-35.6348 F75.00
G01 X44.8312 Y-35.6458 F75.00
G01 X44.8372 Y-35.6536 F75.00
G01 X44.8456 Y-35.6657 F75.00
G01 X44.8530 Y-35.6784 F75.00
G01 X44.8574 Y-35.6872 F75.00
G01 X44.8632 Y-35.7007 F75.00
G01 X44.8680 Y-35.7146 F75.00
G01 X44.8717 Y-35.7289 F75.00
G01 X44.8737 Y-35.7385 F75.00
G01 X44.8756 Y-35.7531 F75.00
G01 X44.8765 Y-35.7678 F75.00
G01 X44.8766 Y-36.1427 F75.00
G01 X44.8866 Y-36.1427 F75.00
G01 X44.8866 Y-35.7562 F75.00
G01 X44.8761 Y-35.6900 F75.00
G01 X44.8724 Y-35.6742 F75.00
G01 X44.8702 Y-35.6594 F75.00
G01 X44.8611 Y-35.5592 F75.00
G01 X44.8608 Y-35.5399 F75.00
G01 X44.8623 Y-35.5207 F75.00
G01 X44.8657 Y-35.5016 F75.00
G01 X44.8739 Y-35.4660 F75.00
G01 X44.8767 Y-35.4551 F75.00
G01 X44.8871 Y-35.3893 F75.00
G01 X44.8873 Y-35.3572 F75.00
G01 X44.8881 Y-35.3473 F75.00
G01 X44.8901 Y-35.3325 F75.00
G01 X44.9123 Y-35.2342 F75.00
G01 X44.9148 Y-35.2245 F75.00
G01 X44.9194 Y-35.2103 F75.00
G01 X44.9250 Y-35.1964 F75.00
G01 X44.9317 Y-35.1830 F75.00
G01 X44.9393 Y-35.1702 F75.00
G01 X44.9449 Y-35.1619 F75.00
G01 X45.0075 Y-35.0830 F75.00
G01 X45.0207 Y-35.0681 F75.00
G01 X45.0316 Y-35.0577 F75.00
G01 X45.0431 Y-35.0483 F75.00
G01 X45.0554 Y-35.0397 F75.00
G01 X45.0727 Y-35.0297 F75.00
G01 X45.1633 Y-34.9861 F75.00
G01 X45.1812 Y-34.9790 F75.00
G01 X45.1996 Y-34.9737 F75.00
G01 X45.2090 Y-34.9717 F75.00
G01 X45.2233 Y-34.9696 F75.00
G01 X45.2687 Y-34.9645 F75.00
G01 X45.2821 Y-34.9634 F75.00
G01 X45.3328 Y-34.9634 F75.00
G01 X45.3535 Y-34.9642 F75.00
G01 X45.3860 Y-34.9669 F75.00
G01 X45.4510 Y-34.9581 F75.00
G01 X45.5198 Y-34.9506 F75.00
G01 X45.5848 Y-34.9267 F75.00
G01 X45.6556 Y-34.9028 F75.00
G01 X45.7185 Y-34.8627 F75.00
G01 X45.7778 Y-34.8269 F75.00
G01 X45.8269 Y-34.7780 F75.00
G01 X45.8823 Y-34.7253 F75.00
G01 X45.9005 Y-34.7046 F75.00
G01 X45.9066 Y-34.6982 F75.00
G01 X52.7463 Y-27.8585 F75.00
G01 X52.7610 Y-27.8452 F75.00
G01 X52.7771 Y-27.8333 F75.00
G01 X52.8581 Y-27.7823 F75.00
G01 X52.8666 Y-27.7773 F75.00
G01 X52.8797 Y-27.7706 F75.00
G01 X52.8932 Y-27.7648 F75.00
G01 X52.9025 Y-27.7615 F75.00
G01 X52.9166 Y-27.7575 F75.00
G01 X52.9262 Y-27.7554 F75.00
G01 X52.9984 Y-27.7430 F75.00
G01 X53.0175 Y-27.7407 F75.00
G01 X53.0319 Y-27.7402 F75.00
G01 X72.9863 Y-27.7402 F75.00
G01 X73.0151 Y-27.7412 F75.00
G01 X73.0476 Y-27.7439 F75.00
G01 X73.1126 Y-27.7351 F75.00
G01 X73.1814 Y-27.7276 F75.00
G01 X73.2464 Y-27.7037 F75.00
G01 X73.3172 Y-27.6798 F75.00
G01 X73.3801 Y-27.6397 F75.00
G01 X73.4394 Y-27.6039 F75.00
G01 X73.4885 Y-27.5550 F75.00
G01 X73.5439 Y-27.5023 F75.00
G01 X73.5621 Y-27.4816 F75.00
G01 X73.5682 Y-27.4752 F75.00
G01 X83.6995 Y-17.3439 F75.00
G01 X83.7205 Y-17.3243 F75.00
G01 X83.7453 Y-17.3032 F75.00
G01 X83.7852 Y-17.2510 F75.00
G01 X83.8285 Y-17.1971 F75.00
G01 X83.8599 Y-17.1294 F75.00
G01 X83.8907 Y-17.0673 F75.00
G01 X83.9068 Y-16.9944 F75.00
G01 X83.9235 Y-16.9272 F75.00
G01 X83.9235 Y-16.8607 F75.00
G01 X83.9241 Y-16.8349 F75.00
G01 X83.9250 Y-16.8199 F75.00
G01 X83.9271 Y-16.8051 F75.00
G01 X83.9303 Y-16.7905 F75.00
G01 X83.9529 Y-16.7026 F75.00
G01 X83.9571 Y-16.6882 F75.00
G01 X83.9624 Y-16.6743 F75.00
G01 X83.9688 Y-16.6607 F75.00
G01 X83.9736 Y-16.6520 F75.00
G01 X83.9816 Y-16.6393 F75.00
G01 X83.9874 Y-16.6312 F75.00
G01 X84.0521 Y-16.5540 F75.00
G01 X84.0657 Y-16.5394 F75.00
G01 X84.0768 Y-16.5294 F75.00
G01 X84.0887 Y-16.5203 F75.00
G01 X84.1012 Y-16.5120 F75.00
G01 X84.1142 Y-16.5048 F75.00
G01 X84.2060 Y-16.4633 F75.00
G01 X84.2199 Y-16.4577 F75.00
G01 X84.2293 Y-16.4545 F75.00
G01 X84.2486 Y-16.4497 F75.00
G01 X84.2682 Y-16.4467 F75.00
G01 X84.3180 Y-16.4420 F75.00
G01 X84.3496 Y-16.4418 F75.00
G01 X84.4154 Y-16.4314 F75.00
G01 X84.4331 Y-16.4271 F75.00
G01 X84.4528 Y-16.4243 F75.00
G01 X84.5481 Y-16.4158 F75.00
G01 X84.5674 Y-16.4155 F75.00
G01 X84.5819 Y-16.4165 F75.00
G01 X84.5962 Y-16.4185 F75.00
G01 X84.6503 Y-16.4308 F75.00
G01 X84.7165 Y-16.4413 F75.00
G01 X85.1030 Y-16.4413 F75.00
G01 X85.1030 Y-16.4313 F75.00
G01 X84.7281 Y-16.4312 F75.00
G01 X84.7134 Y-16.4303 F75.00
G01 X84.7037 Y-16.4291 F75.00
G01 X84.6892 Y-16.4264 F75.00
G01 X84.6797 Y-16.4241 F75.00
G01 X84.6703 Y-16.4212 F75.00
G01 X84.6565 Y-16.4161 F75.00
G01 X84.6475 Y-16.4121 F75.00
G01 X84.6344 Y-16.4053 F75.00
G01 X84.6219 Y-16.3976 F75.00
G01 X84.6100 Y-16.3890 F75.00
G01 X84.5987 Y-16.3795 F75.00
G01 X84.5916 Y-16.3727 F75.00
G01 X84.5816 Y-16.3619 F75.00
G01 X84.5724 Y-16.3504 F75.00
G01 X84.5640 Y-16.3383 F75.00
G01 X84.5590 Y-16.3299 F75.00
G01 X84.5522 Y-16.3168 F75.00
G01 X84.5482 Y-16.3078 F75.00
G01 X84.5431 Y-16.2940 F75.00
G01 X84.5390 Y-16.2799 F75.00
G01 X84.5359 Y-16.2655 F75.00
G01 X84.5345 Y-16.2558 F75.00
G01 X84.5332 Y-16.2411 F75.00
G01 X84.5330 Y-16.2313 F75.00
G01 X84.5330 Y-14.0913 F75.00
G01 X84.5335 Y-14.0766 F75.00
G01 X84.5352 Y-14.0620 F75.00
G01 X84.5379 Y-14.0475 F75.00
G01 X84.5416 Y-14.0332 F75.00
G01 X84.5464 Y-14.0193 F75.00
G01 X84.5544 Y-14.0014 F75.00
G01 X84.5615 Y-13.9885 F75.00
G01 X84.5695 Y-13.9761 F75.00
G01 X84.5784 Y-13.9644 F75.00
G01 X84.5882 Y-13.9534 F75.00
G01 X84.6024 Y-13.9399 F75.00
G01 X84.6139 Y-13.9307 F75.00
G01 X84.6260 Y-13.9223 F75.00
G01 X84.6387 Y-13.9149 F75.00
G01 X84.6520 Y-13.9085 F75.00
G01 X84.6656 Y-13.9030 F75.00
G01 X84.6797 Y-13.8985 F75.00
G01 X84.6940 Y-13.8951 F75.00
G01 X84.7085 Y-13.8928 F75.00
G01 X84.7281 Y-13.8914 F75.00
G01 X85.1030 Y-13.8913 F75.00
G01 X85.1030 Y-13.8813 F75.00
G01 X84.7165 Y-13.8813 F75.00
G01 X84.6503 Y-13.8918 F75.00
G01 X84.6345 Y-13.8955 F75.00
G01 X84.6197 Y-13.8978 F75.00
G01 X84.5243 Y-13.9064 F75.00
G01 X84.5099 Y-13.9072 F75.00
G01 X84.5002 Y-13.9071 F75.00
G01 X84.4857 Y-13.9061 F75.00
G01 X84.4714 Y-13.9041 F75.00
G01 X84.4263 Y-13.8940 F75.00
G01 X84.4154 Y-13.8912 F75.00
G01 X84.3496 Y-13.8808 F75.00
G01 X84.2415 Y-13.8808 F75.00
G01 X84.2266 Y-13.8802 F75.00
G01 X84.2166 Y-13.8792 F75.00
G01 X84.1970 Y-13.8758 F75.00
G01 X84.1085 Y-13.8556 F75.00
G01 X84.0940 Y-13.8517 F75.00
G01 X84.0753 Y-13.8449 F75.00
G01 X84.0617 Y-13.8386 F75.00
G01 X84.0487 Y-13.8313 F75.00
G01 X84.0322 Y-13.8200 F75.00
G01 X83.9497 Y-13.7539 F75.00
G01 X83.9424 Y-13.7472 F75.00
G01 X83.9320 Y-13.7363 F75.00
G01 X83.9196 Y-13.7207 F75.00
G01 X83.9113 Y-13.7083 F75.00
G01 X83.9018 Y-13.6908 F75.00
G01 X83.8604 Y-13.6046 F75.00
G01 X83.8533 Y-13.5867 F75.00
G01 X83.8492 Y-13.5729 F75.00
G01 X83.8452 Y-13.5541 F75.00
G01 X83.8388 Y-13.4992 F75.00
G01 X83.8377 Y-13.4858 F75.00
G01 X83.8377 Y-4.4558 F75.00
G01 X83.8391 Y-4.4409 F75.00
G01 X83.8415 Y-4.4262 F75.00
G01 X83.8627 Y-4.3328 F75.00
G01 X83.8681 Y-4.3136 F75.00
G01 X83.8715 Y-4.3042 F75.00
G01 X83.8775 Y-4.2905 F75.00
G01 X83.8870 Y-4.2730 F75.00
G01 X83.8925 Y-4.2646 F75.00
G01 X83.9013 Y-4.2526 F75.00
G01 X83.9611 Y-4.1777 F75.00
G01 X83.9711 Y-4.1667 F75.00
G01 X83.9820 Y-4.1563 F75.00
G01 X83.9935 Y-4.1469 F75.00
G01 X84.0016 Y-4.1411 F75.00
G01 X84.0143 Y-4.1331 F75.00
G01 X84.0231 Y-4.1283 F75.00
G01 X84.1093 Y-4.0867 F75.00
G01 X84.1181 Y-4.0828 F75.00
G01 X84.1316 Y-4.0776 F75.00
G01 X84.1500 Y-4.0723 F75.00
G01 X84.1689 Y-4.0688 F75.00
G01 X84.2280 Y-4.0623 F75.00
G01 X84.2370 Y-4.0618 F75.00
G01 X84.2636 Y-4.0618 F75.00
G01 X84.3129 Y-4.0540 F75.00
G01 X84.3723 Y-4.0237 F75.00
G01 X84.4194 Y-3.9766 F75.00
G01 X84.4497 Y-3.9172 F75.00
G01 X84.4575 Y-3.8679 F75.00
G01 X84.4575 Y-1.6947 F75.00
G01 X84.4497 Y-1.6454 F75.00
G01 X84.4194 Y-1.5860 F75.00
G01 X84.3723 Y-1.5389 F75.00
G01 X84.3129 Y-1.5086 F75.00
G01 X84.2636 Y-1.5008 F75.00
G01 X82.0904 Y-1.5008 F75.00
G01 X82.0243 Y-1.5113 F75.00
G01 X82.0077 Y-1.5152 F75.00
G01 X81.9929 Y-1.5175 F75.00
G01 X81.8975 Y-1.5261 F75.00
G01 X81.8782 Y-1.5269 F75.00
G01 X81.8589 Y-1.5259 F75.00
G01 X81.8446 Y-1.5238 F75.00
G01 X81.7994 Y-1.5138 F75.00
G01 X81.7896 Y-1.5113 F75.00
G01 X81.7236 Y-1.5008 F75.00
G01 X79.5504 Y-1.5008 F75.00
G01 X79.4843 Y-1.5113 F75.00
G01 X79.4677 Y-1.5152 F75.00
G01 X79.4529 Y-1.5175 F75.00
G01 X79.3575 Y-1.5261 F75.00
G01 X79.3382 Y-1.5269 F75.00
G01 X79.3237 Y-1.5263 F75.00
G01 X79.3046 Y-1.5238 F75.00
G01 X79.2594 Y-1.5138 F75.00
G01 X79.2496 Y-1.5113 F75.00
G01 X79.1836 Y-1.5008 F75.00
G01 X77.0104 Y-1.5008 F75.00
G01 X76.9443 Y-1.5113 F75.00
G01 X76.9277 Y-1.5152 F75.00
G01 X76.9129 Y-1.5175 F75.00
G01 X76.8175 Y-1.5261 F75.00
G01 X76.7982 Y-1.5269 F75.00
G01 X76.7789 Y-1.5259 F75.00
G01 X76.7646 Y-1.5238 F75.00
G01 X76.7194 Y-1.5138 F75.00
G01 X76.7096 Y-1.5113 F75.00
G01 X76.6436 Y-1.5008 F75.00
G01 X74.4704 Y-1.5008 F75.00
G01 X74.4043 Y-1.5113 F75.00
G01 X74.3877 Y-1.5152 F75.00
G01 X74.3729 Y-1.5175 F75.00
G01 X74.2775 Y-1.5261 F75.00
G01 X74.2582 Y-1.5269 F75.00
G01 X74.2437 Y-1.5263 F75.00
G01 X74.2246 Y-1.5238 F75.00
G01 X74.1794 Y-1.5138 F75.00
G01 X74.1696 Y-1.5113 F75.00
G01 X74.1036 Y-1.5008 F75.00
G01 X71.9304 Y-1.5008 F75.00
G01 X71.8643 Y-1.5113 F75.00
G01 X71.8477 Y-1.5152 F75.00
G01 X71.8329 Y-1.5175 F75.00
G01 X71.7375 Y-1.5261 F75.00
G01 X71.7182 Y-1.5269 F75.00
G01 X71.6989 Y-1.5259 F75.00
G01 X71.6846 Y-1.5238 F75.00
G01 X71.6394 Y-1.5138 F75.00
G01 X71.6296 Y-1.5113 F75.00
G01 X71.5636 Y-1.5008 F75.00
G01 X69.3904 Y-1.5008 F75.00
G01 X69.3243 Y-1.5113 F75.00
G01 X69.3077 Y-1.5152 F75.00
G01 X69.2929 Y-1.5175 F75.00
G01 X69.1975 Y-1.5261 F75.00
G01 X69.1782 Y-1.5269 F75.00
G01 X69.1637 Y-1.5263 F75.00
G01 X69.1446 Y-1.5238 F75.00
G01 X69.0994 Y-1.5138 F75.00
G01 X69.0896 Y-1.5113 F75.00
G01 X69.0236 Y-1.5008 F75.00
G01 X66.8504 Y-1.5008 F75.00
G01 X66.7843 Y-1.5113 F75.00
G01 X66.7677 Y-1.5152 F75.00
G01 X66.7529 Y-1.5175 F75.00
G01 X66.6575 Y-1.5261 F75.00
G01 X66.6382 Y-1.5269 F75.00
G01 X66.6189 Y-1.5259 F75.00
G01 X66.6046 Y-1.5238 F75.00
G01 X66.5594 Y-1.5138 F75.00
G01 X66.5496 Y-1.5113 F75.00
G01 X66.4836 Y-1.5008 F75.00
G01 X64.3104 Y-1.5008 F75.00
G01 X64.2611 Y-1.5086 F75.00
G01 X64.2017 Y-1.5389 F75.00
G01 X64.1546 Y-1.5860 F75.00
G01 X64.1243 Y-1.6454 F75.00
G01 X64.1165 Y-1.6947 F75.00
G01 X64.1165 Y-3.8679 F75.00
G01 X64.1243 Y-3.9172 F75.00
G01 X64.1546 Y-3.9766 F75.00
G01 X64.2017 Y-4.0237 F75.00
G01 X64.2611 Y-4.0540 F75.00
G01 X64.3104 Y-4.0618 F75.00
G01 X64.4235 Y-4.0619 F75.00
G01 X64.4384 Y-4.0628 F75.00
G01 X64.4532 Y-4.0648 F75.00
G01 X64.5515 Y-4.0870 F75.00
G01 X64.5707 Y-4.0924 F75.00
G01 X64.5847 Y-4.0977 F75.00
G01 X64.6027 Y-4.1064 F75.00
G01 X64.6155 Y-4.1140 F75.00
G01 X64.6278 Y-4.1226 F75.00
G01 X64.7027 Y-4.1822 F75.00
G01 X64.7140 Y-4.1920 F75.00
G01 X64.7246 Y-4.2026 F75.00
G01 X64.7344 Y-4.2139 F75.00
G01 X64.7432 Y-4.2259 F75.00
G01 X64.7512 Y-4.2386 F75.00
G01 X64.7582 Y-4.2518 F75.00
G01 X64.7976 Y-4.3336 F75.00
G01 X64.8034 Y-4.3468 F75.00
G01 X64.8082 Y-4.3604 F75.00
G01 X64.8120 Y-4.3743 F75.00
G01 X64.8155 Y-4.3932 F75.00
G01 X64.8212 Y-4.4434 F75.00
G01 X64.8223 Y-4.4568 F75.00
G01 X64.8225 Y-13.4768 F75.00
G01 X64.8215 Y-13.4967 F75.00
G01 X64.8185 Y-13.5164 F75.00
G01 X64.7973 Y-13.6098 F75.00
G01 X64.7934 Y-13.6243 F75.00
G01 X64.7902 Y-13.6337 F75.00
G01 X64.7846 Y-13.6476 F75.00
G01 X64.7803 Y-13.6566 F75.00
G01 X64.7703 Y-13.6738 F75.00
G01 X64.7617 Y-13.6861 F75.00
G01 X64.6989 Y-13.7649 F75.00
G01 X64.6923 Y-13.7723 F75.00
G01 X64.6817 Y-13.7829 F75.00
G01 X64.6704 Y-13.7927 F75.00
G01 X64.6584 Y-13.8015 F75.00
G01 X64.6500 Y-13.8070 F75.00
G01 X64.6369 Y-13.8143 F75.00
G01 X64.5463 Y-13.8579 F75.00
G01 X64.5284 Y-13.8650 F75.00
G01 X64.5100 Y-13.8703 F75.00
G01 X64.4911 Y-13.8738 F75.00
G01 X64.4364 Y-13.8800 F75.00
G01 X64.4230 Y-13.8807 F75.00
G01 X64.3964 Y-13.8808 F75.00
G01 X64.3303 Y-13.8913 F75.00
G01 X64.3137 Y-13.8952 F75.00
G01 X64.2989 Y-13.8975 F75.00
G01 X64.2035 Y-13.9061 F75.00
G01 X64.1891 Y-13.9069 F75.00
G01 X64.1746 Y-13.9066 F75.00
G01 X64.1553 Y-13.9046 F75.00
G01 X64.1411 Y-13.9019 F75.00
G01 X64.0956 Y-13.8913 F75.00
G01 X64.0296 Y-13.8808 F75.00
G01 X61.8564 Y-13.8808 F75.00
G01 X61.7903 Y-13.8913 F75.00
G01 X61.7737 Y-13.8952 F75.00
G01 X61.7589 Y-13.8975 F75.00
G01 X61.6635 Y-13.9061 F75.00
G01 X61.6442 Y-13.9069 F75.00
G01 X61.6297 Y-13.9063 F75.00
G01 X61.6106 Y-13.9038 F75.00
G01 X61.5654 Y-13.8938 F75.00
G01 X61.5556 Y-13.8913 F75.00
G01 X61.4896 Y-13.8808 F75.00
G01 X59.3164 Y-13.8808 F75.00
G01 X59.2503 Y-13.8913 F75.00
G01 X59.2337 Y-13.8952 F75.00
G01 X59.2189 Y-13.8975 F75.00
G01 X59.1187 Y-13.9065 F75.00
G01 X59.1091 Y-13.9069 F75.00
G01 X59.0946 Y-13.9066 F75.00
G01 X59.0801 Y-13.9053 F75.00
G01 X59.0706 Y-13.9038 F75.00
G01 X59.0254 Y-13.8938 F75.00
G01 X59.0156 Y-13.8913 F75.00
G01 X58.9496 Y-13.8808 F75.00
G01 X58.8619 Y-13.8807 F75.00
G01 X58.8470 Y-13.8798 F75.00
G01 X58.8322 Y-13.8778 F75.00
G01 X58.7242 Y-13.8531 F75.00
G01 X58.7053 Y-13.8468 F75.00
G01 X58.6871 Y-13.8386 F75.00
G01 X58.6741 Y-13.8313 F75.00
G01 X58.6576 Y-13.8200 F75.00
G01 X58.5827 Y-13.7604 F75.00
G01 X58.5678 Y-13.7472 F75.00
G01 X58.5542 Y-13.7325 F75.00
G01 X58.5422 Y-13.7167 F75.00
G01 X58.5318 Y-13.6996 F75.00
G01 X58.4839 Y-13.6002 F75.00
G01 X58.4803 Y-13.5913 F75.00
G01 X58.4758 Y-13.5776 F75.00
G01 X58.4734 Y-13.5683 F75.00
G01 X58.4706 Y-13.5541 F75.00
G01 X58.4637 Y-13.4947 F75.00
G01 X58.4629 Y-13.4768 F75.00
G01 X58.4629 Y-6.7454 F75.00
G01 X58.4649 Y-6.6662 F75.00
G01 X58.4631 Y-6.6386 F75.00
G01 X58.4629 Y-6.6298 F75.00
G01 X58.4631 Y-4.6844 F75.00
G01 X58.4645 Y-4.6695 F75.00
G01 X58.4669 Y-4.6548 F75.00
G01 X58.4881 Y-4.5614 F75.00
G01 X58.4935 Y-4.5422 F75.00
G01 X58.4988 Y-4.5282 F75.00
G01 X58.5029 Y-4.5191 F75.00
G01 X58.5099 Y-4.5059 F75.00
G01 X58.5151 Y-4.4974 F75.00
G01 X58.5267 Y-4.4812 F75.00
G01 X58.5865 Y-4.4063 F75.00
G01 X58.5965 Y-4.3953 F75.00
G01 X58.6074 Y-4.3849 F75.00
G01 X58.6189 Y-4.3755 F75.00
G01 X58.6270 Y-4.3697 F75.00
G01 X58.6397 Y-4.3617 F75.00
G01 X58.6485 Y-4.3569 F75.00
G01 X58.7347 Y-4.3153 F75.00
G01 X58.7435 Y-4.3114 F75.00
G01 X58.7570 Y-4.3062 F75.00
G01 X58.7754 Y-4.3009 F75.00
G01 X58.7943 Y-4.2974 F75.00
G01 X58.8534 Y-4.2909 F75.00
G01 X58.8624 Y-4.2904 F75.00
G01 X58.8890 Y-4.2904 F75.00
G01 X58.9383 Y-4.2826 F75.00
G01 X58.9977 Y-4.2523 F75.00
G01 X59.0448 Y-4.2052 F75.00
G01 X59.0751 Y-4.1458 F75.00
G01 X59.0829 Y-4.0965 F75.00
G01 X59.0829 Y-1.9233 F75.00
G01 X59.0751 Y-1.8740 F75.00
G01 X59.0448 Y-1.8146 F75.00
G01 X58.9977 Y-1.7675 F75.00
G01 X58.9383 Y-1.7372 F75.00
G01 X58.8890 Y-1.7294 F75.00
G01 X56.7158 Y-1.7294 F75.00
G01 X56.6500 Y-1.7398 F75.00
G01 X56.6323 Y-1.7441 F75.00
G01 X56.6175 Y-1.7464 F75.00
G01 X56.5221 Y-1.7550 F75.00
G01 X56.5028 Y-1.7558 F75.00
G01 X56.4835 Y-1.7547 F75.00
G01 X56.4692 Y-1.7527 F75.00
G01 X56.4150 Y-1.7404 F75.00
G01 X56.3489 Y-1.7299 F75.00
G01 X55.9624 Y-1.7299 F75.00
G01 X55.9624 Y-1.7399 F75.00
G01 X56.3373 Y-1.7400 F75.00
G01 X56.3520 Y-1.7409 F75.00
G01 X56.3617 Y-1.7421 F75.00
G01 X56.3762 Y-1.7448 F75.00
G01 X56.3857 Y-1.7471 F75.00
G01 X56.3998 Y-1.7516 F75.00
G01 X56.4134 Y-1.7571 F75.00
G01 X56.4267 Y-1.7635 F75.00
G01 X56.4352 Y-1.7684 F75.00
G01 X56.4435 Y-1.7736 F75.00
G01 X56.4554 Y-1.7822 F75.00
G01 X56.4667 Y-1.7917 F75.00
G01 X56.4738 Y-1.7985 F75.00
G01 X56.4806 Y-1.8056 F75.00
G01 X56.4901 Y-1.8169 F75.00
G01 X56.4987 Y-1.8288 F75.00
G01 X56.5064 Y-1.8413 F75.00
G01 X56.5110 Y-1.8500 F75.00
G01 X56.5172 Y-1.8634 F75.00
G01 X56.5223 Y-1.8772 F75.00
G01 X56.5264 Y-1.8913 F75.00
G01 X56.5286 Y-1.9009 F75.00
G01 X56.5309 Y-1.9154 F75.00
G01 X56.5319 Y-1.9252 F75.00
G01 X56.5324 Y-1.9399 F75.00
G01 X56.5324 Y-4.0799 F75.00
G01 X56.5314 Y-4.0995 F75.00
G01 X56.5295 Y-4.1141 F75.00
G01 X56.5264 Y-4.1285 F75.00
G01 X56.5223 Y-4.1426 F75.00
G01 X56.5172 Y-4.1564 F75.00
G01 X56.5110 Y-4.1698 F75.00
G01 X56.5039 Y-4.1827 F75.00
G01 X56.4959 Y-4.1951 F75.00
G01 X56.4870 Y-4.2068 F75.00
G01 X56.4772 Y-4.2178 F75.00
G01 X56.4667 Y-4.2281 F75.00
G01 X56.4554 Y-4.2376 F75.00
G01 X56.4394 Y-4.2489 F75.00
G01 X56.4267 Y-4.2563 F75.00
G01 X56.4134 Y-4.2627 F75.00
G01 X56.3998 Y-4.2682 F75.00
G01 X56.3857 Y-4.2727 F75.00
G01 X56.3714 Y-4.2761 F75.00
G01 X56.3569 Y-4.2784 F75.00
G01 X56.3373 Y-4.2798 F75.00
G01 X55.9624 Y-4.2799 F75.00
G01 X55.9624 Y-4.2899 F75.00
G01 X56.3489 Y-4.2899 F75.00
G01 X56.4151 Y-4.2794 F75.00
G01 X56.4309 Y-4.2757 F75.00
G01 X56.4456 Y-4.2735 F75.00
G01 X56.5410 Y-4.2648 F75.00
G01 X56.5603 Y-4.2640 F75.00
G01 X56.5748 Y-4.2646 F75.00
G01 X56.5940 Y-4.2671 F75.00
G01 X56.6391 Y-4.2772 F75.00
G01 X56.6500 Y-4.2800 F75.00
G01 X56.7158 Y-4.2904 F75.00
G01 X56.7479 Y-4.2906 F75.00
G01 X56.7677 Y-4.2926 F75.00
G01 X56.7824 Y-4.2954 F75.00
G01 X56.8806 Y-4.3181 F75.00
G01 X56.8948 Y-4.3227 F75.00
G01 X56.9041 Y-4.3263 F75.00
G01 X56.9176 Y-4.3326 F75.00
G01 X56.9264 Y-4.3374 F75.00
G01 X56.9349 Y-4.3426 F75.00
G01 X56.9472 Y-4.3512 F75.00
G01 X57.0297 Y-4.4172 F75.00
G01 X57.0406 Y-4.4276 F75.00
G01 X57.0538 Y-4.4425 F75.00
G01 X57.0626 Y-4.4545 F75.00
G01 X57.0706 Y-4.4672 F75.00
G01 X57.0776 Y-4.4804 F75.00
G01 X57.1170 Y-4.5622 F75.00
G01 X57.1228 Y-4.5754 F75.00
G01 X57.1276 Y-4.5890 F75.00
G01 X57.1325 Y-4.6076 F75.00
G01 X57.1349 Y-4.6218 F75.00
G01 X57.1406 Y-4.6720 F75.00
G01 X57.1417 Y-4.6854 F75.00
G01 X57.1419 Y-6.2901 F75.00
G01 X57.1409 Y-6.3100 F75.00
G01 X57.1397 Y-6.3199 F75.00
G01 X57.1369 Y-6.3346 F75.00
G01 X57.1155 Y-6.4279 F75.00
G01 X57.1114 Y-6.4420 F75.00
G01 X57.1043 Y-6.4603 F75.00
G01 X57.0954 Y-6.4778 F75.00
G01 X57.0876 Y-6.4903 F75.00
G01 X57.0424 Y-6.5539 F75.00
G01 X57.0365 Y-6.5615 F75.00
G01 X57.0269 Y-6.5723 F75.00
G01 X55.4719 Y-8.1274 F75.00
G01 X55.4607 Y-8.1372 F75.00
G01 X55.4446 Y-8.1491 F75.00
G01 X55.3594 Y-8.2027 F75.00
G01 X55.3508 Y-8.2075 F75.00
G01 X55.3376 Y-8.2139 F75.00
G01 X55.3239 Y-8.2193 F75.00
G01 X55.3145 Y-8.2223 F75.00
G01 X55.2955 Y-8.2270 F75.00
G01 X55.2233 Y-8.2394 F75.00
G01 X55.2042 Y-8.2417 F75.00
G01 X55.1898 Y-8.2422 F75.00
G01 X49.3338 Y-8.2421 F75.00
G01 X49.3189 Y-8.2412 F75.00
G01 X49.2992 Y-8.2382 F75.00
G01 X49.2010 Y-8.2158 F75.00
G01 X49.1914 Y-8.2131 F75.00
G01 X49.1773 Y-8.2082 F75.00
G01 X49.1681 Y-8.2043 F75.00
G01 X49.1547 Y-8.1976 F75.00
G01 X49.1418 Y-8.1900 F75.00
G01 X49.1296 Y-8.1814 F75.00
G01 X49.0470 Y-8.1153 F75.00
G01 X49.0327 Y-8.1014 F75.00
G01 X49.0230 Y-8.0901 F75.00
G01 X49.0141 Y-8.0781 F75.00
G01 X49.0061 Y-8.0654 F75.00
G01 X48.9991 Y-8.0522 F75.00
G01 X48.9576 Y-7.9658 F75.00
G01 X48.9504 Y-7.9473 F75.00
G01 X48.9450 Y-7.9281 F75.00
G01 X48.9415 Y-7.9085 F75.00
G01 X48.9400 Y-7.8886 F75.00
G01 X48.9402 Y-7.7828 F75.00
G01 X48.9422 Y-7.7630 F75.00
G01 X48.9450 Y-7.7483 F75.00
G01 X48.9504 Y-7.7291 F75.00
G01 X48.9557 Y-7.7151 F75.00
G01 X49.0036 Y-7.6156 F75.00
G01 X49.0137 Y-7.5990 F75.00
G01 X49.0223 Y-7.5872 F75.00
G01 X49.0285 Y-7.5797 F75.00
G01 X49.0350 Y-7.5725 F75.00
G01 X49.0455 Y-7.5624 F75.00
G01 X49.0951 Y-7.5177 F75.00
G01 X49.1097 Y-7.5058 F75.00
G01 X49.1213 Y-7.4978 F75.00
G01 X49.1821 Y-7.4589 F75.00
G01 X49.2460 Y-7.4203 F75.00
G01 X49.2951 Y-7.3714 F75.00
G01 X49.3505 Y-7.3187 F75.00
G01 X49.3687 Y-7.2980 F75.00
G01 X49.3748 Y-7.2916 F75.00
G01 X52.2577 Y-4.4087 F75.00
G01 X52.2724 Y-4.3953 F75.00
G01 X52.2885 Y-4.3835 F75.00
G01 X52.3737 Y-4.3299 F75.00
G01 X52.3911 Y-4.3208 F75.00
G01 X52.4046 Y-4.3150 F75.00
G01 X52.4186 Y-4.3103 F75.00
G01 X52.4376 Y-4.3056 F75.00
G01 X52.5146 Y-4.2925 F75.00
G01 X52.5337 Y-4.2906 F75.00
G01 X53.8090 Y-4.2904 F75.00
G01 X53.8748 Y-4.2800 F75.00
G01 X53.8925 Y-4.2757 F75.00
G01 X53.9073 Y-4.2735 F75.00
G01 X54.0027 Y-4.2648 F75.00
G01 X54.0220 Y-4.2640 F75.00
G01 X54.0365 Y-4.2646 F75.00
G01 X54.0556 Y-4.2671 F75.00
G01 X54.1097 Y-4.2794 F75.00
G01 X54.1759 Y-4.2899 F75.00
G01 X54.5624 Y-4.2899 F75.00
G01 X54.5624 Y-4.2799 F75.00
G01 X54.1875 Y-4.2798 F75.00
G01 X54.1777 Y-4.2794 F75.00
G01 X54.1631 Y-4.2777 F75.00
G01 X54.1486 Y-4.2750 F75.00
G01 X54.1391 Y-4.2727 F75.00
G01 X54.1250 Y-4.2682 F75.00
G01 X54.1159 Y-4.2647 F75.00
G01 X54.1069 Y-4.2607 F75.00
G01 X54.0938 Y-4.2539 F75.00
G01 X54.0813 Y-4.2462 F75.00
G01 X54.0694 Y-4.2376 F75.00
G01 X54.0618 Y-4.2313 F75.00
G01 X54.0510 Y-4.2213 F75.00
G01 X54.0442 Y-4.2142 F75.00
G01 X54.0347 Y-4.2029 F75.00
G01 X54.0261 Y-4.1910 F75.00
G01 X54.0184 Y-4.1785 F75.00
G01 X54.0138 Y-4.1698 F75.00
G01 X54.0076 Y-4.1564 F75.00
G01 X54.0025 Y-4.1426 F75.00
G01 X53.9984 Y-4.1285 F75.00
G01 X53.9953 Y-4.1141 F75.00
G01 X53.9939 Y-4.1044 F75.00
G01 X53.9929 Y-4.0946 F75.00
G01 X53.9924 Y-4.0799 F75.00
G01 X53.9924 Y-1.9399 F75.00
G01 X53.9934 Y-1.9203 F75.00
G01 X53.9953 Y-1.9057 F75.00
G01 X53.9984 Y-1.8913 F75.00
G01 X54.0025 Y-1.8772 F75.00
G01 X54.0076 Y-1.8634 F75.00
G01 X54.0138 Y-1.8500 F75.00
G01 X54.0209 Y-1.8371 F75.00
G01 X54.0289 Y-1.8247 F75.00
G01 X54.0378 Y-1.8130 F75.00
G01 X54.0476 Y-1.8020 F75.00
G01 X54.0581 Y-1.7917 F75.00
G01 X54.0694 Y-1.7822 F75.00
G01 X54.0813 Y-1.7736 F75.00
G01 X54.0938 Y-1.7659 F75.00
G01 X54.1114 Y-1.7571 F75.00
G01 X54.1250 Y-1.7516 F75.00
G01 X54.1438 Y-1.7459 F75.00
G01 X54.1582 Y-1.7428 F75.00
G01 X54.1728 Y-1.7409 F75.00
G01 X54.1875 Y-1.7400 F75.00
G01 X54.5624 Y-1.7399 F75.00
G01 X54.5624 Y-1.7299 F75.00
G01 X54.1759 Y-1.7299 F75.00
G01 X54.1097 Y-1.7404 F75.00
G01 X54.0939 Y-1.7441 F75.00
G01 X54.0791 Y-1.7464 F75.00
G01 X53.9837 Y-1.7550 F75.00
G01 X53.9644 Y-1.7558 F75.00
G01 X53.9500 Y-1.7552 F75.00
G01 X53.9308 Y-1.7527 F75.00
G01 X53.8857 Y-1.7426 F75.00
G01 X53.8748 Y-1.7398 F75.00
G01 X53.8090 Y-1.7294 F75.00
G01 X51.6358 Y-1.7294 F75.00
G01 X51.5865 Y-1.7372 F75.00
G01 X51.5271 Y-1.7675 F75.00
G01 X51.4800 Y-1.8146 F75.00
G01 X51.4497 Y-1.8740 F75.00
G01 X51.4419 Y-1.9233 F75.00
G01 X51.4418 Y-3.1940 F75.00
G01 X51.4409 Y-3.2089 F75.00
G01 X51.4379 Y-3.2286 F75.00
G01 X51.4143 Y-3.3315 F75.00
G01 X51.4098 Y-3.3455 F75.00
G01 X51.4043 Y-3.3592 F75.00
G01 X51.3978 Y-3.3724 F75.00
G01 X51.3876 Y-3.3892 F75.00
G01 X51.3424 Y-3.4528 F75.00
G01 X51.3334 Y-3.4641 F75.00
G01 X51.3236 Y-3.4746 F75.00
G01 X48.6809 Y-6.1173 F75.00
G01 X48.6662 Y-6.1306 F75.00
G01 X48.6501 Y-6.1425 F75.00
G01 X48.5691 Y-6.1935 F75.00
G01 X48.5606 Y-6.1985 F75.00
G01 X48.5475 Y-6.2052 F75.00
G01 X48.5340 Y-6.2110 F75.00
G01 X48.5247 Y-6.2143 F75.00
G01 X48.5153 Y-6.2171 F75.00
G01 X48.5010 Y-6.2204 F75.00
G01 X48.4240 Y-6.2335 F75.00
G01 X48.4097 Y-6.2351 F75.00
G01 X48.3953 Y-6.2356 F75.00
G01 X42.1855 Y-6.2356 F75.00
G01 X42.1567 Y-6.2346 F75.00
G01 X42.1242 Y-6.2319 F75.00
G01 X42.0591 Y-6.2407 F75.00
G01 X41.9904 Y-6.2482 F75.00
G01 X41.9203 Y-6.2739 F75.00
G01 X41.8546 Y-6.2960 F75.00
G01 X41.7963 Y-6.3333 F75.00
G01 X41.7324 Y-6.3719 F75.00
G01 X41.6794 Y-6.4246 F75.00
G01 X41.6279 Y-6.4735 F75.00
G01 X41.6097 Y-6.4942 F75.00
G01 X41.6036 Y-6.5006 F75.00
G01 X41.1635 Y-6.9407 F75.00
G01 X41.1425 Y-6.9602 F75.00
G01 X41.1176 Y-6.9814 F75.00
G01 X41.0778 Y-7.0336 F75.00
G01 X41.0345 Y-7.0875 F75.00
G01 X41.0054 Y-7.1503 F75.00
G01 X40.9723 Y-7.2173 F75.00
G01 X40.9574 Y-7.2849 F75.00
G01 X40.9395 Y-7.3574 F75.00
G01 X40.9394 Y-7.4321 F75.00
G01 X40.9375 Y-7.5031 F75.00
G01 X40.9393 Y-7.5307 F75.00
G01 X40.9395 Y-7.5395 F75.00
G01 X40.9394 Y-9.4066 F75.00
G01 X40.9379 Y-9.4264 F75.00
G01 X40.9355 Y-9.4412 F75.00
G01 X40.9143 Y-9.5346 F75.00
G01 X40.9090 Y-9.5535 F75.00
G01 X40.9056 Y-9.5627 F75.00
G01 X40.8998 Y-9.5762 F75.00
G01 X40.8905 Y-9.5935 F75.00
G01 X40.8824 Y-9.6058 F75.00
G01 X40.8400 Y-9.6654 F75.00
G01 X40.8310 Y-9.6767 F75.00
G01 X40.8245 Y-9.6838 F75.00
G01 X39.8445 Y-10.6639 F75.00
G01 X39.8298 Y-10.6772 F75.00
G01 X39.8178 Y-10.6863 F75.00
G01 X39.8095 Y-10.6918 F75.00
G01 X39.7285 Y-10.7427 F75.00
G01 X39.7155 Y-10.7497 F75.00
G01 X39.7021 Y-10.7558 F75.00
G01 X39.6836 Y-10.7623 F75.00
G01 X39.6646 Y-10.7670 F75.00
G01 X39.5876 Y-10.7801 F75.00
G01 X39.5733 Y-10.7817 F75.00
G01 X39.5589 Y-10.7822 F75.00
G01 X30.0511 Y-10.7822 F75.00
G01 X30.0312 Y-10.7812 F75.00
G01 X30.0115 Y-10.7782 F75.00
G01 X29.9181 Y-10.7570 F75.00
G01 X29.8989 Y-10.7516 F75.00
G01 X29.8849 Y-10.7463 F75.00
G01 X29.8758 Y-10.7422 F75.00
G01 X29.8583 Y-10.7327 F75.00
G01 X29.8499 Y-10.7272 F75.00
G01 X29.8379 Y-10.7184 F75.00
G01 X29.7630 Y-10.6586 F75.00
G01 X29.7520 Y-10.6486 F75.00
G01 X29.7416 Y-10.6377 F75.00
G01 X29.7292 Y-10.6221 F75.00
G01 X29.7236 Y-10.6139 F75.00
G01 X29.7160 Y-10.6010 F75.00
G01 X29.6720 Y-10.5104 F75.00
G01 X29.6645 Y-10.4927 F75.00
G01 X29.6600 Y-10.4790 F75.00
G01 X29.6565 Y-10.4650 F75.00
G01 X29.6541 Y-10.4508 F75.00
G01 X29.6476 Y-10.3917 F75.00
G01 X29.6471 Y-10.3827 F75.00
G01 X29.6471 Y-10.3561 F75.00
G01 X29.6366 Y-10.2900 F75.00
G01 X29.6327 Y-10.2734 F75.00
G01 X29.6304 Y-10.2586 F75.00
G01 X29.6218 Y-10.1633 F75.00
G01 X29.6210 Y-10.1488 F75.00
G01 X29.6216 Y-10.1295 F75.00
G01 X29.6233 Y-10.1151 F75.00
G01 X29.6260 Y-10.1008 F75.00
G01 X29.6366 Y-10.0553 F75.00
G01 X29.6471 Y-9.9893 F75.00
G01 X29.6472 Y-9.9622 F75.00
G01 X29.6477 Y-9.9523 F75.00
G01 X29.6487 Y-9.9423 F75.00
G01 X29.6511 Y-9.9276 F75.00
G01 X29.6735 Y-9.8293 F75.00
G01 X29.6794 Y-9.8103 F75.00
G01 X29.6871 Y-9.7919 F75.00
G01 X29.6966 Y-9.7744 F75.00
G01 X29.7079 Y-9.7579 F75.00
G01 X29.7707 Y-9.6791 F75.00
G01 X29.7807 Y-9.6681 F75.00
G01 X29.7954 Y-9.6545 F75.00
G01 X29.8112 Y-9.6425 F75.00
G01 X29.8239 Y-9.6345 F75.00
G01 X29.8371 Y-9.6275 F75.00
G01 X29.9233 Y-9.5861 F75.00
G01 X29.9366 Y-9.5806 F75.00
G01 X29.9503 Y-9.5761 F75.00
G01 X29.9643 Y-9.5726 F75.00
G01 X29.9785 Y-9.5702 F75.00
G01 X30.0332 Y-9.5640 F75.00
G01 X30.0511 Y-9.5632 F75.00
G01 X33.3450 Y-9.5632 F75.00
G01 X33.3738 Y-9.5642 F75.00
G01 X33.4063 Y-9.5669 F75.00
G01 X33.4713 Y-9.5581 F75.00
G01 X33.5401 Y-9.5506 F75.00
G01 X33.6051 Y-9.5267 F75.00
G01 X33.6759 Y-9.5028 F75.00
G01 X33.7388 Y-9.4627 F75.00
G01 X33.7981 Y-9.4269 F75.00
G01 X33.8472 Y-9.3780 F75.00
G01 X33.9026 Y-9.3253 F75.00
G01 X33.9208 Y-9.3046 F75.00
G01 X33.9269 Y-9.2982 F75.00
G01 X39.4110 Y-3.8141 F75.00
G01 X39.4257 Y-3.8008 F75.00
G01 X39.4377 Y-3.7917 F75.00
G01 X39.4460 Y-3.7862 F75.00
G01 X39.5270 Y-3.7353 F75.00
G01 X39.5400 Y-3.7283 F75.00
G01 X39.5579 Y-3.7204 F75.00
G01 X39.5719 Y-3.7157 F75.00
G01 X39.5909 Y-3.7110 F75.00
G01 X39.6679 Y-3.6979 F75.00
G01 X39.6774 Y-3.6967 F75.00
G01 X39.6918 Y-3.6959 F75.00
G01 X40.3445 Y-3.6958 F75.00
G01 X40.3644 Y-3.6968 F75.00
G01 X40.3792 Y-3.6988 F75.00
G01 X40.3890 Y-3.7008 F75.00
G01 X40.4824 Y-3.7222 F75.00
G01 X40.4967 Y-3.7264 F75.00
G01 X40.5107 Y-3.7317 F75.00
G01 X40.5243 Y-3.7380 F75.00
G01 X40.5330 Y-3.7428 F75.00
G01 X40.5498 Y-3.7536 F75.00
G01 X40.6326 Y-3.8194 F75.00
G01 X40.6472 Y-3.8330 F75.00
G01 X40.6604 Y-3.8479 F75.00
G01 X40.6720 Y-3.8641 F75.00
G01 X40.6796 Y-3.8770 F75.00
G01 X40.7256 Y-3.9720 F75.00
G01 X40.7311 Y-3.9853 F75.00
G01 X40.7342 Y-3.9944 F75.00
G01 X40.7391 Y-4.0130 F75.00
G01 X40.7415 Y-4.0272 F75.00
G01 X40.7480 Y-4.0863 F75.00
G01 X40.7485 Y-4.0953 F75.00
G01 X40.7485 Y-4.1219 F75.00
G01 X40.7563 Y-4.1712 F75.00
G01 X40.7866 Y-4.2306 F75.00
G01 X40.8337 Y-4.2777 F75.00
G01 X40.8931 Y-4.3080 F75.00
G01 X40.9424 Y-4.3158 F75.00
G01 X43.1156 Y-4.3158 F75.00
G01 X43.1817 Y-4.3053 F75.00
G01 X43.1983 Y-4.3014 F75.00
G01 X43.2131 Y-4.2991 F75.00
G01 X43.3084 Y-4.2905 F75.00
G01 X43.3278 Y-4.2897 F75.00
G01 X43.3471 Y-4.2907 F75.00
G01 X43.3614 Y-4.2928 F75.00
G01 X43.4066 Y-4.3028 F75.00
G01 X43.4164 Y-4.3053 F75.00
G01 X43.4824 Y-4.3158 F75.00
G01 X45.6556 Y-4.3158 F75.00
G01 X45.7049 Y-4.3080 F75.00
G01 X45.7643 Y-4.2777 F75.00
G01 X45.8114 Y-4.2306 F75.00
G01 X45.8417 Y-4.1712 F75.00
G01 X45.8495 Y-4.1219 F75.00
G01 X45.8497 Y-4.0898 F75.00
G01 X45.8505 Y-4.0799 F75.00
G01 X45.8525 Y-4.0651 F75.00
G01 X45.8759 Y-3.9619 F75.00
G01 X45.8801 Y-3.9476 F75.00
G01 X45.8874 Y-3.9290 F75.00
G01 X45.8965 Y-3.9113 F75.00
G01 X45.9073 Y-3.8945 F75.00
G01 X45.9731 Y-3.8117 F75.00
G01 X45.9831 Y-3.8007 F75.00
G01 X45.9978 Y-3.7871 F75.00
G01 X46.0136 Y-3.7751 F75.00
G01 X46.0263 Y-3.7671 F75.00
G01 X46.0395 Y-3.7601 F75.00
G01 X46.1213 Y-3.7207 F75.00
G01 X46.1345 Y-3.7149 F75.00
G01 X46.1436 Y-3.7116 F75.00
G01 X46.1620 Y-3.7063 F75.00
G01 X46.1762 Y-3.7035 F75.00
G01 X46.2356 Y-3.6966 F75.00
G01 X46.2535 Y-3.6958 F75.00
G01 X46.7287 Y-3.6958 F75.00
G01 X46.7436 Y-3.6964 F75.00
G01 X46.7585 Y-3.6980 F75.00
G01 X46.7683 Y-3.6998 F75.00
G01 X46.8617 Y-3.7210 F75.00
G01 X46.8756 Y-3.7247 F75.00
G01 X46.8936 Y-3.7312 F75.00
G01 X46.9067 Y-3.7372 F75.00
G01 X46.9194 Y-3.7441 F75.00
G01 X46.9315 Y-3.7519 F75.00
G01 X47.0058 Y-3.8089 F75.00
G01 X47.0139 Y-3.8154 F75.00
G01 X47.0216 Y-3.8224 F75.00
G01 X47.0289 Y-3.8297 F75.00
G01 X47.0359 Y-3.8374 F75.00
G01 X47.1447 Y-3.9648 F75.00
G01 X47.3015 Y-4.0988 F75.00
G01 X47.4774 Y-4.2066 F75.00
G01 X47.6680 Y-4.2855 F75.00
G01 X47.8685 Y-4.3337 F75.00
G01 X48.0742 Y-4.3499 F75.00
G01 X48.2798 Y-4.3337 F75.00
G01 X48.4804 Y-4.2855 F75.00
G01 X48.6710 Y-4.2066 F75.00
G01 X48.8469 Y-4.0988 F75.00
G01 X49.0037 Y-3.9648 F75.00
G01 X49.1377 Y-3.8080 F75.00
G01 X49.2455 Y-3.6321 F75.00
G01 X49.3244 Y-3.4415 F75.00
G01 X49.3726 Y-3.2409 F75.00
G01 X49.3888 Y-3.0353 F75.00
G01 X49.3726 Y-2.8297 F75.00
G01 X49.3244 Y-2.6291 F75.00
G01 X49.2455 Y-2.4385 F75.00
G01 X49.1377 Y-2.2626 F75.00
G01 X49.0037 Y-2.1058 F75.00
G01 X48.8469 Y-1.9718 F75.00
G01 X48.6710 Y-1.8640 F75.00
G01 X48.4804 Y-1.7851 F75.00
G01 X48.2798 Y-1.7369 F75.00
G01 X48.0742 Y-1.7207 F75.00
G01 X47.8686 Y-1.7369 F75.00
G01 X47.6680 Y-1.7851 F75.00
G01 X47.4774 Y-1.8640 F75.00
G01 X47.3015 Y-1.9718 F75.00
G01 X47.1447 Y-2.1058 F75.00
G01 X47.0359 Y-2.2332 F75.00
G01 X47.0257 Y-2.2442 F75.00
G01 X47.0185 Y-2.2511 F75.00
G01 X47.0031 Y-2.2638 F75.00
G01 X46.9264 Y-2.3208 F75.00
G01 X46.9102 Y-2.3311 F75.00
G01 X46.8975 Y-2.3378 F75.00
G01 X46.8843 Y-2.3435 F75.00
G01 X46.8661 Y-2.3497 F75.00
G01 X46.8521 Y-2.3532 F75.00
G01 X46.7699 Y-2.3705 F75.00
G01 X46.7545 Y-2.3731 F75.00
G01 X46.7442 Y-2.3742 F75.00
G01 X46.7287 Y-2.3748 F75.00
G01 X46.2535 Y-2.3748 F75.00
G01 X46.2386 Y-2.3742 F75.00
G01 X46.2237 Y-2.3726 F75.00
G01 X46.2139 Y-2.3708 F75.00
G01 X46.1156 Y-2.3484 F75.00
G01 X46.1060 Y-2.3457 F75.00
G01 X46.0919 Y-2.3408 F75.00
G01 X46.0782 Y-2.3348 F75.00
G01 X46.0650 Y-2.3278 F75.00
G01 X46.0523 Y-2.3198 F75.00
G01 X46.0403 Y-2.3110 F75.00
G01 X45.9693 Y-2.2544 F75.00
G01 X45.9580 Y-2.2446 F75.00
G01 X45.9440 Y-2.2303 F75.00
G01 X45.9346 Y-2.2188 F75.00
G01 X45.9260 Y-2.2065 F75.00
G01 X45.9160 Y-2.1892 F75.00
G01 X45.8724 Y-2.0986 F75.00
G01 X45.8669 Y-2.0853 F75.00
G01 X45.8624 Y-2.0716 F75.00
G01 X45.8589 Y-2.0576 F75.00
G01 X45.8559 Y-2.0386 F75.00
G01 X45.8500 Y-1.9843 F75.00
G01 X45.8495 Y-1.9753 F75.00
G01 X45.8495 Y-1.9487 F75.00
G01 X45.8417 Y-1.8994 F75.00
G01 X45.8114 Y-1.8400 F75.00
G01 X45.7643 Y-1.7929 F75.00
G01 X45.7049 Y-1.7626 F75.00
G01 X45.6556 Y-1.7548 F75.00
G01 X43.4824 Y-1.7548 F75.00
G01 X43.4163 Y-1.7653 F75.00
G01 X43.3997 Y-1.7692 F75.00
G01 X43.3849 Y-1.7715 F75.00
G01 X43.2895 Y-1.7801 F75.00
G01 X43.2702 Y-1.7809 F75.00
G01 X43.2557 Y-1.7803 F75.00
G01 X43.2366 Y-1.7778 F75.00
G01 X43.1914 Y-1.7678 F75.00
G01 X43.1816 Y-1.7653 F75.00
G01 X43.1156 Y-1.7548 F75.00
G01 X40.9424 Y-1.7548 F75.00
G01 X40.8931 Y-1.7626 F75.00
G01 X40.8337 Y-1.7929 F75.00
G01 X40.7866 Y-1.8400 F75.00
G01 X40.7563 Y-1.8994 F75.00
G01 X40.7485 Y-1.9487 F75.00
G01 X40.7483 Y-1.9808 F75.00
G01 X40.7475 Y-1.9907 F75.00
G01 X40.7455 Y-2.0055 F75.00
G01 X40.7221 Y-2.1087 F75.00
G01 X40.7179 Y-2.1230 F75.00
G01 X40.7145 Y-2.1324 F75.00
G01 X40.7106 Y-2.1416 F75.00
G01 X40.7039 Y-2.1550 F75.00
G01 X40.6990 Y-2.1636 F75.00
G01 X40.6907 Y-2.1761 F75.00
G01 X40.6281 Y-2.2550 F75.00
G01 X40.6183 Y-2.2663 F75.00
G01 X40.6040 Y-2.2803 F75.00
G01 X40.5925 Y-2.2897 F75.00
G01 X40.5760 Y-2.3010 F75.00
G01 X40.5585 Y-2.3105 F75.00
G01 X40.4767 Y-2.3499 F75.00
G01 X40.4679 Y-2.3538 F75.00
G01 X40.4544 Y-2.3590 F75.00
G01 X40.4360 Y-2.3643 F75.00
G01 X40.4171 Y-2.3678 F75.00
G01 X40.3624 Y-2.3740 F75.00
G01 X40.3445 Y-2.3748 F75.00
G01 X39.2990 Y-2.3748 F75.00
G01 X39.2702 Y-2.3738 F75.00
G01 X39.2377 Y-2.3711 F75.00
G01 X39.1726 Y-2.3799 F75.00
G01 X39.1039 Y-2.3874 F75.00
G01 X39.0337 Y-2.4131 F75.00
G01 X38.9681 Y-2.4352 F75.00
G01 X38.9052 Y-2.4754 F75.00
G01 X38.8459 Y-2.5111 F75.00
G01 X38.7929 Y-2.5638 F75.00
G01 X38.7414 Y-2.6127 F75.00
G01 X38.7232 Y-2.6334 F75.00
G01 X38.7171 Y-2.6398 F75.00
G01 X33.2330 Y-8.1239 F75.00
G01 X33.2183 Y-8.1372 F75.00
G01 X33.2022 Y-8.1491 F75.00
G01 X33.1170 Y-8.2027 F75.00
G01 X33.1040 Y-8.2097 F75.00
G01 X33.0952 Y-8.2139 F75.00
G01 X33.0861 Y-8.2176 F75.00
G01 X33.0721 Y-8.2223 F75.00
G01 X33.0531 Y-8.2270 F75.00
G01 X32.9761 Y-8.2401 F75.00
G01 X32.9618 Y-8.2417 F75.00
G01 X32.9474 Y-8.2422 F75.00
G01 X30.0511 Y-8.2422 F75.00
G01 X30.0312 Y-8.2412 F75.00
G01 X30.0213 Y-8.2400 F75.00
G01 X30.0066 Y-8.2372 F75.00
G01 X29.9132 Y-8.2158 F75.00
G01 X29.8942 Y-8.2099 F75.00
G01 X29.8758 Y-8.2022 F75.00
G01 X29.8583 Y-8.1927 F75.00
G01 X29.8458 Y-8.1844 F75.00
G01 X29.8379 Y-8.1784 F75.00
G01 X29.7630 Y-8.1186 F75.00
G01 X29.7520 Y-8.1086 F75.00
G01 X29.7416 Y-8.0977 F75.00
G01 X29.7322 Y-8.0862 F75.00
G01 X29.7264 Y-8.0781 F75.00
G01 X29.7209 Y-8.0697 F75.00
G01 X29.7136 Y-8.0566 F75.00
G01 X29.6720 Y-7.9704 F75.00
G01 X29.6662 Y-7.9572 F75.00
G01 X29.6629 Y-7.9481 F75.00
G01 X29.6576 Y-7.9297 F75.00
G01 X29.6541 Y-7.9108 F75.00
G01 X29.6476 Y-7.8517 F75.00
G01 X29.6471 Y-7.8427 F75.00
G01 X29.6471 Y-7.8161 F75.00
G01 X29.6393 Y-7.7668 F75.00
G01 X29.6090 Y-7.7074 F75.00
G01 X29.5619 Y-7.6603 F75.00
G01 X29.5025 Y-7.6300 F75.00
G01 X29.4532 Y-7.6222 F75.00
G01 X27.2800 Y-7.6222 F75.00
G01 X27.2307 Y-7.6300 F75.00
G01 X27.1713 Y-7.6603 F75.00
G01 X27.1242 Y-7.7074 F75.00
G01 X27.0939 Y-7.7668 F75.00
G01 X27.0861 Y-7.8161 F75.00
G01 X27.0861 Y-9.9893 F75.00
G01 X27.0966 Y-10.0554 F75.00
G01 X27.1005 Y-10.0720 F75.00
G01 X27.1028 Y-10.0868 F75.00
G01 X27.1114 Y-10.1822 F75.00
G01 X27.1122 Y-10.2015 F75.00
G01 X27.1112 Y-10.2208 F75.00
G01 X27.1091 Y-10.2351 F75.00
G01 X27.0991 Y-10.2802 F75.00
G01 X27.0966 Y-10.2901 F75.00
G01 X27.0861 Y-10.3561 F75.00
G01 X27.0861 Y-12.5293 F75.00
G01 X27.0966 Y-12.5954 F75.00
G01 X27.1005 Y-12.6120 F75.00
G01 X27.1028 Y-12.6268 F75.00
G01 X27.1118 Y-12.7270 F75.00
G01 X27.1122 Y-12.7415 F75.00
G01 X27.1116 Y-12.7560 F75.00
G01 X27.1099 Y-12.7704 F75.00
G01 X27.1082 Y-12.7799 F75.00
G01 X27.0966 Y-12.8301 F75.00
G01 X27.0861 Y-12.8961 F75.00
G01 X27.0859 Y-12.9282 F75.00
G01 X27.0851 Y-12.9381 F75.00
G01 X27.0831 Y-12.9529 F75.00
G01 X27.0609 Y-13.0512 F75.00
G01 X27.0555 Y-13.0704 F75.00
G01 X27.0482 Y-13.0890 F75.00
G01 X27.0391 Y-13.1067 F75.00
G01 X27.0311 Y-13.1194 F75.00
G01 X27.0253 Y-13.1275 F75.00
G01 X26.9657 Y-13.2024 F75.00
G01 X26.9559 Y-13.2137 F75.00
G01 X26.9453 Y-13.2243 F75.00
G01 X26.9340 Y-13.2341 F75.00
G01 X26.9220 Y-13.2429 F75.00
G01 X26.9093 Y-13.2509 F75.00
G01 X26.8961 Y-13.2579 F75.00
G01 X26.8143 Y-13.2973 F75.00
G01 X26.8011 Y-13.3031 F75.00
G01 X26.7875 Y-13.3079 F75.00
G01 X26.7689 Y-13.3128 F75.00
G01 X26.7547 Y-13.3152 F75.00
G01 X26.7045 Y-13.3209 F75.00
G01 X26.6911 Y-13.3220 F75.00
G01 X23.8596 Y-13.3222 F75.00
G01 X23.8397 Y-13.3212 F75.00
G01 X23.8200 Y-13.3182 F75.00
G01 X23.7266 Y-13.2970 F75.00
G01 X23.7124 Y-13.2932 F75.00
G01 X23.6985 Y-13.2883 F75.00
G01 X23.6850 Y-13.2825 F75.00
G01 X23.6677 Y-13.2732 F75.00
G01 X23.6554 Y-13.2651 F75.00
G01 X23.5996 Y-13.2256 F75.00
G01 X23.5919 Y-13.2198 F75.00
G01 X23.5809 Y-13.2105 F75.00
G01 X22.9318 Y-12.5617 F75.00
G01 X22.9185 Y-12.5470 F75.00
G01 X22.9066 Y-12.5309 F75.00
G01 X22.8556 Y-12.4499 F75.00
G01 X22.8506 Y-12.4414 F75.00
G01 X22.8439 Y-12.4283 F75.00
G01 X22.8381 Y-12.4148 F75.00
G01 X22.8334 Y-12.4008 F75.00
G01 X22.8287 Y-12.3818 F75.00
G01 X22.8163 Y-12.3096 F75.00
G01 X22.8140 Y-12.2905 F75.00
G01 X22.8135 Y-12.2761 F75.00
G01 X22.8137 Y-4.4558 F75.00
G01 X22.8151 Y-4.4409 F75.00
G01 X22.8175 Y-4.4262 F75.00
G01 X22.8387 Y-4.3328 F75.00
G01 X22.8441 Y-4.3136 F75.00
G01 X22.8475 Y-4.3042 F75.00
G01 X22.8535 Y-4.2905 F75.00
G01 X22.8605 Y-4.2773 F75.00
G01 X22.8657 Y-4.2688 F75.00
G01 X22.8773 Y-4.2526 F75.00
G01 X22.9371 Y-4.1777 F75.00
G01 X22.9471 Y-4.1667 F75.00
G01 X22.9580 Y-4.1563 F75.00
G01 X22.9656 Y-4.1499 F75.00
G01 X22.9776 Y-4.1411 F75.00
G01 X22.9860 Y-4.1356 F75.00
G01 X22.9991 Y-4.1283 F75.00
G01 X23.0853 Y-4.0867 F75.00
G01 X23.0985 Y-4.0809 F75.00
G01 X23.1076 Y-4.0776 F75.00
G01 X23.1260 Y-4.0723 F75.00
G01 X23.1449 Y-4.0688 F75.00
G01 X23.2040 Y-4.0623 F75.00
G01 X23.2130 Y-4.0618 F75.00
G01 X23.2396 Y-4.0618 F75.00
G01 X23.2889 Y-4.0540 F75.00
G01 X23.3483 Y-4.0237 F75.00
G01 X23.3954 Y-3.9766 F75.00
G01 X23.4257 Y-3.9172 F75.00
G01 X23.4335 Y-3.8679 F75.00
G01 X23.4335 Y-1.6947 F75.00
G01 X23.4257 Y-1.6454 F75.00
G01 X23.3954 Y-1.5860 F75.00
G01 X23.3483 Y-1.5389 F75.00
G01 X23.2889 Y-1.5086 F75.00
G01 X23.2396 Y-1.5008 F75.00
G01 X21.0664 Y-1.5008 F75.00
G01 X21.0003 Y-1.5113 F75.00
G01 X20.9837 Y-1.5152 F75.00
G01 X20.9689 Y-1.5175 F75.00
G01 X20.8735 Y-1.5261 F75.00
G01 X20.8542 Y-1.5269 F75.00
G01 X20.8349 Y-1.5259 F75.00
G01 X20.8206 Y-1.5238 F75.00
G01 X20.7754 Y-1.5138 F75.00
G01 X20.7656 Y-1.5113 F75.00
G01 X20.6996 Y-1.5008 F75.00
G01 X18.5264 Y-1.5008 F75.00
G01 X18.4603 Y-1.5113 F75.00
G01 X18.4437 Y-1.5152 F75.00
G01 X18.4289 Y-1.5175 F75.00
G01 X18.3335 Y-1.5261 F75.00
G01 X18.3142 Y-1.5269 F75.00
G01 X18.2949 Y-1.5259 F75.00
G01 X18.2806 Y-1.5238 F75.00
G01 X18.2354 Y-1.5138 F75.00
G01 X18.2256 Y-1.5113 F75.00
G01 X18.1596 Y-1.5008 F75.00
G01 X15.9864 Y-1.5008 F75.00
G01 X15.9203 Y-1.5113 F75.00
G01 X15.9037 Y-1.5152 F75.00
G01 X15.8889 Y-1.5175 F75.00
G01 X15.7935 Y-1.5261 F75.00
G01 X15.7742 Y-1.5269 F75.00
G01 X15.7597 Y-1.5263 F75.00
G01 X15.7406 Y-1.5238 F75.00
G01 X15.6954 Y-1.5138 F75.00
G01 X15.6856 Y-1.5113 F75.00
G01 X15.6196 Y-1.5008 F75.00
G01 X13.4464 Y-1.5008 F75.00
G01 X13.3803 Y-1.5113 F75.00
G01 X13.3637 Y-1.5152 F75.00
G01 X13.3489 Y-1.5175 F75.00
G01 X13.2535 Y-1.5261 F75.00
G01 X13.2342 Y-1.5269 F75.00
G01 X13.2197 Y-1.5263 F75.00
G01 X13.2006 Y-1.5238 F75.00
G01 X13.1554 Y-1.5138 F75.00
G01 X13.1456 Y-1.5113 F75.00
G01 X13.0796 Y-1.5008 F75.00
G01 X10.9064 Y-1.5008 F75.00
G01 X10.8403 Y-1.5113 F75.00
G01 X10.8237 Y-1.5152 F75.00
G01 X10.8089 Y-1.5175 F75.00
G01 X10.7135 Y-1.5261 F75.00
G01 X10.6942 Y-1.5269 F75.00
G01 X10.6797 Y-1.5263 F75.00
G01 X10.6606 Y-1.5238 F75.00
G01 X10.6154 Y-1.5138 F75.00
G01 X10.6056 Y-1.5113 F75.00
G01 X10.5396 Y-1.5008 F75.00
G01 X8.3664 Y-1.5008 F75.00
G01 X8.3003 Y-1.5113 F75.00
G01 X8.2837 Y-1.5152 F75.00
G01 X8.2689 Y-1.5175 F75.00
G01 X8.1735 Y-1.5261 F75.00
G01 X8.1542 Y-1.5269 F75.00
G01 X8.1397 Y-1.5263 F75.00
G01 X8.1206 Y-1.5238 F75.00
G01 X8.0754 Y-1.5138 F75.00
G01 X8.0656 Y-1.5113 F75.00
G01 X7.9996 Y-1.5008 F75.00
G01 X5.8264 Y-1.5008 F75.00
G01 X5.7603 Y-1.5113 F75.00
G01 X5.7437 Y-1.5152 F75.00
G01 X5.7289 Y-1.5175 F75.00
G01 X5.6335 Y-1.5261 F75.00
G01 X5.6142 Y-1.5269 F75.00
G01 X5.5949 Y-1.5259 F75.00
G01 X5.5806 Y-1.5238 F75.00
G01 X5.5354 Y-1.5138 F75.00
G01 X5.5256 Y-1.5113 F75.00
G01 X5.4596 Y-1.5008 F75.00
G01 X3.2864 Y-1.5008 F75.00
G01 X3.2371 Y-1.5086 F75.00
G01 X3.1777 Y-1.5389 F75.00
G01 X3.1306 Y-1.5860 F75.00
G01 X3.1003 Y-1.6454 F75.00
G01 X3.0925 Y-1.6947 F75.00
G01 X3.0925 Y-3.8679 F75.00
G00 Z2.0000
G00 X8.3830 Y-4.0513
G01 F45.00
G01 Z-0.1300
G01 F75.00
G01 X8.8028 Y-4.0513 F75.00
G01 X8.8028 Y-12.7219 F75.00
G01 X8.8059 Y-12.7807 F75.00
G01 X8.8153 Y-12.8439 F75.00
G01 X8.8308 Y-12.9058 F75.00
G01 X8.8523 Y-12.9658 F75.00
G01 X8.8796 Y-13.0235 F75.00
G01 X8.9124 Y-13.0782 F75.00
G01 X8.9504 Y-13.1295 F75.00
G01 X8.9865 Y-13.1697 F75.00
G01 X22.9589 Y-27.1425 F75.00
G01 X23.0062 Y-27.1853 F75.00
G01 X23.0534 Y-27.2206 F75.00
G01 X23.0657 Y-27.2286 F75.00
G01 X23.1036 Y-27.2513 F75.00
G01 X23.1210 Y-27.2606 F75.00
G01 X23.1701 Y-27.2835 F75.00
G01 X23.2299 Y-27.3049 F75.00
G01 X23.2823 Y-27.3183 F75.00
G01 X23.3015 Y-27.3221 F75.00
G01 X23.3550 Y-27.3298 F75.00
G01 X23.4138 Y-27.3329 F75.00
G01 X27.0966 Y-27.3329 F75.00
G01 X27.0967 Y-27.7576 F75.00
G01 X27.0976 Y-27.7723 F75.00
G01 X27.0995 Y-27.7869 F75.00
G01 X27.1015 Y-27.7965 F75.00
G01 X27.1052 Y-27.8108 F75.00
G01 X27.1100 Y-27.8247 F75.00
G01 X27.1158 Y-27.8382 F75.00
G01 X27.1226 Y-27.8513 F75.00
G01 X27.1303 Y-27.8638 F75.00
G01 X27.1389 Y-27.8757 F75.00
G01 X27.1484 Y-27.8870 F75.00
G01 X27.1587 Y-27.8975 F75.00
G01 X27.1736 Y-27.9104 F75.00
G01 X27.1855 Y-27.9190 F75.00
G01 X27.1980 Y-27.9267 F75.00
G01 X27.2111 Y-27.9335 F75.00
G01 X27.2292 Y-27.9410 F75.00
G01 X27.2433 Y-27.9455 F75.00
G01 X27.2624 Y-27.9498 F75.00
G01 X27.2770 Y-27.9517 F75.00
G01 X27.2917 Y-27.9526 F75.00
G01 X29.4366 Y-27.9527 F75.00
G01 X29.4513 Y-27.9522 F75.00
G01 X29.4611 Y-27.9512 F75.00
G01 X29.4756 Y-27.9489 F75.00
G01 X29.4852 Y-27.9467 F75.00
G01 X29.4993 Y-27.9426 F75.00
G01 X29.5086 Y-27.9393 F75.00
G01 X29.5221 Y-27.9335 F75.00
G01 X29.5352 Y-27.9267 F75.00
G01 X29.5477 Y-27.9190 F75.00
G01 X29.5596 Y-27.9104 F75.00
G01 X29.5709 Y-27.9009 F75.00
G01 X29.5780 Y-27.8941 F75.00
G01 X29.5880 Y-27.8833 F75.00
G01 X29.5943 Y-27.8757 F75.00
G01 X29.6029 Y-27.8638 F75.00
G01 X29.6106 Y-27.8513 F75.00
G01 X29.6174 Y-27.8382 F75.00
G01 X29.6232 Y-27.8247 F75.00
G01 X29.6280 Y-27.8108 F75.00
G01 X29.6306 Y-27.8013 F75.00
G01 X29.6344 Y-27.7820 F75.00
G01 X29.6356 Y-27.7723 F75.00
G01 X29.6365 Y-27.7576 F75.00
G01 X29.6366 Y-27.3329 F75.00
G01 X29.7991 Y-27.3329 F75.00
G01 X32.5498 Y-30.0836 F75.00
G01 X32.5498 Y-46.3408 F75.00
G01 X32.5522 Y-46.3947 F75.00
G01 X32.5541 Y-46.4143 F75.00
G01 X32.5621 Y-46.4669 F75.00
G01 X32.5763 Y-46.5245 F75.00
G01 X32.5809 Y-46.5389 F75.00
G01 X32.5995 Y-46.5902 F75.00
G01 X32.6221 Y-46.6385 F75.00
G01 X32.6314 Y-46.6558 F75.00
G01 X32.6600 Y-46.7030 F75.00
G01 X32.6913 Y-46.7455 F75.00
G01 X32.7014 Y-46.7580 F75.00
G01 X32.7402 Y-46.8005 F75.00
G01 X38.7541 Y-52.8145 F75.00
G01 X38.7998 Y-52.8560 F75.00
G01 X38.8092 Y-52.8634 F75.00
G01 X38.8447 Y-52.8897 F75.00
G01 X38.8540 Y-52.8962 F75.00
G01 X38.8989 Y-52.9233 F75.00
G01 X38.9083 Y-52.9286 F75.00
G01 X38.9561 Y-52.9515 F75.00
G01 X38.9680 Y-52.9566 F75.00
G01 X39.0244 Y-52.9767 F75.00
G01 X39.0346 Y-52.9795 F75.00
G01 X39.0869 Y-52.9924 F75.00
G01 X39.0967 Y-52.9941 F75.00
G01 X39.1504 Y-53.0018 F75.00
G01 X39.2139 Y-53.0049 F75.00
G01 X55.3752 Y-53.0049 F75.00
G01 X55.4291 Y-53.0025 F75.00
G01 X55.4487 Y-53.0006 F75.00
G01 X55.5021 Y-52.9924 F75.00
G01 X55.5545 Y-52.9795 F75.00
G01 X55.5733 Y-52.9738 F75.00
G01 X55.6240 Y-52.9554 F75.00
G01 X55.6729 Y-52.9326 F75.00
G01 X55.6860 Y-52.9258 F75.00
G01 X55.7364 Y-52.8953 F75.00
G01 X55.7800 Y-52.8634 F75.00
G01 X55.7951 Y-52.8509 F75.00
G01 X55.8350 Y-52.8145 F75.00
G01 X76.1062 Y-32.5432 F75.00
G01 X76.1456 Y-32.4994 F75.00
G01 X76.1780 Y-32.4562 F75.00
G01 X76.1889 Y-32.4399 F75.00
G01 X76.2164 Y-32.3934 F75.00
G01 X76.2398 Y-32.3447 F75.00
G01 X76.2473 Y-32.3266 F75.00
G01 X76.2652 Y-32.2757 F75.00
G01 X76.2797 Y-32.2186 F75.00
G01 X76.2824 Y-32.2041 F75.00
G01 X76.2901 Y-32.1506 F75.00
G01 X76.2932 Y-32.0918 F75.00
G01 X76.2932 Y-31.6713 F75.00
G01 X76.7130 Y-31.6713 F75.00
G01 X76.7326 Y-31.6703 F75.00
G01 X76.7520 Y-31.6675 F75.00
G01 X76.7663 Y-31.6641 F75.00
G01 X76.7757 Y-31.6612 F75.00
G01 X76.7850 Y-31.6579 F75.00
G01 X76.7985 Y-31.6521 F75.00
G01 X76.8073 Y-31.6477 F75.00
G01 X76.8200 Y-31.6403 F75.00
G01 X76.8321 Y-31.6319 F75.00
G01 X76.8399 Y-31.6259 F75.00
G01 X76.8509 Y-31.6161 F75.00
G01 X76.8578 Y-31.6092 F75.00
G01 X76.8676 Y-31.5982 F75.00
G01 X76.8736 Y-31.5904 F75.00
G01 X76.8820 Y-31.5783 F75.00
G01 X76.8870 Y-31.5699 F75.00
G01 X76.8938 Y-31.5568 F75.00
G01 X76.8978 Y-31.5478 F75.00
G01 X76.9044 Y-31.5294 F75.00
G01 X76.9092 Y-31.5103 F75.00
G01 X76.9120 Y-31.4909 F75.00
G01 X76.9130 Y-31.4713 F75.00
G01 X76.9129 Y-29.3264 F75.00
G01 X76.9115 Y-29.3068 F75.00
G01 X76.9081 Y-29.2875 F75.00
G01 X76.9029 Y-29.2686 F75.00
G01 X76.8958 Y-29.2503 F75.00
G01 X76.8870 Y-29.2327 F75.00
G01 X76.8765 Y-29.2161 F75.00
G01 X76.8644 Y-29.2007 F75.00
G01 X76.8509 Y-29.1865 F75.00
G01 X76.8360 Y-29.1736 F75.00
G01 X76.8200 Y-29.1623 F75.00
G01 X76.8029 Y-29.1527 F75.00
G01 X76.7850 Y-29.1447 F75.00
G01 X76.7663 Y-29.1385 F75.00
G01 X76.7520 Y-29.1351 F75.00
G01 X76.7326 Y-29.1323 F75.00
G01 X76.7130 Y-29.1313 F75.00
G01 X74.5681 Y-29.1314 F75.00
G01 X74.5485 Y-29.1328 F75.00
G01 X74.5340 Y-29.1351 F75.00
G01 X74.5197 Y-29.1385 F75.00
G01 X74.5010 Y-29.1447 F75.00
G01 X74.4831 Y-29.1527 F75.00
G01 X74.4660 Y-29.1623 F75.00
G01 X74.4539 Y-29.1707 F75.00
G01 X74.4387 Y-29.1831 F75.00
G01 X74.4248 Y-29.1970 F75.00
G01 X74.4124 Y-29.2122 F75.00
G01 X74.4015 Y-29.2285 F75.00
G01 X74.3922 Y-29.2458 F75.00
G01 X74.3847 Y-29.2639 F75.00
G01 X74.3816 Y-29.2732 F75.00
G01 X74.3779 Y-29.2875 F75.00
G01 X74.3745 Y-29.3068 F75.00
G01 X74.3731 Y-29.3264 F75.00
G01 X74.3730 Y-31.4713 F75.00
G01 X74.3740 Y-31.4909 F75.00
G01 X74.3768 Y-31.5103 F75.00
G01 X74.3802 Y-31.5246 F75.00
G01 X74.3847 Y-31.5387 F75.00
G01 X74.3902 Y-31.5523 F75.00
G01 X74.3944 Y-31.5612 F75.00
G01 X74.4015 Y-31.5741 F75.00
G01 X74.4095 Y-31.5865 F75.00
G01 X74.4184 Y-31.5982 F75.00
G01 X74.4282 Y-31.6092 F75.00
G01 X74.4387 Y-31.6195 F75.00
G01 X74.4461 Y-31.6259 F75.00
G01 X74.4578 Y-31.6348 F75.00
G01 X74.4702 Y-31.6428 F75.00
G01 X74.4831 Y-31.6499 F75.00
G01 X74.4965 Y-31.6561 F75.00
G01 X74.5103 Y-31.6612 F75.00
G01 X74.5244 Y-31.6653 F75.00
G01 X74.5437 Y-31.6691 F75.00
G01 X74.5583 Y-31.6708 F75.00
G01 X74.5681 Y-31.6712 F75.00
G01 X74.9928 Y-31.6713 F75.00
G01 X74.9928 Y-31.8176 F75.00
G01 X55.1059 Y-51.7045 F75.00
G01 X39.4833 Y-51.7045 F75.00
G01 X33.8502 Y-46.0715 F75.00
G01 X33.8502 Y-29.8143 F75.00
G01 X33.8478 Y-29.7604 F75.00
G01 X33.8459 Y-29.7408 F75.00
G01 X33.8377 Y-29.6874 F75.00
G01 X33.8222 Y-29.6255 F75.00
G01 X33.8043 Y-29.5746 F75.00
G01 X33.7968 Y-29.5565 F75.00
G01 X33.7734 Y-29.5078 F75.00
G01 X33.7406 Y-29.4531 F75.00
G01 X33.7026 Y-29.4018 F75.00
G01 X33.6598 Y-29.3545 F75.00
G01 X30.5282 Y-26.2229 F75.00
G01 X30.4809 Y-26.1801 F75.00
G01 X30.4377 Y-26.1477 F75.00
G01 X30.4214 Y-26.1368 F75.00
G01 X30.3749 Y-26.1093 F75.00
G01 X30.3262 Y-26.0859 F75.00
G01 X30.3081 Y-26.0784 F75.00
G01 X30.2572 Y-26.0605 F75.00
G01 X30.2048 Y-26.0471 F75.00
G01 X30.1904 Y-26.0441 F75.00
G01 X30.1321 Y-26.0356 F75.00
G01 X30.0733 Y-26.0325 F75.00
G01 X29.6366 Y-26.0325 F75.00
G01 X29.6366 Y-25.6127 F75.00
G01 X29.6364 Y-25.6029 F75.00
G01 X29.6351 Y-25.5882 F75.00
G01 X29.6317 Y-25.5689 F75.00
G01 X29.6294 Y-25.5594 F75.00
G01 X29.6249 Y-25.5453 F75.00
G01 X29.6194 Y-25.5317 F75.00
G01 X29.6130 Y-25.5184 F75.00
G01 X29.6081 Y-25.5099 F75.00
G01 X29.6001 Y-25.4975 F75.00
G01 X29.5943 Y-25.4897 F75.00
G01 X29.5848 Y-25.4784 F75.00
G01 X29.5780 Y-25.4713 F75.00
G01 X29.5672 Y-25.4613 F75.00
G01 X29.5557 Y-25.4521 F75.00
G01 X29.5477 Y-25.4464 F75.00
G01 X29.5352 Y-25.4387 F75.00
G01 X29.5221 Y-25.4319 F75.00
G01 X29.5131 Y-25.4279 F75.00
G01 X29.4993 Y-25.4228 F75.00
G01 X29.4852 Y-25.4187 F75.00
G01 X29.4708 Y-25.4156 F75.00
G01 X29.4562 Y-25.4137 F75.00
G01 X29.4366 Y-25.4127 F75.00
G01 X27.2966 Y-25.4127 F75.00
G01 X27.2819 Y-25.4132 F75.00
G01 X27.2721 Y-25.4142 F75.00
G01 X27.2576 Y-25.4165 F75.00
G01 X27.2480 Y-25.4187 F75.00
G01 X27.2339 Y-25.4228 F75.00
G01 X27.2246 Y-25.4261 F75.00
G01 X27.2111 Y-25.4319 F75.00
G01 X27.1980 Y-25.4387 F75.00
G01 X27.1855 Y-25.4464 F75.00
G01 X27.1736 Y-25.4550 F75.00
G01 X27.1623 Y-25.4645 F75.00
G01 X27.1552 Y-25.4713 F75.00
G01 X27.1452 Y-25.4821 F75.00
G01 X27.1389 Y-25.4897 F75.00
G01 X27.1303 Y-25.5016 F75.00
G01 X27.1226 Y-25.5141 F75.00
G01 X27.1158 Y-25.5272 F75.00
G01 X27.1100 Y-25.5407 F75.00
G01 X27.1052 Y-25.5546 F75.00
G01 X27.1026 Y-25.5641 F75.00
G01 X27.0988 Y-25.5834 F75.00
G01 X27.0976 Y-25.5931 F75.00
G01 X27.0967 Y-25.6078 F75.00
G01 X27.0966 Y-26.0325 F75.00
G01 X23.6880 Y-26.0325 F75.00
G01 X10.1032 Y-12.4477 F75.00
G01 X10.1032 Y-4.0513 F75.00
G01 X10.5279 Y-4.0512 F75.00
G01 X10.5475 Y-4.0498 F75.00
G01 X10.5572 Y-4.0484 F75.00
G01 X10.5716 Y-4.0453 F75.00
G01 X10.5811 Y-4.0427 F75.00
G01 X10.5950 Y-4.0379 F75.00
G01 X10.6085 Y-4.0321 F75.00
G01 X10.6216 Y-4.0253 F75.00
G01 X10.6300 Y-4.0203 F75.00
G01 X10.6421 Y-4.0119 F75.00
G01 X10.6536 Y-4.0027 F75.00
G01 X10.6644 Y-3.9927 F75.00
G01 X10.6744 Y-3.9819 F75.00
G01 X10.6836 Y-3.9704 F75.00
G01 X10.6920 Y-3.9583 F75.00
G01 X10.6970 Y-3.9499 F75.00
G01 X10.7038 Y-3.9368 F75.00
G01 X10.7096 Y-3.9233 F75.00
G01 X10.7144 Y-3.9094 F75.00
G01 X10.7181 Y-3.8951 F75.00
G01 X10.7215 Y-3.8758 F75.00
G01 X10.7225 Y-3.8660 F75.00
G01 X10.7230 Y-3.8513 F75.00
G01 X10.7229 Y-1.7064 F75.00
G01 X10.7215 Y-1.6868 F75.00
G01 X10.7181 Y-1.6675 F75.00
G01 X10.7129 Y-1.6486 F75.00
G01 X10.7058 Y-1.6303 F75.00
G01 X10.6970 Y-1.6127 F75.00
G01 X10.6920 Y-1.6043 F75.00
G01 X10.6836 Y-1.5922 F75.00
G01 X10.6712 Y-1.5770 F75.00
G01 X10.6573 Y-1.5631 F75.00
G01 X10.6421 Y-1.5507 F75.00
G01 X10.6258 Y-1.5398 F75.00
G01 X10.6129 Y-1.5327 F75.00
G01 X10.5950 Y-1.5247 F75.00
G01 X10.5811 Y-1.5199 F75.00
G01 X10.5620 Y-1.5151 F75.00
G01 X10.5426 Y-1.5123 F75.00
G01 X10.5279 Y-1.5114 F75.00
G01 X8.3830 Y-1.5113 F75.00
G01 X8.3634 Y-1.5123 F75.00
G01 X8.3440 Y-1.5151 F75.00
G01 X8.3249 Y-1.5199 F75.00
G01 X8.3110 Y-1.5247 F75.00
G01 X8.3020 Y-1.5285 F75.00
G01 X8.2844 Y-1.5373 F75.00
G01 X8.2760 Y-1.5423 F75.00
G01 X8.2639 Y-1.5507 F75.00
G01 X8.2487 Y-1.5631 F75.00
G01 X8.2348 Y-1.5770 F75.00
G01 X8.2224 Y-1.5922 F75.00
G01 X8.2140 Y-1.6043 F75.00
G01 X8.2044 Y-1.6214 F75.00
G01 X8.1964 Y-1.6393 F75.00
G01 X8.1902 Y-1.6580 F75.00
G01 X8.1868 Y-1.6723 F75.00
G01 X8.1845 Y-1.6868 F75.00
G01 X8.1831 Y-1.7064 F75.00
G01 X8.1832 Y-3.8611 F75.00
G01 X8.1845 Y-3.8758 F75.00
G01 X8.1879 Y-3.8951 F75.00
G01 X8.1931 Y-3.9140 F75.00
G01 X8.2002 Y-3.9323 F75.00
G01 X8.2090 Y-3.9499 F75.00
G01 X8.2195 Y-3.9665 F75.00
G01 X8.2316 Y-3.9819 F75.00
G01 X8.2451 Y-3.9961 F75.00
G01 X8.2600 Y-4.0090 F75.00
G01 X8.2760 Y-4.0203 F75.00
G01 X8.2887 Y-4.0277 F75.00
G01 X8.3065 Y-4.0361 F75.00
G01 X8.3249 Y-4.0427 F75.00
G01 X8.3440 Y-4.0475 F75.00
G01 X8.3634 Y-4.0503 F75.00
G01 X8.3830 Y-4.0513 F75.00
G00 Z2.0000
G00 X13.4630 Y-4.0513
G01 F45.00
G01 Z-0.1300
G01 F75.00
G01 X13.8828 Y-4.0513 F75.00
G01 X13.8828 Y-12.6924 F75.00
G01 X13.8859 Y-12.7512 F75.00
G01 X13.8953 Y-12.8144 F75.00
G01 X13.9108 Y-12.8763 F75.00
G01 X13.9323 Y-12.9363 F75.00
G01 X13.9596 Y-12.9940 F75.00
G01 X13.9924 Y-13.0487 F75.00
G01 X14.0304 Y-13.1000 F75.00
G01 X14.0665 Y-13.1402 F75.00
G01 X22.9884 Y-22.0625 F75.00
G01 X23.0357 Y-22.1053 F75.00
G01 X23.0829 Y-22.1406 F75.00
G01 X23.0952 Y-22.1486 F75.00
G01 X23.1331 Y-22.1713 F75.00
G01 X23.1505 Y-22.1806 F75.00
G01 X23.1996 Y-22.2035 F75.00
G01 X23.2594 Y-22.2249 F75.00
G01 X23.3118 Y-22.2383 F75.00
G01 X23.3310 Y-22.2421 F75.00
G01 X23.3845 Y-22.2498 F75.00
G01 X23.4433 Y-22.2529 F75.00
G01 X27.0966 Y-22.2529 F75.00
G01 X27.0967 Y-22.6776 F75.00
G01 X27.0976 Y-22.6923 F75.00
G01 X27.0995 Y-22.7069 F75.00
G01 X27.1015 Y-22.7165 F75.00
G01 X27.1052 Y-22.7308 F75.00
G01 X27.1100 Y-22.7447 F75.00
G01 X27.1158 Y-22.7582 F75.00
G01 X27.1226 Y-22.7713 F75.00
G01 X27.1303 Y-22.7838 F75.00
G01 X27.1389 Y-22.7957 F75.00
G01 X27.1484 Y-22.8070 F75.00
G01 X27.1587 Y-22.8175 F75.00
G01 X27.1736 Y-22.8304 F75.00
G01 X27.1855 Y-22.8390 F75.00
G01 X27.1980 Y-22.8467 F75.00
G01 X27.2111 Y-22.8535 F75.00
G01 X27.2292 Y-22.8610 F75.00
G01 X27.2433 Y-22.8655 F75.00
G01 X27.2624 Y-22.8698 F75.00
G01 X27.2770 Y-22.8717 F75.00
G01 X27.2917 Y-22.8726 F75.00
G01 X29.4366 Y-22.8727 F75.00
G01 X29.4513 Y-22.8722 F75.00
G01 X29.4611 Y-22.8712 F75.00
G01 X29.4756 Y-22.8689 F75.00
G01 X29.4852 Y-22.8667 F75.00
G01 X29.4993 Y-22.8626 F75.00
G01 X29.5086 Y-22.8593 F75.00
G01 X29.5221 Y-22.8535 F75.00
G01 X29.5352 Y-22.8467 F75.00
G01 X29.5477 Y-22.8390 F75.00
G01 X29.5596 Y-22.8304 F75.00
G01 X29.5709 Y-22.8209 F75.00
G01 X29.5780 Y-22.8141 F75.00
G01 X29.5880 Y-22.8033 F75.00
G01 X29.5943 Y-22.7957 F75.00
G01 X29.6029 Y-22.7838 F75.00
G01 X29.6106 Y-22.7713 F75.00
G01 X29.6174 Y-22.7582 F75.00
G01 X29.6232 Y-22.7447 F75.00
G01 X29.6280 Y-22.7308 F75.00
G01 X29.6306 Y-22.7213 F75.00
G01 X29.6344 Y-22.7020 F75.00
G01 X29.6356 Y-22.6923 F75.00
G01 X29.6365 Y-22.6776 F75.00
G01 X29.6366 Y-22.2529 F75.00
G01 X29.7991 Y-22.2529 F75.00
G01 X35.3498 Y-27.8036 F75.00
G01 X35.3498 Y-45.4356 F75.00
G01 X35.3522 Y-45.4895 F75.00
G01 X35.3530 Y-45.5006 F75.00
G01 X35.3606 Y-45.5527 F75.00
G01 X35.3625 Y-45.5638 F75.00
G01 X35.3775 Y-45.6232 F75.00
G01 X35.3957 Y-45.6752 F75.00
G01 X35.4016 Y-45.6897 F75.00
G01 X35.4262 Y-45.7413 F75.00
G01 X35.4541 Y-45.7885 F75.00
G01 X35.4650 Y-45.8048 F75.00
G01 X35.4913 Y-45.8403 F75.00
G01 X35.4983 Y-45.8492 F75.00
G01 X35.5402 Y-45.8953 F75.00
G01 X39.6594 Y-50.0145 F75.00
G01 X39.7060 Y-50.0568 F75.00
G01 X39.7545 Y-50.0930 F75.00
G01 X39.7662 Y-50.1006 F75.00
G01 X39.8112 Y-50.1274 F75.00
G01 X39.8214 Y-50.1326 F75.00
G01 X39.8614 Y-50.1515 F75.00
G01 X39.8795 Y-50.1590 F75.00
G01 X39.9300 Y-50.1768 F75.00
G01 X39.9891 Y-50.1918 F75.00
G01 X40.0020 Y-50.1941 F75.00
G01 X40.0547 Y-50.2017 F75.00
G01 X40.0652 Y-50.2025 F75.00
G01 X40.1192 Y-50.2049 F75.00
G01 X53.0952 Y-50.2049 F75.00
G01 X53.1491 Y-50.2025 F75.00
G01 X53.1687 Y-50.2006 F75.00
G01 X53.2221 Y-50.1924 F75.00
G01 X53.2745 Y-50.1795 F75.00
G01 X53.2933 Y-50.1738 F75.00
G01 X53.3440 Y-50.1554 F75.00
G01 X53.3929 Y-50.1326 F75.00
G01 X53.4060 Y-50.1258 F75.00
G01 X53.4564 Y-50.0953 F75.00
G01 X53.5000 Y-50.0634 F75.00
G01 X53.5151 Y-50.0509 F75.00
G01 X53.5550 Y-50.0145 F75.00
G01 X71.0262 Y-32.5432 F75.00
G01 X71.0656 Y-32.4994 F75.00
G01 X71.0980 Y-32.4562 F75.00
G01 X71.1089 Y-32.4399 F75.00
G01 X71.1364 Y-32.3934 F75.00
G01 X71.1598 Y-32.3447 F75.00
G01 X71.1673 Y-32.3266 F75.00
G01 X71.1852 Y-32.2757 F75.00
G01 X71.1997 Y-32.2186 F75.00
G01 X71.2024 Y-32.2041 F75.00
G01 X71.2101 Y-32.1506 F75.00
G01 X71.2132 Y-32.0918 F75.00
G01 X71.2132 Y-31.6713 F75.00
G01 X71.6330 Y-31.6713 F75.00
G01 X71.6526 Y-31.6703 F75.00
G01 X71.6720 Y-31.6675 F75.00
G01 X71.6863 Y-31.6641 F75.00
G01 X71.6957 Y-31.6612 F75.00
G01 X71.7140 Y-31.6541 F75.00
G01 X71.7273 Y-31.6477 F75.00
G01 X71.7358 Y-31.6428 F75.00
G01 X71.7441 Y-31.6376 F75.00
G01 X71.7560 Y-31.6290 F75.00
