(G-CODE GENERATED BY FLATCAM v8.994 - www.flatcam.org - Version Date: 2020/11/7)

(Name: Duel_Mux-Edge_Cuts.gbr_cutout_cnc)
(Type: G-code from Geometry)
(Units: MM)

(Created on Sunday, 07 April 2024 at 21:19)

(This preprocessor is used with a motion controller loaded with GRBL firmware.)
(It is configured to be compatible with almost any version of GRBL firmware.)

(TOOL DIAMETER: 0.5 mm)
(Feedrate_XY: 60.0 mm/min)
(Feedrate_Z: 60.0 mm/min)
(Feedrate rapids 1500.0 mm/min)

(Z_Cut: -2.5 mm)
(DepthPerCut: 0.5 mm <=>5 passes)
(Z_Move: 2.0 mm)
(Z Start: None mm)
(Z End: 15.0 mm)
(X,Y End: 0.0000, 0.0000 mm)
(Steps per circle: 64)
(Steps per circle: 64)
(Preprocessor Geometry: GRBL_11_no_M6)

(X range:   -0.4000 ...   96.4000  mm)
(Y range:  -62.9000 ...    0.4000  mm)

(Spindle Speed: 0.0 RPM)
G21
G90
G17
G94


G01 F60.00

M5             
G00 Z15.0000
G00 X0.0000 Y0.0000                
T1
(MSG, Change to Tool Dia = 0.5000)
M0
G00 Z15.0000
        
M03
G01 F60.00
G00 X-0.4000 Y-30.4000
G01 F60.00
G01 Z-0.5000
G01 F60.00
G01 X-0.4000 Y-0.0000 F60.00
G01 X-0.3994 Y0.0221 F60.00
G01 X-0.3960 Y0.0563 F60.00
G01 X-0.3874 Y0.0996 F60.00
G01 X-0.3758 Y0.1371 F60.00
G01 X-0.3620 Y0.1701 F60.00
G01 X-0.3443 Y0.2035 F60.00
G01 X-0.3215 Y0.2380 F60.00
G01 X-0.2947 Y0.2704 F60.00
G01 X-0.2698 Y0.2953 F60.00
G01 X-0.2402 Y0.3198 F60.00
G01 X-0.2077 Y0.3418 F60.00
G01 X-0.1688 Y0.3626 F60.00
G01 X-0.1362 Y0.3761 F60.00
G01 X-0.0996 Y0.3874 F60.00
G01 X-0.0563 Y0.3960 F60.00
G01 X-0.0221 Y0.3994 F60.00
G01 X0.0000 Y0.4000 F60.00
G01 X47.3500 Y0.4000 F60.00
G00 X47.3500 Y0.4000
G01 F60.00
G01 Z-1.0000
G01 F60.00
G01 X0.0000 Y0.4000 F60.00
G01 X-0.0221 Y0.3994 F60.00
G01 X-0.0563 Y0.3960 F60.00
G01 X-0.0996 Y0.3874 F60.00
G01 X-0.1362 Y0.3761 F60.00
G01 X-0.1688 Y0.3626 F60.00
G01 X-0.2077 Y0.3418 F60.00
G01 X-0.2402 Y0.3198 F60.00
G01 X-0.2698 Y0.2953 F60.00
G01 X-0.2947 Y0.2704 F60.00
G01 X-0.3215 Y0.2380 F60.00
G01 X-0.3443 Y0.2035 F60.00
G01 X-0.3620 Y0.1701 F60.00
G01 X-0.3758 Y0.1371 F60.00
G01 X-0.3874 Y0.0996 F60.00
G01 X-0.3960 Y0.0563 F60.00
G01 X-0.3994 Y0.0221 F60.00
G01 X-0.4000 Y-0.0000 F60.00
G01 X-0.4000 Y-30.4000 F60.00
G00 X-0.4000 Y-30.4000
G01 F60.00
G01 Z-1.5000
G01 F60.00
G01 X-0.4000 Y-0.0000 F60.00
G01 X-0.3994 Y0.0221 F60.00
G01 X-0.3960 Y0.0563 F60.00
G01 X-0.3874 Y0.0996 F60.00
G01 X-0.3758 Y0.1371 F60.00
G01 X-0.3620 Y0.1701 F60.00
G01 X-0.3443 Y0.2035 F60.00
G01 X-0.3215 Y0.2380 F60.00
G01 X-0.2947 Y0.2704 F60.00
G01 X-0.2698 Y0.2953 F60.00
G01 X-0.2402 Y0.3198 F60.00
G01 X-0.2077 Y0.3418 F60.00
G01 X-0.1688 Y0.3626 F60.00
G01 X-0.1362 Y0.3761 F60.00
G01 X-0.0996 Y0.3874 F60.00
G01 X-0.0563 Y0.3960 F60.00
G01 X-0.0221 Y0.3994 F60.00
G01 X0.0000 Y0.4000 F60.00
G01 X47.3500 Y0.4000 F60.00
G00 X47.3500 Y0.4000
G01 F60.00
G01 Z-2.0000
G01 F60.00
G01 X0.0000 Y0.4000 F60.00
G01 X-0.0221 Y0.3994 F60.00
G01 X-0.0563 Y0.3960 F60.00
G01 X-0.0996 Y0.3874 F60.00
G01 X-0.1362 Y0.3761 F60.00
G01 X-0.1688 Y0.3626 F60.00
G01 X-0.2077 Y0.3418 F60.00
G01 X-0.2402 Y0.3198 F60.00
G01 X-0.2698 Y0.2953 F60.00
G01 X-0.2947 Y0.2704 F60.00
G01 X-0.3215 Y0.2380 F60.00
G01 X-0.3443 Y0.2035 F60.00
G01 X-0.3620 Y0.1701 F60.00
G01 X-0.3758 Y0.1371 F60.00
G01 X-0.3874 Y0.0996 F60.00
G01 X-0.3960 Y0.0563 F60.00
G01 X-0.3994 Y0.0221 F60.00
G01 X-0.4000 Y-0.0000 F60.00
G01 X-0.4000 Y-30.4000 F60.00
G00 X-0.4000 Y-30.4000
G01 F60.00
G01 Z-2.5000
G01 F60.00
G01 X-0.4000 Y-0.0000 F60.00
G01 X-0.3994 Y0.0221 F60.00
G01 X-0.3960 Y0.0563 F60.00
G01 X-0.3874 Y0.0996 F60.00
G01 X-0.3758 Y0.1371 F60.00
G01 X-0.3620 Y0.1701 F60.00
G01 X-0.3443 Y0.2035 F60.00
G01 X-0.3215 Y0.2380 F60.00
G01 X-0.2947 Y0.2704 F60.00
G01 X-0.2698 Y0.2953 F60.00
G01 X-0.2402 Y0.3198 F60.00
G01 X-0.2077 Y0.3418 F60.00
G01 X-0.1688 Y0.3626 F60.00
G01 X-0.1362 Y0.3761 F60.00
G01 X-0.0996 Y0.3874 F60.00
G01 X-0.0563 Y0.3960 F60.00
G01 X-0.0221 Y0.3994 F60.00
G01 X0.0000 Y0.4000 F60.00
G01 X47.3500 Y0.4000 F60.00
G00 Z2.0000
G00 X48.8500 Y0.4000
G01 F60.00
G01 Z-0.5000
G01 F60.00
G01 X96.0000 Y0.4000 F60.00
G01 X96.0221 Y0.3994 F60.00
G01 X96.0563 Y0.3960 F60.00
G01 X96.0996 Y0.3874 F60.00
G01 X96.1371 Y0.3758 F60.00
G01 X96.1688 Y0.3626 F60.00
G01 X96.2077 Y0.3418 F60.00
G01 X96.2363 Y0.3227 F60.00
G01 X96.2668 Y0.2980 F60.00
G01 X96.2947 Y0.2704 F60.00
G01 X96.3198 Y0.2402 F60.00
G01 X96.3443 Y0.2035 F60.00
G01 X96.3605 Y0.1732 F60.00
G01 X96.3758 Y0.1371 F60.00
G01 X96.3874 Y0.0996 F60.00
G01 X96.3960 Y0.0563 F60.00
G01 X96.3994 Y0.0221 F60.00
G01 X96.4000 Y-0.0000 F60.00
G01 X96.4000 Y-30.4000 F60.00
G00 X96.4000 Y-30.4000
G01 F60.00
G01 Z-1.0000
G01 F60.00
G01 X96.4000 Y-0.0000 F60.00
G01 X96.3994 Y0.0221 F60.00
G01 X96.3960 Y0.0563 F60.00
G01 X96.3874 Y0.0996 F60.00
G01 X96.3758 Y0.1371 F60.00
G01 X96.3605 Y0.1732 F60.00
G01 X96.3443 Y0.2035 F60.00
G01 X96.3198 Y0.2402 F60.00
G01 X96.2947 Y0.2704 F60.00
G01 X96.2668 Y0.2980 F60.00
G01 X96.2363 Y0.3227 F60.00
G01 X96.2077 Y0.3418 F60.00
G01 X96.1688 Y0.3626 F60.00
G01 X96.1371 Y0.3758 F60.00
G01 X96.0996 Y0.3874 F60.00
G01 X96.0563 Y0.3960 F60.00
G01 X96.0221 Y0.3994 F60.00
G01 X96.0000 Y0.4000 F60.00
G01 X48.8500 Y0.4000 F60.00
G00 X48.8500 Y0.4000
G01 F60.00
G01 Z-1.5000
G01 F60.00
G01 X96.0000 Y0.4000 F60.00
G01 X96.0221 Y0.3994 F60.00
G01 X96.0563 Y0.3960 F60.00
G01 X96.0996 Y0.3874 F60.00
G01 X96.1371 Y0.3758 F60.00
G01 X96.1688 Y0.3626 F60.00
G01 X96.2077 Y0.3418 F60.00
G01 X96.2363 Y0.3227 F60.00
G01 X96.2668 Y0.2980 F60.00
G01 X96.2947 Y0.2704 F60.00
G01 X96.3198 Y0.2402 F60.00
G01 X96.3443 Y0.2035 F60.00
G01 X96.3605 Y0.1732 F60.00
G01 X96.3758 Y0.1371 F60.00
G01 X96.3874 Y0.0996 F60.00
G01 X96.3960 Y0.0563 F60.00
G01 X96.3994 Y0.0221 F60.00
G01 X96.4000 Y-0.0000 F60.00
G01 X96.4000 Y-30.4000 F60.00
G00 X96.4000 Y-30.4000
G01 F60.00
G01 Z-2.0000
G01 F60.00
G01 X96.4000 Y-0.0000 F60.00
G01 X96.3994 Y0.0221 F60.00
G01 X96.3960 Y0.0563 F60.00
G01 X96.3874 Y0.0996 F60.00
G01 X96.3758 Y0.1371 F60.00
G01 X96.3605 Y0.1732 F60.00
G01 X96.3443 Y0.2035 F60.00
G01 X96.3198 Y0.2402 F60.00
G01 X96.2947 Y0.2704 F60.00
G01 X96.2668 Y0.2980 F60.00
G01 X96.2363 Y0.3227 F60.00
G01 X96.2077 Y0.3418 F60.00
G01 X96.1688 Y0.3626 F60.00
G01 X96.1371 Y0.3758 F60.00
G01 X96.0996 Y0.3874 F60.00
G01 X96.0563 Y0.3960 F60.00
G01 X96.0221 Y0.3994 F60.00
G01 X96.0000 Y0.4000 F60.00
G01 X48.8500 Y0.4000 F60.00
G00 X48.8500 Y0.4000
G01 F60.00
G01 Z-2.5000
G01 F60.00
G01 X96.0000 Y0.4000 F60.00
G01 X96.0221 Y0.3994 F60.00
G01 X96.0563 Y0.3960 F60.00
G01 X96.0996 Y0.3874 F60.00
G01 X96.1371 Y0.3758 F60.00
G01 X96.1688 Y0.3626 F60.00
G01 X96.2077 Y0.3418 F60.00
G01 X96.2363 Y0.3227 F60.00
G01 X96.2668 Y0.2980 F60.00
G01 X96.2947 Y0.2704 F60.00
G01 X96.3198 Y0.2402 F60.00
G01 X96.3443 Y0.2035 F60.00
G01 X96.3605 Y0.1732 F60.00
G01 X96.3758 Y0.1371 F60.00
G01 X96.3874 Y0.0996 F60.00
G01 X96.3960 Y0.0563 F60.00
G01 X96.3994 Y0.0221 F60.00
G01 X96.4000 Y-0.0000 F60.00
G01 X96.4000 Y-30.4000 F60.00
G00 Z2.0000
G00 X96.4000 Y-31.9000
G01 F60.00
G01 Z-0.5000
G01 F60.00
G01 X96.4000 Y-62.5000 F60.00
G01 X96.3994 Y-62.5221 F60.00
G01 X96.3960 Y-62.5563 F60.00
G01 X96.3874 Y-62.5996 F60.00
G01 X96.3774 Y-62.6324 F60.00
G01 X96.3626 Y-62.6688 F60.00
G01 X96.3443 Y-62.7035 F60.00
G01 X96.3227 Y-62.7363 F60.00
G01 X96.2947 Y-62.7704 F60.00
G01 X96.2668 Y-62.7980 F60.00
G01 X96.2402 Y-62.8198 F60.00
G01 X96.2077 Y-62.8418 F60.00
G01 X96.1688 Y-62.8626 F60.00
G01 X96.1324 Y-62.8774 F60.00
G01 X96.0996 Y-62.8874 F60.00
G01 X96.0563 Y-62.8960 F60.00
G01 X96.0221 Y-62.8994 F60.00
G01 X96.0000 Y-62.9000 F60.00
G01 X48.8500 Y-62.9000 F60.00
G00 X48.8500 Y-62.9000
G01 F60.00
G01 Z-1.0000
G01 F60.00
G01 X96.0000 Y-62.9000 F60.00
G01 X96.0221 Y-62.8994 F60.00
G01 X96.0563 Y-62.8960 F60.00
G01 X96.0996 Y-62.8874 F60.00
G01 X96.1324 Y-62.8774 F60.00
G01 X96.1688 Y-62.8626 F60.00
G01 X96.2077 Y-62.8418 F60.00
G01 X96.2402 Y-62.8198 F60.00
G01 X96.2668 Y-62.7980 F60.00
G01 X96.2947 Y-62.7704 F60.00
G01 X96.3227 Y-62.7363 F60.00
G01 X96.3443 Y-62.7035 F60.00
G01 X96.3626 Y-62.6688 F60.00
G01 X96.3774 Y-62.6324 F60.00
G01 X96.3874 Y-62.5996 F60.00
G01 X96.3960 Y-62.5563 F60.00
G01 X96.3994 Y-62.5221 F60.00
G01 X96.4000 Y-62.5000 F60.00
G01 X96.4000 Y-31.9000 F60.00
G00 X96.4000 Y-31.9000
G01 F60.00
G01 Z-1.5000
G01 F60.00
G01 X96.4000 Y-62.5000 F60.00
G01 X96.3994 Y-62.5221 F60.00
G01 X96.3960 Y-62.5563 F60.00
G01 X96.3874 Y-62.5996 F60.00
G01 X96.3774 Y-62.6324 F60.00
G01 X96.3626 Y-62.6688 F60.00
G01 X96.3443 Y-62.7035 F60.00
G01 X96.3227 Y-62.7363 F60.00
G01 X96.2947 Y-62.7704 F60.00
G01 X96.2668 Y-62.7980 F60.00
G01 X96.2402 Y-62.8198 F60.00
G01 X96.2077 Y-62.8418 F60.00
G01 X96.1688 Y-62.8626 F60.00
G01 X96.1324 Y-62.8774 F60.00
G01 X96.0996 Y-62.8874 F60.00
G01 X96.0563 Y-62.8960 F60.00
G01 X96.0221 Y-62.8994 F60.00
G01 X96.0000 Y-62.9000 F60.00
G01 X48.8500 Y-62.9000 F60.00
G00 X48.8500 Y-62.9000
G01 F60.00
G01 Z-2.0000
G01 F60.00
G01 X96.0000 Y-62.9000 F60.00
G01 X96.0221 Y-62.8994 F60.00
G01 X96.0563 Y-62.8960 F60.00
G01 X96.0996 Y-62.8874 F60.00
G01 X96.1324 Y-62.8774 F60.00
G01 X96.1688 Y-62.8626 F60.00
G01 X96.2077 Y-62.8418 F60.00
G01 X96.2402 Y-62.8198 F60.00
G01 X96.2668 Y-62.7980 F60.00
G01 X96.2947 Y-62.7704 F60.00
G01 X96.3227 Y-62.7363 F60.00
G01 X96.3443 Y-62.7035 F60.00
G01 X96.3626 Y-62.6688 F60.00
G01 X96.3774 Y-62.6324 F60.00
G01 X96.3874 Y-62.5996 F60.00
G01 X96.3960 Y-62.5563 F60.00
G01 X96.3994 Y-62.5221 F60.00
G01 X96.4000 Y-62.5000 F60.00
G01 X96.4000 Y-31.9000 F60.00
G00 X96.4000 Y-31.9000
G01 F60.00
G01 Z-2.5000
G01 F60.00
G01 X96.4000 Y-62.5000 F60.00
G01 X96.3994 Y-62.5221 F60.00
G01 X96.3960 Y-62.5563 F60.00
G01 X96.3874 Y-62.5996 F60.00
G01 X96.3774 Y-62.6324 F60.00
G01 X96.3626 Y-62.6688 F60.00
G01 X96.3443 Y-62.7035 F60.00
G01 X96.3227 Y-62.7363 F60.00
G01 X96.2947 Y-62.7704 F60.00
G01 X96.2668 Y-62.7980 F60.00
G01 X96.2402 Y-62.8198 F60.00
G01 X96.2077 Y-62.8418 F60.00
G01 X96.1688 Y-62.8626 F60.00
G01 X96.1324 Y-62.8774 F60.00
G01 X96.0996 Y-62.8874 F60.00
G01 X96.0563 Y-62.8960 F60.00
G01 X96.0221 Y-62.8994 F60.00
G01 X96.0000 Y-62.9000 F60.00
G01 X48.8500 Y-62.9000 F60.00
G00 Z2.0000
G00 X47.3500 Y-62.9000
G01 F60.00
G01 Z-0.5000
G01 F60.00
G01 X0.0000 Y-62.9000 F60.00
G01 X-0.0221 Y-62.8994 F60.00
G01 X-0.0563 Y-62.8960 F60.00
G01 X-0.0996 Y-62.8874 F60.00
G01 X-0.1324 Y-62.8774 F60.00
G01 X-0.1688 Y-62.8626 F60.00
G01 X-0.2077 Y-62.8418 F60.00
G01 X-0.2402 Y-62.8198 F60.00
G01 X-0.2668 Y-62.7980 F60.00
G01 X-0.2947 Y-62.7704 F60.00
G01 X-0.3227 Y-62.7363 F60.00
G01 X-0.3443 Y-62.7035 F60.00
G01 X-0.3626 Y-62.6688 F60.00
G01 X-0.3758 Y-62.6371 F60.00
G01 X-0.3874 Y-62.5996 F60.00
G01 X-0.3960 Y-62.5563 F60.00
G01 X-0.3994 Y-62.5221 F60.00
G01 X-0.4000 Y-62.5000 F60.00
G01 X-0.4000 Y-31.9000 F60.00
G00 X-0.4000 Y-31.9000
G01 F60.00
G01 Z-1.0000
G01 F60.00
G01 X-0.4000 Y-62.5000 F60.00
G01 X-0.3994 Y-62.5221 F60.00
G01 X-0.3960 Y-62.5563 F60.00
G01 X-0.3874 Y-62.5996 F60.00
G01 X-0.3758 Y-62.6371 F60.00
G01 X-0.3626 Y-62.6688 F60.00
G01 X-0.3443 Y-62.7035 F60.00
G01 X-0.3227 Y-62.7363 F60.00
G01 X-0.2947 Y-62.7704 F60.00
G01 X-0.2668 Y-62.7980 F60.00
G01 X-0.2402 Y-62.8198 F60.00
G01 X-0.2077 Y-62.8418 F60.00
G01 X-0.1688 Y-62.8626 F60.00
G01 X-0.1324 Y-62.8774 F60.00
G01 X-0.0996 Y-62.8874 F60.00
G01 X-0.0563 Y-62.8960 F60.00
G01 X-0.0221 Y-62.8994 F60.00
G01 X0.0000 Y-62.9000 F60.00
G01 X47.3500 Y-62.9000 F60.00
G00 X47.3500 Y-62.9000
G01 F60.00
G01 Z-1.5000
G01 F60.00
G01 X0.0000 Y-62.9000 F60.00
G01 X-0.0221 Y-62.8994 F60.00
G01 X-0.0563 Y-62.8960 F60.00
G01 X-0.0996 Y-62.8874 F60.00
G01 X-0.1324 Y-62.8774 F60.00
G01 X-0.1688 Y-62.8626 F60.00
G01 X-0.2077 Y-62.8418 F60.00
G01 X-0.2402 Y-62.8198 F60.00
G01 X-0.2668 Y-62.7980 F60.00
G01 X-0.2947 Y-62.7704 F60.00
G01 X-0.3227 Y-62.7363 F60.00
G01 X-0.3443 Y-62.7035 F60.00
G01 X-0.3626 Y-62.6688 F60.00
G01 X-0.3758 Y-62.6371 F60.00
G01 X-0.3874 Y-62.5996 F60.00
G01 X-0.3960 Y-62.5563 F60.00
G01 X-0.3994 Y-62.5221 F60.00
G01 X-0.4000 Y-62.5000 F60.00
G01 X-0.4000 Y-31.9000 F60.00
G00 X-0.4000 Y-31.9000
G01 F60.00
G01 Z-2.0000
G01 F60.00
G01 X-0.4000 Y-62.5000 F60.00
G01 X-0.3994 Y-62.5221 F60.00
G01 X-0.3960 Y-62.5563 F60.00
G01 X-0.3874 Y-62.5996 F60.00
G01 X-0.3758 Y-62.6371 F60.00
G01 X-0.3626 Y-62.6688 F60.00
G01 X-0.3443 Y-62.7035 F60.00
G01 X-0.3227 Y-62.7363 F60.00
G01 X-0.2947 Y-62.7704 F60.00
G01 X-0.2668 Y-62.7980 F60.00
G01 X-0.2402 Y-62.8198 F60.00
G01 X-0.2077 Y-62.8418 F60.00
G01 X-0.1688 Y-62.8626 F60.00
G01 X-0.1324 Y-62.8774 F60.00
G01 X-0.0996 Y-62.8874 F60.00
G01 X-0.0563 Y-62.8960 F60.00
G01 X-0.0221 Y-62.8994 F60.00
G01 X0.0000 Y-62.9000 F60.00
G01 X47.3500 Y-62.9000 F60.00
G00 X47.3500 Y-62.9000
G01 F60.00
G01 Z-2.5000
G01 F60.00
G01 X0.0000 Y-62.9000 F60.00
G01 X-0.0221 Y-62.8994 F60.00
G01 X-0.0563 Y-62.8960 F60.00
G01 X-0.0996 Y-62.8874 F60.00
G01 X-0.1324 Y-62.8774 F60.00
G01 X-0.1688 Y-62.8626 F60.00
G01 X-0.2077 Y-62.8418 F60.00
G01 X-0.2402 Y-62.8198 F60.00
G01 X-0.2668 Y-62.7980 F60.00
G01 X-0.2947 Y-62.7704 F60.00
G01 X-0.3227 Y-62.7363 F60.00
G01 X-0.3443 Y-62.7035 F60.00
G01 X-0.3626 Y-62.6688 F60.00
G01 X-0.3758 Y-62.6371 F60.00
G01 X-0.3874 Y-62.5996 F60.00
G01 X-0.3960 Y-62.5563 F60.00
G01 X-0.3994 Y-62.5221 F60.00
G01 X-0.4000 Y-62.5000 F60.00
G01 X-0.4000 Y-31.9000 F60.00
G00 Z2.0000
G01 F120.00

M5             
G00 Z15.0000
G00 X0.0000 Y0.0000                
T9999
(MSG, Change to Tool Dia = 0.5000)
M0
G00 Z15.0000
        
M03
G01 F120.00
G00 X-0.4000 Y-30.4000
G01 F60.00
G01 Z-0.5000
G01 F120.00
G01 X-0.4000 Y-31.9000 F120.00
G00 X-0.4000 Y-31.9000
G01 F60.00
G01 Z-1.0000
G01 F120.00
G01 X-0.4000 Y-30.4000 F120.00
G00 Z2.0000
G00 X47.3500 Y0.4000
G01 F60.00
G01 Z-0.5000
G01 F120.00
G01 X48.8500 Y0.4000 F120.00
G00 X48.8500 Y0.4000
G01 F60.00
G01 Z-1.0000
G01 F120.00
G01 X47.3500 Y0.4000 F120.00
G00 Z2.0000
G00 X96.4000 Y-30.4000
G01 F60.00
G01 Z-0.5000
G01 F120.00
G01 X96.4000 Y-31.9000 F120.00
G00 X96.4000 Y-31.9000
G01 F60.00
G01 Z-1.0000
G01 F120.00
G01 X96.4000 Y-30.4000 F120.00
G00 Z2.0000
G00 X48.8500 Y-62.9000
G01 F60.00
G01 Z-0.5000
G01 F120.00
G01 X47.3500 Y-62.9000 F120.00
G00 X47.3500 Y-62.9000
G01 F60.00
G01 Z-1.0000
G01 F120.00
G01 X48.8500 Y-62.9000 F120.00
G00 Z2.0000
M05
G00 Z2.0000
G00 Z15.00
G00 X0.0 Y0.0


