(G-CODE GENERATED BY FLATCAM v8.994 - www.flatcam.org - Version Date: 2020/11/7)

(Name: Duel_Mux.drl_mill_cnc)
(Type: G-code from Geometry)
(Units: MM)

(Created on Sunday, 07 April 2024 at 18:13)

(This preprocessor is used with a motion controller loaded with GRBL firmware.)
(It is configured to be compatible with almost any version of GRBL firmware.)

(TOOL DIAMETER: 0.5 mm)
(Feedrate_XY: 60.0 mm/min)
(Feedrate_Z: 60.0 mm/min)
(Feedrate rapids 1500.0 mm/min)

(Z_Cut: -2.5 mm)
(DepthPerCut: 0.5 mm <=>5 passes)
(Z_Move: 2.0 mm)
(Z Start: None mm)
(Z End: 15.0 mm)
(X,Y End: 0.0000, 0.0000 mm)
(Steps per circle: 64)
(Steps per circle: 64)
(Preprocessor Geometry: GRBL_11_no_M6)

(X range:    1.9045 ...   94.1365  mm)
(Y range:  -52.5140 ...   -2.5310  mm)

(Spindle Speed: 0.0 RPM)
G21
G90
G17
G94


G01 F60.00

M5             
G00 Z15.0000
G00 X0.0000 Y0.0000                
T1
(MSG, Change to Tool Dia = 0.5000)
M0
G00 Z15.0000
        
M03
G01 F60.00
G00 X4.6230 Y-2.7810
G01 F60.00
G01 Z-0.5000
G01 F60.00
G01 X4.6218 Y-2.8055 F60.00
G01 X4.6182 Y-2.8298 F60.00
G01 X4.6122 Y-2.8536 F60.00
G01 X4.6040 Y-2.8767 F60.00
G01 X4.5935 Y-2.8988 F60.00
G01 X4.5809 Y-2.9199 F60.00
G01 X4.5663 Y-2.9396 F60.00
G01 X4.5498 Y-2.9578 F60.00
G01 X4.5316 Y-2.9743 F60.00
G01 X4.5119 Y-2.9889 F60.00
G01 X4.4908 Y-3.0015 F60.00
G01 X4.4687 Y-3.0120 F60.00
G01 X4.4456 Y-3.0202 F60.00
G01 X4.4218 Y-3.0262 F60.00
G01 X4.3975 Y-3.0298 F60.00
G01 X4.3730 Y-3.0310 F60.00
G01 X4.3485 Y-3.0298 F60.00
G01 X4.3242 Y-3.0262 F60.00
G01 X4.3004 Y-3.0202 F60.00
G01 X4.2773 Y-3.0120 F60.00
G01 X4.2552 Y-3.0015 F60.00
G01 X4.2341 Y-2.9889 F60.00
G01 X4.2144 Y-2.9743 F60.00
G01 X4.1962 Y-2.9578 F60.00
G01 X4.1797 Y-2.9396 F60.00
G01 X4.1651 Y-2.9199 F60.00
G01 X4.1525 Y-2.8988 F60.00
G01 X4.1420 Y-2.8767 F60.00
G01 X4.1338 Y-2.8536 F60.00
G01 X4.1278 Y-2.8298 F60.00
G01 X4.1242 Y-2.8055 F60.00
G01 X4.1230 Y-2.7810 F60.00
G01 X4.1242 Y-2.7565 F60.00
G01 X4.1278 Y-2.7322 F60.00
G01 X4.1338 Y-2.7084 F60.00
G01 X4.1420 Y-2.6853 F60.00
G01 X4.1525 Y-2.6632 F60.00
G01 X4.1651 Y-2.6421 F60.00
G01 X4.1797 Y-2.6224 F60.00
G01 X4.1962 Y-2.6042 F60.00
G01 X4.2144 Y-2.5877 F60.00
G01 X4.2341 Y-2.5731 F60.00
G01 X4.2552 Y-2.5605 F60.00
G01 X4.2773 Y-2.5500 F60.00
G01 X4.3004 Y-2.5418 F60.00
G01 X4.3242 Y-2.5358 F60.00
G01 X4.3485 Y-2.5322 F60.00
G01 X4.3730 Y-2.5310 F60.00
G01 X4.3975 Y-2.5322 F60.00
G01 X4.4218 Y-2.5358 F60.00
G01 X4.4456 Y-2.5418 F60.00
G01 X4.4687 Y-2.5500 F60.00
G01 X4.4908 Y-2.5605 F60.00
G01 X4.5119 Y-2.5731 F60.00
G01 X4.5316 Y-2.5877 F60.00
G01 X4.5498 Y-2.6042 F60.00
G01 X4.5663 Y-2.6224 F60.00
G01 X4.5809 Y-2.6421 F60.00
G01 X4.5935 Y-2.6632 F60.00
G01 X4.6040 Y-2.6853 F60.00
G01 X4.6122 Y-2.7084 F60.00
G01 X4.6182 Y-2.7322 F60.00
G01 X4.6218 Y-2.7565 F60.00
G01 X4.6230 Y-2.7810 F60.00
G00 X4.6230 Y-2.7810
G01 F60.00
G01 Z-1.0000
G01 F60.00
G01 X4.6218 Y-2.8055 F60.00
G01 X4.6182 Y-2.8298 F60.00
G01 X4.6122 Y-2.8536 F60.00
G01 X4.6040 Y-2.8767 F60.00
G01 X4.5935 Y-2.8988 F60.00
G01 X4.5809 Y-2.9199 F60.00
G01 X4.5663 Y-2.9396 F60.00
G01 X4.5498 Y-2.9578 F60.00
G01 X4.5316 Y-2.9743 F60.00
G01 X4.5119 Y-2.9889 F60.00
G01 X4.4908 Y-3.0015 F60.00
G01 X4.4687 Y-3.0120 F60.00
G01 X4.4456 Y-3.0202 F60.00
G01 X4.4218 Y-3.0262 F60.00
G01 X4.3975 Y-3.0298 F60.00
G01 X4.3730 Y-3.0310 F60.00
G01 X4.3485 Y-3.0298 F60.00
G01 X4.3242 Y-3.0262 F60.00
G01 X4.3004 Y-3.0202 F60.00
G01 X4.2773 Y-3.0120 F60.00
G01 X4.2552 Y-3.0015 F60.00
G01 X4.2341 Y-2.9889 F60.00
G01 X4.2144 Y-2.9743 F60.00
G01 X4.1962 Y-2.9578 F60.00
G01 X4.1797 Y-2.9396 F60.00
G01 X4.1651 Y-2.9199 F60.00
G01 X4.1525 Y-2.8988 F60.00
G01 X4.1420 Y-2.8767 F60.00
G01 X4.1338 Y-2.8536 F60.00
G01 X4.1278 Y-2.8298 F60.00
G01 X4.1242 Y-2.8055 F60.00
G01 X4.1230 Y-2.7810 F60.00
G01 X4.1242 Y-2.7565 F60.00
G01 X4.1278 Y-2.7322 F60.00
G01 X4.1338 Y-2.7084 F60.00
G01 X4.1420 Y-2.6853 F60.00
G01 X4.1525 Y-2.6632 F60.00
G01 X4.1651 Y-2.6421 F60.00
G01 X4.1797 Y-2.6224 F60.00
G01 X4.1962 Y-2.6042 F60.00
G01 X4.2144 Y-2.5877 F60.00
G01 X4.2341 Y-2.5731 F60.00
G01 X4.2552 Y-2.5605 F60.00
G01 X4.2773 Y-2.5500 F60.00
G01 X4.3004 Y-2.5418 F60.00
G01 X4.3242 Y-2.5358 F60.00
G01 X4.3485 Y-2.5322 F60.00
G01 X4.3730 Y-2.5310 F60.00
G01 X4.3975 Y-2.5322 F60.00
G01 X4.4218 Y-2.5358 F60.00
G01 X4.4456 Y-2.5418 F60.00
G01 X4.4687 Y-2.5500 F60.00
G01 X4.4908 Y-2.5605 F60.00
G01 X4.5119 Y-2.5731 F60.00
G01 X4.5316 Y-2.5877 F60.00
G01 X4.5498 Y-2.6042 F60.00
G01 X4.5663 Y-2.6224 F60.00
G01 X4.5809 Y-2.6421 F60.00
G01 X4.5935 Y-2.6632 F60.00
G01 X4.6040 Y-2.6853 F60.00
G01 X4.6122 Y-2.7084 F60.00
G01 X4.6182 Y-2.7322 F60.00
G01 X4.6218 Y-2.7565 F60.00
G01 X4.6230 Y-2.7810 F60.00
G00 X4.6230 Y-2.7810
G01 F60.00
G01 Z-1.5000
G01 F60.00
G01 X4.6218 Y-2.8055 F60.00
G01 X4.6182 Y-2.8298 F60.00
G01 X4.6122 Y-2.8536 F60.00
G01 X4.6040 Y-2.8767 F60.00
G01 X4.5935 Y-2.8988 F60.00
G01 X4.5809 Y-2.9199 F60.00
G01 X4.5663 Y-2.9396 F60.00
G01 X4.5498 Y-2.9578 F60.00
G01 X4.5316 Y-2.9743 F60.00
G01 X4.5119 Y-2.9889 F60.00
G01 X4.4908 Y-3.0015 F60.00
G01 X4.4687 Y-3.0120 F60.00
G01 X4.4456 Y-3.0202 F60.00
G01 X4.4218 Y-3.0262 F60.00
G01 X4.3975 Y-3.0298 F60.00
G01 X4.3730 Y-3.0310 F60.00
G01 X4.3485 Y-3.0298 F60.00
G01 X4.3242 Y-3.0262 F60.00
G01 X4.3004 Y-3.0202 F60.00
G01 X4.2773 Y-3.0120 F60.00
G01 X4.2552 Y-3.0015 F60.00
G01 X4.2341 Y-2.9889 F60.00
G01 X4.2144 Y-2.9743 F60.00
G01 X4.1962 Y-2.9578 F60.00
G01 X4.1797 Y-2.9396 F60.00
G01 X4.1651 Y-2.9199 F60.00
G01 X4.1525 Y-2.8988 F60.00
G01 X4.1420 Y-2.8767 F60.00
G01 X4.1338 Y-2.8536 F60.00
G01 X4.1278 Y-2.8298 F60.00
G01 X4.1242 Y-2.8055 F60.00
G01 X4.1230 Y-2.7810 F60.00
G01 X4.1242 Y-2.7565 F60.00
G01 X4.1278 Y-2.7322 F60.00
G01 X4.1338 Y-2.7084 F60.00
G01 X4.1420 Y-2.6853 F60.00
G01 X4.1525 Y-2.6632 F60.00
G01 X4.1651 Y-2.6421 F60.00
G01 X4.1797 Y-2.6224 F60.00
G01 X4.1962 Y-2.6042 F60.00
G01 X4.2144 Y-2.5877 F60.00
G01 X4.2341 Y-2.5731 F60.00
G01 X4.2552 Y-2.5605 F60.00
G01 X4.2773 Y-2.5500 F60.00
G01 X4.3004 Y-2.5418 F60.00
G01 X4.3242 Y-2.5358 F60.00
G01 X4.3485 Y-2.5322 F60.00
G01 X4.3730 Y-2.5310 F60.00
G01 X4.3975 Y-2.5322 F60.00
G01 X4.4218 Y-2.5358 F60.00
G01 X4.4456 Y-2.5418 F60.00
G01 X4.4687 Y-2.5500 F60.00
G01 X4.4908 Y-2.5605 F60.00
G01 X4.5119 Y-2.5731 F60.00
G01 X4.5316 Y-2.5877 F60.00
G01 X4.5498 Y-2.6042 F60.00
G01 X4.5663 Y-2.6224 F60.00
G01 X4.5809 Y-2.6421 F60.00
G01 X4.5935 Y-2.6632 F60.00
G01 X4.6040 Y-2.6853 F60.00
G01 X4.6122 Y-2.7084 F60.00
G01 X4.6182 Y-2.7322 F60.00
G01 X4.6218 Y-2.7565 F60.00
G01 X4.6230 Y-2.7810 F60.00
G00 X4.6230 Y-2.7810
G01 F60.00
G01 Z-2.0000
G01 F60.00
G01 X4.6218 Y-2.8055 F60.00
G01 X4.6182 Y-2.8298 F60.00
G01 X4.6122 Y-2.8536 F60.00
G01 X4.6040 Y-2.8767 F60.00
G01 X4.5935 Y-2.8988 F60.00
G01 X4.5809 Y-2.9199 F60.00
G01 X4.5663 Y-2.9396 F60.00
G01 X4.5498 Y-2.9578 F60.00
G01 X4.5316 Y-2.9743 F60.00
G01 X4.5119 Y-2.9889 F60.00
G01 X4.4908 Y-3.0015 F60.00
G01 X4.4687 Y-3.0120 F60.00
G01 X4.4456 Y-3.0202 F60.00
G01 X4.4218 Y-3.0262 F60.00
G01 X4.3975 Y-3.0298 F60.00
G01 X4.3730 Y-3.0310 F60.00
G01 X4.3485 Y-3.0298 F60.00
G01 X4.3242 Y-3.0262 F60.00
G01 X4.3004 Y-3.0202 F60.00
G01 X4.2773 Y-3.0120 F60.00
G01 X4.2552 Y-3.0015 F60.00
G01 X4.2341 Y-2.9889 F60.00
G01 X4.2144 Y-2.9743 F60.00
G01 X4.1962 Y-2.9578 F60.00
G01 X4.1797 Y-2.9396 F60.00
G01 X4.1651 Y-2.9199 F60.00
G01 X4.1525 Y-2.8988 F60.00
G01 X4.1420 Y-2.8767 F60.00
G01 X4.1338 Y-2.8536 F60.00
G01 X4.1278 Y-2.8298 F60.00
G01 X4.1242 Y-2.8055 F60.00
G01 X4.1230 Y-2.7810 F60.00
G01 X4.1242 Y-2.7565 F60.00
G01 X4.1278 Y-2.7322 F60.00
G01 X4.1338 Y-2.7084 F60.00
G01 X4.1420 Y-2.6853 F60.00
G01 X4.1525 Y-2.6632 F60.00
G01 X4.1651 Y-2.6421 F60.00
G01 X4.1797 Y-2.6224 F60.00
G01 X4.1962 Y-2.6042 F60.00
G01 X4.2144 Y-2.5877 F60.00
G01 X4.2341 Y-2.5731 F60.00
G01 X4.2552 Y-2.5605 F60.00
G01 X4.2773 Y-2.5500 F60.00
G01 X4.3004 Y-2.5418 F60.00
G01 X4.3242 Y-2.5358 F60.00
G01 X4.3485 Y-2.5322 F60.00
G01 X4.3730 Y-2.5310 F60.00
G01 X4.3975 Y-2.5322 F60.00
G01 X4.4218 Y-2.5358 F60.00
G01 X4.4456 Y-2.5418 F60.00
G01 X4.4687 Y-2.5500 F60.00
G01 X4.4908 Y-2.5605 F60.00
G01 X4.5119 Y-2.5731 F60.00
G01 X4.5316 Y-2.5877 F60.00
G01 X4.5498 Y-2.6042 F60.00
G01 X4.5663 Y-2.6224 F60.00
G01 X4.5809 Y-2.6421 F60.00
G01 X4.5935 Y-2.6632 F60.00
G01 X4.6040 Y-2.6853 F60.00
G01 X4.6122 Y-2.7084 F60.00
G01 X4.6182 Y-2.7322 F60.00
G01 X4.6218 Y-2.7565 F60.00
G01 X4.6230 Y-2.7810 F60.00
G00 X4.6230 Y-2.7810
G01 F60.00
G01 Z-2.5000
G01 F60.00
G01 X4.6218 Y-2.8055 F60.00
G01 X4.6182 Y-2.8298 F60.00
G01 X4.6122 Y-2.8536 F60.00
G01 X4.6040 Y-2.8767 F60.00
G01 X4.5935 Y-2.8988 F60.00
G01 X4.5809 Y-2.9199 F60.00
G01 X4.5663 Y-2.9396 F60.00
G01 X4.5498 Y-2.9578 F60.00
G01 X4.5316 Y-2.9743 F60.00
G01 X4.5119 Y-2.9889 F60.00
G01 X4.4908 Y-3.0015 F60.00
G01 X4.4687 Y-3.0120 F60.00
G01 X4.4456 Y-3.0202 F60.00
G01 X4.4218 Y-3.0262 F60.00
G01 X4.3975 Y-3.0298 F60.00
G01 X4.3730 Y-3.0310 F60.00
G01 X4.3485 Y-3.0298 F60.00
G01 X4.3242 Y-3.0262 F60.00
G01 X4.3004 Y-3.0202 F60.00
G01 X4.2773 Y-3.0120 F60.00
G01 X4.2552 Y-3.0015 F60.00
G01 X4.2341 Y-2.9889 F60.00
G01 X4.2144 Y-2.9743 F60.00
G01 X4.1962 Y-2.9578 F60.00
G01 X4.1797 Y-2.9396 F60.00
G01 X4.1651 Y-2.9199 F60.00
G01 X4.1525 Y-2.8988 F60.00
G01 X4.1420 Y-2.8767 F60.00
G01 X4.1338 Y-2.8536 F60.00
G01 X4.1278 Y-2.8298 F60.00
G01 X4.1242 Y-2.8055 F60.00
G01 X4.1230 Y-2.7810 F60.00
G01 X4.1242 Y-2.7565 F60.00
G01 X4.1278 Y-2.7322 F60.00
G01 X4.1338 Y-2.7084 F60.00
G01 X4.1420 Y-2.6853 F60.00
G01 X4.1525 Y-2.6632 F60.00
G01 X4.1651 Y-2.6421 F60.00
G01 X4.1797 Y-2.6224 F60.00
G01 X4.1962 Y-2.6042 F60.00
G01 X4.2144 Y-2.5877 F60.00
G01 X4.2341 Y-2.5731 F60.00
G01 X4.2552 Y-2.5605 F60.00
G01 X4.2773 Y-2.5500 F60.00
G01 X4.3004 Y-2.5418 F60.00
G01 X4.3242 Y-2.5358 F60.00
G01 X4.3485 Y-2.5322 F60.00
G01 X4.3730 Y-2.5310 F60.00
G01 X4.3975 Y-2.5322 F60.00
G01 X4.4218 Y-2.5358 F60.00
G01 X4.4456 Y-2.5418 F60.00
G01 X4.4687 Y-2.5500 F60.00
G01 X4.4908 Y-2.5605 F60.00
G01 X4.5119 Y-2.5731 F60.00
G01 X4.5316 Y-2.5877 F60.00
G01 X4.5498 Y-2.6042 F60.00
G01 X4.5663 Y-2.6224 F60.00
G01 X4.5809 Y-2.6421 F60.00
G01 X4.5935 Y-2.6632 F60.00
G01 X4.6040 Y-2.6853 F60.00
G01 X4.6122 Y-2.7084 F60.00
G01 X4.6182 Y-2.7322 F60.00
G01 X4.6218 Y-2.7565 F60.00
G01 X4.6230 Y-2.7810 F60.00
G00 Z2.0000
G00 X7.1630 Y-2.7810
G01 F60.00
G01 Z-0.5000
G01 F60.00
G01 X7.1618 Y-2.8055 F60.00
G01 X7.1582 Y-2.8298 F60.00
G01 X7.1522 Y-2.8536 F60.00
G01 X7.1440 Y-2.8767 F60.00
G01 X7.1335 Y-2.8988 F60.00
G01 X7.1209 Y-2.9199 F60.00
G01 X7.1063 Y-2.9396 F60.00
G01 X7.0898 Y-2.9578 F60.00
G01 X7.0716 Y-2.9743 F60.00
G01 X7.0519 Y-2.9889 F60.00
G01 X7.0308 Y-3.0015 F60.00
G01 X7.0087 Y-3.0120 F60.00
G01 X6.9856 Y-3.0202 F60.00
G01 X6.9618 Y-3.0262 F60.00
G01 X6.9375 Y-3.0298 F60.00
G01 X6.9130 Y-3.0310 F60.00
G01 X6.8885 Y-3.0298 F60.00
G01 X6.8642 Y-3.0262 F60.00
G01 X6.8404 Y-3.0202 F60.00
G01 X6.8173 Y-3.0120 F60.00
G01 X6.7952 Y-3.0015 F60.00
G01 X6.7741 Y-2.9889 F60.00
G01 X6.7544 Y-2.9743 F60.00
G01 X6.7362 Y-2.9578 F60.00
G01 X6.7197 Y-2.9396 F60.00
G01 X6.7051 Y-2.9199 F60.00
G01 X6.6925 Y-2.8988 F60.00
G01 X6.6820 Y-2.8767 F60.00
G01 X6.6738 Y-2.8536 F60.00
G01 X6.6678 Y-2.8298 F60.00
G01 X6.6642 Y-2.8055 F60.00
G01 X6.6630 Y-2.7810 F60.00
G01 X6.6642 Y-2.7565 F60.00
G01 X6.6678 Y-2.7322 F60.00
G01 X6.6738 Y-2.7084 F60.00
G01 X6.6820 Y-2.6853 F60.00
G01 X6.6925 Y-2.6632 F60.00
G01 X6.7051 Y-2.6421 F60.00
G01 X6.7197 Y-2.6224 F60.00
G01 X6.7362 Y-2.6042 F60.00
G01 X6.7544 Y-2.5877 F60.00
G01 X6.7741 Y-2.5731 F60.00
G01 X6.7952 Y-2.5605 F60.00
G01 X6.8173 Y-2.5500 F60.00
G01 X6.8404 Y-2.5418 F60.00
G01 X6.8642 Y-2.5358 F60.00
G01 X6.8885 Y-2.5322 F60.00
G01 X6.9130 Y-2.5310 F60.00
G01 X6.9375 Y-2.5322 F60.00
G01 X6.9618 Y-2.5358 F60.00
G01 X6.9856 Y-2.5418 F60.00
G01 X7.0087 Y-2.5500 F60.00
G01 X7.0308 Y-2.5605 F60.00
G01 X7.0519 Y-2.5731 F60.00
G01 X7.0716 Y-2.5877 F60.00
G01 X7.0898 Y-2.6042 F60.00
G01 X7.1063 Y-2.6224 F60.00
G01 X7.1209 Y-2.6421 F60.00
G01 X7.1335 Y-2.6632 F60.00
G01 X7.1440 Y-2.6853 F60.00
G01 X7.1522 Y-2.7084 F60.00
G01 X7.1582 Y-2.7322 F60.00
G01 X7.1618 Y-2.7565 F60.00
G01 X7.1630 Y-2.7810 F60.00
G00 X7.1630 Y-2.7810
G01 F60.00
G01 Z-1.0000
G01 F60.00
G01 X7.1618 Y-2.8055 F60.00
G01 X7.1582 Y-2.8298 F60.00
G01 X7.1522 Y-2.8536 F60.00
G01 X7.1440 Y-2.8767 F60.00
G01 X7.1335 Y-2.8988 F60.00
G01 X7.1209 Y-2.9199 F60.00
G01 X7.1063 Y-2.9396 F60.00
G01 X7.0898 Y-2.9578 F60.00
G01 X7.0716 Y-2.9743 F60.00
G01 X7.0519 Y-2.9889 F60.00
G01 X7.0308 Y-3.0015 F60.00
G01 X7.0087 Y-3.0120 F60.00
G01 X6.9856 Y-3.0202 F60.00
G01 X6.9618 Y-3.0262 F60.00
G01 X6.9375 Y-3.0298 F60.00
G01 X6.9130 Y-3.0310 F60.00
G01 X6.8885 Y-3.0298 F60.00
G01 X6.8642 Y-3.0262 F60.00
G01 X6.8404 Y-3.0202 F60.00
G01 X6.8173 Y-3.0120 F60.00
G01 X6.7952 Y-3.0015 F60.00
G01 X6.7741 Y-2.9889 F60.00
G01 X6.7544 Y-2.9743 F60.00
G01 X6.7362 Y-2.9578 F60.00
G01 X6.7197 Y-2.9396 F60.00
G01 X6.7051 Y-2.9199 F60.00
G01 X6.6925 Y-2.8988 F60.00
G01 X6.6820 Y-2.8767 F60.00
G01 X6.6738 Y-2.8536 F60.00
G01 X6.6678 Y-2.8298 F60.00
G01 X6.6642 Y-2.8055 F60.00
G01 X6.6630 Y-2.7810 F60.00
G01 X6.6642 Y-2.7565 F60.00
G01 X6.6678 Y-2.7322 F60.00
G01 X6.6738 Y-2.7084 F60.00
G01 X6.6820 Y-2.6853 F60.00
G01 X6.6925 Y-2.6632 F60.00
G01 X6.7051 Y-2.6421 F60.00
G01 X6.7197 Y-2.6224 F60.00
G01 X6.7362 Y-2.6042 F60.00
G01 X6.7544 Y-2.5877 F60.00
G01 X6.7741 Y-2.5731 F60.00
G01 X6.7952 Y-2.5605 F60.00
G01 X6.8173 Y-2.5500 F60.00
G01 X6.8404 Y-2.5418 F60.00
G01 X6.8642 Y-2.5358 F60.00
G01 X6.8885 Y-2.5322 F60.00
G01 X6.9130 Y-2.5310 F60.00
G01 X6.9375 Y-2.5322 F60.00
G01 X6.9618 Y-2.5358 F60.00
G01 X6.9856 Y-2.5418 F60.00
G01 X7.0087 Y-2.5500 F60.00
G01 X7.0308 Y-2.5605 F60.00
G01 X7.0519 Y-2.5731 F60.00
G01 X7.0716 Y-2.5877 F60.00
G01 X7.0898 Y-2.6042 F60.00
G01 X7.1063 Y-2.6224 F60.00
G01 X7.1209 Y-2.6421 F60.00
G01 X7.1335 Y-2.6632 F60.00
G01 X7.1440 Y-2.6853 F60.00
G01 X7.1522 Y-2.7084 F60.00
G01 X7.1582 Y-2.7322 F60.00
G01 X7.1618 Y-2.7565 F60.00
G01 X7.1630 Y-2.7810 F60.00
G00 X7.1630 Y-2.7810
G01 F60.00
G01 Z-1.5000
G01 F60.00
G01 X7.1618 Y-2.8055 F60.00
G01 X7.1582 Y-2.8298 F60.00
G01 X7.1522 Y-2.8536 F60.00
G01 X7.1440 Y-2.8767 F60.00
G01 X7.1335 Y-2.8988 F60.00
G01 X7.1209 Y-2.9199 F60.00
G01 X7.1063 Y-2.9396 F60.00
G01 X7.0898 Y-2.9578 F60.00
G01 X7.0716 Y-2.9743 F60.00
G01 X7.0519 Y-2.9889 F60.00
G01 X7.0308 Y-3.0015 F60.00
G01 X7.0087 Y-3.0120 F60.00
G01 X6.9856 Y-3.0202 F60.00
G01 X6.9618 Y-3.0262 F60.00
G01 X6.9375 Y-3.0298 F60.00
G01 X6.9130 Y-3.0310 F60.00
G01 X6.8885 Y-3.0298 F60.00
G01 X6.8642 Y-3.0262 F60.00
G01 X6.8404 Y-3.0202 F60.00
G01 X6.8173 Y-3.0120 F60.00
G01 X6.7952 Y-3.0015 F60.00
G01 X6.7741 Y-2.9889 F60.00
G01 X6.7544 Y-2.9743 F60.00
G01 X6.7362 Y-2.9578 F60.00
G01 X6.7197 Y-2.9396 F60.00
G01 X6.7051 Y-2.9199 F60.00
G01 X6.6925 Y-2.8988 F60.00
G01 X6.6820 Y-2.8767 F60.00
G01 X6.6738 Y-2.8536 F60.00
G01 X6.6678 Y-2.8298 F60.00
G01 X6.6642 Y-2.8055 F60.00
G01 X6.6630 Y-2.7810 F60.00
G01 X6.6642 Y-2.7565 F60.00
G01 X6.6678 Y-2.7322 F60.00
G01 X6.6738 Y-2.7084 F60.00
G01 X6.6820 Y-2.6853 F60.00
G01 X6.6925 Y-2.6632 F60.00
G01 X6.7051 Y-2.6421 F60.00
G01 X6.7197 Y-2.6224 F60.00
G01 X6.7362 Y-2.6042 F60.00
G01 X6.7544 Y-2.5877 F60.00
G01 X6.7741 Y-2.5731 F60.00
G01 X6.7952 Y-2.5605 F60.00
G01 X6.8173 Y-2.5500 F60.00
G01 X6.8404 Y-2.5418 F60.00
G01 X6.8642 Y-2.5358 F60.00
G01 X6.8885 Y-2.5322 F60.00
G01 X6.9130 Y-2.5310 F60.00
G01 X6.9375 Y-2.5322 F60.00
G01 X6.9618 Y-2.5358 F60.00
G01 X6.9856 Y-2.5418 F60.00
G01 X7.0087 Y-2.5500 F60.00
G01 X7.0308 Y-2.5605 F60.00
G01 X7.0519 Y-2.5731 F60.00
G01 X7.0716 Y-2.5877 F60.00
G01 X7.0898 Y-2.6042 F60.00
G01 X7.1063 Y-2.6224 F60.00
G01 X7.1209 Y-2.6421 F60.00
G01 X7.1335 Y-2.6632 F60.00
G01 X7.1440 Y-2.6853 F60.00
G01 X7.1522 Y-2.7084 F60.00
G01 X7.1582 Y-2.7322 F60.00
G01 X7.1618 Y-2.7565 F60.00
G01 X7.1630 Y-2.7810 F60.00
G00 X7.1630 Y-2.7810
G01 F60.00
G01 Z-2.0000
G01 F60.00
G01 X7.1618 Y-2.8055 F60.00
G01 X7.1582 Y-2.8298 F60.00
G01 X7.1522 Y-2.8536 F60.00
G01 X7.1440 Y-2.8767 F60.00
G01 X7.1335 Y-2.8988 F60.00
G01 X7.1209 Y-2.9199 F60.00
G01 X7.1063 Y-2.9396 F60.00
G01 X7.0898 Y-2.9578 F60.00
G01 X7.0716 Y-2.9743 F60.00
G01 X7.0519 Y-2.9889 F60.00
G01 X7.0308 Y-3.0015 F60.00
G01 X7.0087 Y-3.0120 F60.00
G01 X6.9856 Y-3.0202 F60.00
G01 X6.9618 Y-3.0262 F60.00
G01 X6.9375 Y-3.0298 F60.00
G01 X6.9130 Y-3.0310 F60.00
G01 X6.8885 Y-3.0298 F60.00
G01 X6.8642 Y-3.0262 F60.00
G01 X6.8404 Y-3.0202 F60.00
G01 X6.8173 Y-3.0120 F60.00
G01 X6.7952 Y-3.0015 F60.00
G01 X6.7741 Y-2.9889 F60.00
G01 X6.7544 Y-2.9743 F60.00
G01 X6.7362 Y-2.9578 F60.00
G01 X6.7197 Y-2.9396 F60.00
G01 X6.7051 Y-2.9199 F60.00
G01 X6.6925 Y-2.8988 F60.00
G01 X6.6820 Y-2.8767 F60.00
G01 X6.6738 Y-2.8536 F60.00
G01 X6.6678 Y-2.8298 F60.00
G01 X6.6642 Y-2.8055 F60.00
G01 X6.6630 Y-2.7810 F60.00
G01 X6.6642 Y-2.7565 F60.00
G01 X6.6678 Y-2.7322 F60.00
G01 X6.6738 Y-2.7084 F60.00
G01 X6.6820 Y-2.6853 F60.00
G01 X6.6925 Y-2.6632 F60.00
G01 X6.7051 Y-2.6421 F60.00
G01 X6.7197 Y-2.6224 F60.00
G01 X6.7362 Y-2.6042 F60.00
G01 X6.7544 Y-2.5877 F60.00
G01 X6.7741 Y-2.5731 F60.00
G01 X6.7952 Y-2.5605 F60.00
G01 X6.8173 Y-2.5500 F60.00
G01 X6.8404 Y-2.5418 F60.00
G01 X6.8642 Y-2.5358 F60.00
G01 X6.8885 Y-2.5322 F60.00
G01 X6.9130 Y-2.5310 F60.00
G01 X6.9375 Y-2.5322 F60.00
G01 X6.9618 Y-2.5358 F60.00
G01 X6.9856 Y-2.5418 F60.00
G01 X7.0087 Y-2.5500 F60.00
G01 X7.0308 Y-2.5605 F60.00
G01 X7.0519 Y-2.5731 F60.00
G01 X7.0716 Y-2.5877 F60.00
G01 X7.0898 Y-2.6042 F60.00
G01 X7.1063 Y-2.6224 F60.00
G01 X7.1209 Y-2.6421 F60.00
G01 X7.1335 Y-2.6632 F60.00
G01 X7.1440 Y-2.6853 F60.00
G01 X7.1522 Y-2.7084 F60.00
G01 X7.1582 Y-2.7322 F60.00
G01 X7.1618 Y-2.7565 F60.00
G01 X7.1630 Y-2.7810 F60.00
G00 X7.1630 Y-2.7810
G01 F60.00
G01 Z-2.5000
G01 F60.00
G01 X7.1618 Y-2.8055 F60.00
G01 X7.1582 Y-2.8298 F60.00
G01 X7.1522 Y-2.8536 F60.00
G01 X7.1440 Y-2.8767 F60.00
G01 X7.1335 Y-2.8988 F60.00
G01 X7.1209 Y-2.9199 F60.00
G01 X7.1063 Y-2.9396 F60.00
G01 X7.0898 Y-2.9578 F60.00
G01 X7.0716 Y-2.9743 F60.00
G01 X7.0519 Y-2.9889 F60.00
G01 X7.0308 Y-3.0015 F60.00
G01 X7.0087 Y-3.0120 F60.00
G01 X6.9856 Y-3.0202 F60.00
G01 X6.9618 Y-3.0262 F60.00
G01 X6.9375 Y-3.0298 F60.00
G01 X6.9130 Y-3.0310 F60.00
G01 X6.8885 Y-3.0298 F60.00
G01 X6.8642 Y-3.0262 F60.00
G01 X6.8404 Y-3.0202 F60.00
G01 X6.8173 Y-3.0120 F60.00
G01 X6.7952 Y-3.0015 F60.00
G01 X6.7741 Y-2.9889 F60.00
G01 X6.7544 Y-2.9743 F60.00
G01 X6.7362 Y-2.9578 F60.00
G01 X6.7197 Y-2.9396 F60.00
G01 X6.7051 Y-2.9199 F60.00
G01 X6.6925 Y-2.8988 F60.00
G01 X6.6820 Y-2.8767 F60.00
G01 X6.6738 Y-2.8536 F60.00
G01 X6.6678 Y-2.8298 F60.00
G01 X6.6642 Y-2.8055 F60.00
G01 X6.6630 Y-2.7810 F60.00
G01 X6.6642 Y-2.7565 F60.00
G01 X6.6678 Y-2.7322 F60.00
G01 X6.6738 Y-2.7084 F60.00
G01 X6.6820 Y-2.6853 F60.00
G01 X6.6925 Y-2.6632 F60.00
G01 X6.7051 Y-2.6421 F60.00
G01 X6.7197 Y-2.6224 F60.00
G01 X6.7362 Y-2.6042 F60.00
G01 X6.7544 Y-2.5877 F60.00
G01 X6.7741 Y-2.5731 F60.00
G01 X6.7952 Y-2.5605 F60.00
G01 X6.8173 Y-2.5500 F60.00
G01 X6.8404 Y-2.5418 F60.00
G01 X6.8642 Y-2.5358 F60.00
G01 X6.8885 Y-2.5322 F60.00
G01 X6.9130 Y-2.5310 F60.00
G01 X6.9375 Y-2.5322 F60.00
G01 X6.9618 Y-2.5358 F60.00
G01 X6.9856 Y-2.5418 F60.00
G01 X7.0087 Y-2.5500 F60.00
G01 X7.0308 Y-2.5605 F60.00
G01 X7.0519 Y-2.5731 F60.00
G01 X7.0716 Y-2.5877 F60.00
G01 X7.0898 Y-2.6042 F60.00
G01 X7.1063 Y-2.6224 F60.00
G01 X7.1209 Y-2.6421 F60.00
G01 X7.1335 Y-2.6632 F60.00
G01 X7.1440 Y-2.6853 F60.00
G01 X7.1522 Y-2.7084 F60.00
G01 X7.1582 Y-2.7322 F60.00
G01 X7.1618 Y-2.7565 F60.00
G01 X7.1630 Y-2.7810 F60.00
G00 Z2.0000
G00 X9.7030 Y-2.7810
G01 F60.00
G01 Z-0.5000
G01 F60.00
G01 X9.7018 Y-2.8055 F60.00
G01 X9.6982 Y-2.8298 F60.00
G01 X9.6922 Y-2.8536 F60.00
G01 X9.6840 Y-2.8767 F60.00
G01 X9.6735 Y-2.8988 F60.00
G01 X9.6609 Y-2.9199 F60.00
G01 X9.6463 Y-2.9396 F60.00
G01 X9.6298 Y-2.9578 F60.00
G01 X9.6116 Y-2.9743 F60.00
G01 X9.5919 Y-2.9889 F60.00
G01 X9.5708 Y-3.0015 F60.00
G01 X9.5487 Y-3.0120 F60.00
G01 X9.5256 Y-3.0202 F60.00
G01 X9.5018 Y-3.0262 F60.00
G01 X9.4775 Y-3.0298 F60.00
G01 X9.4530 Y-3.0310 F60.00
G01 X9.4285 Y-3.0298 F60.00
G01 X9.4042 Y-3.0262 F60.00
G01 X9.3804 Y-3.0202 F60.00
G01 X9.3573 Y-3.0120 F60.00
G01 X9.3352 Y-3.0015 F60.00
G01 X9.3141 Y-2.9889 F60.00
G01 X9.2944 Y-2.9743 F60.00
G01 X9.2762 Y-2.9578 F60.00
G01 X9.2597 Y-2.9396 F60.00
G01 X9.2451 Y-2.9199 F60.00
G01 X9.2325 Y-2.8988 F60.00
G01 X9.2220 Y-2.8767 F60.00
G01 X9.2138 Y-2.8536 F60.00
G01 X9.2078 Y-2.8298 F60.00
G01 X9.2042 Y-2.8055 F60.00
G01 X9.2030 Y-2.7810 F60.00
G01 X9.2042 Y-2.7565 F60.00
G01 X9.2078 Y-2.7322 F60.00
G01 X9.2138 Y-2.7084 F60.00
G01 X9.2220 Y-2.6853 F60.00
G01 X9.2325 Y-2.6632 F60.00
G01 X9.2451 Y-2.6421 F60.00
G01 X9.2597 Y-2.6224 F60.00
G01 X9.2762 Y-2.6042 F60.00
G01 X9.2944 Y-2.5877 F60.00
G01 X9.3141 Y-2.5731 F60.00
G01 X9.3352 Y-2.5605 F60.00
G01 X9.3573 Y-2.5500 F60.00
G01 X9.3804 Y-2.5418 F60.00
G01 X9.4042 Y-2.5358 F60.00
G01 X9.4285 Y-2.5322 F60.00
G01 X9.4530 Y-2.5310 F60.00
G01 X9.4775 Y-2.5322 F60.00
G01 X9.5018 Y-2.5358 F60.00
G01 X9.5256 Y-2.5418 F60.00
G01 X9.5487 Y-2.5500 F60.00
G01 X9.5708 Y-2.5605 F60.00
G01 X9.5919 Y-2.5731 F60.00
G01 X9.6116 Y-2.5877 F60.00
G01 X9.6298 Y-2.6042 F60.00
G01 X9.6463 Y-2.6224 F60.00
G01 X9.6609 Y-2.6421 F60.00
G01 X9.6735 Y-2.6632 F60.00
G01 X9.6840 Y-2.6853 F60.00
G01 X9.6922 Y-2.7084 F60.00
G01 X9.6982 Y-2.7322 F60.00
G01 X9.7018 Y-2.7565 F60.00
G01 X9.7030 Y-2.7810 F60.00
G00 X9.7030 Y-2.7810
G01 F60.00
G01 Z-1.0000
G01 F60.00
G01 X9.7018 Y-2.8055 F60.00
G01 X9.6982 Y-2.8298 F60.00
G01 X9.6922 Y-2.8536 F60.00
G01 X9.6840 Y-2.8767 F60.00
G01 X9.6735 Y-2.8988 F60.00
G01 X9.6609 Y-2.9199 F60.00
G01 X9.6463 Y-2.9396 F60.00
G01 X9.6298 Y-2.9578 F60.00
G01 X9.6116 Y-2.9743 F60.00
G01 X9.5919 Y-2.9889 F60.00
G01 X9.5708 Y-3.0015 F60.00
G01 X9.5487 Y-3.0120 F60.00
G01 X9.5256 Y-3.0202 F60.00
G01 X9.5018 Y-3.0262 F60.00
G01 X9.4775 Y-3.0298 F60.00
G01 X9.4530 Y-3.0310 F60.00
G01 X9.4285 Y-3.0298 F60.00
G01 X9.4042 Y-3.0262 F60.00
G01 X9.3804 Y-3.0202 F60.00
G01 X9.3573 Y-3.0120 F60.00
G01 X9.3352 Y-3.0015 F60.00
G01 X9.3141 Y-2.9889 F60.00
G01 X9.2944 Y-2.9743 F60.00
G01 X9.2762 Y-2.9578 F60.00
G01 X9.2597 Y-2.9396 F60.00
G01 X9.2451 Y-2.9199 F60.00
G01 X9.2325 Y-2.8988 F60.00
G01 X9.2220 Y-2.8767 F60.00
G01 X9.2138 Y-2.8536 F60.00
G01 X9.2078 Y-2.8298 F60.00
G01 X9.2042 Y-2.8055 F60.00
G01 X9.2030 Y-2.7810 F60.00
G01 X9.2042 Y-2.7565 F60.00
G01 X9.2078 Y-2.7322 F60.00
G01 X9.2138 Y-2.7084 F60.00
G01 X9.2220 Y-2.6853 F60.00
G01 X9.2325 Y-2.6632 F60.00
G01 X9.2451 Y-2.6421 F60.00
G01 X9.2597 Y-2.6224 F60.00
G01 X9.2762 Y-2.6042 F60.00
G01 X9.2944 Y-2.5877 F60.00
G01 X9.3141 Y-2.5731 F60.00
G01 X9.3352 Y-2.5605 F60.00
G01 X9.3573 Y-2.5500 F60.00
G01 X9.3804 Y-2.5418 F60.00
G01 X9.4042 Y-2.5358 F60.00
G01 X9.4285 Y-2.5322 F60.00
G01 X9.4530 Y-2.5310 F60.00
G01 X9.4775 Y-2.5322 F60.00
G01 X9.5018 Y-2.5358 F60.00
G01 X9.5256 Y-2.5418 F60.00
G01 X9.5487 Y-2.5500 F60.00
G01 X9.5708 Y-2.5605 F60.00
G01 X9.5919 Y-2.5731 F60.00
G01 X9.6116 Y-2.5877 F60.00
G01 X9.6298 Y-2.6042 F60.00
G01 X9.6463 Y-2.6224 F60.00
G01 X9.6609 Y-2.6421 F60.00
G01 X9.6735 Y-2.6632 F60.00
G01 X9.6840 Y-2.6853 F60.00
G01 X9.6922 Y-2.7084 F60.00
G01 X9.6982 Y-2.7322 F60.00
G01 X9.7018 Y-2.7565 F60.00
G01 X9.7030 Y-2.7810 F60.00
G00 X9.7030 Y-2.7810
G01 F60.00
G01 Z-1.5000
G01 F60.00
G01 X9.7018 Y-2.8055 F60.00
G01 X9.6982 Y-2.8298 F60.00
G01 X9.6922 Y-2.8536 F60.00
G01 X9.6840 Y-2.8767 F60.00
G01 X9.6735 Y-2.8988 F60.00
G01 X9.6609 Y-2.9199 F60.00
G01 X9.6463 Y-2.9396 F60.00
G01 X9.6298 Y-2.9578 F60.00
G01 X9.6116 Y-2.9743 F60.00
G01 X9.5919 Y-2.9889 F60.00
G01 X9.5708 Y-3.0015 F60.00
G01 X9.5487 Y-3.0120 F60.00
G01 X9.5256 Y-3.0202 F60.00
G01 X9.5018 Y-3.0262 F60.00
G01 X9.4775 Y-3.0298 F60.00
G01 X9.4530 Y-3.0310 F60.00
G01 X9.4285 Y-3.0298 F60.00
G01 X9.4042 Y-3.0262 F60.00
G01 X9.3804 Y-3.0202 F60.00
G01 X9.3573 Y-3.0120 F60.00
G01 X9.3352 Y-3.0015 F60.00
G01 X9.3141 Y-2.9889 F60.00
G01 X9.2944 Y-2.9743 F60.00
G01 X9.2762 Y-2.9578 F60.00
G01 X9.2597 Y-2.9396 F60.00
G01 X9.2451 Y-2.9199 F60.00
G01 X9.2325 Y-2.8988 F60.00
G01 X9.2220 Y-2.8767 F60.00
G01 X9.2138 Y-2.8536 F60.00
G01 X9.2078 Y-2.8298 F60.00
G01 X9.2042 Y-2.8055 F60.00
G01 X9.2030 Y-2.7810 F60.00
G01 X9.2042 Y-2.7565 F60.00
G01 X9.2078 Y-2.7322 F60.00
G01 X9.2138 Y-2.7084 F60.00
G01 X9.2220 Y-2.6853 F60.00
G01 X9.2325 Y-2.6632 F60.00
G01 X9.2451 Y-2.6421 F60.00
G01 X9.2597 Y-2.6224 F60.00
G01 X9.2762 Y-2.6042 F60.00
G01 X9.2944 Y-2.5877 F60.00
G01 X9.3141 Y-2.5731 F60.00
G01 X9.3352 Y-2.5605 F60.00
G01 X9.3573 Y-2.5500 F60.00
G01 X9.3804 Y-2.5418 F60.00
G01 X9.4042 Y-2.5358 F60.00
G01 X9.4285 Y-2.5322 F60.00
G01 X9.4530 Y-2.5310 F60.00
G01 X9.4775 Y-2.5322 F60.00
G01 X9.5018 Y-2.5358 F60.00
G01 X9.5256 Y-2.5418 F60.00
G01 X9.5487 Y-2.5500 F60.00
G01 X9.5708 Y-2.5605 F60.00
G01 X9.5919 Y-2.5731 F60.00
G01 X9.6116 Y-2.5877 F60.00
G01 X9.6298 Y-2.6042 F60.00
G01 X9.6463 Y-2.6224 F60.00
G01 X9.6609 Y-2.6421 F60.00
G01 X9.6735 Y-2.6632 F60.00
G01 X9.6840 Y-2.6853 F60.00
G01 X9.6922 Y-2.7084 F60.00
G01 X9.6982 Y-2.7322 F60.00
G01 X9.7018 Y-2.7565 F60.00
G01 X9.7030 Y-2.7810 F60.00
G00 X9.7030 Y-2.7810
G01 F60.00
G01 Z-2.0000
G01 F60.00
G01 X9.7018 Y-2.8055 F60.00
G01 X9.6982 Y-2.8298 F60.00
G01 X9.6922 Y-2.8536 F60.00
G01 X9.6840 Y-2.8767 F60.00
G01 X9.6735 Y-2.8988 F60.00
G01 X9.6609 Y-2.9199 F60.00
G01 X9.6463 Y-2.9396 F60.00
G01 X9.6298 Y-2.9578 F60.00
G01 X9.6116 Y-2.9743 F60.00
G01 X9.5919 Y-2.9889 F60.00
G01 X9.5708 Y-3.0015 F60.00
G01 X9.5487 Y-3.0120 F60.00
G01 X9.5256 Y-3.0202 F60.00
G01 X9.5018 Y-3.0262 F60.00
G01 X9.4775 Y-3.0298 F60.00
G01 X9.4530 Y-3.0310 F60.00
G01 X9.4285 Y-3.0298 F60.00
G01 X9.4042 Y-3.0262 F60.00
G01 X9.3804 Y-3.0202 F60.00
G01 X9.3573 Y-3.0120 F60.00
G01 X9.3352 Y-3.0015 F60.00
G01 X9.3141 Y-2.9889 F60.00
G01 X9.2944 Y-2.9743 F60.00
G01 X9.2762 Y-2.9578 F60.00
G01 X9.2597 Y-2.9396 F60.00
G01 X9.2451 Y-2.9199 F60.00
G01 X9.2325 Y-2.8988 F60.00
G01 X9.2220 Y-2.8767 F60.00
G01 X9.2138 Y-2.8536 F60.00
G01 X9.2078 Y-2.8298 F60.00
G01 X9.2042 Y-2.8055 F60.00
G01 X9.2030 Y-2.7810 F60.00
G01 X9.2042 Y-2.7565 F60.00
G01 X9.2078 Y-2.7322 F60.00
G01 X9.2138 Y-2.7084 F60.00
G01 X9.2220 Y-2.6853 F60.00
G01 X9.2325 Y-2.6632 F60.00
G01 X9.2451 Y-2.6421 F60.00
G01 X9.2597 Y-2.6224 F60.00
G01 X9.2762 Y-2.6042 F60.00
G01 X9.2944 Y-2.5877 F60.00
G01 X9.3141 Y-2.5731 F60.00
G01 X9.3352 Y-2.5605 F60.00
G01 X9.3573 Y-2.5500 F60.00
G01 X9.3804 Y-2.5418 F60.00
G01 X9.4042 Y-2.5358 F60.00
G01 X9.4285 Y-2.5322 F60.00
G01 X9.4530 Y-2.5310 F60.00
G01 X9.4775 Y-2.5322 F60.00
G01 X9.5018 Y-2.5358 F60.00
G01 X9.5256 Y-2.5418 F60.00
G01 X9.5487 Y-2.5500 F60.00
G01 X9.5708 Y-2.5605 F60.00
G01 X9.5919 Y-2.5731 F60.00
G01 X9.6116 Y-2.5877 F60.00
G01 X9.6298 Y-2.6042 F60.00
G01 X9.6463 Y-2.6224 F60.00
G01 X9.6609 Y-2.6421 F60.00
G01 X9.6735 Y-2.6632 F60.00
G01 X9.6840 Y-2.6853 F60.00
G01 X9.6922 Y-2.7084 F60.00
G01 X9.6982 Y-2.7322 F60.00
G01 X9.7018 Y-2.7565 F60.00
G01 X9.7030 Y-2.7810 F60.00
G00 X9.7030 Y-2.7810
G01 F60.00
G01 Z-2.5000
G01 F60.00
G01 X9.7018 Y-2.8055 F60.00
G01 X9.6982 Y-2.8298 F60.00
G01 X9.6922 Y-2.8536 F60.00
G01 X9.6840 Y-2.8767 F60.00
G01 X9.6735 Y-2.8988 F60.00
G01 X9.6609 Y-2.9199 F60.00
G01 X9.6463 Y-2.9396 F60.00
G01 X9.6298 Y-2.9578 F60.00
G01 X9.6116 Y-2.9743 F60.00
G01 X9.5919 Y-2.9889 F60.00
G01 X9.5708 Y-3.0015 F60.00
G01 X9.5487 Y-3.0120 F60.00
G01 X9.5256 Y-3.0202 F60.00
G01 X9.5018 Y-3.0262 F60.00
G01 X9.4775 Y-3.0298 F60.00
G01 X9.4530 Y-3.0310 F60.00
G01 X9.4285 Y-3.0298 F60.00
G01 X9.4042 Y-3.0262 F60.00
G01 X9.3804 Y-3.0202 F60.00
G01 X9.3573 Y-3.0120 F60.00
G01 X9.3352 Y-3.0015 F60.00
G01 X9.3141 Y-2.9889 F60.00
G01 X9.2944 Y-2.9743 F60.00
G01 X9.2762 Y-2.9578 F60.00
G01 X9.2597 Y-2.9396 F60.00
G01 X9.2451 Y-2.9199 F60.00
G01 X9.2325 Y-2.8988 F60.00
G01 X9.2220 Y-2.8767 F60.00
G01 X9.2138 Y-2.8536 F60.00
G01 X9.2078 Y-2.8298 F60.00
G01 X9.2042 Y-2.8055 F60.00
G01 X9.2030 Y-2.7810 F60.00
G01 X9.2042 Y-2.7565 F60.00
G01 X9.2078 Y-2.7322 F60.00
G01 X9.2138 Y-2.7084 F60.00
G01 X9.2220 Y-2.6853 F60.00
G01 X9.2325 Y-2.6632 F60.00
G01 X9.2451 Y-2.6421 F60.00
G01 X9.2597 Y-2.6224 F60.00
G01 X9.2762 Y-2.6042 F60.00
G01 X9.2944 Y-2.5877 F60.00
G01 X9.3141 Y-2.5731 F60.00
G01 X9.3352 Y-2.5605 F60.00
G01 X9.3573 Y-2.5500 F60.00
G01 X9.3804 Y-2.5418 F60.00
G01 X9.4042 Y-2.5358 F60.00
G01 X9.4285 Y-2.5322 F60.00
G01 X9.4530 Y-2.5310 F60.00
G01 X9.4775 Y-2.5322 F60.00
G01 X9.5018 Y-2.5358 F60.00
G01 X9.5256 Y-2.5418 F60.00
G01 X9.5487 Y-2.5500 F60.00
G01 X9.5708 Y-2.5605 F60.00
G01 X9.5919 Y-2.5731 F60.00
G01 X9.6116 Y-2.5877 F60.00
G01 X9.6298 Y-2.6042 F60.00
G01 X9.6463 Y-2.6224 F60.00
G01 X9.6609 Y-2.6421 F60.00
G01 X9.6735 Y-2.6632 F60.00
G01 X9.6840 Y-2.6853 F60.00
G01 X9.6922 Y-2.7084 F60.00
G01 X9.6982 Y-2.7322 F60.00
G01 X9.7018 Y-2.7565 F60.00
G01 X9.7030 Y-2.7810 F60.00
G00 Z2.0000
G00 X12.2430 Y-2.7810
G01 F60.00
G01 Z-0.5000
G01 F60.00
G01 X12.2418 Y-2.8055 F60.00
G01 X12.2382 Y-2.8298 F60.00
G01 X12.2322 Y-2.8536 F60.00
G01 X12.2240 Y-2.8767 F60.00
G01 X12.2135 Y-2.8988 F60.00
G01 X12.2009 Y-2.9199 F60.00
G01 X12.1863 Y-2.9396 F60.00
G01 X12.1698 Y-2.9578 F60.00
G01 X12.1516 Y-2.9743 F60.00
G01 X12.1319 Y-2.9889 F60.00
G01 X12.1108 Y-3.0015 F60.00
G01 X12.0887 Y-3.0120 F60.00
G01 X12.0656 Y-3.0202 F60.00
G01 X12.0418 Y-3.0262 F60.00
G01 X12.0175 Y-3.0298 F60.00
G01 X11.9930 Y-3.0310 F60.00
G01 X11.9685 Y-3.0298 F60.00
G01 X11.9442 Y-3.0262 F60.00
G01 X11.9204 Y-3.0202 F60.00
G01 X11.8973 Y-3.0120 F60.00
G01 X11.8752 Y-3.0015 F60.00
G01 X11.8541 Y-2.9889 F60.00
G01 X11.8344 Y-2.9743 F60.00
G01 X11.8162 Y-2.9578 F60.00
G01 X11.7997 Y-2.9396 F60.00
G01 X11.7851 Y-2.9199 F60.00
G01 X11.7725 Y-2.8988 F60.00
G01 X11.7620 Y-2.8767 F60.00
G01 X11.7538 Y-2.8536 F60.00
G01 X11.7478 Y-2.8298 F60.00
G01 X11.7442 Y-2.8055 F60.00
G01 X11.7430 Y-2.7810 F60.00
G01 X11.7442 Y-2.7565 F60.00
G01 X11.7478 Y-2.7322 F60.00
G01 X11.7538 Y-2.7084 F60.00
G01 X11.7620 Y-2.6853 F60.00
G01 X11.7725 Y-2.6632 F60.00
G01 X11.7851 Y-2.6421 F60.00
G01 X11.7997 Y-2.6224 F60.00
G01 X11.8162 Y-2.6042 F60.00
G01 X11.8344 Y-2.5877 F60.00
G01 X11.8541 Y-2.5731 F60.00
G01 X11.8752 Y-2.5605 F60.00
G01 X11.8973 Y-2.5500 F60.00
G01 X11.9204 Y-2.5418 F60.00
G01 X11.9442 Y-2.5358 F60.00
G01 X11.9685 Y-2.5322 F60.00
G01 X11.9930 Y-2.5310 F60.00
G01 X12.0175 Y-2.5322 F60.00
G01 X12.0418 Y-2.5358 F60.00
G01 X12.0656 Y-2.5418 F60.00
G01 X12.0887 Y-2.5500 F60.00
G01 X12.1108 Y-2.5605 F60.00
G01 X12.1319 Y-2.5731 F60.00
G01 X12.1516 Y-2.5877 F60.00
G01 X12.1698 Y-2.6042 F60.00
G01 X12.1863 Y-2.6224 F60.00
G01 X12.2009 Y-2.6421 F60.00
G01 X12.2135 Y-2.6632 F60.00
G01 X12.2240 Y-2.6853 F60.00
G01 X12.2322 Y-2.7084 F60.00
G01 X12.2382 Y-2.7322 F60.00
G01 X12.2418 Y-2.7565 F60.00
G01 X12.2430 Y-2.7810 F60.00
G00 X12.2430 Y-2.7810
G01 F60.00
G01 Z-1.0000
G01 F60.00
G01 X12.2418 Y-2.8055 F60.00
G01 X12.2382 Y-2.8298 F60.00
G01 X12.2322 Y-2.8536 F60.00
G01 X12.2240 Y-2.8767 F60.00
G01 X12.2135 Y-2.8988 F60.00
G01 X12.2009 Y-2.9199 F60.00
G01 X12.1863 Y-2.9396 F60.00
G01 X12.1698 Y-2.9578 F60.00
G01 X12.1516 Y-2.9743 F60.00
G01 X12.1319 Y-2.9889 F60.00
G01 X12.1108 Y-3.0015 F60.00
G01 X12.0887 Y-3.0120 F60.00
G01 X12.0656 Y-3.0202 F60.00
G01 X12.0418 Y-3.0262 F60.00
G01 X12.0175 Y-3.0298 F60.00
G01 X11.9930 Y-3.0310 F60.00
G01 X11.9685 Y-3.0298 F60.00
G01 X11.9442 Y-3.0262 F60.00
G01 X11.9204 Y-3.0202 F60.00
G01 X11.8973 Y-3.0120 F60.00
G01 X11.8752 Y-3.0015 F60.00
G01 X11.8541 Y-2.9889 F60.00
G01 X11.8344 Y-2.9743 F60.00
G01 X11.8162 Y-2.9578 F60.00
G01 X11.7997 Y-2.9396 F60.00
G01 X11.7851 Y-2.9199 F60.00
G01 X11.7725 Y-2.8988 F60.00
G01 X11.7620 Y-2.8767 F60.00
G01 X11.7538 Y-2.8536 F60.00
G01 X11.7478 Y-2.8298 F60.00
G01 X11.7442 Y-2.8055 F60.00
G01 X11.7430 Y-2.7810 F60.00
G01 X11.7442 Y-2.7565 F60.00
G01 X11.7478 Y-2.7322 F60.00
G01 X11.7538 Y-2.7084 F60.00
G01 X11.7620 Y-2.6853 F60.00
G01 X11.7725 Y-2.6632 F60.00
G01 X11.7851 Y-2.6421 F60.00
G01 X11.7997 Y-2.6224 F60.00
G01 X11.8162 Y-2.6042 F60.00
G01 X11.8344 Y-2.5877 F60.00
G01 X11.8541 Y-2.5731 F60.00
G01 X11.8752 Y-2.5605 F60.00
G01 X11.8973 Y-2.5500 F60.00
G01 X11.9204 Y-2.5418 F60.00
G01 X11.9442 Y-2.5358 F60.00
G01 X11.9685 Y-2.5322 F60.00
G01 X11.9930 Y-2.5310 F60.00
G01 X12.0175 Y-2.5322 F60.00
G01 X12.0418 Y-2.5358 F60.00
G01 X12.0656 Y-2.5418 F60.00
G01 X12.0887 Y-2.5500 F60.00
G01 X12.1108 Y-2.5605 F60.00
G01 X12.1319 Y-2.5731 F60.00
G01 X12.1516 Y-2.5877 F60.00
G01 X12.1698 Y-2.6042 F60.00
G01 X12.1863 Y-2.6224 F60.00
G01 X12.2009 Y-2.6421 F60.00
G01 X12.2135 Y-2.6632 F60.00
G01 X12.2240 Y-2.6853 F60.00
G01 X12.2322 Y-2.7084 F60.00
G01 X12.2382 Y-2.7322 F60.00
G01 X12.2418 Y-2.7565 F60.00
G01 X12.2430 Y-2.7810 F60.00
G00 X12.2430 Y-2.7810
G01 F60.00
G01 Z-1.5000
G01 F60.00
G01 X12.2418 Y-2.8055 F60.00
G01 X12.2382 Y-2.8298 F60.00
G01 X12.2322 Y-2.8536 F60.00
G01 X12.2240 Y-2.8767 F60.00
G01 X12.2135 Y-2.8988 F60.00
G01 X12.2009 Y-2.9199 F60.00
G01 X12.1863 Y-2.9396 F60.00
G01 X12.1698 Y-2.9578 F60.00
G01 X12.1516 Y-2.9743 F60.00
G01 X12.1319 Y-2.9889 F60.00
G01 X12.1108 Y-3.0015 F60.00
G01 X12.0887 Y-3.0120 F60.00
G01 X12.0656 Y-3.0202 F60.00
G01 X12.0418 Y-3.0262 F60.00
G01 X12.0175 Y-3.0298 F60.00
G01 X11.9930 Y-3.0310 F60.00
G01 X11.9685 Y-3.0298 F60.00
G01 X11.9442 Y-3.0262 F60.00
G01 X11.9204 Y-3.0202 F60.00
G01 X11.8973 Y-3.0120 F60.00
G01 X11.8752 Y-3.0015 F60.00
G01 X11.8541 Y-2.9889 F60.00
G01 X11.8344 Y-2.9743 F60.00
G01 X11.8162 Y-2.9578 F60.00
G01 X11.7997 Y-2.9396 F60.00
G01 X11.7851 Y-2.9199 F60.00
G01 X11.7725 Y-2.8988 F60.00
G01 X11.7620 Y-2.8767 F60.00
G01 X11.7538 Y-2.8536 F60.00
G01 X11.7478 Y-2.8298 F60.00
G01 X11.7442 Y-2.8055 F60.00
G01 X11.7430 Y-2.7810 F60.00
G01 X11.7442 Y-2.7565 F60.00
G01 X11.7478 Y-2.7322 F60.00
G01 X11.7538 Y-2.7084 F60.00
G01 X11.7620 Y-2.6853 F60.00
G01 X11.7725 Y-2.6632 F60.00
G01 X11.7851 Y-2.6421 F60.00
G01 X11.7997 Y-2.6224 F60.00
G01 X11.8162 Y-2.6042 F60.00
G01 X11.8344 Y-2.5877 F60.00
G01 X11.8541 Y-2.5731 F60.00
G01 X11.8752 Y-2.5605 F60.00
G01 X11.8973 Y-2.5500 F60.00
G01 X11.9204 Y-2.5418 F60.00
G01 X11.9442 Y-2.5358 F60.00
G01 X11.9685 Y-2.5322 F60.00
G01 X11.9930 Y-2.5310 F60.00
G01 X12.0175 Y-2.5322 F60.00
G01 X12.0418 Y-2.5358 F60.00
G01 X12.0656 Y-2.5418 F60.00
G01 X12.0887 Y-2.5500 F60.00
G01 X12.1108 Y-2.5605 F60.00
G01 X12.1319 Y-2.5731 F60.00
G01 X12.1516 Y-2.5877 F60.00
G01 X12.1698 Y-2.6042 F60.00
G01 X12.1863 Y-2.6224 F60.00
G01 X12.2009 Y-2.6421 F60.00
G01 X12.2135 Y-2.6632 F60.00
G01 X12.2240 Y-2.6853 F60.00
G01 X12.2322 Y-2.7084 F60.00
G01 X12.2382 Y-2.7322 F60.00
G01 X12.2418 Y-2.7565 F60.00
G01 X12.2430 Y-2.7810 F60.00
G00 X12.2430 Y-2.7810
G01 F60.00
G01 Z-2.0000
G01 F60.00
G01 X12.2418 Y-2.8055 F60.00
G01 X12.2382 Y-2.8298 F60.00
G01 X12.2322 Y-2.8536 F60.00
G01 X12.2240 Y-2.8767 F60.00
G01 X12.2135 Y-2.8988 F60.00
G01 X12.2009 Y-2.9199 F60.00
G01 X12.1863 Y-2.9396 F60.00
G01 X12.1698 Y-2.9578 F60.00
G01 X12.1516 Y-2.9743 F60.00
G01 X12.1319 Y-2.9889 F60.00
G01 X12.1108 Y-3.0015 F60.00
G01 X12.0887 Y-3.0120 F60.00
G01 X12.0656 Y-3.0202 F60.00
G01 X12.0418 Y-3.0262 F60.00
G01 X12.0175 Y-3.0298 F60.00
G01 X11.9930 Y-3.0310 F60.00
G01 X11.9685 Y-3.0298 F60.00
G01 X11.9442 Y-3.0262 F60.00
G01 X11.9204 Y-3.0202 F60.00
G01 X11.8973 Y-3.0120 F60.00
G01 X11.8752 Y-3.0015 F60.00
G01 X11.8541 Y-2.9889 F60.00
G01 X11.8344 Y-2.9743 F60.00
G01 X11.8162 Y-2.9578 F60.00
G01 X11.7997 Y-2.9396 F60.00
G01 X11.7851 Y-2.9199 F60.00
G01 X11.7725 Y-2.8988 F60.00
G01 X11.7620 Y-2.8767 F60.00
G01 X11.7538 Y-2.8536 F60.00
G01 X11.7478 Y-2.8298 F60.00
G01 X11.7442 Y-2.8055 F60.00
G01 X11.7430 Y-2.7810 F60.00
G01 X11.7442 Y-2.7565 F60.00
G01 X11.7478 Y-2.7322 F60.00
G01 X11.7538 Y-2.7084 F60.00
G01 X11.7620 Y-2.6853 F60.00
G01 X11.7725 Y-2.6632 F60.00
G01 X11.7851 Y-2.6421 F60.00
G01 X11.7997 Y-2.6224 F60.00
G01 X11.8162 Y-2.6042 F60.00
G01 X11.8344 Y-2.5877 F60.00
G01 X11.8541 Y-2.5731 F60.00
G01 X11.8752 Y-2.5605 F60.00
G01 X11.8973 Y-2.5500 F60.00
G01 X11.9204 Y-2.5418 F60.00
G01 X11.9442 Y-2.5358 F60.00
G01 X11.9685 Y-2.5322 F60.00
G01 X11.9930 Y-2.5310 F60.00
G01 X12.0175 Y-2.5322 F60.00
G01 X12.0418 Y-2.5358 F60.00
G01 X12.0656 Y-2.5418 F60.00
G01 X12.0887 Y-2.5500 F60.00
G01 X12.1108 Y-2.5605 F60.00
G01 X12.1319 Y-2.5731 F60.00
G01 X12.1516 Y-2.5877 F60.00
G01 X12.1698 Y-2.6042 F60.00
G01 X12.1863 Y-2.6224 F60.00
G01 X12.2009 Y-2.6421 F60.00
G01 X12.2135 Y-2.6632 F60.00
G01 X12.2240 Y-2.6853 F60.00
G01 X12.2322 Y-2.7084 F60.00
G01 X12.2382 Y-2.7322 F60.00
G01 X12.2418 Y-2.7565 F60.00
G01 X12.2430 Y-2.7810 F60.00
G00 X12.2430 Y-2.7810
G01 F60.00
G01 Z-2.5000
G01 F60.00
G01 X12.2418 Y-2.8055 F60.00
G01 X12.2382 Y-2.8298 F60.00
G01 X12.2322 Y-2.8536 F60.00
G01 X12.2240 Y-2.8767 F60.00
G01 X12.2135 Y-2.8988 F60.00
G01 X12.2009 Y-2.9199 F60.00
G01 X12.1863 Y-2.9396 F60.00
G01 X12.1698 Y-2.9578 F60.00
G01 X12.1516 Y-2.9743 F60.00
G01 X12.1319 Y-2.9889 F60.00
G01 X12.1108 Y-3.0015 F60.00
G01 X12.0887 Y-3.0120 F60.00
G01 X12.0656 Y-3.0202 F60.00
G01 X12.0418 Y-3.0262 F60.00
G01 X12.0175 Y-3.0298 F60.00
G01 X11.9930 Y-3.0310 F60.00
G01 X11.9685 Y-3.0298 F60.00
G01 X11.9442 Y-3.0262 F60.00
G01 X11.9204 Y-3.0202 F60.00
G01 X11.8973 Y-3.0120 F60.00
G01 X11.8752 Y-3.0015 F60.00
G01 X11.8541 Y-2.9889 F60.00
G01 X11.8344 Y-2.9743 F60.00
G01 X11.8162 Y-2.9578 F60.00
G01 X11.7997 Y-2.9396 F60.00
G01 X11.7851 Y-2.9199 F60.00
G01 X11.7725 Y-2.8988 F60.00
G01 X11.7620 Y-2.8767 F60.00
G01 X11.7538 Y-2.8536 F60.00
G01 X11.7478 Y-2.8298 F60.00
G01 X11.7442 Y-2.8055 F60.00
G01 X11.7430 Y-2.7810 F60.00
G01 X11.7442 Y-2.7565 F60.00
G01 X11.7478 Y-2.7322 F60.00
G01 X11.7538 Y-2.7084 F60.00
G01 X11.7620 Y-2.6853 F60.00
G01 X11.7725 Y-2.6632 F60.00
G01 X11.7851 Y-2.6421 F60.00
G01 X11.7997 Y-2.6224 F60.00
G01 X11.8162 Y-2.6042 F60.00
G01 X11.8344 Y-2.5877 F60.00
G01 X11.8541 Y-2.5731 F60.00
G01 X11.8752 Y-2.5605 F60.00
G01 X11.8973 Y-2.5500 F60.00
G01 X11.9204 Y-2.5418 F60.00
G01 X11.9442 Y-2.5358 F60.00
G01 X11.9685 Y-2.5322 F60.00
G01 X11.9930 Y-2.5310 F60.00
G01 X12.0175 Y-2.5322 F60.00
G01 X12.0418 Y-2.5358 F60.00
G01 X12.0656 Y-2.5418 F60.00
G01 X12.0887 Y-2.5500 F60.00
G01 X12.1108 Y-2.5605 F60.00
G01 X12.1319 Y-2.5731 F60.00
G01 X12.1516 Y-2.5877 F60.00
G01 X12.1698 Y-2.6042 F60.00
G01 X12.1863 Y-2.6224 F60.00
G01 X12.2009 Y-2.6421 F60.00
G01 X12.2135 Y-2.6632 F60.00
G01 X12.2240 Y-2.6853 F60.00
G01 X12.2322 Y-2.7084 F60.00
G01 X12.2382 Y-2.7322 F60.00
G01 X12.2418 Y-2.7565 F60.00
G01 X12.2430 Y-2.7810 F60.00
G00 Z2.0000
G00 X14.7830 Y-2.7810
G01 F60.00
G01 Z-0.5000
G01 F60.00
G01 X14.7818 Y-2.8055 F60.00
G01 X14.7782 Y-2.8298 F60.00
G01 X14.7722 Y-2.8536 F60.00
G01 X14.7640 Y-2.8767 F60.00
G01 X14.7535 Y-2.8988 F60.00
G01 X14.7409 Y-2.9199 F60.00
G01 X14.7263 Y-2.9396 F60.00
G01 X14.7098 Y-2.9578 F60.00
G01 X14.6916 Y-2.9743 F60.00
G01 X14.6719 Y-2.9889 F60.00
G01 X14.6508 Y-3.0015 F60.00
G01 X14.6287 Y-3.0120 F60.00
G01 X14.6056 Y-3.0202 F60.00
G01 X14.5818 Y-3.0262 F60.00
G01 X14.5575 Y-3.0298 F60.00
G01 X14.5330 Y-3.0310 F60.00
G01 X14.5085 Y-3.0298 F60.00
G01 X14.4842 Y-3.0262 F60.00
G01 X14.4604 Y-3.0202 F60.00
G01 X14.4373 Y-3.0120 F60.00
G01 X14.4152 Y-3.0015 F60.00
G01 X14.3941 Y-2.9889 F60.00
G01 X14.3744 Y-2.9743 F60.00
G01 X14.3562 Y-2.9578 F60.00
G01 X14.3397 Y-2.9396 F60.00
G01 X14.3251 Y-2.9199 F60.00
G01 X14.3125 Y-2.8988 F60.00
G01 X14.3020 Y-2.8767 F60.00
G01 X14.2938 Y-2.8536 F60.00
G01 X14.2878 Y-2.8298 F60.00
G01 X14.2842 Y-2.8055 F60.00
G01 X14.2830 Y-2.7810 F60.00
G01 X14.2842 Y-2.7565 F60.00
G01 X14.2878 Y-2.7322 F60.00
G01 X14.2938 Y-2.7084 F60.00
G01 X14.3020 Y-2.6853 F60.00
G01 X14.3125 Y-2.6632 F60.00
G01 X14.3251 Y-2.6421 F60.00
G01 X14.3397 Y-2.6224 F60.00
G01 X14.3562 Y-2.6042 F60.00
G01 X14.3744 Y-2.5877 F60.00
G01 X14.3941 Y-2.5731 F60.00
G01 X14.4152 Y-2.5605 F60.00
G01 X14.4373 Y-2.5500 F60.00
G01 X14.4604 Y-2.5418 F60.00
G01 X14.4842 Y-2.5358 F60.00
G01 X14.5085 Y-2.5322 F60.00
G01 X14.5330 Y-2.5310 F60.00
G01 X14.5575 Y-2.5322 F60.00
G01 X14.5818 Y-2.5358 F60.00
G01 X14.6056 Y-2.5418 F60.00
G01 X14.6287 Y-2.5500 F60.00
G01 X14.6508 Y-2.5605 F60.00
G01 X14.6719 Y-2.5731 F60.00
G01 X14.6916 Y-2.5877 F60.00
G01 X14.7098 Y-2.6042 F60.00
G01 X14.7263 Y-2.6224 F60.00
G01 X14.7409 Y-2.6421 F60.00
G01 X14.7535 Y-2.6632 F60.00
G01 X14.7640 Y-2.6853 F60.00
G01 X14.7722 Y-2.7084 F60.00
G01 X14.7782 Y-2.7322 F60.00
G01 X14.7818 Y-2.7565 F60.00
G01 X14.7830 Y-2.7810 F60.00
G00 X14.7830 Y-2.7810
G01 F60.00
G01 Z-1.0000
G01 F60.00
G01 X14.7818 Y-2.8055 F60.00
G01 X14.7782 Y-2.8298 F60.00
G01 X14.7722 Y-2.8536 F60.00
G01 X14.7640 Y-2.8767 F60.00
G01 X14.7535 Y-2.8988 F60.00
G01 X14.7409 Y-2.9199 F60.00
G01 X14.7263 Y-2.9396 F60.00
G01 X14.7098 Y-2.9578 F60.00
G01 X14.6916 Y-2.9743 F60.00
G01 X14.6719 Y-2.9889 F60.00
G01 X14.6508 Y-3.0015 F60.00
G01 X14.6287 Y-3.0120 F60.00
G01 X14.6056 Y-3.0202 F60.00
G01 X14.5818 Y-3.0262 F60.00
G01 X14.5575 Y-3.0298 F60.00
G01 X14.5330 Y-3.0310 F60.00
G01 X14.5085 Y-3.0298 F60.00
G01 X14.4842 Y-3.0262 F60.00
G01 X14.4604 Y-3.0202 F60.00
G01 X14.4373 Y-3.0120 F60.00
G01 X14.4152 Y-3.0015 F60.00
G01 X14.3941 Y-2.9889 F60.00
G01 X14.3744 Y-2.9743 F60.00
G01 X14.3562 Y-2.9578 F60.00
G01 X14.3397 Y-2.9396 F60.00
G01 X14.3251 Y-2.9199 F60.00
G01 X14.3125 Y-2.8988 F60.00
G01 X14.3020 Y-2.8767 F60.00
G01 X14.2938 Y-2.8536 F60.00
G01 X14.2878 Y-2.8298 F60.00
G01 X14.2842 Y-2.8055 F60.00
G01 X14.2830 Y-2.7810 F60.00
G01 X14.2842 Y-2.7565 F60.00
G01 X14.2878 Y-2.7322 F60.00
G01 X14.2938 Y-2.7084 F60.00
G01 X14.3020 Y-2.6853 F60.00
G01 X14.3125 Y-2.6632 F60.00
G01 X14.3251 Y-2.6421 F60.00
G01 X14.3397 Y-2.6224 F60.00
G01 X14.3562 Y-2.6042 F60.00
G01 X14.3744 Y-2.5877 F60.00
G01 X14.3941 Y-2.5731 F60.00
G01 X14.4152 Y-2.5605 F60.00
G01 X14.4373 Y-2.5500 F60.00
G01 X14.4604 Y-2.5418 F60.00
G01 X14.4842 Y-2.5358 F60.00
G01 X14.5085 Y-2.5322 F60.00
G01 X14.5330 Y-2.5310 F60.00
G01 X14.5575 Y-2.5322 F60.00
G01 X14.5818 Y-2.5358 F60.00
G01 X14.6056 Y-2.5418 F60.00
G01 X14.6287 Y-2.5500 F60.00
G01 X14.6508 Y-2.5605 F60.00
G01 X14.6719 Y-2.5731 F60.00
G01 X14.6916 Y-2.5877 F60.00
G01 X14.7098 Y-2.6042 F60.00
G01 X14.7263 Y-2.6224 F60.00
G01 X14.7409 Y-2.6421 F60.00
G01 X14.7535 Y-2.6632 F60.00
G01 X14.7640 Y-2.6853 F60.00
G01 X14.7722 Y-2.7084 F60.00
G01 X14.7782 Y-2.7322 F60.00
G01 X14.7818 Y-2.7565 F60.00
G01 X14.7830 Y-2.7810 F60.00
G00 X14.7830 Y-2.7810
G01 F60.00
G01 Z-1.5000
G01 F60.00
G01 X14.7818 Y-2.8055 F60.00
G01 X14.7782 Y-2.8298 F60.00
G01 X14.7722 Y-2.8536 F60.00
G01 X14.7640 Y-2.8767 F60.00
G01 X14.7535 Y-2.8988 F60.00
G01 X14.7409 Y-2.9199 F60.00
G01 X14.7263 Y-2.9396 F60.00
G01 X14.7098 Y-2.9578 F60.00
G01 X14.6916 Y-2.9743 F60.00
G01 X14.6719 Y-2.9889 F60.00
G01 X14.6508 Y-3.0015 F60.00
G01 X14.6287 Y-3.0120 F60.00
G01 X14.6056 Y-3.0202 F60.00
G01 X14.5818 Y-3.0262 F60.00
G01 X14.5575 Y-3.0298 F60.00
G01 X14.5330 Y-3.0310 F60.00
G01 X14.5085 Y-3.0298 F60.00
G01 X14.4842 Y-3.0262 F60.00
G01 X14.4604 Y-3.0202 F60.00
G01 X14.4373 Y-3.0120 F60.00
G01 X14.4152 Y-3.0015 F60.00
G01 X14.3941 Y-2.9889 F60.00
G01 X14.3744 Y-2.9743 F60.00
G01 X14.3562 Y-2.9578 F60.00
G01 X14.3397 Y-2.9396 F60.00
G01 X14.3251 Y-2.9199 F60.00
G01 X14.3125 Y-2.8988 F60.00
G01 X14.3020 Y-2.8767 F60.00
G01 X14.2938 Y-2.8536 F60.00
G01 X14.2878 Y-2.8298 F60.00
G01 X14.2842 Y-2.8055 F60.00
G01 X14.2830 Y-2.7810 F60.00
G01 X14.2842 Y-2.7565 F60.00
G01 X14.2878 Y-2.7322 F60.00
G01 X14.2938 Y-2.7084 F60.00
G01 X14.3020 Y-2.6853 F60.00
G01 X14.3125 Y-2.6632 F60.00
G01 X14.3251 Y-2.6421 F60.00
G01 X14.3397 Y-2.6224 F60.00
G01 X14.3562 Y-2.6042 F60.00
G01 X14.3744 Y-2.5877 F60.00
G01 X14.3941 Y-2.5731 F60.00
G01 X14.4152 Y-2.5605 F60.00
G01 X14.4373 Y-2.5500 F60.00
G01 X14.4604 Y-2.5418 F60.00
G01 X14.4842 Y-2.5358 F60.00
G01 X14.5085 Y-2.5322 F60.00
G01 X14.5330 Y-2.5310 F60.00
G01 X14.5575 Y-2.5322 F60.00
G01 X14.5818 Y-2.5358 F60.00
G01 X14.6056 Y-2.5418 F60.00
G01 X14.6287 Y-2.5500 F60.00
G01 X14.6508 Y-2.5605 F60.00
G01 X14.6719 Y-2.5731 F60.00
G01 X14.6916 Y-2.5877 F60.00
G01 X14.7098 Y-2.6042 F60.00
G01 X14.7263 Y-2.6224 F60.00
G01 X14.7409 Y-2.6421 F60.00
G01 X14.7535 Y-2.6632 F60.00
G01 X14.7640 Y-2.6853 F60.00
G01 X14.7722 Y-2.7084 F60.00
G01 X14.7782 Y-2.7322 F60.00
G01 X14.7818 Y-2.7565 F60.00
G01 X14.7830 Y-2.7810 F60.00
G00 X14.7830 Y-2.7810
G01 F60.00
G01 Z-2.0000
G01 F60.00
G01 X14.7818 Y-2.8055 F60.00
G01 X14.7782 Y-2.8298 F60.00
G01 X14.7722 Y-2.8536 F60.00
G01 X14.7640 Y-2.8767 F60.00
G01 X14.7535 Y-2.8988 F60.00
G01 X14.7409 Y-2.9199 F60.00
G01 X14.7263 Y-2.9396 F60.00
G01 X14.7098 Y-2.9578 F60.00
G01 X14.6916 Y-2.9743 F60.00
G01 X14.6719 Y-2.9889 F60.00
G01 X14.6508 Y-3.0015 F60.00
G01 X14.6287 Y-3.0120 F60.00
G01 X14.6056 Y-3.0202 F60.00
G01 X14.5818 Y-3.0262 F60.00
G01 X14.5575 Y-3.0298 F60.00
G01 X14.5330 Y-3.0310 F60.00
G01 X14.5085 Y-3.0298 F60.00
G01 X14.4842 Y-3.0262 F60.00
G01 X14.4604 Y-3.0202 F60.00
G01 X14.4373 Y-3.0120 F60.00
G01 X14.4152 Y-3.0015 F60.00
G01 X14.3941 Y-2.9889 F60.00
G01 X14.3744 Y-2.9743 F60.00
G01 X14.3562 Y-2.9578 F60.00
G01 X14.3397 Y-2.9396 F60.00
G01 X14.3251 Y-2.9199 F60.00
G01 X14.3125 Y-2.8988 F60.00
G01 X14.3020 Y-2.8767 F60.00
G01 X14.2938 Y-2.8536 F60.00
G01 X14.2878 Y-2.8298 F60.00
G01 X14.2842 Y-2.8055 F60.00
G01 X14.2830 Y-2.7810 F60.00
G01 X14.2842 Y-2.7565 F60.00
G01 X14.2878 Y-2.7322 F60.00
G01 X14.2938 Y-2.7084 F60.00
G01 X14.3020 Y-2.6853 F60.00
G01 X14.3125 Y-2.6632 F60.00
G01 X14.3251 Y-2.6421 F60.00
G01 X14.3397 Y-2.6224 F60.00
G01 X14.3562 Y-2.6042 F60.00
G01 X14.3744 Y-2.5877 F60.00
G01 X14.3941 Y-2.5731 F60.00
G01 X14.4152 Y-2.5605 F60.00
G01 X14.4373 Y-2.5500 F60.00
G01 X14.4604 Y-2.5418 F60.00
G01 X14.4842 Y-2.5358 F60.00
G01 X14.5085 Y-2.5322 F60.00
G01 X14.5330 Y-2.5310 F60.00
G01 X14.5575 Y-2.5322 F60.00
G01 X14.5818 Y-2.5358 F60.00
G01 X14.6056 Y-2.5418 F60.00
G01 X14.6287 Y-2.5500 F60.00
G01 X14.6508 Y-2.5605 F60.00
G01 X14.6719 Y-2.5731 F60.00
G01 X14.6916 Y-2.5877 F60.00
G01 X14.7098 Y-2.6042 F60.00
G01 X14.7263 Y-2.6224 F60.00
G01 X14.7409 Y-2.6421 F60.00
G01 X14.7535 Y-2.6632 F60.00
G01 X14.7640 Y-2.6853 F60.00
G01 X14.7722 Y-2.7084 F60.00
G01 X14.7782 Y-2.7322 F60.00
G01 X14.7818 Y-2.7565 F60.00
G01 X14.7830 Y-2.7810 F60.00
G00 X14.7830 Y-2.7810
G01 F60.00
G01 Z-2.5000
G01 F60.00
G01 X14.7818 Y-2.8055 F60.00
G01 X14.7782 Y-2.8298 F60.00
G01 X14.7722 Y-2.8536 F60.00
G01 X14.7640 Y-2.8767 F60.00
G01 X14.7535 Y-2.8988 F60.00
G01 X14.7409 Y-2.9199 F60.00
G01 X14.7263 Y-2.9396 F60.00
G01 X14.7098 Y-2.9578 F60.00
G01 X14.6916 Y-2.9743 F60.00
G01 X14.6719 Y-2.9889 F60.00
G01 X14.6508 Y-3.0015 F60.00
G01 X14.6287 Y-3.0120 F60.00
G01 X14.6056 Y-3.0202 F60.00
G01 X14.5818 Y-3.0262 F60.00
G01 X14.5575 Y-3.0298 F60.00
G01 X14.5330 Y-3.0310 F60.00
G01 X14.5085 Y-3.0298 F60.00
G01 X14.4842 Y-3.0262 F60.00
G01 X14.4604 Y-3.0202 F60.00
G01 X14.4373 Y-3.0120 F60.00
G01 X14.4152 Y-3.0015 F60.00
G01 X14.3941 Y-2.9889 F60.00
G01 X14.3744 Y-2.9743 F60.00
G01 X14.3562 Y-2.9578 F60.00
G01 X14.3397 Y-2.9396 F60.00
G01 X14.3251 Y-2.9199 F60.00
G01 X14.3125 Y-2.8988 F60.00
G01 X14.3020 Y-2.8767 F60.00
G01 X14.2938 Y-2.8536 F60.00
G01 X14.2878 Y-2.8298 F60.00
G01 X14.2842 Y-2.8055 F60.00
G01 X14.2830 Y-2.7810 F60.00
G01 X14.2842 Y-2.7565 F60.00
G01 X14.2878 Y-2.7322 F60.00
G01 X14.2938 Y-2.7084 F60.00
G01 X14.3020 Y-2.6853 F60.00
G01 X14.3125 Y-2.6632 F60.00
G01 X14.3251 Y-2.6421 F60.00
G01 X14.3397 Y-2.6224 F60.00
G01 X14.3562 Y-2.6042 F60.00
G01 X14.3744 Y-2.5877 F60.00
G01 X14.3941 Y-2.5731 F60.00
G01 X14.4152 Y-2.5605 F60.00
G01 X14.4373 Y-2.5500 F60.00
G01 X14.4604 Y-2.5418 F60.00
G01 X14.4842 Y-2.5358 F60.00
G01 X14.5085 Y-2.5322 F60.00
G01 X14.5330 Y-2.5310 F60.00
G01 X14.5575 Y-2.5322 F60.00
G01 X14.5818 Y-2.5358 F60.00
G01 X14.6056 Y-2.5418 F60.00
G01 X14.6287 Y-2.5500 F60.00
G01 X14.6508 Y-2.5605 F60.00
G01 X14.6719 Y-2.5731 F60.00
G01 X14.6916 Y-2.5877 F60.00
G01 X14.7098 Y-2.6042 F60.00
G01 X14.7263 Y-2.6224 F60.00
G01 X14.7409 Y-2.6421 F60.00
G01 X14.7535 Y-2.6632 F60.00
G01 X14.7640 Y-2.6853 F60.00
G01 X14.7722 Y-2.7084 F60.00
G01 X14.7782 Y-2.7322 F60.00
G01 X14.7818 Y-2.7565 F60.00
G01 X14.7830 Y-2.7810 F60.00
G00 Z2.0000
G00 X17.3230 Y-2.7810
G01 F60.00
G01 Z-0.5000
G01 F60.00
G01 X17.3218 Y-2.8055 F60.00
G01 X17.3182 Y-2.8298 F60.00
G01 X17.3122 Y-2.8536 F60.00
G01 X17.3040 Y-2.8767 F60.00
G01 X17.2935 Y-2.8988 F60.00
G01 X17.2809 Y-2.9199 F60.00
G01 X17.2663 Y-2.9396 F60.00
G01 X17.2498 Y-2.9578 F60.00
G01 X17.2316 Y-2.9743 F60.00
G01 X17.2119 Y-2.9889 F60.00
G01 X17.1908 Y-3.0015 F60.00
G01 X17.1687 Y-3.0120 F60.00
G01 X17.1456 Y-3.0202 F60.00
G01 X17.1218 Y-3.0262 F60.00
G01 X17.0975 Y-3.0298 F60.00
G01 X17.0730 Y-3.0310 F60.00
G01 X17.0485 Y-3.0298 F60.00
G01 X17.0242 Y-3.0262 F60.00
G01 X17.0004 Y-3.0202 F60.00
G01 X16.9773 Y-3.0120 F60.00
G01 X16.9552 Y-3.0015 F60.00
G01 X16.9341 Y-2.9889 F60.00
G01 X16.9144 Y-2.9743 F60.00
G01 X16.8962 Y-2.9578 F60.00
G01 X16.8797 Y-2.9396 F60.00
G01 X16.8651 Y-2.9199 F60.00
G01 X16.8525 Y-2.8988 F60.00
G01 X16.8420 Y-2.8767 F60.00
G01 X16.8338 Y-2.8536 F60.00
G01 X16.8278 Y-2.8298 F60.00
G01 X16.8242 Y-2.8055 F60.00
G01 X16.8230 Y-2.7810 F60.00
G01 X16.8242 Y-2.7565 F60.00
G01 X16.8278 Y-2.7322 F60.00
G01 X16.8338 Y-2.7084 F60.00
G01 X16.8420 Y-2.6853 F60.00
G01 X16.8525 Y-2.6632 F60.00
G01 X16.8651 Y-2.6421 F60.00
G01 X16.8797 Y-2.6224 F60.00
G01 X16.8962 Y-2.6042 F60.00
G01 X16.9144 Y-2.5877 F60.00
G01 X16.9341 Y-2.5731 F60.00
G01 X16.9552 Y-2.5605 F60.00
G01 X16.9773 Y-2.5500 F60.00
G01 X17.0004 Y-2.5418 F60.00
G01 X17.0242 Y-2.5358 F60.00
G01 X17.0485 Y-2.5322 F60.00
G01 X17.0730 Y-2.5310 F60.00
G01 X17.0975 Y-2.5322 F60.00
G01 X17.1218 Y-2.5358 F60.00
G01 X17.1456 Y-2.5418 F60.00
G01 X17.1687 Y-2.5500 F60.00
G01 X17.1908 Y-2.5605 F60.00
G01 X17.2119 Y-2.5731 F60.00
G01 X17.2316 Y-2.5877 F60.00
G01 X17.2498 Y-2.6042 F60.00
G01 X17.2663 Y-2.6224 F60.00
G01 X17.2809 Y-2.6421 F60.00
G01 X17.2935 Y-2.6632 F60.00
G01 X17.3040 Y-2.6853 F60.00
G01 X17.3122 Y-2.7084 F60.00
G01 X17.3182 Y-2.7322 F60.00
G01 X17.3218 Y-2.7565 F60.00
G01 X17.3230 Y-2.7810 F60.00
G00 X17.3230 Y-2.7810
G01 F60.00
G01 Z-1.0000
G01 F60.00
G01 X17.3218 Y-2.8055 F60.00
G01 X17.3182 Y-2.8298 F60.00
G01 X17.3122 Y-2.8536 F60.00
G01 X17.3040 Y-2.8767 F60.00
G01 X17.2935 Y-2.8988 F60.00
G01 X17.2809 Y-2.9199 F60.00
G01 X17.2663 Y-2.9396 F60.00
G01 X17.2498 Y-2.9578 F60.00
G01 X17.2316 Y-2.9743 F60.00
G01 X17.2119 Y-2.9889 F60.00
G01 X17.1908 Y-3.0015 F60.00
G01 X17.1687 Y-3.0120 F60.00
G01 X17.1456 Y-3.0202 F60.00
G01 X17.1218 Y-3.0262 F60.00
G01 X17.0975 Y-3.0298 F60.00
G01 X17.0730 Y-3.0310 F60.00
G01 X17.0485 Y-3.0298 F60.00
G01 X17.0242 Y-3.0262 F60.00
G01 X17.0004 Y-3.0202 F60.00
G01 X16.9773 Y-3.0120 F60.00
G01 X16.9552 Y-3.0015 F60.00
G01 X16.9341 Y-2.9889 F60.00
G01 X16.9144 Y-2.9743 F60.00
G01 X16.8962 Y-2.9578 F60.00
G01 X16.8797 Y-2.9396 F60.00
G01 X16.8651 Y-2.9199 F60.00
G01 X16.8525 Y-2.8988 F60.00
G01 X16.8420 Y-2.8767 F60.00
G01 X16.8338 Y-2.8536 F60.00
G01 X16.8278 Y-2.8298 F60.00
G01 X16.8242 Y-2.8055 F60.00
G01 X16.8230 Y-2.7810 F60.00
G01 X16.8242 Y-2.7565 F60.00
G01 X16.8278 Y-2.7322 F60.00
G01 X16.8338 Y-2.7084 F60.00
G01 X16.8420 Y-2.6853 F60.00
G01 X16.8525 Y-2.6632 F60.00
G01 X16.8651 Y-2.6421 F60.00
G01 X16.8797 Y-2.6224 F60.00
G01 X16.8962 Y-2.6042 F60.00
G01 X16.9144 Y-2.5877 F60.00
G01 X16.9341 Y-2.5731 F60.00
G01 X16.9552 Y-2.5605 F60.00
G01 X16.9773 Y-2.5500 F60.00
G01 X17.0004 Y-2.5418 F60.00
G01 X17.0242 Y-2.5358 F60.00
G01 X17.0485 Y-2.5322 F60.00
G01 X17.0730 Y-2.5310 F60.00
G01 X17.0975 Y-2.5322 F60.00
G01 X17.1218 Y-2.5358 F60.00
G01 X17.1456 Y-2.5418 F60.00
G01 X17.1687 Y-2.5500 F60.00
G01 X17.1908 Y-2.5605 F60.00
G01 X17.2119 Y-2.5731 F60.00
G01 X17.2316 Y-2.5877 F60.00
G01 X17.2498 Y-2.6042 F60.00
G01 X17.2663 Y-2.6224 F60.00
G01 X17.2809 Y-2.6421 F60.00
G01 X17.2935 Y-2.6632 F60.00
G01 X17.3040 Y-2.6853 F60.00
G01 X17.3122 Y-2.7084 F60.00
G01 X17.3182 Y-2.7322 F60.00
G01 X17.3218 Y-2.7565 F60.00
G01 X17.3230 Y-2.7810 F60.00
G00 X17.3230 Y-2.7810
G01 F60.00
G01 Z-1.5000
G01 F60.00
G01 X17.3218 Y-2.8055 F60.00
G01 X17.3182 Y-2.8298 F60.00
G01 X17.3122 Y-2.8536 F60.00
G01 X17.3040 Y-2.8767 F60.00
G01 X17.2935 Y-2.8988 F60.00
G01 X17.2809 Y-2.9199 F60.00
G01 X17.2663 Y-2.9396 F60.00
G01 X17.2498 Y-2.9578 F60.00
G01 X17.2316 Y-2.9743 F60.00
G01 X17.2119 Y-2.9889 F60.00
G01 X17.1908 Y-3.0015 F60.00
G01 X17.1687 Y-3.0120 F60.00
G01 X17.1456 Y-3.0202 F60.00
G01 X17.1218 Y-3.0262 F60.00
G01 X17.0975 Y-3.0298 F60.00
G01 X17.0730 Y-3.0310 F60.00
G01 X17.0485 Y-3.0298 F60.00
G01 X17.0242 Y-3.0262 F60.00
G01 X17.0004 Y-3.0202 F60.00
G01 X16.9773 Y-3.0120 F60.00
G01 X16.9552 Y-3.0015 F60.00
G01 X16.9341 Y-2.9889 F60.00
G01 X16.9144 Y-2.9743 F60.00
G01 X16.8962 Y-2.9578 F60.00
G01 X16.8797 Y-2.9396 F60.00
G01 X16.8651 Y-2.9199 F60.00
G01 X16.8525 Y-2.8988 F60.00
G01 X16.8420 Y-2.8767 F60.00
G01 X16.8338 Y-2.8536 F60.00
G01 X16.8278 Y-2.8298 F60.00
G01 X16.8242 Y-2.8055 F60.00
G01 X16.8230 Y-2.7810 F60.00
G01 X16.8242 Y-2.7565 F60.00
G01 X16.8278 Y-2.7322 F60.00
G01 X16.8338 Y-2.7084 F60.00
G01 X16.8420 Y-2.6853 F60.00
G01 X16.8525 Y-2.6632 F60.00
G01 X16.8651 Y-2.6421 F60.00
G01 X16.8797 Y-2.6224 F60.00
G01 X16.8962 Y-2.6042 F60.00
G01 X16.9144 Y-2.5877 F60.00
G01 X16.9341 Y-2.5731 F60.00
G01 X16.9552 Y-2.5605 F60.00
G01 X16.9773 Y-2.5500 F60.00
G01 X17.0004 Y-2.5418 F60.00
G01 X17.0242 Y-2.5358 F60.00
G01 X17.0485 Y-2.5322 F60.00
G01 X17.0730 Y-2.5310 F60.00
G01 X17.0975 Y-2.5322 F60.00
G01 X17.1218 Y-2.5358 F60.00
G01 X17.1456 Y-2.5418 F60.00
G01 X17.1687 Y-2.5500 F60.00
G01 X17.1908 Y-2.5605 F60.00
G01 X17.2119 Y-2.5731 F60.00
G01 X17.2316 Y-2.5877 F60.00
G01 X17.2498 Y-2.6042 F60.00
G01 X17.2663 Y-2.6224 F60.00
G01 X17.2809 Y-2.6421 F60.00
G01 X17.2935 Y-2.6632 F60.00
G01 X17.3040 Y-2.6853 F60.00
G01 X17.3122 Y-2.7084 F60.00
G01 X17.3182 Y-2.7322 F60.00
G01 X17.3218 Y-2.7565 F60.00
G01 X17.3230 Y-2.7810 F60.00
G00 X17.3230 Y-2.7810
G01 F60.00
G01 Z-2.0000
G01 F60.00
G01 X17.3218 Y-2.8055 F60.00
G01 X17.3182 Y-2.8298 F60.00
G01 X17.3122 Y-2.8536 F60.00
G01 X17.3040 Y-2.8767 F60.00
G01 X17.2935 Y-2.8988 F60.00
G01 X17.2809 Y-2.9199 F60.00
G01 X17.2663 Y-2.9396 F60.00
G01 X17.2498 Y-2.9578 F60.00
G01 X17.2316 Y-2.9743 F60.00
G01 X17.2119 Y-2.9889 F60.00
G01 X17.1908 Y-3.0015 F60.00
G01 X17.1687 Y-3.0120 F60.00
G01 X17.1456 Y-3.0202 F60.00
G01 X17.1218 Y-3.0262 F60.00
G01 X17.0975 Y-3.0298 F60.00
G01 X17.0730 Y-3.0310 F60.00
G01 X17.0485 Y-3.0298 F60.00
G01 X17.0242 Y-3.0262 F60.00
G01 X17.0004 Y-3.0202 F60.00
G01 X16.9773 Y-3.0120 F60.00
G01 X16.9552 Y-3.0015 F60.00
G01 X16.9341 Y-2.9889 F60.00
G01 X16.9144 Y-2.9743 F60.00
G01 X16.8962 Y-2.9578 F60.00
G01 X16.8797 Y-2.9396 F60.00
G01 X16.8651 Y-2.9199 F60.00
G01 X16.8525 Y-2.8988 F60.00
G01 X16.8420 Y-2.8767 F60.00
G01 X16.8338 Y-2.8536 F60.00
G01 X16.8278 Y-2.8298 F60.00
G01 X16.8242 Y-2.8055 F60.00
G01 X16.8230 Y-2.7810 F60.00
G01 X16.8242 Y-2.7565 F60.00
G01 X16.8278 Y-2.7322 F60.00
G01 X16.8338 Y-2.7084 F60.00
G01 X16.8420 Y-2.6853 F60.00
G01 X16.8525 Y-2.6632 F60.00
G01 X16.8651 Y-2.6421 F60.00
G01 X16.8797 Y-2.6224 F60.00
G01 X16.8962 Y-2.6042 F60.00
G01 X16.9144 Y-2.5877 F60.00
G01 X16.9341 Y-2.5731 F60.00
G01 X16.9552 Y-2.5605 F60.00
G01 X16.9773 Y-2.5500 F60.00
G01 X17.0004 Y-2.5418 F60.00
G01 X17.0242 Y-2.5358 F60.00
G01 X17.0485 Y-2.5322 F60.00
G01 X17.0730 Y-2.5310 F60.00
G01 X17.0975 Y-2.5322 F60.00
G01 X17.1218 Y-2.5358 F60.00
G01 X17.1456 Y-2.5418 F60.00
G01 X17.1687 Y-2.5500 F60.00
G01 X17.1908 Y-2.5605 F60.00
G01 X17.2119 Y-2.5731 F60.00
G01 X17.2316 Y-2.5877 F60.00
G01 X17.2498 Y-2.6042 F60.00
G01 X17.2663 Y-2.6224 F60.00
G01 X17.2809 Y-2.6421 F60.00
G01 X17.2935 Y-2.6632 F60.00
G01 X17.3040 Y-2.6853 F60.00
G01 X17.3122 Y-2.7084 F60.00
G01 X17.3182 Y-2.7322 F60.00
G01 X17.3218 Y-2.7565 F60.00
G01 X17.3230 Y-2.7810 F60.00
G00 X17.3230 Y-2.7810
G01 F60.00
G01 Z-2.5000
G01 F60.00
G01 X17.3218 Y-2.8055 F60.00
G01 X17.3182 Y-2.8298 F60.00
G01 X17.3122 Y-2.8536 F60.00
G01 X17.3040 Y-2.8767 F60.00
G01 X17.2935 Y-2.8988 F60.00
G01 X17.2809 Y-2.9199 F60.00
G01 X17.2663 Y-2.9396 F60.00
G01 X17.2498 Y-2.9578 F60.00
G01 X17.2316 Y-2.9743 F60.00
G01 X17.2119 Y-2.9889 F60.00
G01 X17.1908 Y-3.0015 F60.00
G01 X17.1687 Y-3.0120 F60.00
G01 X17.1456 Y-3.0202 F60.00
G01 X17.1218 Y-3.0262 F60.00
G01 X17.0975 Y-3.0298 F60.00
G01 X17.0730 Y-3.0310 F60.00
G01 X17.0485 Y-3.0298 F60.00
G01 X17.0242 Y-3.0262 F60.00
G01 X17.0004 Y-3.0202 F60.00
G01 X16.9773 Y-3.0120 F60.00
G01 X16.9552 Y-3.0015 F60.00
G01 X16.9341 Y-2.9889 F60.00
G01 X16.9144 Y-2.9743 F60.00
G01 X16.8962 Y-2.9578 F60.00
G01 X16.8797 Y-2.9396 F60.00
G01 X16.8651 Y-2.9199 F60.00
G01 X16.8525 Y-2.8988 F60.00
G01 X16.8420 Y-2.8767 F60.00
G01 X16.8338 Y-2.8536 F60.00
G01 X16.8278 Y-2.8298 F60.00
G01 X16.8242 Y-2.8055 F60.00
G01 X16.8230 Y-2.7810 F60.00
G01 X16.8242 Y-2.7565 F60.00
G01 X16.8278 Y-2.7322 F60.00
G01 X16.8338 Y-2.7084 F60.00
G01 X16.8420 Y-2.6853 F60.00
G01 X16.8525 Y-2.6632 F60.00
G01 X16.8651 Y-2.6421 F60.00
G01 X16.8797 Y-2.6224 F60.00
G01 X16.8962 Y-2.6042 F60.00
G01 X16.9144 Y-2.5877 F60.00
G01 X16.9341 Y-2.5731 F60.00
G01 X16.9552 Y-2.5605 F60.00
G01 X16.9773 Y-2.5500 F60.00
G01 X17.0004 Y-2.5418 F60.00
G01 X17.0242 Y-2.5358 F60.00
G01 X17.0485 Y-2.5322 F60.00
G01 X17.0730 Y-2.5310 F60.00
G01 X17.0975 Y-2.5322 F60.00
G01 X17.1218 Y-2.5358 F60.00
G01 X17.1456 Y-2.5418 F60.00
G01 X17.1687 Y-2.5500 F60.00
G01 X17.1908 Y-2.5605 F60.00
G01 X17.2119 Y-2.5731 F60.00
G01 X17.2316 Y-2.5877 F60.00
G01 X17.2498 Y-2.6042 F60.00
G01 X17.2663 Y-2.6224 F60.00
G01 X17.2809 Y-2.6421 F60.00
G01 X17.2935 Y-2.6632 F60.00
G01 X17.3040 Y-2.6853 F60.00
G01 X17.3122 Y-2.7084 F60.00
G01 X17.3182 Y-2.7322 F60.00
G01 X17.3218 Y-2.7565 F60.00
G01 X17.3230 Y-2.7810 F60.00
G00 Z2.0000
G00 X19.8630 Y-2.7810
G01 F60.00
G01 Z-0.5000
G01 F60.00
G01 X19.8618 Y-2.8055 F60.00
G01 X19.8582 Y-2.8298 F60.00
G01 X19.8522 Y-2.8536 F60.00
G01 X19.8440 Y-2.8767 F60.00
G01 X19.8335 Y-2.8988 F60.00
G01 X19.8209 Y-2.9199 F60.00
G01 X19.8063 Y-2.9396 F60.00
G01 X19.7898 Y-2.9578 F60.00
G01 X19.7716 Y-2.9743 F60.00
G01 X19.7519 Y-2.9889 F60.00
G01 X19.7308 Y-3.0015 F60.00
G01 X19.7087 Y-3.0120 F60.00
G01 X19.6856 Y-3.0202 F60.00
G01 X19.6618 Y-3.0262 F60.00
G01 X19.6375 Y-3.0298 F60.00
G01 X19.6130 Y-3.0310 F60.00
G01 X19.5885 Y-3.0298 F60.00
G01 X19.5642 Y-3.0262 F60.00
G01 X19.5404 Y-3.0202 F60.00
G01 X19.5173 Y-3.0120 F60.00
G01 X19.4952 Y-3.0015 F60.00
G01 X19.4741 Y-2.9889 F60.00
G01 X19.4544 Y-2.9743 F60.00
G01 X19.4362 Y-2.9578 F60.00
G01 X19.4197 Y-2.9396 F60.00
G01 X19.4051 Y-2.9199 F60.00
G01 X19.3925 Y-2.8988 F60.00
G01 X19.3820 Y-2.8767 F60.00
G01 X19.3738 Y-2.8536 F60.00
G01 X19.3678 Y-2.8298 F60.00
G01 X19.3642 Y-2.8055 F60.00
G01 X19.3630 Y-2.7810 F60.00
G01 X19.3642 Y-2.7565 F60.00
G01 X19.3678 Y-2.7322 F60.00
G01 X19.3738 Y-2.7084 F60.00
G01 X19.3820 Y-2.6853 F60.00
G01 X19.3925 Y-2.6632 F60.00
G01 X19.4051 Y-2.6421 F60.00
G01 X19.4197 Y-2.6224 F60.00
G01 X19.4362 Y-2.6042 F60.00
G01 X19.4544 Y-2.5877 F60.00
G01 X19.4741 Y-2.5731 F60.00
G01 X19.4952 Y-2.5605 F60.00
G01 X19.5173 Y-2.5500 F60.00
G01 X19.5404 Y-2.5418 F60.00
G01 X19.5642 Y-2.5358 F60.00
G01 X19.5885 Y-2.5322 F60.00
G01 X19.6130 Y-2.5310 F60.00
G01 X19.6375 Y-2.5322 F60.00
G01 X19.6618 Y-2.5358 F60.00
G01 X19.6856 Y-2.5418 F60.00
G01 X19.7087 Y-2.5500 F60.00
G01 X19.7308 Y-2.5605 F60.00
G01 X19.7519 Y-2.5731 F60.00
G01 X19.7716 Y-2.5877 F60.00
G01 X19.7898 Y-2.6042 F60.00
G01 X19.8063 Y-2.6224 F60.00
G01 X19.8209 Y-2.6421 F60.00
G01 X19.8335 Y-2.6632 F60.00
G01 X19.8440 Y-2.6853 F60.00
G01 X19.8522 Y-2.7084 F60.00
G01 X19.8582 Y-2.7322 F60.00
G01 X19.8618 Y-2.7565 F60.00
G01 X19.8630 Y-2.7810 F60.00
G00 X19.8630 Y-2.7810
G01 F60.00
G01 Z-1.0000
G01 F60.00
G01 X19.8618 Y-2.8055 F60.00
G01 X19.8582 Y-2.8298 F60.00
G01 X19.8522 Y-2.8536 F60.00
G01 X19.8440 Y-2.8767 F60.00
G01 X19.8335 Y-2.8988 F60.00
G01 X19.8209 Y-2.9199 F60.00
G01 X19.8063 Y-2.9396 F60.00
G01 X19.7898 Y-2.9578 F60.00
G01 X19.7716 Y-2.9743 F60.00
G01 X19.7519 Y-2.9889 F60.00
G01 X19.7308 Y-3.0015 F60.00
G01 X19.7087 Y-3.0120 F60.00
G01 X19.6856 Y-3.0202 F60.00
G01 X19.6618 Y-3.0262 F60.00
G01 X19.6375 Y-3.0298 F60.00
G01 X19.6130 Y-3.0310 F60.00
G01 X19.5885 Y-3.0298 F60.00
G01 X19.5642 Y-3.0262 F60.00
G01 X19.5404 Y-3.0202 F60.00
G01 X19.5173 Y-3.0120 F60.00
G01 X19.4952 Y-3.0015 F60.00
G01 X19.4741 Y-2.9889 F60.00
G01 X19.4544 Y-2.9743 F60.00
G01 X19.4362 Y-2.9578 F60.00
G01 X19.4197 Y-2.9396 F60.00
G01 X19.4051 Y-2.9199 F60.00
G01 X19.3925 Y-2.8988 F60.00
G01 X19.3820 Y-2.8767 F60.00
G01 X19.3738 Y-2.8536 F60.00
G01 X19.3678 Y-2.8298 F60.00
G01 X19.3642 Y-2.8055 F60.00
G01 X19.3630 Y-2.7810 F60.00
G01 X19.3642 Y-2.7565 F60.00
G01 X19.3678 Y-2.7322 F60.00
G01 X19.3738 Y-2.7084 F60.00
G01 X19.3820 Y-2.6853 F60.00
G01 X19.3925 Y-2.6632 F60.00
G01 X19.4051 Y-2.6421 F60.00
G01 X19.4197 Y-2.6224 F60.00
G01 X19.4362 Y-2.6042 F60.00
G01 X19.4544 Y-2.5877 F60.00
G01 X19.4741 Y-2.5731 F60.00
G01 X19.4952 Y-2.5605 F60.00
G01 X19.5173 Y-2.5500 F60.00
G01 X19.5404 Y-2.5418 F60.00
G01 X19.5642 Y-2.5358 F60.00
G01 X19.5885 Y-2.5322 F60.00
G01 X19.6130 Y-2.5310 F60.00
G01 X19.6375 Y-2.5322 F60.00
G01 X19.6618 Y-2.5358 F60.00
G01 X19.6856 Y-2.5418 F60.00
G01 X19.7087 Y-2.5500 F60.00
G01 X19.7308 Y-2.5605 F60.00
G01 X19.7519 Y-2.5731 F60.00
G01 X19.7716 Y-2.5877 F60.00
G01 X19.7898 Y-2.6042 F60.00
G01 X19.8063 Y-2.6224 F60.00
G01 X19.8209 Y-2.6421 F60.00
G01 X19.8335 Y-2.6632 F60.00
G01 X19.8440 Y-2.6853 F60.00
G01 X19.8522 Y-2.7084 F60.00
G01 X19.8582 Y-2.7322 F60.00
G01 X19.8618 Y-2.7565 F60.00
G01 X19.8630 Y-2.7810 F60.00
G00 X19.8630 Y-2.7810
G01 F60.00
G01 Z-1.5000
G01 F60.00
G01 X19.8618 Y-2.8055 F60.00
G01 X19.8582 Y-2.8298 F60.00
G01 X19.8522 Y-2.8536 F60.00
G01 X19.8440 Y-2.8767 F60.00
G01 X19.8335 Y-2.8988 F60.00
G01 X19.8209 Y-2.9199 F60.00
G01 X19.8063 Y-2.9396 F60.00
G01 X19.7898 Y-2.9578 F60.00
G01 X19.7716 Y-2.9743 F60.00
G01 X19.7519 Y-2.9889 F60.00
G01 X19.7308 Y-3.0015 F60.00
G01 X19.7087 Y-3.0120 F60.00
G01 X19.6856 Y-3.0202 F60.00
G01 X19.6618 Y-3.0262 F60.00
G01 X19.6375 Y-3.0298 F60.00
G01 X19.6130 Y-3.0310 F60.00
G01 X19.5885 Y-3.0298 F60.00
G01 X19.5642 Y-3.0262 F60.00
G01 X19.5404 Y-3.0202 F60.00
G01 X19.5173 Y-3.0120 F60.00
G01 X19.4952 Y-3.0015 F60.00
G01 X19.4741 Y-2.9889 F60.00
G01 X19.4544 Y-2.9743 F60.00
G01 X19.4362 Y-2.9578 F60.00
G01 X19.4197 Y-2.9396 F60.00
G01 X19.4051 Y-2.9199 F60.00
G01 X19.3925 Y-2.8988 F60.00
G01 X19.3820 Y-2.8767 F60.00
G01 X19.3738 Y-2.8536 F60.00
G01 X19.3678 Y-2.8298 F60.00
G01 X19.3642 Y-2.8055 F60.00
G01 X19.3630 Y-2.7810 F60.00
G01 X19.3642 Y-2.7565 F60.00
G01 X19.3678 Y-2.7322 F60.00
G01 X19.3738 Y-2.7084 F60.00
G01 X19.3820 Y-2.6853 F60.00
G01 X19.3925 Y-2.6632 F60.00
G01 X19.4051 Y-2.6421 F60.00
G01 X19.4197 Y-2.6224 F60.00
G01 X19.4362 Y-2.6042 F60.00
G01 X19.4544 Y-2.5877 F60.00
G01 X19.4741 Y-2.5731 F60.00
G01 X19.4952 Y-2.5605 F60.00
G01 X19.5173 Y-2.5500 F60.00
G01 X19.5404 Y-2.5418 F60.00
G01 X19.5642 Y-2.5358 F60.00
G01 X19.5885 Y-2.5322 F60.00
G01 X19.6130 Y-2.5310 F60.00
G01 X19.6375 Y-2.5322 F60.00
G01 X19.6618 Y-2.5358 F60.00
G01 X19.6856 Y-2.5418 F60.00
G01 X19.7087 Y-2.5500 F60.00
G01 X19.7308 Y-2.5605 F60.00
G01 X19.7519 Y-2.5731 F60.00
G01 X19.7716 Y-2.5877 F60.00
G01 X19.7898 Y-2.6042 F60.00
G01 X19.8063 Y-2.6224 F60.00
G01 X19.8209 Y-2.6421 F60.00
G01 X19.8335 Y-2.6632 F60.00
G01 X19.8440 Y-2.6853 F60.00
G01 X19.8522 Y-2.7084 F60.00
G01 X19.8582 Y-2.7322 F60.00
G01 X19.8618 Y-2.7565 F60.00
G01 X19.8630 Y-2.7810 F60.00
G00 X19.8630 Y-2.7810
G01 F60.00
G01 Z-2.0000
G01 F60.00
G01 X19.8618 Y-2.8055 F60.00
G01 X19.8582 Y-2.8298 F60.00
G01 X19.8522 Y-2.8536 F60.00
G01 X19.8440 Y-2.8767 F60.00
G01 X19.8335 Y-2.8988 F60.00
G01 X19.8209 Y-2.9199 F60.00
G01 X19.8063 Y-2.9396 F60.00
G01 X19.7898 Y-2.9578 F60.00
G01 X19.7716 Y-2.9743 F60.00
G01 X19.7519 Y-2.9889 F60.00
G01 X19.7308 Y-3.0015 F60.00
G01 X19.7087 Y-3.0120 F60.00
G01 X19.6856 Y-3.0202 F60.00
G01 X19.6618 Y-3.0262 F60.00
G01 X19.6375 Y-3.0298 F60.00
G01 X19.6130 Y-3.0310 F60.00
G01 X19.5885 Y-3.0298 F60.00
G01 X19.5642 Y-3.0262 F60.00
G01 X19.5404 Y-3.0202 F60.00
G01 X19.5173 Y-3.0120 F60.00
G01 X19.4952 Y-3.0015 F60.00
G01 X19.4741 Y-2.9889 F60.00
G01 X19.4544 Y-2.9743 F60.00
G01 X19.4362 Y-2.9578 F60.00
G01 X19.4197 Y-2.9396 F60.00
G01 X19.4051 Y-2.9199 F60.00
G01 X19.3925 Y-2.8988 F60.00
G01 X19.3820 Y-2.8767 F60.00
G01 X19.3738 Y-2.8536 F60.00
G01 X19.3678 Y-2.8298 F60.00
G01 X19.3642 Y-2.8055 F60.00
G01 X19.3630 Y-2.7810 F60.00
G01 X19.3642 Y-2.7565 F60.00
G01 X19.3678 Y-2.7322 F60.00
G01 X19.3738 Y-2.7084 F60.00
G01 X19.3820 Y-2.6853 F60.00
G01 X19.3925 Y-2.6632 F60.00
G01 X19.4051 Y-2.6421 F60.00
G01 X19.4197 Y-2.6224 F60.00
G01 X19.4362 Y-2.6042 F60.00
G01 X19.4544 Y-2.5877 F60.00
G01 X19.4741 Y-2.5731 F60.00
G01 X19.4952 Y-2.5605 F60.00
G01 X19.5173 Y-2.5500 F60.00
G01 X19.5404 Y-2.5418 F60.00
G01 X19.5642 Y-2.5358 F60.00
G01 X19.5885 Y-2.5322 F60.00
G01 X19.6130 Y-2.5310 F60.00
G01 X19.6375 Y-2.5322 F60.00
G01 X19.6618 Y-2.5358 F60.00
G01 X19.6856 Y-2.5418 F60.00
G01 X19.7087 Y-2.5500 F60.00
G01 X19.7308 Y-2.5605 F60.00
G01 X19.7519 Y-2.5731 F60.00
G01 X19.7716 Y-2.5877 F60.00
G01 X19.7898 Y-2.6042 F60.00
G01 X19.8063 Y-2.6224 F60.00
G01 X19.8209 Y-2.6421 F60.00
G01 X19.8335 Y-2.6632 F60.00
G01 X19.8440 Y-2.6853 F60.00
G01 X19.8522 Y-2.7084 F60.00
G01 X19.8582 Y-2.7322 F60.00
G01 X19.8618 Y-2.7565 F60.00
G01 X19.8630 Y-2.7810 F60.00
G00 X19.8630 Y-2.7810
G01 F60.00
G01 Z-2.5000
G01 F60.00
G01 X19.8618 Y-2.8055 F60.00
G01 X19.8582 Y-2.8298 F60.00
G01 X19.8522 Y-2.8536 F60.00
G01 X19.8440 Y-2.8767 F60.00
G01 X19.8335 Y-2.8988 F60.00
G01 X19.8209 Y-2.9199 F60.00
G01 X19.8063 Y-2.9396 F60.00
G01 X19.7898 Y-2.9578 F60.00
G01 X19.7716 Y-2.9743 F60.00
G01 X19.7519 Y-2.9889 F60.00
G01 X19.7308 Y-3.0015 F60.00
G01 X19.7087 Y-3.0120 F60.00
G01 X19.6856 Y-3.0202 F60.00
G01 X19.6618 Y-3.0262 F60.00
G01 X19.6375 Y-3.0298 F60.00
G01 X19.6130 Y-3.0310 F60.00
G01 X19.5885 Y-3.0298 F60.00
G01 X19.5642 Y-3.0262 F60.00
G01 X19.5404 Y-3.0202 F60.00
G01 X19.5173 Y-3.0120 F60.00
G01 X19.4952 Y-3.0015 F60.00
G01 X19.4741 Y-2.9889 F60.00
G01 X19.4544 Y-2.9743 F60.00
G01 X19.4362 Y-2.9578 F60.00
G01 X19.4197 Y-2.9396 F60.00
G01 X19.4051 Y-2.9199 F60.00
G01 X19.3925 Y-2.8988 F60.00
G01 X19.3820 Y-2.8767 F60.00
G01 X19.3738 Y-2.8536 F60.00
G01 X19.3678 Y-2.8298 F60.00
G01 X19.3642 Y-2.8055 F60.00
G01 X19.3630 Y-2.7810 F60.00
G01 X19.3642 Y-2.7565 F60.00
G01 X19.3678 Y-2.7322 F60.00
G01 X19.3738 Y-2.7084 F60.00
G01 X19.3820 Y-2.6853 F60.00
G01 X19.3925 Y-2.6632 F60.00
G01 X19.4051 Y-2.6421 F60.00
G01 X19.4197 Y-2.6224 F60.00
G01 X19.4362 Y-2.6042 F60.00
G01 X19.4544 Y-2.5877 F60.00
G01 X19.4741 Y-2.5731 F60.00
G01 X19.4952 Y-2.5605 F60.00
G01 X19.5173 Y-2.5500 F60.00
G01 X19.5404 Y-2.5418 F60.00
G01 X19.5642 Y-2.5358 F60.00
G01 X19.5885 Y-2.5322 F60.00
G01 X19.6130 Y-2.5310 F60.00
G01 X19.6375 Y-2.5322 F60.00
G01 X19.6618 Y-2.5358 F60.00
G01 X19.6856 Y-2.5418 F60.00
G01 X19.7087 Y-2.5500 F60.00
G01 X19.7308 Y-2.5605 F60.00
G01 X19.7519 Y-2.5731 F60.00
G01 X19.7716 Y-2.5877 F60.00
G01 X19.7898 Y-2.6042 F60.00
G01 X19.8063 Y-2.6224 F60.00
G01 X19.8209 Y-2.6421 F60.00
G01 X19.8335 Y-2.6632 F60.00
G01 X19.8440 Y-2.6853 F60.00
G01 X19.8522 Y-2.7084 F60.00
G01 X19.8582 Y-2.7322 F60.00
G01 X19.8618 Y-2.7565 F60.00
G01 X19.8630 Y-2.7810 F60.00
G00 Z2.0000
G00 X22.4030 Y-2.7810
G01 F60.00
G01 Z-0.5000
G01 F60.00
G01 X22.4018 Y-2.8055 F60.00
G01 X22.3982 Y-2.8298 F60.00
G01 X22.3922 Y-2.8536 F60.00
G01 X22.3840 Y-2.8767 F60.00
G01 X22.3735 Y-2.8988 F60.00
G01 X22.3609 Y-2.9199 F60.00
G01 X22.3463 Y-2.9396 F60.00
G01 X22.3298 Y-2.9578 F60.00
G01 X22.3116 Y-2.9743 F60.00
G01 X22.2919 Y-2.9889 F60.00
G01 X22.2708 Y-3.0015 F60.00
G01 X22.2487 Y-3.0120 F60.00
G01 X22.2256 Y-3.0202 F60.00
G01 X22.2018 Y-3.0262 F60.00
G01 X22.1775 Y-3.0298 F60.00
G01 X22.1530 Y-3.0310 F60.00
G01 X22.1285 Y-3.0298 F60.00
G01 X22.1042 Y-3.0262 F60.00
G01 X22.0804 Y-3.0202 F60.00
G01 X22.0573 Y-3.0120 F60.00
G01 X22.0352 Y-3.0015 F60.00
G01 X22.0141 Y-2.9889 F60.00
G01 X21.9944 Y-2.9743 F60.00
G01 X21.9762 Y-2.9578 F60.00
G01 X21.9597 Y-2.9396 F60.00
G01 X21.9451 Y-2.9199 F60.00
G01 X21.9325 Y-2.8988 F60.00
G01 X21.9220 Y-2.8767 F60.00
G01 X21.9138 Y-2.8536 F60.00
G01 X21.9078 Y-2.8298 F60.00
G01 X21.9042 Y-2.8055 F60.00
G01 X21.9030 Y-2.7810 F60.00
G01 X21.9042 Y-2.7565 F60.00
G01 X21.9078 Y-2.7322 F60.00
G01 X21.9138 Y-2.7084 F60.00
G01 X21.9220 Y-2.6853 F60.00
G01 X21.9325 Y-2.6632 F60.00
G01 X21.9451 Y-2.6421 F60.00
G01 X21.9597 Y-2.6224 F60.00
G01 X21.9762 Y-2.6042 F60.00
G01 X21.9944 Y-2.5877 F60.00
G01 X22.0141 Y-2.5731 F60.00
G01 X22.0352 Y-2.5605 F60.00
G01 X22.0573 Y-2.5500 F60.00
G01 X22.0804 Y-2.5418 F60.00
G01 X22.1042 Y-2.5358 F60.00
G01 X22.1285 Y-2.5322 F60.00
G01 X22.1530 Y-2.5310 F60.00
G01 X22.1775 Y-2.5322 F60.00
G01 X22.2018 Y-2.5358 F60.00
G01 X22.2256 Y-2.5418 F60.00
G01 X22.2487 Y-2.5500 F60.00
G01 X22.2708 Y-2.5605 F60.00
G01 X22.2919 Y-2.5731 F60.00
G01 X22.3116 Y-2.5877 F60.00
G01 X22.3298 Y-2.6042 F60.00
G01 X22.3463 Y-2.6224 F60.00
G01 X22.3609 Y-2.6421 F60.00
G01 X22.3735 Y-2.6632 F60.00
G01 X22.3840 Y-2.6853 F60.00
G01 X22.3922 Y-2.7084 F60.00
G01 X22.3982 Y-2.7322 F60.00
G01 X22.4018 Y-2.7565 F60.00
G01 X22.4030 Y-2.7810 F60.00
G00 X22.4030 Y-2.7810
G01 F60.00
G01 Z-1.0000
G01 F60.00
G01 X22.4018 Y-2.8055 F60.00
G01 X22.3982 Y-2.8298 F60.00
G01 X22.3922 Y-2.8536 F60.00
G01 X22.3840 Y-2.8767 F60.00
G01 X22.3735 Y-2.8988 F60.00
G01 X22.3609 Y-2.9199 F60.00
G01 X22.3463 Y-2.9396 F60.00
G01 X22.3298 Y-2.9578 F60.00
G01 X22.3116 Y-2.9743 F60.00
G01 X22.2919 Y-2.9889 F60.00
G01 X22.2708 Y-3.0015 F60.00
G01 X22.2487 Y-3.0120 F60.00
G01 X22.2256 Y-3.0202 F60.00
G01 X22.2018 Y-3.0262 F60.00
G01 X22.1775 Y-3.0298 F60.00
G01 X22.1530 Y-3.0310 F60.00
G01 X22.1285 Y-3.0298 F60.00
G01 X22.1042 Y-3.0262 F60.00
G01 X22.0804 Y-3.0202 F60.00
G01 X22.0573 Y-3.0120 F60.00
G01 X22.0352 Y-3.0015 F60.00
G01 X22.0141 Y-2.9889 F60.00
G01 X21.9944 Y-2.9743 F60.00
G01 X21.9762 Y-2.9578 F60.00
G01 X21.9597 Y-2.9396 F60.00
G01 X21.9451 Y-2.9199 F60.00
G01 X21.9325 Y-2.8988 F60.00
G01 X21.9220 Y-2.8767 F60.00
G01 X21.9138 Y-2.8536 F60.00
G01 X21.9078 Y-2.8298 F60.00
G01 X21.9042 Y-2.8055 F60.00
G01 X21.9030 Y-2.7810 F60.00
G01 X21.9042 Y-2.7565 F60.00
G01 X21.9078 Y-2.7322 F60.00
G01 X21.9138 Y-2.7084 F60.00
G01 X21.9220 Y-2.6853 F60.00
G01 X21.9325 Y-2.6632 F60.00
G01 X21.9451 Y-2.6421 F60.00
G01 X21.9597 Y-2.6224 F60.00
G01 X21.9762 Y-2.6042 F60.00
G01 X21.9944 Y-2.5877 F60.00
G01 X22.0141 Y-2.5731 F60.00
G01 X22.0352 Y-2.5605 F60.00
G01 X22.0573 Y-2.5500 F60.00
G01 X22.0804 Y-2.5418 F60.00
G01 X22.1042 Y-2.5358 F60.00
G01 X22.1285 Y-2.5322 F60.00
G01 X22.1530 Y-2.5310 F60.00
G01 X22.1775 Y-2.5322 F60.00
G01 X22.2018 Y-2.5358 F60.00
G01 X22.2256 Y-2.5418 F60.00
G01 X22.2487 Y-2.5500 F60.00
G01 X22.2708 Y-2.5605 F60.00
G01 X22.2919 Y-2.5731 F60.00
G01 X22.3116 Y-2.5877 F60.00
G01 X22.3298 Y-2.6042 F60.00
G01 X22.3463 Y-2.6224 F60.00
G01 X22.3609 Y-2.6421 F60.00
G01 X22.3735 Y-2.6632 F60.00
G01 X22.3840 Y-2.6853 F60.00
G01 X22.3922 Y-2.7084 F60.00
G01 X22.3982 Y-2.7322 F60.00
G01 X22.4018 Y-2.7565 F60.00
G01 X22.4030 Y-2.7810 F60.00
G00 X22.4030 Y-2.7810
G01 F60.00
G01 Z-1.5000
G01 F60.00
G01 X22.4018 Y-2.8055 F60.00
G01 X22.3982 Y-2.8298 F60.00
G01 X22.3922 Y-2.8536 F60.00
G01 X22.3840 Y-2.8767 F60.00
G01 X22.3735 Y-2.8988 F60.00
G01 X22.3609 Y-2.9199 F60.00
G01 X22.3463 Y-2.9396 F60.00
G01 X22.3298 Y-2.9578 F60.00
G01 X22.3116 Y-2.9743 F60.00
G01 X22.2919 Y-2.9889 F60.00
G01 X22.2708 Y-3.0015 F60.00
G01 X22.2487 Y-3.0120 F60.00
G01 X22.2256 Y-3.0202 F60.00
G01 X22.2018 Y-3.0262 F60.00
G01 X22.1775 Y-3.0298 F60.00
G01 X22.1530 Y-3.0310 F60.00
G01 X22.1285 Y-3.0298 F60.00
G01 X22.1042 Y-3.0262 F60.00
G01 X22.0804 Y-3.0202 F60.00
G01 X22.0573 Y-3.0120 F60.00
G01 X22.0352 Y-3.0015 F60.00
G01 X22.0141 Y-2.9889 F60.00
G01 X21.9944 Y-2.9743 F60.00
G01 X21.9762 Y-2.9578 F60.00
G01 X21.9597 Y-2.9396 F60.00
G01 X21.9451 Y-2.9199 F60.00
G01 X21.9325 Y-2.8988 F60.00
G01 X21.9220 Y-2.8767 F60.00
G01 X21.9138 Y-2.8536 F60.00
G01 X21.9078 Y-2.8298 F60.00
G01 X21.9042 Y-2.8055 F60.00
G01 X21.9030 Y-2.7810 F60.00
G01 X21.9042 Y-2.7565 F60.00
G01 X21.9078 Y-2.7322 F60.00
G01 X21.9138 Y-2.7084 F60.00
G01 X21.9220 Y-2.6853 F60.00
G01 X21.9325 Y-2.6632 F60.00
G01 X21.9451 Y-2.6421 F60.00
G01 X21.9597 Y-2.6224 F60.00
G01 X21.9762 Y-2.6042 F60.00
G01 X21.9944 Y-2.5877 F60.00
G01 X22.0141 Y-2.5731 F60.00
G01 X22.0352 Y-2.5605 F60.00
G01 X22.0573 Y-2.5500 F60.00
G01 X22.0804 Y-2.5418 F60.00
G01 X22.1042 Y-2.5358 F60.00
G01 X22.1285 Y-2.5322 F60.00
G01 X22.1530 Y-2.5310 F60.00
G01 X22.1775 Y-2.5322 F60.00
G01 X22.2018 Y-2.5358 F60.00
G01 X22.2256 Y-2.5418 F60.00
G01 X22.2487 Y-2.5500 F60.00
G01 X22.2708 Y-2.5605 F60.00
G01 X22.2919 Y-2.5731 F60.00
G01 X22.3116 Y-2.5877 F60.00
G01 X22.3298 Y-2.6042 F60.00
G01 X22.3463 Y-2.6224 F60.00
G01 X22.3609 Y-2.6421 F60.00
G01 X22.3735 Y-2.6632 F60.00
G01 X22.3840 Y-2.6853 F60.00
G01 X22.3922 Y-2.7084 F60.00
G01 X22.3982 Y-2.7322 F60.00
G01 X22.4018 Y-2.7565 F60.00
G01 X22.4030 Y-2.7810 F60.00
G00 X22.4030 Y-2.7810
G01 F60.00
G01 Z-2.0000
G01 F60.00
G01 X22.4018 Y-2.8055 F60.00
G01 X22.3982 Y-2.8298 F60.00
G01 X22.3922 Y-2.8536 F60.00
G01 X22.3840 Y-2.8767 F60.00
G01 X22.3735 Y-2.8988 F60.00
G01 X22.3609 Y-2.9199 F60.00
G01 X22.3463 Y-2.9396 F60.00
G01 X22.3298 Y-2.9578 F60.00
G01 X22.3116 Y-2.9743 F60.00
G01 X22.2919 Y-2.9889 F60.00
G01 X22.2708 Y-3.0015 F60.00
G01 X22.2487 Y-3.0120 F60.00
G01 X22.2256 Y-3.0202 F60.00
G01 X22.2018 Y-3.0262 F60.00
G01 X22.1775 Y-3.0298 F60.00
G01 X22.1530 Y-3.0310 F60.00
G01 X22.1285 Y-3.0298 F60.00
G01 X22.1042 Y-3.0262 F60.00
G01 X22.0804 Y-3.0202 F60.00
G01 X22.0573 Y-3.0120 F60.00
G01 X22.0352 Y-3.0015 F60.00
G01 X22.0141 Y-2.9889 F60.00
G01 X21.9944 Y-2.9743 F60.00
G01 X21.9762 Y-2.9578 F60.00
G01 X21.9597 Y-2.9396 F60.00
G01 X21.9451 Y-2.9199 F60.00
G01 X21.9325 Y-2.8988 F60.00
G01 X21.9220 Y-2.8767 F60.00
G01 X21.9138 Y-2.8536 F60.00
G01 X21.9078 Y-2.8298 F60.00
G01 X21.9042 Y-2.8055 F60.00
G01 X21.9030 Y-2.7810 F60.00
G01 X21.9042 Y-2.7565 F60.00
G01 X21.9078 Y-2.7322 F60.00
G01 X21.9138 Y-2.7084 F60.00
G01 X21.9220 Y-2.6853 F60.00
G01 X21.9325 Y-2.6632 F60.00
G01 X21.9451 Y-2.6421 F60.00
G01 X21.9597 Y-2.6224 F60.00
G01 X21.9762 Y-2.6042 F60.00
G01 X21.9944 Y-2.5877 F60.00
G01 X22.0141 Y-2.5731 F60.00
G01 X22.0352 Y-2.5605 F60.00
G01 X22.0573 Y-2.5500 F60.00
G01 X22.0804 Y-2.5418 F60.00
G01 X22.1042 Y-2.5358 F60.00
G01 X22.1285 Y-2.5322 F60.00
G01 X22.1530 Y-2.5310 F60.00
G01 X22.1775 Y-2.5322 F60.00
G01 X22.2018 Y-2.5358 F60.00
G01 X22.2256 Y-2.5418 F60.00
G01 X22.2487 Y-2.5500 F60.00
G01 X22.2708 Y-2.5605 F60.00
G01 X22.2919 Y-2.5731 F60.00
G01 X22.3116 Y-2.5877 F60.00
G01 X22.3298 Y-2.6042 F60.00
G01 X22.3463 Y-2.6224 F60.00
G01 X22.3609 Y-2.6421 F60.00
G01 X22.3735 Y-2.6632 F60.00
G01 X22.3840 Y-2.6853 F60.00
G01 X22.3922 Y-2.7084 F60.00
G01 X22.3982 Y-2.7322 F60.00
G01 X22.4018 Y-2.7565 F60.00
G01 X22.4030 Y-2.7810 F60.00
G00 X22.4030 Y-2.7810
G01 F60.00
G01 Z-2.5000
G01 F60.00
G01 X22.4018 Y-2.8055 F60.00
G01 X22.3982 Y-2.8298 F60.00
G01 X22.3922 Y-2.8536 F60.00
G01 X22.3840 Y-2.8767 F60.00
G01 X22.3735 Y-2.8988 F60.00
G01 X22.3609 Y-2.9199 F60.00
G01 X22.3463 Y-2.9396 F60.00
G01 X22.3298 Y-2.9578 F60.00
G01 X22.3116 Y-2.9743 F60.00
G01 X22.2919 Y-2.9889 F60.00
G01 X22.2708 Y-3.0015 F60.00
G01 X22.2487 Y-3.0120 F60.00
G01 X22.2256 Y-3.0202 F60.00
G01 X22.2018 Y-3.0262 F60.00
G01 X22.1775 Y-3.0298 F60.00
G01 X22.1530 Y-3.0310 F60.00
G01 X22.1285 Y-3.0298 F60.00
G01 X22.1042 Y-3.0262 F60.00
G01 X22.0804 Y-3.0202 F60.00
G01 X22.0573 Y-3.0120 F60.00
G01 X22.0352 Y-3.0015 F60.00
G01 X22.0141 Y-2.9889 F60.00
G01 X21.9944 Y-2.9743 F60.00
G01 X21.9762 Y-2.9578 F60.00
G01 X21.9597 Y-2.9396 F60.00
G01 X21.9451 Y-2.9199 F60.00
G01 X21.9325 Y-2.8988 F60.00
G01 X21.9220 Y-2.8767 F60.00
G01 X21.9138 Y-2.8536 F60.00
G01 X21.9078 Y-2.8298 F60.00
G01 X21.9042 Y-2.8055 F60.00
G01 X21.9030 Y-2.7810 F60.00
G01 X21.9042 Y-2.7565 F60.00
G01 X21.9078 Y-2.7322 F60.00
G01 X21.9138 Y-2.7084 F60.00
G01 X21.9220 Y-2.6853 F60.00
G01 X21.9325 Y-2.6632 F60.00
G01 X21.9451 Y-2.6421 F60.00
G01 X21.9597 Y-2.6224 F60.00
G01 X21.9762 Y-2.6042 F60.00
G01 X21.9944 Y-2.5877 F60.00
G01 X22.0141 Y-2.5731 F60.00
G01 X22.0352 Y-2.5605 F60.00
G01 X22.0573 Y-2.5500 F60.00
G01 X22.0804 Y-2.5418 F60.00
G01 X22.1042 Y-2.5358 F60.00
G01 X22.1285 Y-2.5322 F60.00
G01 X22.1530 Y-2.5310 F60.00
G01 X22.1775 Y-2.5322 F60.00
G01 X22.2018 Y-2.5358 F60.00
G01 X22.2256 Y-2.5418 F60.00
G01 X22.2487 Y-2.5500 F60.00
G01 X22.2708 Y-2.5605 F60.00
G01 X22.2919 Y-2.5731 F60.00
G01 X22.3116 Y-2.5877 F60.00
G01 X22.3298 Y-2.6042 F60.00
G01 X22.3463 Y-2.6224 F60.00
G01 X22.3609 Y-2.6421 F60.00
G01 X22.3735 Y-2.6632 F60.00
G01 X22.3840 Y-2.6853 F60.00
G01 X22.3922 Y-2.7084 F60.00
G01 X22.3982 Y-2.7322 F60.00
G01 X22.4018 Y-2.7565 F60.00
G01 X22.4030 Y-2.7810 F60.00
G00 Z2.0000
G00 X28.6170 Y-8.9030
G01 F60.00
G01 Z-0.5000
G01 F60.00
G01 X28.6158 Y-8.9275 F60.00
G01 X28.6122 Y-8.9518 F60.00
G01 X28.6062 Y-8.9756 F60.00
G01 X28.5980 Y-8.9987 F60.00
G01 X28.5875 Y-9.0208 F60.00
G01 X28.5749 Y-9.0419 F60.00
G01 X28.5603 Y-9.0616 F60.00
G01 X28.5438 Y-9.0798 F60.00
G01 X28.5256 Y-9.0963 F60.00
G01 X28.5059 Y-9.1109 F60.00
G01 X28.4848 Y-9.1235 F60.00
G01 X28.4627 Y-9.1340 F60.00
G01 X28.4396 Y-9.1422 F60.00
G01 X28.4158 Y-9.1482 F60.00
G01 X28.3915 Y-9.1518 F60.00
G01 X28.3670 Y-9.1530 F60.00
G01 X28.3425 Y-9.1518 F60.00
G01 X28.3182 Y-9.1482 F60.00
G01 X28.2944 Y-9.1422 F60.00
G01 X28.2713 Y-9.1340 F60.00
G01 X28.2492 Y-9.1235 F60.00
G01 X28.2281 Y-9.1109 F60.00
G01 X28.2084 Y-9.0963 F60.00
G01 X28.1902 Y-9.0798 F60.00
G01 X28.1737 Y-9.0616 F60.00
G01 X28.1591 Y-9.0419 F60.00
G01 X28.1465 Y-9.0208 F60.00
G01 X28.1360 Y-8.9987 F60.00
G01 X28.1278 Y-8.9756 F60.00
G01 X28.1218 Y-8.9518 F60.00
G01 X28.1182 Y-8.9275 F60.00
G01 X28.1170 Y-8.9030 F60.00
G01 X28.1182 Y-8.8785 F60.00
G01 X28.1218 Y-8.8542 F60.00
G01 X28.1278 Y-8.8304 F60.00
G01 X28.1360 Y-8.8073 F60.00
G01 X28.1465 Y-8.7852 F60.00
G01 X28.1591 Y-8.7641 F60.00
G01 X28.1737 Y-8.7444 F60.00
G01 X28.1902 Y-8.7262 F60.00
G01 X28.2084 Y-8.7097 F60.00
G01 X28.2281 Y-8.6951 F60.00
G01 X28.2492 Y-8.6825 F60.00
G01 X28.2713 Y-8.6720 F60.00
G01 X28.2944 Y-8.6638 F60.00
G01 X28.3182 Y-8.6578 F60.00
G01 X28.3425 Y-8.6542 F60.00
G01 X28.3670 Y-8.6530 F60.00
G01 X28.3915 Y-8.6542 F60.00
G01 X28.4158 Y-8.6578 F60.00
G01 X28.4396 Y-8.6638 F60.00
G01 X28.4627 Y-8.6720 F60.00
G01 X28.4848 Y-8.6825 F60.00
G01 X28.5059 Y-8.6951 F60.00
G01 X28.5256 Y-8.7097 F60.00
G01 X28.5438 Y-8.7262 F60.00
G01 X28.5603 Y-8.7444 F60.00
G01 X28.5749 Y-8.7641 F60.00
G01 X28.5875 Y-8.7852 F60.00
G01 X28.5980 Y-8.8073 F60.00
G01 X28.6062 Y-8.8304 F60.00
G01 X28.6122 Y-8.8542 F60.00
G01 X28.6158 Y-8.8785 F60.00
G01 X28.6170 Y-8.9030 F60.00
G00 X28.6170 Y-8.9030
G01 F60.00
G01 Z-1.0000
G01 F60.00
G01 X28.6158 Y-8.9275 F60.00
G01 X28.6122 Y-8.9518 F60.00
G01 X28.6062 Y-8.9756 F60.00
G01 X28.5980 Y-8.9987 F60.00
G01 X28.5875 Y-9.0208 F60.00
G01 X28.5749 Y-9.0419 F60.00
G01 X28.5603 Y-9.0616 F60.00
G01 X28.5438 Y-9.0798 F60.00
G01 X28.5256 Y-9.0963 F60.00
G01 X28.5059 Y-9.1109 F60.00
G01 X28.4848 Y-9.1235 F60.00
G01 X28.4627 Y-9.1340 F60.00
G01 X28.4396 Y-9.1422 F60.00
G01 X28.4158 Y-9.1482 F60.00
G01 X28.3915 Y-9.1518 F60.00
G01 X28.3670 Y-9.1530 F60.00
G01 X28.3425 Y-9.1518 F60.00
G01 X28.3182 Y-9.1482 F60.00
G01 X28.2944 Y-9.1422 F60.00
G01 X28.2713 Y-9.1340 F60.00
G01 X28.2492 Y-9.1235 F60.00
G01 X28.2281 Y-9.1109 F60.00
G01 X28.2084 Y-9.0963 F60.00
G01 X28.1902 Y-9.0798 F60.00
G01 X28.1737 Y-9.0616 F60.00
G01 X28.1591 Y-9.0419 F60.00
G01 X28.1465 Y-9.0208 F60.00
G01 X28.1360 Y-8.9987 F60.00
G01 X28.1278 Y-8.9756 F60.00
G01 X28.1218 Y-8.9518 F60.00
G01 X28.1182 Y-8.9275 F60.00
G01 X28.1170 Y-8.9030 F60.00
G01 X28.1182 Y-8.8785 F60.00
G01 X28.1218 Y-8.8542 F60.00
G01 X28.1278 Y-8.8304 F60.00
G01 X28.1360 Y-8.8073 F60.00
G01 X28.1465 Y-8.7852 F60.00
G01 X28.1591 Y-8.7641 F60.00
G01 X28.1737 Y-8.7444 F60.00
G01 X28.1902 Y-8.7262 F60.00
G01 X28.2084 Y-8.7097 F60.00
G01 X28.2281 Y-8.6951 F60.00
G01 X28.2492 Y-8.6825 F60.00
G01 X28.2713 Y-8.6720 F60.00
G01 X28.2944 Y-8.6638 F60.00
G01 X28.3182 Y-8.6578 F60.00
G01 X28.3425 Y-8.6542 F60.00
G01 X28.3670 Y-8.6530 F60.00
G01 X28.3915 Y-8.6542 F60.00
G01 X28.4158 Y-8.6578 F60.00
G01 X28.4396 Y-8.6638 F60.00
G01 X28.4627 Y-8.6720 F60.00
G01 X28.4848 Y-8.6825 F60.00
G01 X28.5059 Y-8.6951 F60.00
G01 X28.5256 Y-8.7097 F60.00
G01 X28.5438 Y-8.7262 F60.00
G01 X28.5603 Y-8.7444 F60.00
G01 X28.5749 Y-8.7641 F60.00
G01 X28.5875 Y-8.7852 F60.00
G01 X28.5980 Y-8.8073 F60.00
G01 X28.6062 Y-8.8304 F60.00
G01 X28.6122 Y-8.8542 F60.00
G01 X28.6158 Y-8.8785 F60.00
G01 X28.6170 Y-8.9030 F60.00
G00 X28.6170 Y-8.9030
G01 F60.00
G01 Z-1.5000
G01 F60.00
G01 X28.6158 Y-8.9275 F60.00
G01 X28.6122 Y-8.9518 F60.00
G01 X28.6062 Y-8.9756 F60.00
G01 X28.5980 Y-8.9987 F60.00
G01 X28.5875 Y-9.0208 F60.00
G01 X28.5749 Y-9.0419 F60.00
G01 X28.5603 Y-9.0616 F60.00
G01 X28.5438 Y-9.0798 F60.00
G01 X28.5256 Y-9.0963 F60.00
G01 X28.5059 Y-9.1109 F60.00
G01 X28.4848 Y-9.1235 F60.00
G01 X28.4627 Y-9.1340 F60.00
G01 X28.4396 Y-9.1422 F60.00
G01 X28.4158 Y-9.1482 F60.00
G01 X28.3915 Y-9.1518 F60.00
G01 X28.3670 Y-9.1530 F60.00
G01 X28.3425 Y-9.1518 F60.00
G01 X28.3182 Y-9.1482 F60.00
G01 X28.2944 Y-9.1422 F60.00
G01 X28.2713 Y-9.1340 F60.00
G01 X28.2492 Y-9.1235 F60.00
G01 X28.2281 Y-9.1109 F60.00
G01 X28.2084 Y-9.0963 F60.00
G01 X28.1902 Y-9.0798 F60.00
G01 X28.1737 Y-9.0616 F60.00
G01 X28.1591 Y-9.0419 F60.00
G01 X28.1465 Y-9.0208 F60.00
G01 X28.1360 Y-8.9987 F60.00
G01 X28.1278 Y-8.9756 F60.00
G01 X28.1218 Y-8.9518 F60.00
G01 X28.1182 Y-8.9275 F60.00
G01 X28.1170 Y-8.9030 F60.00
G01 X28.1182 Y-8.8785 F60.00
G01 X28.1218 Y-8.8542 F60.00
G01 X28.1278 Y-8.8304 F60.00
G01 X28.1360 Y-8.8073 F60.00
G01 X28.1465 Y-8.7852 F60.00
G01 X28.1591 Y-8.7641 F60.00
G01 X28.1737 Y-8.7444 F60.00
G01 X28.1902 Y-8.7262 F60.00
G01 X28.2084 Y-8.7097 F60.00
G01 X28.2281 Y-8.6951 F60.00
G01 X28.2492 Y-8.6825 F60.00
G01 X28.2713 Y-8.6720 F60.00
G01 X28.2944 Y-8.6638 F60.00
G01 X28.3182 Y-8.6578 F60.00
G01 X28.3425 Y-8.6542 F60.00
G01 X28.3670 Y-8.6530 F60.00
G01 X28.3915 Y-8.6542 F60.00
G01 X28.4158 Y-8.6578 F60.00
G01 X28.4396 Y-8.6638 F60.00
G01 X28.4627 Y-8.6720 F60.00
G01 X28.4848 Y-8.6825 F60.00
G01 X28.5059 Y-8.6951 F60.00
G01 X28.5256 Y-8.7097 F60.00
G01 X28.5438 Y-8.7262 F60.00
G01 X28.5603 Y-8.7444 F60.00
G01 X28.5749 Y-8.7641 F60.00
G01 X28.5875 Y-8.7852 F60.00
G01 X28.5980 Y-8.8073 F60.00
G01 X28.6062 Y-8.8304 F60.00
G01 X28.6122 Y-8.8542 F60.00
G01 X28.6158 Y-8.8785 F60.00
G01 X28.6170 Y-8.9030 F60.00
G00 X28.6170 Y-8.9030
G01 F60.00
G01 Z-2.0000
G01 F60.00
G01 X28.6158 Y-8.9275 F60.00
G01 X28.6122 Y-8.9518 F60.00
G01 X28.6062 Y-8.9756 F60.00
G01 X28.5980 Y-8.9987 F60.00
G01 X28.5875 Y-9.0208 F60.00
G01 X28.5749 Y-9.0419 F60.00
G01 X28.5603 Y-9.0616 F60.00
G01 X28.5438 Y-9.0798 F60.00
G01 X28.5256 Y-9.0963 F60.00
G01 X28.5059 Y-9.1109 F60.00
G01 X28.4848 Y-9.1235 F60.00
G01 X28.4627 Y-9.1340 F60.00
G01 X28.4396 Y-9.1422 F60.00
G01 X28.4158 Y-9.1482 F60.00
G01 X28.3915 Y-9.1518 F60.00
G01 X28.3670 Y-9.1530 F60.00
G01 X28.3425 Y-9.1518 F60.00
G01 X28.3182 Y-9.1482 F60.00
G01 X28.2944 Y-9.1422 F60.00
G01 X28.2713 Y-9.1340 F60.00
G01 X28.2492 Y-9.1235 F60.00
G01 X28.2281 Y-9.1109 F60.00
G01 X28.2084 Y-9.0963 F60.00
G01 X28.1902 Y-9.0798 F60.00
G01 X28.1737 Y-9.0616 F60.00
G01 X28.1591 Y-9.0419 F60.00
G01 X28.1465 Y-9.0208 F60.00
G01 X28.1360 Y-8.9987 F60.00
G01 X28.1278 Y-8.9756 F60.00
G01 X28.1218 Y-8.9518 F60.00
G01 X28.1182 Y-8.9275 F60.00
G01 X28.1170 Y-8.9030 F60.00
G01 X28.1182 Y-8.8785 F60.00
G01 X28.1218 Y-8.8542 F60.00
G01 X28.1278 Y-8.8304 F60.00
G01 X28.1360 Y-8.8073 F60.00
G01 X28.1465 Y-8.7852 F60.00
G01 X28.1591 Y-8.7641 F60.00
G01 X28.1737 Y-8.7444 F60.00
G01 X28.1902 Y-8.7262 F60.00
G01 X28.2084 Y-8.7097 F60.00
G01 X28.2281 Y-8.6951 F60.00
G01 X28.2492 Y-8.6825 F60.00
G01 X28.2713 Y-8.6720 F60.00
G01 X28.2944 Y-8.6638 F60.00
G01 X28.3182 Y-8.6578 F60.00
G01 X28.3425 Y-8.6542 F60.00
G01 X28.3670 Y-8.6530 F60.00
G01 X28.3915 Y-8.6542 F60.00
G01 X28.4158 Y-8.6578 F60.00
G01 X28.4396 Y-8.6638 F60.00
G01 X28.4627 Y-8.6720 F60.00
G01 X28.4848 Y-8.6825 F60.00
G01 X28.5059 Y-8.6951 F60.00
G01 X28.5256 Y-8.7097 F60.00
G01 X28.5438 Y-8.7262 F60.00
G01 X28.5603 Y-8.7444 F60.00
G01 X28.5749 Y-8.7641 F60.00
G01 X28.5875 Y-8.7852 F60.00
G01 X28.5980 Y-8.8073 F60.00
G01 X28.6062 Y-8.8304 F60.00
G01 X28.6122 Y-8.8542 F60.00
G01 X28.6158 Y-8.8785 F60.00
G01 X28.6170 Y-8.9030 F60.00
G00 X28.6170 Y-8.9030
G01 F60.00
G01 Z-2.5000
G01 F60.00
G01 X28.6158 Y-8.9275 F60.00
G01 X28.6122 Y-8.9518 F60.00
G01 X28.6062 Y-8.9756 F60.00
G01 X28.5980 Y-8.9987 F60.00
G01 X28.5875 Y-9.0208 F60.00
G01 X28.5749 Y-9.0419 F60.00
G01 X28.5603 Y-9.0616 F60.00
G01 X28.5438 Y-9.0798 F60.00
G01 X28.5256 Y-9.0963 F60.00
G01 X28.5059 Y-9.1109 F60.00
G01 X28.4848 Y-9.1235 F60.00
G01 X28.4627 Y-9.1340 F60.00
G01 X28.4396 Y-9.1422 F60.00
G01 X28.4158 Y-9.1482 F60.00
G01 X28.3915 Y-9.1518 F60.00
G01 X28.3670 Y-9.1530 F60.00
G01 X28.3425 Y-9.1518 F60.00
G01 X28.3182 Y-9.1482 F60.00
G01 X28.2944 Y-9.1422 F60.00
G01 X28.2713 Y-9.1340 F60.00
G01 X28.2492 Y-9.1235 F60.00
G01 X28.2281 Y-9.1109 F60.00
G01 X28.2084 Y-9.0963 F60.00
G01 X28.1902 Y-9.0798 F60.00
G01 X28.1737 Y-9.0616 F60.00
G01 X28.1591 Y-9.0419 F60.00
G01 X28.1465 Y-9.0208 F60.00
G01 X28.1360 Y-8.9987 F60.00
G01 X28.1278 Y-8.9756 F60.00
G01 X28.1218 Y-8.9518 F60.00
G01 X28.1182 Y-8.9275 F60.00
G01 X28.1170 Y-8.9030 F60.00
G01 X28.1182 Y-8.8785 F60.00
G01 X28.1218 Y-8.8542 F60.00
G01 X28.1278 Y-8.8304 F60.00
G01 X28.1360 Y-8.8073 F60.00
G01 X28.1465 Y-8.7852 F60.00
G01 X28.1591 Y-8.7641 F60.00
G01 X28.1737 Y-8.7444 F60.00
G01 X28.1902 Y-8.7262 F60.00
G01 X28.2084 Y-8.7097 F60.00
G01 X28.2281 Y-8.6951 F60.00
G01 X28.2492 Y-8.6825 F60.00
G01 X28.2713 Y-8.6720 F60.00
G01 X28.2944 Y-8.6638 F60.00
G01 X28.3182 Y-8.6578 F60.00
G01 X28.3425 Y-8.6542 F60.00
G01 X28.3670 Y-8.6530 F60.00
G01 X28.3915 Y-8.6542 F60.00
G01 X28.4158 Y-8.6578 F60.00
G01 X28.4396 Y-8.6638 F60.00
G01 X28.4627 Y-8.6720 F60.00
G01 X28.4848 Y-8.6825 F60.00
G01 X28.5059 Y-8.6951 F60.00
G01 X28.5256 Y-8.7097 F60.00
G01 X28.5438 Y-8.7262 F60.00
G01 X28.5603 Y-8.7444 F60.00
G01 X28.5749 Y-8.7641 F60.00
G01 X28.5875 Y-8.7852 F60.00
G01 X28.5980 Y-8.8073 F60.00
G01 X28.6062 Y-8.8304 F60.00
G01 X28.6122 Y-8.8542 F60.00
G01 X28.6158 Y-8.8785 F60.00
G01 X28.6170 Y-8.9030 F60.00
G00 Z2.0000
G00 X28.6170 Y-11.4430
G01 F60.00
G01 Z-0.5000
G01 F60.00
G01 X28.6158 Y-11.4675 F60.00
G01 X28.6122 Y-11.4918 F60.00
G01 X28.6062 Y-11.5156 F60.00
G01 X28.5980 Y-11.5387 F60.00
G01 X28.5875 Y-11.5608 F60.00
G01 X28.5749 Y-11.5819 F60.00
G01 X28.5603 Y-11.6016 F60.00
G01 X28.5438 Y-11.6198 F60.00
G01 X28.5256 Y-11.6363 F60.00
G01 X28.5059 Y-11.6509 F60.00
G01 X28.4848 Y-11.6635 F60.00
G01 X28.4627 Y-11.6740 F60.00
G01 X28.4396 Y-11.6822 F60.00
G01 X28.4158 Y-11.6882 F60.00
G01 X28.3915 Y-11.6918 F60.00
G01 X28.3670 Y-11.6930 F60.00
G01 X28.3425 Y-11.6918 F60.00
G01 X28.3182 Y-11.6882 F60.00
G01 X28.2944 Y-11.6822 F60.00
G01 X28.2713 Y-11.6740 F60.00
G01 X28.2492 Y-11.6635 F60.00
G01 X28.2281 Y-11.6509 F60.00
G01 X28.2084 Y-11.6363 F60.00
G01 X28.1902 Y-11.6198 F60.00
G01 X28.1737 Y-11.6016 F60.00
G01 X28.1591 Y-11.5819 F60.00
G01 X28.1465 Y-11.5608 F60.00
G01 X28.1360 Y-11.5387 F60.00
G01 X28.1278 Y-11.5156 F60.00
G01 X28.1218 Y-11.4918 F60.00
G01 X28.1182 Y-11.4675 F60.00
G01 X28.1170 Y-11.4430 F60.00
G01 X28.1182 Y-11.4185 F60.00
G01 X28.1218 Y-11.3942 F60.00
G01 X28.1278 Y-11.3704 F60.00
G01 X28.1360 Y-11.3473 F60.00
G01 X28.1465 Y-11.3252 F60.00
G01 X28.1591 Y-11.3041 F60.00
G01 X28.1737 Y-11.2844 F60.00
G01 X28.1902 Y-11.2662 F60.00
G01 X28.2084 Y-11.2497 F60.00
G01 X28.2281 Y-11.2351 F60.00
G01 X28.2492 Y-11.2225 F60.00
G01 X28.2713 Y-11.2120 F60.00
G01 X28.2944 Y-11.2038 F60.00
G01 X28.3182 Y-11.1978 F60.00
G01 X28.3425 Y-11.1942 F60.00
G01 X28.3670 Y-11.1930 F60.00
G01 X28.3915 Y-11.1942 F60.00
G01 X28.4158 Y-11.1978 F60.00
G01 X28.4396 Y-11.2038 F60.00
G01 X28.4627 Y-11.2120 F60.00
G01 X28.4848 Y-11.2225 F60.00
G01 X28.5059 Y-11.2351 F60.00
G01 X28.5256 Y-11.2497 F60.00
G01 X28.5438 Y-11.2662 F60.00
G01 X28.5603 Y-11.2844 F60.00
G01 X28.5749 Y-11.3041 F60.00
G01 X28.5875 Y-11.3252 F60.00
G01 X28.5980 Y-11.3473 F60.00
G01 X28.6062 Y-11.3704 F60.00
G01 X28.6122 Y-11.3942 F60.00
G01 X28.6158 Y-11.4185 F60.00
G01 X28.6170 Y-11.4430 F60.00
G00 X28.6170 Y-11.4430
G01 F60.00
G01 Z-1.0000
G01 F60.00
G01 X28.6158 Y-11.4675 F60.00
G01 X28.6122 Y-11.4918 F60.00
G01 X28.6062 Y-11.5156 F60.00
G01 X28.5980 Y-11.5387 F60.00
G01 X28.5875 Y-11.5608 F60.00
G01 X28.5749 Y-11.5819 F60.00
G01 X28.5603 Y-11.6016 F60.00
G01 X28.5438 Y-11.6198 F60.00
G01 X28.5256 Y-11.6363 F60.00
G01 X28.5059 Y-11.6509 F60.00
G01 X28.4848 Y-11.6635 F60.00
G01 X28.4627 Y-11.6740 F60.00
G01 X28.4396 Y-11.6822 F60.00
G01 X28.4158 Y-11.6882 F60.00
G01 X28.3915 Y-11.6918 F60.00
G01 X28.3670 Y-11.6930 F60.00
G01 X28.3425 Y-11.6918 F60.00
G01 X28.3182 Y-11.6882 F60.00
G01 X28.2944 Y-11.6822 F60.00
G01 X28.2713 Y-11.6740 F60.00
G01 X28.2492 Y-11.6635 F60.00
G01 X28.2281 Y-11.6509 F60.00
G01 X28.2084 Y-11.6363 F60.00
G01 X28.1902 Y-11.6198 F60.00
G01 X28.1737 Y-11.6016 F60.00
G01 X28.1591 Y-11.5819 F60.00
G01 X28.1465 Y-11.5608 F60.00
G01 X28.1360 Y-11.5387 F60.00
G01 X28.1278 Y-11.5156 F60.00
G01 X28.1218 Y-11.4918 F60.00
G01 X28.1182 Y-11.4675 F60.00
G01 X28.1170 Y-11.4430 F60.00
G01 X28.1182 Y-11.4185 F60.00
G01 X28.1218 Y-11.3942 F60.00
G01 X28.1278 Y-11.3704 F60.00
G01 X28.1360 Y-11.3473 F60.00
G01 X28.1465 Y-11.3252 F60.00
G01 X28.1591 Y-11.3041 F60.00
G01 X28.1737 Y-11.2844 F60.00
G01 X28.1902 Y-11.2662 F60.00
G01 X28.2084 Y-11.2497 F60.00
G01 X28.2281 Y-11.2351 F60.00
G01 X28.2492 Y-11.2225 F60.00
G01 X28.2713 Y-11.2120 F60.00
G01 X28.2944 Y-11.2038 F60.00
G01 X28.3182 Y-11.1978 F60.00
G01 X28.3425 Y-11.1942 F60.00
G01 X28.3670 Y-11.1930 F60.00
G01 X28.3915 Y-11.1942 F60.00
G01 X28.4158 Y-11.1978 F60.00
G01 X28.4396 Y-11.2038 F60.00
G01 X28.4627 Y-11.2120 F60.00
G01 X28.4848 Y-11.2225 F60.00
G01 X28.5059 Y-11.2351 F60.00
G01 X28.5256 Y-11.2497 F60.00
G01 X28.5438 Y-11.2662 F60.00
G01 X28.5603 Y-11.2844 F60.00
G01 X28.5749 Y-11.3041 F60.00
G01 X28.5875 Y-11.3252 F60.00
G01 X28.5980 Y-11.3473 F60.00
G01 X28.6062 Y-11.3704 F60.00
G01 X28.6122 Y-11.3942 F60.00
G01 X28.6158 Y-11.4185 F60.00
G01 X28.6170 Y-11.4430 F60.00
G00 X28.6170 Y-11.4430
G01 F60.00
G01 Z-1.5000
G01 F60.00
G01 X28.6158 Y-11.4675 F60.00
G01 X28.6122 Y-11.4918 F60.00
G01 X28.6062 Y-11.5156 F60.00
G01 X28.5980 Y-11.5387 F60.00
G01 X28.5875 Y-11.5608 F60.00
G01 X28.5749 Y-11.5819 F60.00
G01 X28.5603 Y-11.6016 F60.00
G01 X28.5438 Y-11.6198 F60.00
G01 X28.5256 Y-11.6363 F60.00
G01 X28.5059 Y-11.6509 F60.00
G01 X28.4848 Y-11.6635 F60.00
G01 X28.4627 Y-11.6740 F60.00
G01 X28.4396 Y-11.6822 F60.00
G01 X28.4158 Y-11.6882 F60.00
G01 X28.3915 Y-11.6918 F60.00
G01 X28.3670 Y-11.6930 F60.00
G01 X28.3425 Y-11.6918 F60.00
G01 X28.3182 Y-11.6882 F60.00
G01 X28.2944 Y-11.6822 F60.00
G01 X28.2713 Y-11.6740 F60.00
G01 X28.2492 Y-11.6635 F60.00
G01 X28.2281 Y-11.6509 F60.00
G01 X28.2084 Y-11.6363 F60.00
G01 X28.1902 Y-11.6198 F60.00
G01 X28.1737 Y-11.6016 F60.00
G01 X28.1591 Y-11.5819 F60.00
G01 X28.1465 Y-11.5608 F60.00
G01 X28.1360 Y-11.5387 F60.00
G01 X28.1278 Y-11.5156 F60.00
G01 X28.1218 Y-11.4918 F60.00
G01 X28.1182 Y-11.4675 F60.00
G01 X28.1170 Y-11.4430 F60.00
G01 X28.1182 Y-11.4185 F60.00
G01 X28.1218 Y-11.3942 F60.00
G01 X28.1278 Y-11.3704 F60.00
G01 X28.1360 Y-11.3473 F60.00
G01 X28.1465 Y-11.3252 F60.00
G01 X28.1591 Y-11.3041 F60.00
G01 X28.1737 Y-11.2844 F60.00
G01 X28.1902 Y-11.2662 F60.00
G01 X28.2084 Y-11.2497 F60.00
G01 X28.2281 Y-11.2351 F60.00
G01 X28.2492 Y-11.2225 F60.00
G01 X28.2713 Y-11.2120 F60.00
G01 X28.2944 Y-11.2038 F60.00
G01 X28.3182 Y-11.1978 F60.00
G01 X28.3425 Y-11.1942 F60.00
G01 X28.3670 Y-11.1930 F60.00
G01 X28.3915 Y-11.1942 F60.00
G01 X28.4158 Y-11.1978 F60.00
G01 X28.4396 Y-11.2038 F60.00
G01 X28.4627 Y-11.2120 F60.00
G01 X28.4848 Y-11.2225 F60.00
G01 X28.5059 Y-11.2351 F60.00
G01 X28.5256 Y-11.2497 F60.00
G01 X28.5438 Y-11.2662 F60.00
G01 X28.5603 Y-11.2844 F60.00
G01 X28.5749 Y-11.3041 F60.00
G01 X28.5875 Y-11.3252 F60.00
G01 X28.5980 Y-11.3473 F60.00
G01 X28.6062 Y-11.3704 F60.00
G01 X28.6122 Y-11.3942 F60.00
G01 X28.6158 Y-11.4185 F60.00
G01 X28.6170 Y-11.4430 F60.00
G00 X28.6170 Y-11.4430
G01 F60.00
G01 Z-2.0000
G01 F60.00
G01 X28.6158 Y-11.4675 F60.00
G01 X28.6122 Y-11.4918 F60.00
G01 X28.6062 Y-11.5156 F60.00
G01 X28.5980 Y-11.5387 F60.00
G01 X28.5875 Y-11.5608 F60.00
G01 X28.5749 Y-11.5819 F60.00
G01 X28.5603 Y-11.6016 F60.00
G01 X28.5438 Y-11.6198 F60.00
G01 X28.5256 Y-11.6363 F60.00
G01 X28.5059 Y-11.6509 F60.00
G01 X28.4848 Y-11.6635 F60.00
G01 X28.4627 Y-11.6740 F60.00
G01 X28.4396 Y-11.6822 F60.00
G01 X28.4158 Y-11.6882 F60.00
G01 X28.3915 Y-11.6918 F60.00
G01 X28.3670 Y-11.6930 F60.00
G01 X28.3425 Y-11.6918 F60.00
G01 X28.3182 Y-11.6882 F60.00
G01 X28.2944 Y-11.6822 F60.00
G01 X28.2713 Y-11.6740 F60.00
G01 X28.2492 Y-11.6635 F60.00
G01 X28.2281 Y-11.6509 F60.00
G01 X28.2084 Y-11.6363 F60.00
G01 X28.1902 Y-11.6198 F60.00
G01 X28.1737 Y-11.6016 F60.00
G01 X28.1591 Y-11.5819 F60.00
G01 X28.1465 Y-11.5608 F60.00
G01 X28.1360 Y-11.5387 F60.00
G01 X28.1278 Y-11.5156 F60.00
G01 X28.1218 Y-11.4918 F60.00
G01 X28.1182 Y-11.4675 F60.00
G01 X28.1170 Y-11.4430 F60.00
G01 X28.1182 Y-11.4185 F60.00
G01 X28.1218 Y-11.3942 F60.00
G01 X28.1278 Y-11.3704 F60.00
G01 X28.1360 Y-11.3473 F60.00
G01 X28.1465 Y-11.3252 F60.00
G01 X28.1591 Y-11.3041 F60.00
G01 X28.1737 Y-11.2844 F60.00
G01 X28.1902 Y-11.2662 F60.00
G01 X28.2084 Y-11.2497 F60.00
G01 X28.2281 Y-11.2351 F60.00
G01 X28.2492 Y-11.2225 F60.00
G01 X28.2713 Y-11.2120 F60.00
G01 X28.2944 Y-11.2038 F60.00
G01 X28.3182 Y-11.1978 F60.00
G01 X28.3425 Y-11.1942 F60.00
G01 X28.3670 Y-11.1930 F60.00
G01 X28.3915 Y-11.1942 F60.00
G01 X28.4158 Y-11.1978 F60.00
G01 X28.4396 Y-11.2038 F60.00
G01 X28.4627 Y-11.2120 F60.00
G01 X28.4848 Y-11.2225 F60.00
G01 X28.5059 Y-11.2351 F60.00
G01 X28.5256 Y-11.2497 F60.00
G01 X28.5438 Y-11.2662 F60.00
G01 X28.5603 Y-11.2844 F60.00
G01 X28.5749 Y-11.3041 F60.00
G01 X28.5875 Y-11.3252 F60.00
G01 X28.5980 Y-11.3473 F60.00
G01 X28.6062 Y-11.3704 F60.00
G01 X28.6122 Y-11.3942 F60.00
G01 X28.6158 Y-11.4185 F60.00
G01 X28.6170 Y-11.4430 F60.00
G00 X28.6170 Y-11.4430
G01 F60.00
G01 Z-2.5000
G01 F60.00
G01 X28.6158 Y-11.4675 F60.00
G01 X28.6122 Y-11.4918 F60.00
G01 X28.6062 Y-11.5156 F60.00
G01 X28.5980 Y-11.5387 F60.00
G01 X28.5875 Y-11.5608 F60.00
G01 X28.5749 Y-11.5819 F60.00
G01 X28.5603 Y-11.6016 F60.00
G01 X28.5438 Y-11.6198 F60.00
G01 X28.5256 Y-11.6363 F60.00
G01 X28.5059 Y-11.6509 F60.00
G01 X28.4848 Y-11.6635 F60.00
G01 X28.4627 Y-11.6740 F60.00
G01 X28.4396 Y-11.6822 F60.00
G01 X28.4158 Y-11.6882 F60.00
G01 X28.3915 Y-11.6918 F60.00
G01 X28.3670 Y-11.6930 F60.00
G01 X28.3425 Y-11.6918 F60.00
G01 X28.3182 Y-11.6882 F60.00
G01 X28.2944 Y-11.6822 F60.00
G01 X28.2713 Y-11.6740 F60.00
G01 X28.2492 Y-11.6635 F60.00
G01 X28.2281 Y-11.6509 F60.00
G01 X28.2084 Y-11.6363 F60.00
G01 X28.1902 Y-11.6198 F60.00
G01 X28.1737 Y-11.6016 F60.00
G01 X28.1591 Y-11.5819 F60.00
G01 X28.1465 Y-11.5608 F60.00
G01 X28.1360 Y-11.5387 F60.00
G01 X28.1278 Y-11.5156 F60.00
G01 X28.1218 Y-11.4918 F60.00
G01 X28.1182 Y-11.4675 F60.00
G01 X28.1170 Y-11.4430 F60.00
G01 X28.1182 Y-11.4185 F60.00
G01 X28.1218 Y-11.3942 F60.00
G01 X28.1278 Y-11.3704 F60.00
G01 X28.1360 Y-11.3473 F60.00
G01 X28.1465 Y-11.3252 F60.00
G01 X28.1591 Y-11.3041 F60.00
G01 X28.1737 Y-11.2844 F60.00
G01 X28.1902 Y-11.2662 F60.00
G01 X28.2084 Y-11.2497 F60.00
G01 X28.2281 Y-11.2351 F60.00
G01 X28.2492 Y-11.2225 F60.00
G01 X28.2713 Y-11.2120 F60.00
G01 X28.2944 Y-11.2038 F60.00
G01 X28.3182 Y-11.1978 F60.00
G01 X28.3425 Y-11.1942 F60.00
G01 X28.3670 Y-11.1930 F60.00
G01 X28.3915 Y-11.1942 F60.00
G01 X28.4158 Y-11.1978 F60.00
G01 X28.4396 Y-11.2038 F60.00
G01 X28.4627 Y-11.2120 F60.00
G01 X28.4848 Y-11.2225 F60.00
G01 X28.5059 Y-11.2351 F60.00
G01 X28.5256 Y-11.2497 F60.00
G01 X28.5438 Y-11.2662 F60.00
G01 X28.5603 Y-11.2844 F60.00
G01 X28.5749 Y-11.3041 F60.00
G01 X28.5875 Y-11.3252 F60.00
G01 X28.5980 Y-11.3473 F60.00
G01 X28.6062 Y-11.3704 F60.00
G01 X28.6122 Y-11.3942 F60.00
G01 X28.6158 Y-11.4185 F60.00
G01 X28.6170 Y-11.4430 F60.00
G00 Z2.0000
G00 X28.6170 Y-13.9830
G01 F60.00
G01 Z-0.5000
G01 F60.00
G01 X28.6158 Y-14.0075 F60.00
G01 X28.6122 Y-14.0318 F60.00
G01 X28.6062 Y-14.0556 F60.00
G01 X28.5980 Y-14.0787 F60.00
G01 X28.5875 Y-14.1008 F60.00
G01 X28.5749 Y-14.1219 F60.00
G01 X28.5603 Y-14.1416 F60.00
G01 X28.5438 Y-14.1598 F60.00
G01 X28.5256 Y-14.1763 F60.00
G01 X28.5059 Y-14.1909 F60.00
G01 X28.4848 Y-14.2035 F60.00
G01 X28.4627 Y-14.2140 F60.00
G01 X28.4396 Y-14.2222 F60.00
G01 X28.4158 Y-14.2282 F60.00
G01 X28.3915 Y-14.2318 F60.00
G01 X28.3670 Y-14.2330 F60.00
G01 X28.3425 Y-14.2318 F60.00
G01 X28.3182 Y-14.2282 F60.00
G01 X28.2944 Y-14.2222 F60.00
G01 X28.2713 Y-14.2140 F60.00
G01 X28.2492 Y-14.2035 F60.00
G01 X28.2281 Y-14.1909 F60.00
G01 X28.2084 Y-14.1763 F60.00
G01 X28.1902 Y-14.1598 F60.00
G01 X28.1737 Y-14.1416 F60.00
G01 X28.1591 Y-14.1219 F60.00
G01 X28.1465 Y-14.1008 F60.00
G01 X28.1360 Y-14.0787 F60.00
G01 X28.1278 Y-14.0556 F60.00
G01 X28.1218 Y-14.0318 F60.00
G01 X28.1182 Y-14.0075 F60.00
G01 X28.1170 Y-13.9830 F60.00
G01 X28.1182 Y-13.9585 F60.00
G01 X28.1218 Y-13.9342 F60.00
G01 X28.1278 Y-13.9104 F60.00
G01 X28.1360 Y-13.8873 F60.00
G01 X28.1465 Y-13.8652 F60.00
G01 X28.1591 Y-13.8441 F60.00
G01 X28.1737 Y-13.8244 F60.00
G01 X28.1902 Y-13.8062 F60.00
G01 X28.2084 Y-13.7897 F60.00
G01 X28.2281 Y-13.7751 F60.00
G01 X28.2492 Y-13.7625 F60.00
G01 X28.2713 Y-13.7520 F60.00
G01 X28.2944 Y-13.7438 F60.00
G01 X28.3182 Y-13.7378 F60.00
G01 X28.3425 Y-13.7342 F60.00
G01 X28.3670 Y-13.7330 F60.00
G01 X28.3915 Y-13.7342 F60.00
G01 X28.4158 Y-13.7378 F60.00
G01 X28.4396 Y-13.7438 F60.00
G01 X28.4627 Y-13.7520 F60.00
G01 X28.4848 Y-13.7625 F60.00
G01 X28.5059 Y-13.7751 F60.00
G01 X28.5256 Y-13.7897 F60.00
G01 X28.5438 Y-13.8062 F60.00
G01 X28.5603 Y-13.8244 F60.00
G01 X28.5749 Y-13.8441 F60.00
G01 X28.5875 Y-13.8652 F60.00
G01 X28.5980 Y-13.8873 F60.00
G01 X28.6062 Y-13.9104 F60.00
G01 X28.6122 Y-13.9342 F60.00
G01 X28.6158 Y-13.9585 F60.00
G01 X28.6170 Y-13.9830 F60.00
G00 X28.6170 Y-13.9830
G01 F60.00
G01 Z-1.0000
G01 F60.00
G01 X28.6158 Y-14.0075 F60.00
G01 X28.6122 Y-14.0318 F60.00
G01 X28.6062 Y-14.0556 F60.00
G01 X28.5980 Y-14.0787 F60.00
G01 X28.5875 Y-14.1008 F60.00
G01 X28.5749 Y-14.1219 F60.00
G01 X28.5603 Y-14.1416 F60.00
G01 X28.5438 Y-14.1598 F60.00
G01 X28.5256 Y-14.1763 F60.00
G01 X28.5059 Y-14.1909 F60.00
G01 X28.4848 Y-14.2035 F60.00
G01 X28.4627 Y-14.2140 F60.00
G01 X28.4396 Y-14.2222 F60.00
G01 X28.4158 Y-14.2282 F60.00
G01 X28.3915 Y-14.2318 F60.00
G01 X28.3670 Y-14.2330 F60.00
G01 X28.3425 Y-14.2318 F60.00
G01 X28.3182 Y-14.2282 F60.00
G01 X28.2944 Y-14.2222 F60.00
G01 X28.2713 Y-14.2140 F60.00
G01 X28.2492 Y-14.2035 F60.00
G01 X28.2281 Y-14.1909 F60.00
G01 X28.2084 Y-14.1763 F60.00
G01 X28.1902 Y-14.1598 F60.00
G01 X28.1737 Y-14.1416 F60.00
G01 X28.1591 Y-14.1219 F60.00
G01 X28.1465 Y-14.1008 F60.00
G01 X28.1360 Y-14.0787 F60.00
G01 X28.1278 Y-14.0556 F60.00
G01 X28.1218 Y-14.0318 F60.00
G01 X28.1182 Y-14.0075 F60.00
G01 X28.1170 Y-13.9830 F60.00
G01 X28.1182 Y-13.9585 F60.00
G01 X28.1218 Y-13.9342 F60.00
G01 X28.1278 Y-13.9104 F60.00
G01 X28.1360 Y-13.8873 F60.00
G01 X28.1465 Y-13.8652 F60.00
G01 X28.1591 Y-13.8441 F60.00
G01 X28.1737 Y-13.8244 F60.00
G01 X28.1902 Y-13.8062 F60.00
G01 X28.2084 Y-13.7897 F60.00
G01 X28.2281 Y-13.7751 F60.00
G01 X28.2492 Y-13.7625 F60.00
G01 X28.2713 Y-13.7520 F60.00
G01 X28.2944 Y-13.7438 F60.00
G01 X28.3182 Y-13.7378 F60.00
G01 X28.3425 Y-13.7342 F60.00
G01 X28.3670 Y-13.7330 F60.00
G01 X28.3915 Y-13.7342 F60.00
G01 X28.4158 Y-13.7378 F60.00
G01 X28.4396 Y-13.7438 F60.00
G01 X28.4627 Y-13.7520 F60.00
G01 X28.4848 Y-13.7625 F60.00
G01 X28.5059 Y-13.7751 F60.00
G01 X28.5256 Y-13.7897 F60.00
G01 X28.5438 Y-13.8062 F60.00
G01 X28.5603 Y-13.8244 F60.00
G01 X28.5749 Y-13.8441 F60.00
G01 X28.5875 Y-13.8652 F60.00
G01 X28.5980 Y-13.8873 F60.00
G01 X28.6062 Y-13.9104 F60.00
G01 X28.6122 Y-13.9342 F60.00
