(G-CODE GENERATED BY FLATCAM v8.994 - www.flatcam.org - Version Date: 2020/11/7)

(Name: Duel_Mux.drl_mill_cnc)
(Type: G-code from Geometry)
(Units: MM)

(Created on Wednesday, 20 March 2024 at 01:03)

(This preprocessor is used with a motion controller loaded with GRBL firmware.)
(It is configured to be compatible with almost any version of GRBL firmware.)

(TOOL DIAMETER: 0.5 mm)
(Feedrate_XY: 60.0 mm/min)
(Feedrate_Z: 60.0 mm/min)
(Feedrate rapids 1500.0 mm/min)

(Z_Cut: -2.5 mm)
(DepthPerCut: 0.5 mm <=>5 passes)
(Z_Move: 2.0 mm)
(Z Start: None mm)
(Z End: 15.0 mm)
(X,Y End: 0.0000, 0.0000 mm)
(Steps per circle: 64)
(Steps per circle: 64)
(Preprocessor Geometry: GRBL_11_no_M6)

(X range:    5.6790 ...   92.6890  mm)
(Y range:  -61.7730 ...   -3.3050  mm)

(Spindle Speed: 0.0 RPM)
G21
G90
G17
G94


G01 F60.00

M5             
G00 Z15.0000
G00 X0.0000 Y0.0000                
T1
(MSG, Change to Tool Dia = 0.5000)
M0
G00 Z15.0000
        
M03
G01 F60.00
G00 X6.1790 Y-3.5550
G01 F60.00
G01 Z-0.5000
G01 F60.00
G01 X6.1778 Y-3.5795 F60.00
G01 X6.1742 Y-3.6038 F60.00
G01 X6.1682 Y-3.6276 F60.00
G01 X6.1600 Y-3.6507 F60.00
G01 X6.1495 Y-3.6728 F60.00
G01 X6.1369 Y-3.6939 F60.00
G01 X6.1223 Y-3.7136 F60.00
G01 X6.1058 Y-3.7318 F60.00
G01 X6.0876 Y-3.7483 F60.00
G01 X6.0679 Y-3.7629 F60.00
G01 X6.0468 Y-3.7755 F60.00
G01 X6.0247 Y-3.7860 F60.00
G01 X6.0016 Y-3.7942 F60.00
G01 X5.9778 Y-3.8002 F60.00
G01 X5.9535 Y-3.8038 F60.00
G01 X5.9290 Y-3.8050 F60.00
G01 X5.9045 Y-3.8038 F60.00
G01 X5.8802 Y-3.8002 F60.00
G01 X5.8564 Y-3.7942 F60.00
G01 X5.8333 Y-3.7860 F60.00
G01 X5.8112 Y-3.7755 F60.00
G01 X5.7901 Y-3.7629 F60.00
G01 X5.7704 Y-3.7483 F60.00
G01 X5.7522 Y-3.7318 F60.00
G01 X5.7357 Y-3.7136 F60.00
G01 X5.7211 Y-3.6939 F60.00
G01 X5.7085 Y-3.6728 F60.00
G01 X5.6980 Y-3.6507 F60.00
G01 X5.6898 Y-3.6276 F60.00
G01 X5.6838 Y-3.6038 F60.00
G01 X5.6802 Y-3.5795 F60.00
G01 X5.6790 Y-3.5550 F60.00
G01 X5.6802 Y-3.5305 F60.00
G01 X5.6838 Y-3.5062 F60.00
G01 X5.6898 Y-3.4824 F60.00
G01 X5.6980 Y-3.4593 F60.00
G01 X5.7085 Y-3.4372 F60.00
G01 X5.7211 Y-3.4161 F60.00
G01 X5.7357 Y-3.3964 F60.00
G01 X5.7522 Y-3.3782 F60.00
G01 X5.7704 Y-3.3617 F60.00
G01 X5.7901 Y-3.3471 F60.00
G01 X5.8112 Y-3.3345 F60.00
G01 X5.8333 Y-3.3240 F60.00
G01 X5.8564 Y-3.3158 F60.00
G01 X5.8802 Y-3.3098 F60.00
G01 X5.9045 Y-3.3062 F60.00
G01 X5.9290 Y-3.3050 F60.00
G01 X5.9535 Y-3.3062 F60.00
G01 X5.9778 Y-3.3098 F60.00
G01 X6.0016 Y-3.3158 F60.00
G01 X6.0247 Y-3.3240 F60.00
G01 X6.0468 Y-3.3345 F60.00
G01 X6.0679 Y-3.3471 F60.00
G01 X6.0876 Y-3.3617 F60.00
G01 X6.1058 Y-3.3782 F60.00
G01 X6.1223 Y-3.3964 F60.00
G01 X6.1369 Y-3.4161 F60.00
G01 X6.1495 Y-3.4372 F60.00
G01 X6.1600 Y-3.4593 F60.00
G01 X6.1682 Y-3.4824 F60.00
G01 X6.1742 Y-3.5062 F60.00
G01 X6.1778 Y-3.5305 F60.00
G01 X6.1790 Y-3.5550 F60.00
G00 X6.1790 Y-3.5550
G01 F60.00
G01 Z-1.0000
G01 F60.00
G01 X6.1778 Y-3.5795 F60.00
G01 X6.1742 Y-3.6038 F60.00
G01 X6.1682 Y-3.6276 F60.00
G01 X6.1600 Y-3.6507 F60.00
G01 X6.1495 Y-3.6728 F60.00
G01 X6.1369 Y-3.6939 F60.00
G01 X6.1223 Y-3.7136 F60.00
G01 X6.1058 Y-3.7318 F60.00
G01 X6.0876 Y-3.7483 F60.00
G01 X6.0679 Y-3.7629 F60.00
G01 X6.0468 Y-3.7755 F60.00
G01 X6.0247 Y-3.7860 F60.00
G01 X6.0016 Y-3.7942 F60.00
G01 X5.9778 Y-3.8002 F60.00
G01 X5.9535 Y-3.8038 F60.00
G01 X5.9290 Y-3.8050 F60.00
G01 X5.9045 Y-3.8038 F60.00
G01 X5.8802 Y-3.8002 F60.00
G01 X5.8564 Y-3.7942 F60.00
G01 X5.8333 Y-3.7860 F60.00
G01 X5.8112 Y-3.7755 F60.00
G01 X5.7901 Y-3.7629 F60.00
G01 X5.7704 Y-3.7483 F60.00
G01 X5.7522 Y-3.7318 F60.00
G01 X5.7357 Y-3.7136 F60.00
G01 X5.7211 Y-3.6939 F60.00
G01 X5.7085 Y-3.6728 F60.00
G01 X5.6980 Y-3.6507 F60.00
G01 X5.6898 Y-3.6276 F60.00
G01 X5.6838 Y-3.6038 F60.00
G01 X5.6802 Y-3.5795 F60.00
G01 X5.6790 Y-3.5550 F60.00
G01 X5.6802 Y-3.5305 F60.00
G01 X5.6838 Y-3.5062 F60.00
G01 X5.6898 Y-3.4824 F60.00
G01 X5.6980 Y-3.4593 F60.00
G01 X5.7085 Y-3.4372 F60.00
G01 X5.7211 Y-3.4161 F60.00
G01 X5.7357 Y-3.3964 F60.00
G01 X5.7522 Y-3.3782 F60.00
G01 X5.7704 Y-3.3617 F60.00
G01 X5.7901 Y-3.3471 F60.00
G01 X5.8112 Y-3.3345 F60.00
G01 X5.8333 Y-3.3240 F60.00
G01 X5.8564 Y-3.3158 F60.00
G01 X5.8802 Y-3.3098 F60.00
G01 X5.9045 Y-3.3062 F60.00
G01 X5.9290 Y-3.3050 F60.00
G01 X5.9535 Y-3.3062 F60.00
G01 X5.9778 Y-3.3098 F60.00
G01 X6.0016 Y-3.3158 F60.00
G01 X6.0247 Y-3.3240 F60.00
G01 X6.0468 Y-3.3345 F60.00
G01 X6.0679 Y-3.3471 F60.00
G01 X6.0876 Y-3.3617 F60.00
G01 X6.1058 Y-3.3782 F60.00
G01 X6.1223 Y-3.3964 F60.00
G01 X6.1369 Y-3.4161 F60.00
G01 X6.1495 Y-3.4372 F60.00
G01 X6.1600 Y-3.4593 F60.00
G01 X6.1682 Y-3.4824 F60.00
G01 X6.1742 Y-3.5062 F60.00
G01 X6.1778 Y-3.5305 F60.00
G01 X6.1790 Y-3.5550 F60.00
G00 X6.1790 Y-3.5550
G01 F60.00
G01 Z-1.5000
G01 F60.00
G01 X6.1778 Y-3.5795 F60.00
G01 X6.1742 Y-3.6038 F60.00
G01 X6.1682 Y-3.6276 F60.00
G01 X6.1600 Y-3.6507 F60.00
G01 X6.1495 Y-3.6728 F60.00
G01 X6.1369 Y-3.6939 F60.00
G01 X6.1223 Y-3.7136 F60.00
G01 X6.1058 Y-3.7318 F60.00
G01 X6.0876 Y-3.7483 F60.00
G01 X6.0679 Y-3.7629 F60.00
G01 X6.0468 Y-3.7755 F60.00
G01 X6.0247 Y-3.7860 F60.00
G01 X6.0016 Y-3.7942 F60.00
G01 X5.9778 Y-3.8002 F60.00
G01 X5.9535 Y-3.8038 F60.00
G01 X5.9290 Y-3.8050 F60.00
G01 X5.9045 Y-3.8038 F60.00
G01 X5.8802 Y-3.8002 F60.00
G01 X5.8564 Y-3.7942 F60.00
G01 X5.8333 Y-3.7860 F60.00
G01 X5.8112 Y-3.7755 F60.00
G01 X5.7901 Y-3.7629 F60.00
G01 X5.7704 Y-3.7483 F60.00
G01 X5.7522 Y-3.7318 F60.00
G01 X5.7357 Y-3.7136 F60.00
G01 X5.7211 Y-3.6939 F60.00
G01 X5.7085 Y-3.6728 F60.00
G01 X5.6980 Y-3.6507 F60.00
G01 X5.6898 Y-3.6276 F60.00
G01 X5.6838 Y-3.6038 F60.00
G01 X5.6802 Y-3.5795 F60.00
G01 X5.6790 Y-3.5550 F60.00
G01 X5.6802 Y-3.5305 F60.00
G01 X5.6838 Y-3.5062 F60.00
G01 X5.6898 Y-3.4824 F60.00
G01 X5.6980 Y-3.4593 F60.00
G01 X5.7085 Y-3.4372 F60.00
G01 X5.7211 Y-3.4161 F60.00
G01 X5.7357 Y-3.3964 F60.00
G01 X5.7522 Y-3.3782 F60.00
G01 X5.7704 Y-3.3617 F60.00
G01 X5.7901 Y-3.3471 F60.00
G01 X5.8112 Y-3.3345 F60.00
G01 X5.8333 Y-3.3240 F60.00
G01 X5.8564 Y-3.3158 F60.00
G01 X5.8802 Y-3.3098 F60.00
G01 X5.9045 Y-3.3062 F60.00
G01 X5.9290 Y-3.3050 F60.00
G01 X5.9535 Y-3.3062 F60.00
G01 X5.9778 Y-3.3098 F60.00
G01 X6.0016 Y-3.3158 F60.00
G01 X6.0247 Y-3.3240 F60.00
G01 X6.0468 Y-3.3345 F60.00
G01 X6.0679 Y-3.3471 F60.00
G01 X6.0876 Y-3.3617 F60.00
G01 X6.1058 Y-3.3782 F60.00
G01 X6.1223 Y-3.3964 F60.00
G01 X6.1369 Y-3.4161 F60.00
G01 X6.1495 Y-3.4372 F60.00
G01 X6.1600 Y-3.4593 F60.00
G01 X6.1682 Y-3.4824 F60.00
G01 X6.1742 Y-3.5062 F60.00
G01 X6.1778 Y-3.5305 F60.00
G01 X6.1790 Y-3.5550 F60.00
G00 X6.1790 Y-3.5550
G01 F60.00
G01 Z-2.0000
G01 F60.00
G01 X6.1778 Y-3.5795 F60.00
G01 X6.1742 Y-3.6038 F60.00
G01 X6.1682 Y-3.6276 F60.00
G01 X6.1600 Y-3.6507 F60.00
G01 X6.1495 Y-3.6728 F60.00
G01 X6.1369 Y-3.6939 F60.00
G01 X6.1223 Y-3.7136 F60.00
G01 X6.1058 Y-3.7318 F60.00
G01 X6.0876 Y-3.7483 F60.00
G01 X6.0679 Y-3.7629 F60.00
G01 X6.0468 Y-3.7755 F60.00
G01 X6.0247 Y-3.7860 F60.00
G01 X6.0016 Y-3.7942 F60.00
G01 X5.9778 Y-3.8002 F60.00
G01 X5.9535 Y-3.8038 F60.00
G01 X5.9290 Y-3.8050 F60.00
G01 X5.9045 Y-3.8038 F60.00
G01 X5.8802 Y-3.8002 F60.00
G01 X5.8564 Y-3.7942 F60.00
G01 X5.8333 Y-3.7860 F60.00
G01 X5.8112 Y-3.7755 F60.00
G01 X5.7901 Y-3.7629 F60.00
G01 X5.7704 Y-3.7483 F60.00
G01 X5.7522 Y-3.7318 F60.00
G01 X5.7357 Y-3.7136 F60.00
G01 X5.7211 Y-3.6939 F60.00
G01 X5.7085 Y-3.6728 F60.00
G01 X5.6980 Y-3.6507 F60.00
G01 X5.6898 Y-3.6276 F60.00
G01 X5.6838 Y-3.6038 F60.00
G01 X5.6802 Y-3.5795 F60.00
G01 X5.6790 Y-3.5550 F60.00
G01 X5.6802 Y-3.5305 F60.00
G01 X5.6838 Y-3.5062 F60.00
G01 X5.6898 Y-3.4824 F60.00
G01 X5.6980 Y-3.4593 F60.00
G01 X5.7085 Y-3.4372 F60.00
G01 X5.7211 Y-3.4161 F60.00
G01 X5.7357 Y-3.3964 F60.00
G01 X5.7522 Y-3.3782 F60.00
G01 X5.7704 Y-3.3617 F60.00
G01 X5.7901 Y-3.3471 F60.00
G01 X5.8112 Y-3.3345 F60.00
G01 X5.8333 Y-3.3240 F60.00
G01 X5.8564 Y-3.3158 F60.00
G01 X5.8802 Y-3.3098 F60.00
G01 X5.9045 Y-3.3062 F60.00
G01 X5.9290 Y-3.3050 F60.00
G01 X5.9535 Y-3.3062 F60.00
G01 X5.9778 Y-3.3098 F60.00
G01 X6.0016 Y-3.3158 F60.00
G01 X6.0247 Y-3.3240 F60.00
G01 X6.0468 Y-3.3345 F60.00
G01 X6.0679 Y-3.3471 F60.00
G01 X6.0876 Y-3.3617 F60.00
G01 X6.1058 Y-3.3782 F60.00
G01 X6.1223 Y-3.3964 F60.00
G01 X6.1369 Y-3.4161 F60.00
G01 X6.1495 Y-3.4372 F60.00
G01 X6.1600 Y-3.4593 F60.00
G01 X6.1682 Y-3.4824 F60.00
G01 X6.1742 Y-3.5062 F60.00
G01 X6.1778 Y-3.5305 F60.00
G01 X6.1790 Y-3.5550 F60.00
G00 X6.1790 Y-3.5550
G01 F60.00
G01 Z-2.5000
G01 F60.00
G01 X6.1778 Y-3.5795 F60.00
G01 X6.1742 Y-3.6038 F60.00
G01 X6.1682 Y-3.6276 F60.00
G01 X6.1600 Y-3.6507 F60.00
G01 X6.1495 Y-3.6728 F60.00
G01 X6.1369 Y-3.6939 F60.00
G01 X6.1223 Y-3.7136 F60.00
G01 X6.1058 Y-3.7318 F60.00
G01 X6.0876 Y-3.7483 F60.00
G01 X6.0679 Y-3.7629 F60.00
G01 X6.0468 Y-3.7755 F60.00
G01 X6.0247 Y-3.7860 F60.00
G01 X6.0016 Y-3.7942 F60.00
G01 X5.9778 Y-3.8002 F60.00
G01 X5.9535 Y-3.8038 F60.00
G01 X5.9290 Y-3.8050 F60.00
G01 X5.9045 Y-3.8038 F60.00
G01 X5.8802 Y-3.8002 F60.00
G01 X5.8564 Y-3.7942 F60.00
G01 X5.8333 Y-3.7860 F60.00
G01 X5.8112 Y-3.7755 F60.00
G01 X5.7901 Y-3.7629 F60.00
G01 X5.7704 Y-3.7483 F60.00
G01 X5.7522 Y-3.7318 F60.00
G01 X5.7357 Y-3.7136 F60.00
G01 X5.7211 Y-3.6939 F60.00
G01 X5.7085 Y-3.6728 F60.00
G01 X5.6980 Y-3.6507 F60.00
G01 X5.6898 Y-3.6276 F60.00
G01 X5.6838 Y-3.6038 F60.00
G01 X5.6802 Y-3.5795 F60.00
G01 X5.6790 Y-3.5550 F60.00
G01 X5.6802 Y-3.5305 F60.00
G01 X5.6838 Y-3.5062 F60.00
G01 X5.6898 Y-3.4824 F60.00
G01 X5.6980 Y-3.4593 F60.00
G01 X5.7085 Y-3.4372 F60.00
G01 X5.7211 Y-3.4161 F60.00
G01 X5.7357 Y-3.3964 F60.00
G01 X5.7522 Y-3.3782 F60.00
G01 X5.7704 Y-3.3617 F60.00
G01 X5.7901 Y-3.3471 F60.00
G01 X5.8112 Y-3.3345 F60.00
G01 X5.8333 Y-3.3240 F60.00
G01 X5.8564 Y-3.3158 F60.00
G01 X5.8802 Y-3.3098 F60.00
G01 X5.9045 Y-3.3062 F60.00
G01 X5.9290 Y-3.3050 F60.00
G01 X5.9535 Y-3.3062 F60.00
G01 X5.9778 Y-3.3098 F60.00
G01 X6.0016 Y-3.3158 F60.00
G01 X6.0247 Y-3.3240 F60.00
G01 X6.0468 Y-3.3345 F60.00
G01 X6.0679 Y-3.3471 F60.00
G01 X6.0876 Y-3.3617 F60.00
G01 X6.1058 Y-3.3782 F60.00
G01 X6.1223 Y-3.3964 F60.00
G01 X6.1369 Y-3.4161 F60.00
G01 X6.1495 Y-3.4372 F60.00
G01 X6.1600 Y-3.4593 F60.00
G01 X6.1682 Y-3.4824 F60.00
G01 X6.1742 Y-3.5062 F60.00
G01 X6.1778 Y-3.5305 F60.00
G01 X6.1790 Y-3.5550 F60.00
G00 Z2.0000
G00 X8.7190 Y-3.5550
G01 F60.00
G01 Z-0.5000
G01 F60.00
G01 X8.7178 Y-3.5795 F60.00
G01 X8.7142 Y-3.6038 F60.00
G01 X8.7082 Y-3.6276 F60.00
G01 X8.7000 Y-3.6507 F60.00
G01 X8.6895 Y-3.6728 F60.00
G01 X8.6769 Y-3.6939 F60.00
G01 X8.6623 Y-3.7136 F60.00
G01 X8.6458 Y-3.7318 F60.00
G01 X8.6276 Y-3.7483 F60.00
G01 X8.6079 Y-3.7629 F60.00
G01 X8.5868 Y-3.7755 F60.00
G01 X8.5647 Y-3.7860 F60.00
G01 X8.5416 Y-3.7942 F60.00
G01 X8.5178 Y-3.8002 F60.00
G01 X8.4935 Y-3.8038 F60.00
G01 X8.4690 Y-3.8050 F60.00
G01 X8.4445 Y-3.8038 F60.00
G01 X8.4202 Y-3.8002 F60.00
G01 X8.3964 Y-3.7942 F60.00
G01 X8.3733 Y-3.7860 F60.00
G01 X8.3512 Y-3.7755 F60.00
G01 X8.3301 Y-3.7629 F60.00
G01 X8.3104 Y-3.7483 F60.00
G01 X8.2922 Y-3.7318 F60.00
G01 X8.2757 Y-3.7136 F60.00
G01 X8.2611 Y-3.6939 F60.00
G01 X8.2485 Y-3.6728 F60.00
G01 X8.2380 Y-3.6507 F60.00
G01 X8.2298 Y-3.6276 F60.00
G01 X8.2238 Y-3.6038 F60.00
G01 X8.2202 Y-3.5795 F60.00
G01 X8.2190 Y-3.5550 F60.00
G01 X8.2202 Y-3.5305 F60.00
G01 X8.2238 Y-3.5062 F60.00
G01 X8.2298 Y-3.4824 F60.00
G01 X8.2380 Y-3.4593 F60.00
G01 X8.2485 Y-3.4372 F60.00
G01 X8.2611 Y-3.4161 F60.00
G01 X8.2757 Y-3.3964 F60.00
G01 X8.2922 Y-3.3782 F60.00
G01 X8.3104 Y-3.3617 F60.00
G01 X8.3301 Y-3.3471 F60.00
G01 X8.3512 Y-3.3345 F60.00
G01 X8.3733 Y-3.3240 F60.00
G01 X8.3964 Y-3.3158 F60.00
G01 X8.4202 Y-3.3098 F60.00
G01 X8.4445 Y-3.3062 F60.00
G01 X8.4690 Y-3.3050 F60.00
G01 X8.4935 Y-3.3062 F60.00
G01 X8.5178 Y-3.3098 F60.00
G01 X8.5416 Y-3.3158 F60.00
G01 X8.5647 Y-3.3240 F60.00
G01 X8.5868 Y-3.3345 F60.00
G01 X8.6079 Y-3.3471 F60.00
G01 X8.6276 Y-3.3617 F60.00
G01 X8.6458 Y-3.3782 F60.00
G01 X8.6623 Y-3.3964 F60.00
G01 X8.6769 Y-3.4161 F60.00
G01 X8.6895 Y-3.4372 F60.00
G01 X8.7000 Y-3.4593 F60.00
G01 X8.7082 Y-3.4824 F60.00
G01 X8.7142 Y-3.5062 F60.00
G01 X8.7178 Y-3.5305 F60.00
G01 X8.7190 Y-3.5550 F60.00
G00 X8.7190 Y-3.5550
G01 F60.00
G01 Z-1.0000
G01 F60.00
G01 X8.7178 Y-3.5795 F60.00
G01 X8.7142 Y-3.6038 F60.00
G01 X8.7082 Y-3.6276 F60.00
G01 X8.7000 Y-3.6507 F60.00
G01 X8.6895 Y-3.6728 F60.00
G01 X8.6769 Y-3.6939 F60.00
G01 X8.6623 Y-3.7136 F60.00
G01 X8.6458 Y-3.7318 F60.00
G01 X8.6276 Y-3.7483 F60.00
G01 X8.6079 Y-3.7629 F60.00
G01 X8.5868 Y-3.7755 F60.00
G01 X8.5647 Y-3.7860 F60.00
G01 X8.5416 Y-3.7942 F60.00
G01 X8.5178 Y-3.8002 F60.00
G01 X8.4935 Y-3.8038 F60.00
G01 X8.4690 Y-3.8050 F60.00
G01 X8.4445 Y-3.8038 F60.00
G01 X8.4202 Y-3.8002 F60.00
G01 X8.3964 Y-3.7942 F60.00
G01 X8.3733 Y-3.7860 F60.00
G01 X8.3512 Y-3.7755 F60.00
G01 X8.3301 Y-3.7629 F60.00
G01 X8.3104 Y-3.7483 F60.00
G01 X8.2922 Y-3.7318 F60.00
G01 X8.2757 Y-3.7136 F60.00
G01 X8.2611 Y-3.6939 F60.00
G01 X8.2485 Y-3.6728 F60.00
G01 X8.2380 Y-3.6507 F60.00
G01 X8.2298 Y-3.6276 F60.00
G01 X8.2238 Y-3.6038 F60.00
G01 X8.2202 Y-3.5795 F60.00
G01 X8.2190 Y-3.5550 F60.00
G01 X8.2202 Y-3.5305 F60.00
G01 X8.2238 Y-3.5062 F60.00
G01 X8.2298 Y-3.4824 F60.00
G01 X8.2380 Y-3.4593 F60.00
G01 X8.2485 Y-3.4372 F60.00
G01 X8.2611 Y-3.4161 F60.00
G01 X8.2757 Y-3.3964 F60.00
G01 X8.2922 Y-3.3782 F60.00
G01 X8.3104 Y-3.3617 F60.00
G01 X8.3301 Y-3.3471 F60.00
G01 X8.3512 Y-3.3345 F60.00
G01 X8.3733 Y-3.3240 F60.00
G01 X8.3964 Y-3.3158 F60.00
G01 X8.4202 Y-3.3098 F60.00
G01 X8.4445 Y-3.3062 F60.00
G01 X8.4690 Y-3.3050 F60.00
G01 X8.4935 Y-3.3062 F60.00
G01 X8.5178 Y-3.3098 F60.00
G01 X8.5416 Y-3.3158 F60.00
G01 X8.5647 Y-3.3240 F60.00
G01 X8.5868 Y-3.3345 F60.00
G01 X8.6079 Y-3.3471 F60.00
G01 X8.6276 Y-3.3617 F60.00
G01 X8.6458 Y-3.3782 F60.00
G01 X8.6623 Y-3.3964 F60.00
G01 X8.6769 Y-3.4161 F60.00
G01 X8.6895 Y-3.4372 F60.00
G01 X8.7000 Y-3.4593 F60.00
G01 X8.7082 Y-3.4824 F60.00
G01 X8.7142 Y-3.5062 F60.00
G01 X8.7178 Y-3.5305 F60.00
G01 X8.7190 Y-3.5550 F60.00
G00 X8.7190 Y-3.5550
G01 F60.00
G01 Z-1.5000
G01 F60.00
G01 X8.7178 Y-3.5795 F60.00
G01 X8.7142 Y-3.6038 F60.00
G01 X8.7082 Y-3.6276 F60.00
G01 X8.7000 Y-3.6507 F60.00
G01 X8.6895 Y-3.6728 F60.00
G01 X8.6769 Y-3.6939 F60.00
G01 X8.6623 Y-3.7136 F60.00
G01 X8.6458 Y-3.7318 F60.00
G01 X8.6276 Y-3.7483 F60.00
G01 X8.6079 Y-3.7629 F60.00
G01 X8.5868 Y-3.7755 F60.00
G01 X8.5647 Y-3.7860 F60.00
G01 X8.5416 Y-3.7942 F60.00
G01 X8.5178 Y-3.8002 F60.00
G01 X8.4935 Y-3.8038 F60.00
G01 X8.4690 Y-3.8050 F60.00
G01 X8.4445 Y-3.8038 F60.00
G01 X8.4202 Y-3.8002 F60.00
G01 X8.3964 Y-3.7942 F60.00
G01 X8.3733 Y-3.7860 F60.00
G01 X8.3512 Y-3.7755 F60.00
G01 X8.3301 Y-3.7629 F60.00
G01 X8.3104 Y-3.7483 F60.00
G01 X8.2922 Y-3.7318 F60.00
G01 X8.2757 Y-3.7136 F60.00
G01 X8.2611 Y-3.6939 F60.00
G01 X8.2485 Y-3.6728 F60.00
G01 X8.2380 Y-3.6507 F60.00
G01 X8.2298 Y-3.6276 F60.00
G01 X8.2238 Y-3.6038 F60.00
G01 X8.2202 Y-3.5795 F60.00
G01 X8.2190 Y-3.5550 F60.00
G01 X8.2202 Y-3.5305 F60.00
G01 X8.2238 Y-3.5062 F60.00
G01 X8.2298 Y-3.4824 F60.00
G01 X8.2380 Y-3.4593 F60.00
G01 X8.2485 Y-3.4372 F60.00
G01 X8.2611 Y-3.4161 F60.00
G01 X8.2757 Y-3.3964 F60.00
G01 X8.2922 Y-3.3782 F60.00
G01 X8.3104 Y-3.3617 F60.00
G01 X8.3301 Y-3.3471 F60.00
G01 X8.3512 Y-3.3345 F60.00
G01 X8.3733 Y-3.3240 F60.00
G01 X8.3964 Y-3.3158 F60.00
G01 X8.4202 Y-3.3098 F60.00
G01 X8.4445 Y-3.3062 F60.00
G01 X8.4690 Y-3.3050 F60.00
G01 X8.4935 Y-3.3062 F60.00
G01 X8.5178 Y-3.3098 F60.00
G01 X8.5416 Y-3.3158 F60.00
G01 X8.5647 Y-3.3240 F60.00
G01 X8.5868 Y-3.3345 F60.00
G01 X8.6079 Y-3.3471 F60.00
G01 X8.6276 Y-3.3617 F60.00
G01 X8.6458 Y-3.3782 F60.00
G01 X8.6623 Y-3.3964 F60.00
G01 X8.6769 Y-3.4161 F60.00
G01 X8.6895 Y-3.4372 F60.00
G01 X8.7000 Y-3.4593 F60.00
G01 X8.7082 Y-3.4824 F60.00
G01 X8.7142 Y-3.5062 F60.00
G01 X8.7178 Y-3.5305 F60.00
G01 X8.7190 Y-3.5550 F60.00
G00 X8.7190 Y-3.5550
G01 F60.00
G01 Z-2.0000
G01 F60.00
G01 X8.7178 Y-3.5795 F60.00
G01 X8.7142 Y-3.6038 F60.00
G01 X8.7082 Y-3.6276 F60.00
G01 X8.7000 Y-3.6507 F60.00
G01 X8.6895 Y-3.6728 F60.00
G01 X8.6769 Y-3.6939 F60.00
G01 X8.6623 Y-3.7136 F60.00
G01 X8.6458 Y-3.7318 F60.00
G01 X8.6276 Y-3.7483 F60.00
G01 X8.6079 Y-3.7629 F60.00
G01 X8.5868 Y-3.7755 F60.00
G01 X8.5647 Y-3.7860 F60.00
G01 X8.5416 Y-3.7942 F60.00
G01 X8.5178 Y-3.8002 F60.00
G01 X8.4935 Y-3.8038 F60.00
G01 X8.4690 Y-3.8050 F60.00
G01 X8.4445 Y-3.8038 F60.00
G01 X8.4202 Y-3.8002 F60.00
G01 X8.3964 Y-3.7942 F60.00
G01 X8.3733 Y-3.7860 F60.00
G01 X8.3512 Y-3.7755 F60.00
G01 X8.3301 Y-3.7629 F60.00
G01 X8.3104 Y-3.7483 F60.00
G01 X8.2922 Y-3.7318 F60.00
G01 X8.2757 Y-3.7136 F60.00
G01 X8.2611 Y-3.6939 F60.00
G01 X8.2485 Y-3.6728 F60.00
G01 X8.2380 Y-3.6507 F60.00
G01 X8.2298 Y-3.6276 F60.00
G01 X8.2238 Y-3.6038 F60.00
G01 X8.2202 Y-3.5795 F60.00
G01 X8.2190 Y-3.5550 F60.00
G01 X8.2202 Y-3.5305 F60.00
G01 X8.2238 Y-3.5062 F60.00
G01 X8.2298 Y-3.4824 F60.00
G01 X8.2380 Y-3.4593 F60.00
G01 X8.2485 Y-3.4372 F60.00
G01 X8.2611 Y-3.4161 F60.00
G01 X8.2757 Y-3.3964 F60.00
G01 X8.2922 Y-3.3782 F60.00
G01 X8.3104 Y-3.3617 F60.00
G01 X8.3301 Y-3.3471 F60.00
G01 X8.3512 Y-3.3345 F60.00
G01 X8.3733 Y-3.3240 F60.00
G01 X8.3964 Y-3.3158 F60.00
G01 X8.4202 Y-3.3098 F60.00
G01 X8.4445 Y-3.3062 F60.00
G01 X8.4690 Y-3.3050 F60.00
G01 X8.4935 Y-3.3062 F60.00
G01 X8.5178 Y-3.3098 F60.00
G01 X8.5416 Y-3.3158 F60.00
G01 X8.5647 Y-3.3240 F60.00
G01 X8.5868 Y-3.3345 F60.00
G01 X8.6079 Y-3.3471 F60.00
G01 X8.6276 Y-3.3617 F60.00
G01 X8.6458 Y-3.3782 F60.00
G01 X8.6623 Y-3.3964 F60.00
G01 X8.6769 Y-3.4161 F60.00
G01 X8.6895 Y-3.4372 F60.00
G01 X8.7000 Y-3.4593 F60.00
G01 X8.7082 Y-3.4824 F60.00
G01 X8.7142 Y-3.5062 F60.00
G01 X8.7178 Y-3.5305 F60.00
G01 X8.7190 Y-3.5550 F60.00
G00 X8.7190 Y-3.5550
G01 F60.00
G01 Z-2.5000
G01 F60.00
G01 X8.7178 Y-3.5795 F60.00
G01 X8.7142 Y-3.6038 F60.00
G01 X8.7082 Y-3.6276 F60.00
G01 X8.7000 Y-3.6507 F60.00
G01 X8.6895 Y-3.6728 F60.00
G01 X8.6769 Y-3.6939 F60.00
G01 X8.6623 Y-3.7136 F60.00
G01 X8.6458 Y-3.7318 F60.00
G01 X8.6276 Y-3.7483 F60.00
G01 X8.6079 Y-3.7629 F60.00
G01 X8.5868 Y-3.7755 F60.00
G01 X8.5647 Y-3.7860 F60.00
G01 X8.5416 Y-3.7942 F60.00
G01 X8.5178 Y-3.8002 F60.00
G01 X8.4935 Y-3.8038 F60.00
G01 X8.4690 Y-3.8050 F60.00
G01 X8.4445 Y-3.8038 F60.00
G01 X8.4202 Y-3.8002 F60.00
G01 X8.3964 Y-3.7942 F60.00
G01 X8.3733 Y-3.7860 F60.00
G01 X8.3512 Y-3.7755 F60.00
G01 X8.3301 Y-3.7629 F60.00
G01 X8.3104 Y-3.7483 F60.00
G01 X8.2922 Y-3.7318 F60.00
G01 X8.2757 Y-3.7136 F60.00
G01 X8.2611 Y-3.6939 F60.00
G01 X8.2485 Y-3.6728 F60.00
G01 X8.2380 Y-3.6507 F60.00
G01 X8.2298 Y-3.6276 F60.00
G01 X8.2238 Y-3.6038 F60.00
G01 X8.2202 Y-3.5795 F60.00
G01 X8.2190 Y-3.5550 F60.00
G01 X8.2202 Y-3.5305 F60.00
G01 X8.2238 Y-3.5062 F60.00
G01 X8.2298 Y-3.4824 F60.00
G01 X8.2380 Y-3.4593 F60.00
G01 X8.2485 Y-3.4372 F60.00
G01 X8.2611 Y-3.4161 F60.00
G01 X8.2757 Y-3.3964 F60.00
G01 X8.2922 Y-3.3782 F60.00
G01 X8.3104 Y-3.3617 F60.00
G01 X8.3301 Y-3.3471 F60.00
G01 X8.3512 Y-3.3345 F60.00
G01 X8.3733 Y-3.3240 F60.00
G01 X8.3964 Y-3.3158 F60.00
G01 X8.4202 Y-3.3098 F60.00
G01 X8.4445 Y-3.3062 F60.00
G01 X8.4690 Y-3.3050 F60.00
G01 X8.4935 Y-3.3062 F60.00
G01 X8.5178 Y-3.3098 F60.00
G01 X8.5416 Y-3.3158 F60.00
G01 X8.5647 Y-3.3240 F60.00
G01 X8.5868 Y-3.3345 F60.00
G01 X8.6079 Y-3.3471 F60.00
G01 X8.6276 Y-3.3617 F60.00
G01 X8.6458 Y-3.3782 F60.00
G01 X8.6623 Y-3.3964 F60.00
G01 X8.6769 Y-3.4161 F60.00
G01 X8.6895 Y-3.4372 F60.00
G01 X8.7000 Y-3.4593 F60.00
G01 X8.7082 Y-3.4824 F60.00
G01 X8.7142 Y-3.5062 F60.00
G01 X8.7178 Y-3.5305 F60.00
G01 X8.7190 Y-3.5550 F60.00
G00 Z2.0000
G00 X11.2590 Y-3.5550
G01 F60.00
G01 Z-0.5000
G01 F60.00
G01 X11.2578 Y-3.5795 F60.00
G01 X11.2542 Y-3.6038 F60.00
G01 X11.2482 Y-3.6276 F60.00
G01 X11.2400 Y-3.6507 F60.00
G01 X11.2295 Y-3.6728 F60.00
G01 X11.2169 Y-3.6939 F60.00
G01 X11.2023 Y-3.7136 F60.00
G01 X11.1858 Y-3.7318 F60.00
G01 X11.1676 Y-3.7483 F60.00
G01 X11.1479 Y-3.7629 F60.00
G01 X11.1268 Y-3.7755 F60.00
G01 X11.1047 Y-3.7860 F60.00
G01 X11.0816 Y-3.7942 F60.00
G01 X11.0578 Y-3.8002 F60.00
G01 X11.0335 Y-3.8038 F60.00
G01 X11.0090 Y-3.8050 F60.00
G01 X10.9845 Y-3.8038 F60.00
G01 X10.9602 Y-3.8002 F60.00
G01 X10.9364 Y-3.7942 F60.00
G01 X10.9133 Y-3.7860 F60.00
G01 X10.8912 Y-3.7755 F60.00
G01 X10.8701 Y-3.7629 F60.00
G01 X10.8504 Y-3.7483 F60.00
G01 X10.8322 Y-3.7318 F60.00
G01 X10.8157 Y-3.7136 F60.00
G01 X10.8011 Y-3.6939 F60.00
G01 X10.7885 Y-3.6728 F60.00
G01 X10.7780 Y-3.6507 F60.00
G01 X10.7698 Y-3.6276 F60.00
G01 X10.7638 Y-3.6038 F60.00
G01 X10.7602 Y-3.5795 F60.00
G01 X10.7590 Y-3.5550 F60.00
G01 X10.7602 Y-3.5305 F60.00
G01 X10.7638 Y-3.5062 F60.00
G01 X10.7698 Y-3.4824 F60.00
G01 X10.7780 Y-3.4593 F60.00
G01 X10.7885 Y-3.4372 F60.00
G01 X10.8011 Y-3.4161 F60.00
G01 X10.8157 Y-3.3964 F60.00
G01 X10.8322 Y-3.3782 F60.00
G01 X10.8504 Y-3.3617 F60.00
G01 X10.8701 Y-3.3471 F60.00
G01 X10.8912 Y-3.3345 F60.00
G01 X10.9133 Y-3.3240 F60.00
G01 X10.9364 Y-3.3158 F60.00
G01 X10.9602 Y-3.3098 F60.00
G01 X10.9845 Y-3.3062 F60.00
G01 X11.0090 Y-3.3050 F60.00
G01 X11.0335 Y-3.3062 F60.00
G01 X11.0578 Y-3.3098 F60.00
G01 X11.0816 Y-3.3158 F60.00
G01 X11.1047 Y-3.3240 F60.00
G01 X11.1268 Y-3.3345 F60.00
G01 X11.1479 Y-3.3471 F60.00
G01 X11.1676 Y-3.3617 F60.00
G01 X11.1858 Y-3.3782 F60.00
G01 X11.2023 Y-3.3964 F60.00
G01 X11.2169 Y-3.4161 F60.00
G01 X11.2295 Y-3.4372 F60.00
G01 X11.2400 Y-3.4593 F60.00
G01 X11.2482 Y-3.4824 F60.00
G01 X11.2542 Y-3.5062 F60.00
G01 X11.2578 Y-3.5305 F60.00
G01 X11.2590 Y-3.5550 F60.00
G00 X11.2590 Y-3.5550
G01 F60.00
G01 Z-1.0000
G01 F60.00
G01 X11.2578 Y-3.5795 F60.00
G01 X11.2542 Y-3.6038 F60.00
G01 X11.2482 Y-3.6276 F60.00
G01 X11.2400 Y-3.6507 F60.00
G01 X11.2295 Y-3.6728 F60.00
G01 X11.2169 Y-3.6939 F60.00
G01 X11.2023 Y-3.7136 F60.00
G01 X11.1858 Y-3.7318 F60.00
G01 X11.1676 Y-3.7483 F60.00
G01 X11.1479 Y-3.7629 F60.00
G01 X11.1268 Y-3.7755 F60.00
G01 X11.1047 Y-3.7860 F60.00
G01 X11.0816 Y-3.7942 F60.00
G01 X11.0578 Y-3.8002 F60.00
G01 X11.0335 Y-3.8038 F60.00
G01 X11.0090 Y-3.8050 F60.00
G01 X10.9845 Y-3.8038 F60.00
G01 X10.9602 Y-3.8002 F60.00
G01 X10.9364 Y-3.7942 F60.00
G01 X10.9133 Y-3.7860 F60.00
G01 X10.8912 Y-3.7755 F60.00
G01 X10.8701 Y-3.7629 F60.00
G01 X10.8504 Y-3.7483 F60.00
G01 X10.8322 Y-3.7318 F60.00
G01 X10.8157 Y-3.7136 F60.00
G01 X10.8011 Y-3.6939 F60.00
G01 X10.7885 Y-3.6728 F60.00
G01 X10.7780 Y-3.6507 F60.00
G01 X10.7698 Y-3.6276 F60.00
G01 X10.7638 Y-3.6038 F60.00
G01 X10.7602 Y-3.5795 F60.00
G01 X10.7590 Y-3.5550 F60.00
G01 X10.7602 Y-3.5305 F60.00
G01 X10.7638 Y-3.5062 F60.00
G01 X10.7698 Y-3.4824 F60.00
G01 X10.7780 Y-3.4593 F60.00
G01 X10.7885 Y-3.4372 F60.00
G01 X10.8011 Y-3.4161 F60.00
G01 X10.8157 Y-3.3964 F60.00
G01 X10.8322 Y-3.3782 F60.00
G01 X10.8504 Y-3.3617 F60.00
G01 X10.8701 Y-3.3471 F60.00
G01 X10.8912 Y-3.3345 F60.00
G01 X10.9133 Y-3.3240 F60.00
G01 X10.9364 Y-3.3158 F60.00
G01 X10.9602 Y-3.3098 F60.00
G01 X10.9845 Y-3.3062 F60.00
G01 X11.0090 Y-3.3050 F60.00
G01 X11.0335 Y-3.3062 F60.00
G01 X11.0578 Y-3.3098 F60.00
G01 X11.0816 Y-3.3158 F60.00
G01 X11.1047 Y-3.3240 F60.00
G01 X11.1268 Y-3.3345 F60.00
G01 X11.1479 Y-3.3471 F60.00
G01 X11.1676 Y-3.3617 F60.00
G01 X11.1858 Y-3.3782 F60.00
G01 X11.2023 Y-3.3964 F60.00
G01 X11.2169 Y-3.4161 F60.00
G01 X11.2295 Y-3.4372 F60.00
G01 X11.2400 Y-3.4593 F60.00
G01 X11.2482 Y-3.4824 F60.00
G01 X11.2542 Y-3.5062 F60.00
G01 X11.2578 Y-3.5305 F60.00
G01 X11.2590 Y-3.5550 F60.00
G00 X11.2590 Y-3.5550
G01 F60.00
G01 Z-1.5000
G01 F60.00
G01 X11.2578 Y-3.5795 F60.00
G01 X11.2542 Y-3.6038 F60.00
G01 X11.2482 Y-3.6276 F60.00
G01 X11.2400 Y-3.6507 F60.00
G01 X11.2295 Y-3.6728 F60.00
G01 X11.2169 Y-3.6939 F60.00
G01 X11.2023 Y-3.7136 F60.00
G01 X11.1858 Y-3.7318 F60.00
G01 X11.1676 Y-3.7483 F60.00
G01 X11.1479 Y-3.7629 F60.00
G01 X11.1268 Y-3.7755 F60.00
G01 X11.1047 Y-3.7860 F60.00
G01 X11.0816 Y-3.7942 F60.00
G01 X11.0578 Y-3.8002 F60.00
G01 X11.0335 Y-3.8038 F60.00
G01 X11.0090 Y-3.8050 F60.00
G01 X10.9845 Y-3.8038 F60.00
G01 X10.9602 Y-3.8002 F60.00
G01 X10.9364 Y-3.7942 F60.00
G01 X10.9133 Y-3.7860 F60.00
G01 X10.8912 Y-3.7755 F60.00
G01 X10.8701 Y-3.7629 F60.00
G01 X10.8504 Y-3.7483 F60.00
G01 X10.8322 Y-3.7318 F60.00
G01 X10.8157 Y-3.7136 F60.00
G01 X10.8011 Y-3.6939 F60.00
G01 X10.7885 Y-3.6728 F60.00
G01 X10.7780 Y-3.6507 F60.00
G01 X10.7698 Y-3.6276 F60.00
G01 X10.7638 Y-3.6038 F60.00
G01 X10.7602 Y-3.5795 F60.00
G01 X10.7590 Y-3.5550 F60.00
G01 X10.7602 Y-3.5305 F60.00
G01 X10.7638 Y-3.5062 F60.00
G01 X10.7698 Y-3.4824 F60.00
G01 X10.7780 Y-3.4593 F60.00
G01 X10.7885 Y-3.4372 F60.00
G01 X10.8011 Y-3.4161 F60.00
G01 X10.8157 Y-3.3964 F60.00
G01 X10.8322 Y-3.3782 F60.00
G01 X10.8504 Y-3.3617 F60.00
G01 X10.8701 Y-3.3471 F60.00
G01 X10.8912 Y-3.3345 F60.00
G01 X10.9133 Y-3.3240 F60.00
G01 X10.9364 Y-3.3158 F60.00
G01 X10.9602 Y-3.3098 F60.00
G01 X10.9845 Y-3.3062 F60.00
G01 X11.0090 Y-3.3050 F60.00
G01 X11.0335 Y-3.3062 F60.00
G01 X11.0578 Y-3.3098 F60.00
G01 X11.0816 Y-3.3158 F60.00
G01 X11.1047 Y-3.3240 F60.00
G01 X11.1268 Y-3.3345 F60.00
G01 X11.1479 Y-3.3471 F60.00
G01 X11.1676 Y-3.3617 F60.00
G01 X11.1858 Y-3.3782 F60.00
G01 X11.2023 Y-3.3964 F60.00
G01 X11.2169 Y-3.4161 F60.00
G01 X11.2295 Y-3.4372 F60.00
G01 X11.2400 Y-3.4593 F60.00
G01 X11.2482 Y-3.4824 F60.00
G01 X11.2542 Y-3.5062 F60.00
G01 X11.2578 Y-3.5305 F60.00
G01 X11.2590 Y-3.5550 F60.00
G00 X11.2590 Y-3.5550
G01 F60.00
G01 Z-2.0000
G01 F60.00
G01 X11.2578 Y-3.5795 F60.00
G01 X11.2542 Y-3.6038 F60.00
G01 X11.2482 Y-3.6276 F60.00
G01 X11.2400 Y-3.6507 F60.00
G01 X11.2295 Y-3.6728 F60.00
G01 X11.2169 Y-3.6939 F60.00
G01 X11.2023 Y-3.7136 F60.00
G01 X11.1858 Y-3.7318 F60.00
G01 X11.1676 Y-3.7483 F60.00
G01 X11.1479 Y-3.7629 F60.00
G01 X11.1268 Y-3.7755 F60.00
G01 X11.1047 Y-3.7860 F60.00
G01 X11.0816 Y-3.7942 F60.00
G01 X11.0578 Y-3.8002 F60.00
G01 X11.0335 Y-3.8038 F60.00
G01 X11.0090 Y-3.8050 F60.00
G01 X10.9845 Y-3.8038 F60.00
G01 X10.9602 Y-3.8002 F60.00
G01 X10.9364 Y-3.7942 F60.00
G01 X10.9133 Y-3.7860 F60.00
G01 X10.8912 Y-3.7755 F60.00
G01 X10.8701 Y-3.7629 F60.00
G01 X10.8504 Y-3.7483 F60.00
G01 X10.8322 Y-3.7318 F60.00
G01 X10.8157 Y-3.7136 F60.00
G01 X10.8011 Y-3.6939 F60.00
G01 X10.7885 Y-3.6728 F60.00
G01 X10.7780 Y-3.6507 F60.00
G01 X10.7698 Y-3.6276 F60.00
G01 X10.7638 Y-3.6038 F60.00
G01 X10.7602 Y-3.5795 F60.00
G01 X10.7590 Y-3.5550 F60.00
G01 X10.7602 Y-3.5305 F60.00
G01 X10.7638 Y-3.5062 F60.00
G01 X10.7698 Y-3.4824 F60.00
G01 X10.7780 Y-3.4593 F60.00
G01 X10.7885 Y-3.4372 F60.00
G01 X10.8011 Y-3.4161 F60.00
G01 X10.8157 Y-3.3964 F60.00
G01 X10.8322 Y-3.3782 F60.00
G01 X10.8504 Y-3.3617 F60.00
G01 X10.8701 Y-3.3471 F60.00
G01 X10.8912 Y-3.3345 F60.00
G01 X10.9133 Y-3.3240 F60.00
G01 X10.9364 Y-3.3158 F60.00
G01 X10.9602 Y-3.3098 F60.00
G01 X10.9845 Y-3.3062 F60.00
G01 X11.0090 Y-3.3050 F60.00
G01 X11.0335 Y-3.3062 F60.00
G01 X11.0578 Y-3.3098 F60.00
G01 X11.0816 Y-3.3158 F60.00
G01 X11.1047 Y-3.3240 F60.00
G01 X11.1268 Y-3.3345 F60.00
G01 X11.1479 Y-3.3471 F60.00
G01 X11.1676 Y-3.3617 F60.00
G01 X11.1858 Y-3.3782 F60.00
G01 X11.2023 Y-3.3964 F60.00
G01 X11.2169 Y-3.4161 F60.00
G01 X11.2295 Y-3.4372 F60.00
G01 X11.2400 Y-3.4593 F60.00
G01 X11.2482 Y-3.4824 F60.00
G01 X11.2542 Y-3.5062 F60.00
G01 X11.2578 Y-3.5305 F60.00
G01 X11.2590 Y-3.5550 F60.00
G00 X11.2590 Y-3.5550
G01 F60.00
G01 Z-2.5000
G01 F60.00
G01 X11.2578 Y-3.5795 F60.00
G01 X11.2542 Y-3.6038 F60.00
G01 X11.2482 Y-3.6276 F60.00
G01 X11.2400 Y-3.6507 F60.00
G01 X11.2295 Y-3.6728 F60.00
G01 X11.2169 Y-3.6939 F60.00
G01 X11.2023 Y-3.7136 F60.00
G01 X11.1858 Y-3.7318 F60.00
G01 X11.1676 Y-3.7483 F60.00
G01 X11.1479 Y-3.7629 F60.00
G01 X11.1268 Y-3.7755 F60.00
G01 X11.1047 Y-3.7860 F60.00
G01 X11.0816 Y-3.7942 F60.00
G01 X11.0578 Y-3.8002 F60.00
G01 X11.0335 Y-3.8038 F60.00
G01 X11.0090 Y-3.8050 F60.00
G01 X10.9845 Y-3.8038 F60.00
G01 X10.9602 Y-3.8002 F60.00
G01 X10.9364 Y-3.7942 F60.00
G01 X10.9133 Y-3.7860 F60.00
G01 X10.8912 Y-3.7755 F60.00
G01 X10.8701 Y-3.7629 F60.00
G01 X10.8504 Y-3.7483 F60.00
G01 X10.8322 Y-3.7318 F60.00
G01 X10.8157 Y-3.7136 F60.00
G01 X10.8011 Y-3.6939 F60.00
G01 X10.7885 Y-3.6728 F60.00
G01 X10.7780 Y-3.6507 F60.00
G01 X10.7698 Y-3.6276 F60.00
G01 X10.7638 Y-3.6038 F60.00
G01 X10.7602 Y-3.5795 F60.00
G01 X10.7590 Y-3.5550 F60.00
G01 X10.7602 Y-3.5305 F60.00
G01 X10.7638 Y-3.5062 F60.00
G01 X10.7698 Y-3.4824 F60.00
G01 X10.7780 Y-3.4593 F60.00
G01 X10.7885 Y-3.4372 F60.00
G01 X10.8011 Y-3.4161 F60.00
G01 X10.8157 Y-3.3964 F60.00
G01 X10.8322 Y-3.3782 F60.00
G01 X10.8504 Y-3.3617 F60.00
G01 X10.8701 Y-3.3471 F60.00
G01 X10.8912 Y-3.3345 F60.00
G01 X10.9133 Y-3.3240 F60.00
G01 X10.9364 Y-3.3158 F60.00
G01 X10.9602 Y-3.3098 F60.00
G01 X10.9845 Y-3.3062 F60.00
G01 X11.0090 Y-3.3050 F60.00
G01 X11.0335 Y-3.3062 F60.00
G01 X11.0578 Y-3.3098 F60.00
G01 X11.0816 Y-3.3158 F60.00
G01 X11.1047 Y-3.3240 F60.00
G01 X11.1268 Y-3.3345 F60.00
G01 X11.1479 Y-3.3471 F60.00
G01 X11.1676 Y-3.3617 F60.00
G01 X11.1858 Y-3.3782 F60.00
G01 X11.2023 Y-3.3964 F60.00
G01 X11.2169 Y-3.4161 F60.00
G01 X11.2295 Y-3.4372 F60.00
G01 X11.2400 Y-3.4593 F60.00
G01 X11.2482 Y-3.4824 F60.00
G01 X11.2542 Y-3.5062 F60.00
G01 X11.2578 Y-3.5305 F60.00
G01 X11.2590 Y-3.5550 F60.00
G00 Z2.0000
G00 X13.7990 Y-3.5550
G01 F60.00
G01 Z-0.5000
G01 F60.00
G01 X13.7978 Y-3.5795 F60.00
G01 X13.7942 Y-3.6038 F60.00
G01 X13.7882 Y-3.6276 F60.00
G01 X13.7800 Y-3.6507 F60.00
G01 X13.7695 Y-3.6728 F60.00
G01 X13.7569 Y-3.6939 F60.00
G01 X13.7423 Y-3.7136 F60.00
G01 X13.7258 Y-3.7318 F60.00
G01 X13.7076 Y-3.7483 F60.00
G01 X13.6879 Y-3.7629 F60.00
G01 X13.6668 Y-3.7755 F60.00
G01 X13.6447 Y-3.7860 F60.00
G01 X13.6216 Y-3.7942 F60.00
G01 X13.5978 Y-3.8002 F60.00
G01 X13.5735 Y-3.8038 F60.00
G01 X13.5490 Y-3.8050 F60.00
G01 X13.5245 Y-3.8038 F60.00
G01 X13.5002 Y-3.8002 F60.00
G01 X13.4764 Y-3.7942 F60.00
G01 X13.4533 Y-3.7860 F60.00
G01 X13.4312 Y-3.7755 F60.00
G01 X13.4101 Y-3.7629 F60.00
G01 X13.3904 Y-3.7483 F60.00
G01 X13.3722 Y-3.7318 F60.00
G01 X13.3557 Y-3.7136 F60.00
G01 X13.3411 Y-3.6939 F60.00
G01 X13.3285 Y-3.6728 F60.00
G01 X13.3180 Y-3.6507 F60.00
G01 X13.3098 Y-3.6276 F60.00
G01 X13.3038 Y-3.6038 F60.00
G01 X13.3002 Y-3.5795 F60.00
G01 X13.2990 Y-3.5550 F60.00
G01 X13.3002 Y-3.5305 F60.00
G01 X13.3038 Y-3.5062 F60.00
G01 X13.3098 Y-3.4824 F60.00
G01 X13.3180 Y-3.4593 F60.00
G01 X13.3285 Y-3.4372 F60.00
G01 X13.3411 Y-3.4161 F60.00
G01 X13.3557 Y-3.3964 F60.00
G01 X13.3722 Y-3.3782 F60.00
G01 X13.3904 Y-3.3617 F60.00
G01 X13.4101 Y-3.3471 F60.00
G01 X13.4312 Y-3.3345 F60.00
G01 X13.4533 Y-3.3240 F60.00
G01 X13.4764 Y-3.3158 F60.00
G01 X13.5002 Y-3.3098 F60.00
G01 X13.5245 Y-3.3062 F60.00
G01 X13.5490 Y-3.3050 F60.00
G01 X13.5735 Y-3.3062 F60.00
G01 X13.5978 Y-3.3098 F60.00
G01 X13.6216 Y-3.3158 F60.00
G01 X13.6447 Y-3.3240 F60.00
G01 X13.6668 Y-3.3345 F60.00
G01 X13.6879 Y-3.3471 F60.00
G01 X13.7076 Y-3.3617 F60.00
G01 X13.7258 Y-3.3782 F60.00
G01 X13.7423 Y-3.3964 F60.00
G01 X13.7569 Y-3.4161 F60.00
G01 X13.7695 Y-3.4372 F60.00
G01 X13.7800 Y-3.4593 F60.00
G01 X13.7882 Y-3.4824 F60.00
G01 X13.7942 Y-3.5062 F60.00
G01 X13.7978 Y-3.5305 F60.00
G01 X13.7990 Y-3.5550 F60.00
G00 X13.7990 Y-3.5550
G01 F60.00
G01 Z-1.0000
G01 F60.00
G01 X13.7978 Y-3.5795 F60.00
G01 X13.7942 Y-3.6038 F60.00
G01 X13.7882 Y-3.6276 F60.00
G01 X13.7800 Y-3.6507 F60.00
G01 X13.7695 Y-3.6728 F60.00
G01 X13.7569 Y-3.6939 F60.00
G01 X13.7423 Y-3.7136 F60.00
G01 X13.7258 Y-3.7318 F60.00
G01 X13.7076 Y-3.7483 F60.00
G01 X13.6879 Y-3.7629 F60.00
G01 X13.6668 Y-3.7755 F60.00
G01 X13.6447 Y-3.7860 F60.00
G01 X13.6216 Y-3.7942 F60.00
G01 X13.5978 Y-3.8002 F60.00
G01 X13.5735 Y-3.8038 F60.00
G01 X13.5490 Y-3.8050 F60.00
G01 X13.5245 Y-3.8038 F60.00
G01 X13.5002 Y-3.8002 F60.00
G01 X13.4764 Y-3.7942 F60.00
G01 X13.4533 Y-3.7860 F60.00
G01 X13.4312 Y-3.7755 F60.00
G01 X13.4101 Y-3.7629 F60.00
G01 X13.3904 Y-3.7483 F60.00
G01 X13.3722 Y-3.7318 F60.00
G01 X13.3557 Y-3.7136 F60.00
G01 X13.3411 Y-3.6939 F60.00
G01 X13.3285 Y-3.6728 F60.00
G01 X13.3180 Y-3.6507 F60.00
G01 X13.3098 Y-3.6276 F60.00
G01 X13.3038 Y-3.6038 F60.00
G01 X13.3002 Y-3.5795 F60.00
G01 X13.2990 Y-3.5550 F60.00
G01 X13.3002 Y-3.5305 F60.00
G01 X13.3038 Y-3.5062 F60.00
G01 X13.3098 Y-3.4824 F60.00
G01 X13.3180 Y-3.4593 F60.00
G01 X13.3285 Y-3.4372 F60.00
G01 X13.3411 Y-3.4161 F60.00
G01 X13.3557 Y-3.3964 F60.00
G01 X13.3722 Y-3.3782 F60.00
G01 X13.3904 Y-3.3617 F60.00
G01 X13.4101 Y-3.3471 F60.00
G01 X13.4312 Y-3.3345 F60.00
G01 X13.4533 Y-3.3240 F60.00
G01 X13.4764 Y-3.3158 F60.00
G01 X13.5002 Y-3.3098 F60.00
G01 X13.5245 Y-3.3062 F60.00
G01 X13.5490 Y-3.3050 F60.00
G01 X13.5735 Y-3.3062 F60.00
G01 X13.5978 Y-3.3098 F60.00
G01 X13.6216 Y-3.3158 F60.00
G01 X13.6447 Y-3.3240 F60.00
G01 X13.6668 Y-3.3345 F60.00
G01 X13.6879 Y-3.3471 F60.00
G01 X13.7076 Y-3.3617 F60.00
G01 X13.7258 Y-3.3782 F60.00
G01 X13.7423 Y-3.3964 F60.00
G01 X13.7569 Y-3.4161 F60.00
G01 X13.7695 Y-3.4372 F60.00
G01 X13.7800 Y-3.4593 F60.00
G01 X13.7882 Y-3.4824 F60.00
G01 X13.7942 Y-3.5062 F60.00
G01 X13.7978 Y-3.5305 F60.00
G01 X13.7990 Y-3.5550 F60.00
G00 X13.7990 Y-3.5550
G01 F60.00
G01 Z-1.5000
G01 F60.00
G01 X13.7978 Y-3.5795 F60.00
G01 X13.7942 Y-3.6038 F60.00
G01 X13.7882 Y-3.6276 F60.00
G01 X13.7800 Y-3.6507 F60.00
G01 X13.7695 Y-3.6728 F60.00
G01 X13.7569 Y-3.6939 F60.00
G01 X13.7423 Y-3.7136 F60.00
G01 X13.7258 Y-3.7318 F60.00
G01 X13.7076 Y-3.7483 F60.00
G01 X13.6879 Y-3.7629 F60.00
G01 X13.6668 Y-3.7755 F60.00
G01 X13.6447 Y-3.7860 F60.00
G01 X13.6216 Y-3.7942 F60.00
G01 X13.5978 Y-3.8002 F60.00
G01 X13.5735 Y-3.8038 F60.00
G01 X13.5490 Y-3.8050 F60.00
G01 X13.5245 Y-3.8038 F60.00
G01 X13.5002 Y-3.8002 F60.00
G01 X13.4764 Y-3.7942 F60.00
G01 X13.4533 Y-3.7860 F60.00
G01 X13.4312 Y-3.7755 F60.00
G01 X13.4101 Y-3.7629 F60.00
G01 X13.3904 Y-3.7483 F60.00
G01 X13.3722 Y-3.7318 F60.00
G01 X13.3557 Y-3.7136 F60.00
G01 X13.3411 Y-3.6939 F60.00
G01 X13.3285 Y-3.6728 F60.00
G01 X13.3180 Y-3.6507 F60.00
G01 X13.3098 Y-3.6276 F60.00
G01 X13.3038 Y-3.6038 F60.00
G01 X13.3002 Y-3.5795 F60.00
G01 X13.2990 Y-3.5550 F60.00
G01 X13.3002 Y-3.5305 F60.00
G01 X13.3038 Y-3.5062 F60.00
G01 X13.3098 Y-3.4824 F60.00
G01 X13.3180 Y-3.4593 F60.00
G01 X13.3285 Y-3.4372 F60.00
G01 X13.3411 Y-3.4161 F60.00
G01 X13.3557 Y-3.3964 F60.00
G01 X13.3722 Y-3.3782 F60.00
G01 X13.3904 Y-3.3617 F60.00
G01 X13.4101 Y-3.3471 F60.00
G01 X13.4312 Y-3.3345 F60.00
G01 X13.4533 Y-3.3240 F60.00
G01 X13.4764 Y-3.3158 F60.00
G01 X13.5002 Y-3.3098 F60.00
G01 X13.5245 Y-3.3062 F60.00
G01 X13.5490 Y-3.3050 F60.00
G01 X13.5735 Y-3.3062 F60.00
G01 X13.5978 Y-3.3098 F60.00
G01 X13.6216 Y-3.3158 F60.00
G01 X13.6447 Y-3.3240 F60.00
G01 X13.6668 Y-3.3345 F60.00
G01 X13.6879 Y-3.3471 F60.00
G01 X13.7076 Y-3.3617 F60.00
G01 X13.7258 Y-3.3782 F60.00
G01 X13.7423 Y-3.3964 F60.00
G01 X13.7569 Y-3.4161 F60.00
G01 X13.7695 Y-3.4372 F60.00
G01 X13.7800 Y-3.4593 F60.00
G01 X13.7882 Y-3.4824 F60.00
G01 X13.7942 Y-3.5062 F60.00
G01 X13.7978 Y-3.5305 F60.00
G01 X13.7990 Y-3.5550 F60.00
G00 X13.7990 Y-3.5550
G01 F60.00
G01 Z-2.0000
G01 F60.00
G01 X13.7978 Y-3.5795 F60.00
G01 X13.7942 Y-3.6038 F60.00
G01 X13.7882 Y-3.6276 F60.00
G01 X13.7800 Y-3.6507 F60.00
G01 X13.7695 Y-3.6728 F60.00
G01 X13.7569 Y-3.6939 F60.00
G01 X13.7423 Y-3.7136 F60.00
G01 X13.7258 Y-3.7318 F60.00
G01 X13.7076 Y-3.7483 F60.00
G01 X13.6879 Y-3.7629 F60.00
G01 X13.6668 Y-3.7755 F60.00
G01 X13.6447 Y-3.7860 F60.00
G01 X13.6216 Y-3.7942 F60.00
G01 X13.5978 Y-3.8002 F60.00
G01 X13.5735 Y-3.8038 F60.00
G01 X13.5490 Y-3.8050 F60.00
G01 X13.5245 Y-3.8038 F60.00
G01 X13.5002 Y-3.8002 F60.00
G01 X13.4764 Y-3.7942 F60.00
G01 X13.4533 Y-3.7860 F60.00
G01 X13.4312 Y-3.7755 F60.00
G01 X13.4101 Y-3.7629 F60.00
G01 X13.3904 Y-3.7483 F60.00
G01 X13.3722 Y-3.7318 F60.00
G01 X13.3557 Y-3.7136 F60.00
G01 X13.3411 Y-3.6939 F60.00
G01 X13.3285 Y-3.6728 F60.00
G01 X13.3180 Y-3.6507 F60.00
G01 X13.3098 Y-3.6276 F60.00
G01 X13.3038 Y-3.6038 F60.00
G01 X13.3002 Y-3.5795 F60.00
G01 X13.2990 Y-3.5550 F60.00
G01 X13.3002 Y-3.5305 F60.00
G01 X13.3038 Y-3.5062 F60.00
G01 X13.3098 Y-3.4824 F60.00
G01 X13.3180 Y-3.4593 F60.00
G01 X13.3285 Y-3.4372 F60.00
G01 X13.3411 Y-3.4161 F60.00
G01 X13.3557 Y-3.3964 F60.00
G01 X13.3722 Y-3.3782 F60.00
G01 X13.3904 Y-3.3617 F60.00
G01 X13.4101 Y-3.3471 F60.00
G01 X13.4312 Y-3.3345 F60.00
G01 X13.4533 Y-3.3240 F60.00
G01 X13.4764 Y-3.3158 F60.00
G01 X13.5002 Y-3.3098 F60.00
G01 X13.5245 Y-3.3062 F60.00
G01 X13.5490 Y-3.3050 F60.00
G01 X13.5735 Y-3.3062 F60.00
G01 X13.5978 Y-3.3098 F60.00
G01 X13.6216 Y-3.3158 F60.00
G01 X13.6447 Y-3.3240 F60.00
G01 X13.6668 Y-3.3345 F60.00
G01 X13.6879 Y-3.3471 F60.00
G01 X13.7076 Y-3.3617 F60.00
G01 X13.7258 Y-3.3782 F60.00
G01 X13.7423 Y-3.3964 F60.00
G01 X13.7569 Y-3.4161 F60.00
G01 X13.7695 Y-3.4372 F60.00
G01 X13.7800 Y-3.4593 F60.00
G01 X13.7882 Y-3.4824 F60.00
G01 X13.7942 Y-3.5062 F60.00
G01 X13.7978 Y-3.5305 F60.00
G01 X13.7990 Y-3.5550 F60.00
G00 X13.7990 Y-3.5550
G01 F60.00
G01 Z-2.5000
G01 F60.00
G01 X13.7978 Y-3.5795 F60.00
G01 X13.7942 Y-3.6038 F60.00
G01 X13.7882 Y-3.6276 F60.00
G01 X13.7800 Y-3.6507 F60.00
G01 X13.7695 Y-3.6728 F60.00
G01 X13.7569 Y-3.6939 F60.00
G01 X13.7423 Y-3.7136 F60.00
G01 X13.7258 Y-3.7318 F60.00
G01 X13.7076 Y-3.7483 F60.00
G01 X13.6879 Y-3.7629 F60.00
G01 X13.6668 Y-3.7755 F60.00
G01 X13.6447 Y-3.7860 F60.00
G01 X13.6216 Y-3.7942 F60.00
G01 X13.5978 Y-3.8002 F60.00
G01 X13.5735 Y-3.8038 F60.00
G01 X13.5490 Y-3.8050 F60.00
G01 X13.5245 Y-3.8038 F60.00
G01 X13.5002 Y-3.8002 F60.00
G01 X13.4764 Y-3.7942 F60.00
G01 X13.4533 Y-3.7860 F60.00
G01 X13.4312 Y-3.7755 F60.00
G01 X13.4101 Y-3.7629 F60.00
G01 X13.3904 Y-3.7483 F60.00
G01 X13.3722 Y-3.7318 F60.00
G01 X13.3557 Y-3.7136 F60.00
G01 X13.3411 Y-3.6939 F60.00
G01 X13.3285 Y-3.6728 F60.00
G01 X13.3180 Y-3.6507 F60.00
G01 X13.3098 Y-3.6276 F60.00
G01 X13.3038 Y-3.6038 F60.00
G01 X13.3002 Y-3.5795 F60.00
G01 X13.2990 Y-3.5550 F60.00
G01 X13.3002 Y-3.5305 F60.00
G01 X13.3038 Y-3.5062 F60.00
G01 X13.3098 Y-3.4824 F60.00
G01 X13.3180 Y-3.4593 F60.00
G01 X13.3285 Y-3.4372 F60.00
G01 X13.3411 Y-3.4161 F60.00
G01 X13.3557 Y-3.3964 F60.00
G01 X13.3722 Y-3.3782 F60.00
G01 X13.3904 Y-3.3617 F60.00
G01 X13.4101 Y-3.3471 F60.00
G01 X13.4312 Y-3.3345 F60.00
G01 X13.4533 Y-3.3240 F60.00
G01 X13.4764 Y-3.3158 F60.00
G01 X13.5002 Y-3.3098 F60.00
G01 X13.5245 Y-3.3062 F60.00
G01 X13.5490 Y-3.3050 F60.00
G01 X13.5735 Y-3.3062 F60.00
G01 X13.5978 Y-3.3098 F60.00
G01 X13.6216 Y-3.3158 F60.00
G01 X13.6447 Y-3.3240 F60.00
G01 X13.6668 Y-3.3345 F60.00
G01 X13.6879 Y-3.3471 F60.00
G01 X13.7076 Y-3.3617 F60.00
G01 X13.7258 Y-3.3782 F60.00
G01 X13.7423 Y-3.3964 F60.00
G01 X13.7569 Y-3.4161 F60.00
G01 X13.7695 Y-3.4372 F60.00
G01 X13.7800 Y-3.4593 F60.00
G01 X13.7882 Y-3.4824 F60.00
G01 X13.7942 Y-3.5062 F60.00
G01 X13.7978 Y-3.5305 F60.00
G01 X13.7990 Y-3.5550 F60.00
G00 Z2.0000
G00 X16.3390 Y-3.5550
G01 F60.00
G01 Z-0.5000
G01 F60.00
G01 X16.3378 Y-3.5795 F60.00
G01 X16.3342 Y-3.6038 F60.00
G01 X16.3282 Y-3.6276 F60.00
G01 X16.3200 Y-3.6507 F60.00
G01 X16.3095 Y-3.6728 F60.00
G01 X16.2969 Y-3.6939 F60.00
G01 X16.2823 Y-3.7136 F60.00
G01 X16.2658 Y-3.7318 F60.00
G01 X16.2476 Y-3.7483 F60.00
G01 X16.2279 Y-3.7629 F60.00
G01 X16.2068 Y-3.7755 F60.00
G01 X16.1847 Y-3.7860 F60.00
G01 X16.1616 Y-3.7942 F60.00
G01 X16.1378 Y-3.8002 F60.00
G01 X16.1135 Y-3.8038 F60.00
G01 X16.0890 Y-3.8050 F60.00
G01 X16.0645 Y-3.8038 F60.00
G01 X16.0402 Y-3.8002 F60.00
G01 X16.0164 Y-3.7942 F60.00
G01 X15.9933 Y-3.7860 F60.00
G01 X15.9712 Y-3.7755 F60.00
G01 X15.9501 Y-3.7629 F60.00
G01 X15.9304 Y-3.7483 F60.00
G01 X15.9122 Y-3.7318 F60.00
G01 X15.8957 Y-3.7136 F60.00
G01 X15.8811 Y-3.6939 F60.00
G01 X15.8685 Y-3.6728 F60.00
G01 X15.8580 Y-3.6507 F60.00
G01 X15.8498 Y-3.6276 F60.00
G01 X15.8438 Y-3.6038 F60.00
G01 X15.8402 Y-3.5795 F60.00
G01 X15.8390 Y-3.5550 F60.00
G01 X15.8402 Y-3.5305 F60.00
G01 X15.8438 Y-3.5062 F60.00
G01 X15.8498 Y-3.4824 F60.00
G01 X15.8580 Y-3.4593 F60.00
G01 X15.8685 Y-3.4372 F60.00
G01 X15.8811 Y-3.4161 F60.00
G01 X15.8957 Y-3.3964 F60.00
G01 X15.9122 Y-3.3782 F60.00
G01 X15.9304 Y-3.3617 F60.00
G01 X15.9501 Y-3.3471 F60.00
G01 X15.9712 Y-3.3345 F60.00
G01 X15.9933 Y-3.3240 F60.00
G01 X16.0164 Y-3.3158 F60.00
G01 X16.0402 Y-3.3098 F60.00
G01 X16.0645 Y-3.3062 F60.00
G01 X16.0890 Y-3.3050 F60.00
G01 X16.1135 Y-3.3062 F60.00
G01 X16.1378 Y-3.3098 F60.00
G01 X16.1616 Y-3.3158 F60.00
G01 X16.1847 Y-3.3240 F60.00
G01 X16.2068 Y-3.3345 F60.00
G01 X16.2279 Y-3.3471 F60.00
G01 X16.2476 Y-3.3617 F60.00
G01 X16.2658 Y-3.3782 F60.00
G01 X16.2823 Y-3.3964 F60.00
G01 X16.2969 Y-3.4161 F60.00
G01 X16.3095 Y-3.4372 F60.00
G01 X16.3200 Y-3.4593 F60.00
G01 X16.3282 Y-3.4824 F60.00
G01 X16.3342 Y-3.5062 F60.00
G01 X16.3378 Y-3.5305 F60.00
G01 X16.3390 Y-3.5550 F60.00
G00 X16.3390 Y-3.5550
G01 F60.00
G01 Z-1.0000
G01 F60.00
G01 X16.3378 Y-3.5795 F60.00
G01 X16.3342 Y-3.6038 F60.00
G01 X16.3282 Y-3.6276 F60.00
G01 X16.3200 Y-3.6507 F60.00
G01 X16.3095 Y-3.6728 F60.00
G01 X16.2969 Y-3.6939 F60.00
G01 X16.2823 Y-3.7136 F60.00
G01 X16.2658 Y-3.7318 F60.00
G01 X16.2476 Y-3.7483 F60.00
G01 X16.2279 Y-3.7629 F60.00
G01 X16.2068 Y-3.7755 F60.00
G01 X16.1847 Y-3.7860 F60.00
G01 X16.1616 Y-3.7942 F60.00
G01 X16.1378 Y-3.8002 F60.00
G01 X16.1135 Y-3.8038 F60.00
G01 X16.0890 Y-3.8050 F60.00
G01 X16.0645 Y-3.8038 F60.00
G01 X16.0402 Y-3.8002 F60.00
G01 X16.0164 Y-3.7942 F60.00
G01 X15.9933 Y-3.7860 F60.00
G01 X15.9712 Y-3.7755 F60.00
G01 X15.9501 Y-3.7629 F60.00
G01 X15.9304 Y-3.7483 F60.00
G01 X15.9122 Y-3.7318 F60.00
G01 X15.8957 Y-3.7136 F60.00
G01 X15.8811 Y-3.6939 F60.00
G01 X15.8685 Y-3.6728 F60.00
G01 X15.8580 Y-3.6507 F60.00
G01 X15.8498 Y-3.6276 F60.00
G01 X15.8438 Y-3.6038 F60.00
G01 X15.8402 Y-3.5795 F60.00
G01 X15.8390 Y-3.5550 F60.00
G01 X15.8402 Y-3.5305 F60.00
G01 X15.8438 Y-3.5062 F60.00
G01 X15.8498 Y-3.4824 F60.00
G01 X15.8580 Y-3.4593 F60.00
G01 X15.8685 Y-3.4372 F60.00
G01 X15.8811 Y-3.4161 F60.00
G01 X15.8957 Y-3.3964 F60.00
G01 X15.9122 Y-3.3782 F60.00
G01 X15.9304 Y-3.3617 F60.00
G01 X15.9501 Y-3.3471 F60.00
G01 X15.9712 Y-3.3345 F60.00
G01 X15.9933 Y-3.3240 F60.00
G01 X16.0164 Y-3.3158 F60.00
G01 X16.0402 Y-3.3098 F60.00
G01 X16.0645 Y-3.3062 F60.00
G01 X16.0890 Y-3.3050 F60.00
G01 X16.1135 Y-3.3062 F60.00
G01 X16.1378 Y-3.3098 F60.00
G01 X16.1616 Y-3.3158 F60.00
G01 X16.1847 Y-3.3240 F60.00
G01 X16.2068 Y-3.3345 F60.00
G01 X16.2279 Y-3.3471 F60.00
G01 X16.2476 Y-3.3617 F60.00
G01 X16.2658 Y-3.3782 F60.00
G01 X16.2823 Y-3.3964 F60.00
G01 X16.2969 Y-3.4161 F60.00
G01 X16.3095 Y-3.4372 F60.00
G01 X16.3200 Y-3.4593 F60.00
G01 X16.3282 Y-3.4824 F60.00
G01 X16.3342 Y-3.5062 F60.00
G01 X16.3378 Y-3.5305 F60.00
G01 X16.3390 Y-3.5550 F60.00
G00 X16.3390 Y-3.5550
G01 F60.00
G01 Z-1.5000
G01 F60.00
G01 X16.3378 Y-3.5795 F60.00
G01 X16.3342 Y-3.6038 F60.00
G01 X16.3282 Y-3.6276 F60.00
G01 X16.3200 Y-3.6507 F60.00
G01 X16.3095 Y-3.6728 F60.00
G01 X16.2969 Y-3.6939 F60.00
G01 X16.2823 Y-3.7136 F60.00
G01 X16.2658 Y-3.7318 F60.00
G01 X16.2476 Y-3.7483 F60.00
G01 X16.2279 Y-3.7629 F60.00
G01 X16.2068 Y-3.7755 F60.00
G01 X16.1847 Y-3.7860 F60.00
G01 X16.1616 Y-3.7942 F60.00
G01 X16.1378 Y-3.8002 F60.00
G01 X16.1135 Y-3.8038 F60.00
G01 X16.0890 Y-3.8050 F60.00
G01 X16.0645 Y-3.8038 F60.00
G01 X16.0402 Y-3.8002 F60.00
G01 X16.0164 Y-3.7942 F60.00
G01 X15.9933 Y-3.7860 F60.00
G01 X15.9712 Y-3.7755 F60.00
G01 X15.9501 Y-3.7629 F60.00
G01 X15.9304 Y-3.7483 F60.00
G01 X15.9122 Y-3.7318 F60.00
G01 X15.8957 Y-3.7136 F60.00
G01 X15.8811 Y-3.6939 F60.00
G01 X15.8685 Y-3.6728 F60.00
G01 X15.8580 Y-3.6507 F60.00
G01 X15.8498 Y-3.6276 F60.00
G01 X15.8438 Y-3.6038 F60.00
G01 X15.8402 Y-3.5795 F60.00
G01 X15.8390 Y-3.5550 F60.00
G01 X15.8402 Y-3.5305 F60.00
G01 X15.8438 Y-3.5062 F60.00
G01 X15.8498 Y-3.4824 F60.00
G01 X15.8580 Y-3.4593 F60.00
G01 X15.8685 Y-3.4372 F60.00
G01 X15.8811 Y-3.4161 F60.00
G01 X15.8957 Y-3.3964 F60.00
G01 X15.9122 Y-3.3782 F60.00
G01 X15.9304 Y-3.3617 F60.00
G01 X15.9501 Y-3.3471 F60.00
G01 X15.9712 Y-3.3345 F60.00
G01 X15.9933 Y-3.3240 F60.00
G01 X16.0164 Y-3.3158 F60.00
G01 X16.0402 Y-3.3098 F60.00
G01 X16.0645 Y-3.3062 F60.00
G01 X16.0890 Y-3.3050 F60.00
G01 X16.1135 Y-3.3062 F60.00
G01 X16.1378 Y-3.3098 F60.00
G01 X16.1616 Y-3.3158 F60.00
G01 X16.1847 Y-3.3240 F60.00
G01 X16.2068 Y-3.3345 F60.00
G01 X16.2279 Y-3.3471 F60.00
G01 X16.2476 Y-3.3617 F60.00
G01 X16.2658 Y-3.3782 F60.00
G01 X16.2823 Y-3.3964 F60.00
G01 X16.2969 Y-3.4161 F60.00
G01 X16.3095 Y-3.4372 F60.00
G01 X16.3200 Y-3.4593 F60.00
G01 X16.3282 Y-3.4824 F60.00
G01 X16.3342 Y-3.5062 F60.00
G01 X16.3378 Y-3.5305 F60.00
G01 X16.3390 Y-3.5550 F60.00
G00 X16.3390 Y-3.5550
G01 F60.00
G01 Z-2.0000
G01 F60.00
G01 X16.3378 Y-3.5795 F60.00
G01 X16.3342 Y-3.6038 F60.00
G01 X16.3282 Y-3.6276 F60.00
G01 X16.3200 Y-3.6507 F60.00
G01 X16.3095 Y-3.6728 F60.00
G01 X16.2969 Y-3.6939 F60.00
G01 X16.2823 Y-3.7136 F60.00
G01 X16.2658 Y-3.7318 F60.00
G01 X16.2476 Y-3.7483 F60.00
G01 X16.2279 Y-3.7629 F60.00
G01 X16.2068 Y-3.7755 F60.00
G01 X16.1847 Y-3.7860 F60.00
G01 X16.1616 Y-3.7942 F60.00
G01 X16.1378 Y-3.8002 F60.00
G01 X16.1135 Y-3.8038 F60.00
G01 X16.0890 Y-3.8050 F60.00
G01 X16.0645 Y-3.8038 F60.00
G01 X16.0402 Y-3.8002 F60.00
G01 X16.0164 Y-3.7942 F60.00
G01 X15.9933 Y-3.7860 F60.00
G01 X15.9712 Y-3.7755 F60.00
G01 X15.9501 Y-3.7629 F60.00
G01 X15.9304 Y-3.7483 F60.00
G01 X15.9122 Y-3.7318 F60.00
G01 X15.8957 Y-3.7136 F60.00
G01 X15.8811 Y-3.6939 F60.00
G01 X15.8685 Y-3.6728 F60.00
G01 X15.8580 Y-3.6507 F60.00
G01 X15.8498 Y-3.6276 F60.00
G01 X15.8438 Y-3.6038 F60.00
G01 X15.8402 Y-3.5795 F60.00
G01 X15.8390 Y-3.5550 F60.00
G01 X15.8402 Y-3.5305 F60.00
G01 X15.8438 Y-3.5062 F60.00
G01 X15.8498 Y-3.4824 F60.00
G01 X15.8580 Y-3.4593 F60.00
G01 X15.8685 Y-3.4372 F60.00
G01 X15.8811 Y-3.4161 F60.00
G01 X15.8957 Y-3.3964 F60.00
G01 X15.9122 Y-3.3782 F60.00
G01 X15.9304 Y-3.3617 F60.00
G01 X15.9501 Y-3.3471 F60.00
G01 X15.9712 Y-3.3345 F60.00
G01 X15.9933 Y-3.3240 F60.00
G01 X16.0164 Y-3.3158 F60.00
G01 X16.0402 Y-3.3098 F60.00
G01 X16.0645 Y-3.3062 F60.00
G01 X16.0890 Y-3.3050 F60.00
G01 X16.1135 Y-3.3062 F60.00
G01 X16.1378 Y-3.3098 F60.00
G01 X16.1616 Y-3.3158 F60.00
G01 X16.1847 Y-3.3240 F60.00
G01 X16.2068 Y-3.3345 F60.00
G01 X16.2279 Y-3.3471 F60.00
G01 X16.2476 Y-3.3617 F60.00
G01 X16.2658 Y-3.3782 F60.00
G01 X16.2823 Y-3.3964 F60.00
G01 X16.2969 Y-3.4161 F60.00
G01 X16.3095 Y-3.4372 F60.00
G01 X16.3200 Y-3.4593 F60.00
G01 X16.3282 Y-3.4824 F60.00
G01 X16.3342 Y-3.5062 F60.00
G01 X16.3378 Y-3.5305 F60.00
G01 X16.3390 Y-3.5550 F60.00
G00 X16.3390 Y-3.5550
G01 F60.00
G01 Z-2.5000
G01 F60.00
G01 X16.3378 Y-3.5795 F60.00
G01 X16.3342 Y-3.6038 F60.00
G01 X16.3282 Y-3.6276 F60.00
G01 X16.3200 Y-3.6507 F60.00
G01 X16.3095 Y-3.6728 F60.00
G01 X16.2969 Y-3.6939 F60.00
G01 X16.2823 Y-3.7136 F60.00
G01 X16.2658 Y-3.7318 F60.00
G01 X16.2476 Y-3.7483 F60.00
G01 X16.2279 Y-3.7629 F60.00
G01 X16.2068 Y-3.7755 F60.00
G01 X16.1847 Y-3.7860 F60.00
G01 X16.1616 Y-3.7942 F60.00
G01 X16.1378 Y-3.8002 F60.00
G01 X16.1135 Y-3.8038 F60.00
G01 X16.0890 Y-3.8050 F60.00
G01 X16.0645 Y-3.8038 F60.00
G01 X16.0402 Y-3.8002 F60.00
G01 X16.0164 Y-3.7942 F60.00
G01 X15.9933 Y-3.7860 F60.00
G01 X15.9712 Y-3.7755 F60.00
G01 X15.9501 Y-3.7629 F60.00
G01 X15.9304 Y-3.7483 F60.00
G01 X15.9122 Y-3.7318 F60.00
G01 X15.8957 Y-3.7136 F60.00
G01 X15.8811 Y-3.6939 F60.00
G01 X15.8685 Y-3.6728 F60.00
G01 X15.8580 Y-3.6507 F60.00
G01 X15.8498 Y-3.6276 F60.00
G01 X15.8438 Y-3.6038 F60.00
G01 X15.8402 Y-3.5795 F60.00
G01 X15.8390 Y-3.5550 F60.00
G01 X15.8402 Y-3.5305 F60.00
G01 X15.8438 Y-3.5062 F60.00
G01 X15.8498 Y-3.4824 F60.00
G01 X15.8580 Y-3.4593 F60.00
G01 X15.8685 Y-3.4372 F60.00
G01 X15.8811 Y-3.4161 F60.00
G01 X15.8957 Y-3.3964 F60.00
G01 X15.9122 Y-3.3782 F60.00
G01 X15.9304 Y-3.3617 F60.00
G01 X15.9501 Y-3.3471 F60.00
G01 X15.9712 Y-3.3345 F60.00
G01 X15.9933 Y-3.3240 F60.00
G01 X16.0164 Y-3.3158 F60.00
G01 X16.0402 Y-3.3098 F60.00
G01 X16.0645 Y-3.3062 F60.00
G01 X16.0890 Y-3.3050 F60.00
G01 X16.1135 Y-3.3062 F60.00
G01 X16.1378 Y-3.3098 F60.00
G01 X16.1616 Y-3.3158 F60.00
G01 X16.1847 Y-3.3240 F60.00
G01 X16.2068 Y-3.3345 F60.00
G01 X16.2279 Y-3.3471 F60.00
G01 X16.2476 Y-3.3617 F60.00
G01 X16.2658 Y-3.3782 F60.00
G01 X16.2823 Y-3.3964 F60.00
G01 X16.2969 Y-3.4161 F60.00
G01 X16.3095 Y-3.4372 F60.00
G01 X16.3200 Y-3.4593 F60.00
G01 X16.3282 Y-3.4824 F60.00
G01 X16.3342 Y-3.5062 F60.00
G01 X16.3378 Y-3.5305 F60.00
G01 X16.3390 Y-3.5550 F60.00
G00 Z2.0000
G00 X18.8790 Y-3.5550
G01 F60.00
G01 Z-0.5000
G01 F60.00
G01 X18.8778 Y-3.5795 F60.00
G01 X18.8742 Y-3.6038 F60.00
G01 X18.8682 Y-3.6276 F60.00
G01 X18.8600 Y-3.6507 F60.00
G01 X18.8495 Y-3.6728 F60.00
G01 X18.8369 Y-3.6939 F60.00
G01 X18.8223 Y-3.7136 F60.00
G01 X18.8058 Y-3.7318 F60.00
G01 X18.7876 Y-3.7483 F60.00
G01 X18.7679 Y-3.7629 F60.00
G01 X18.7468 Y-3.7755 F60.00
G01 X18.7247 Y-3.7860 F60.00
G01 X18.7016 Y-3.7942 F60.00
G01 X18.6778 Y-3.8002 F60.00
G01 X18.6535 Y-3.8038 F60.00
G01 X18.6290 Y-3.8050 F60.00
G01 X18.6045 Y-3.8038 F60.00
G01 X18.5802 Y-3.8002 F60.00
G01 X18.5564 Y-3.7942 F60.00
G01 X18.5333 Y-3.7860 F60.00
G01 X18.5112 Y-3.7755 F60.00
G01 X18.4901 Y-3.7629 F60.00
G01 X18.4704 Y-3.7483 F60.00
G01 X18.4522 Y-3.7318 F60.00
G01 X18.4357 Y-3.7136 F60.00
G01 X18.4211 Y-3.6939 F60.00
G01 X18.4085 Y-3.6728 F60.00
G01 X18.3980 Y-3.6507 F60.00
G01 X18.3898 Y-3.6276 F60.00
G01 X18.3838 Y-3.6038 F60.00
G01 X18.3802 Y-3.5795 F60.00
G01 X18.3790 Y-3.5550 F60.00
G01 X18.3802 Y-3.5305 F60.00
G01 X18.3838 Y-3.5062 F60.00
G01 X18.3898 Y-3.4824 F60.00
G01 X18.3980 Y-3.4593 F60.00
G01 X18.4085 Y-3.4372 F60.00
G01 X18.4211 Y-3.4161 F60.00
G01 X18.4357 Y-3.3964 F60.00
G01 X18.4522 Y-3.3782 F60.00
G01 X18.4704 Y-3.3617 F60.00
G01 X18.4901 Y-3.3471 F60.00
G01 X18.5112 Y-3.3345 F60.00
G01 X18.5333 Y-3.3240 F60.00
G01 X18.5564 Y-3.3158 F60.00
G01 X18.5802 Y-3.3098 F60.00
G01 X18.6045 Y-3.3062 F60.00
G01 X18.6290 Y-3.3050 F60.00
G01 X18.6535 Y-3.3062 F60.00
G01 X18.6778 Y-3.3098 F60.00
G01 X18.7016 Y-3.3158 F60.00
G01 X18.7247 Y-3.3240 F60.00
G01 X18.7468 Y-3.3345 F60.00
G01 X18.7679 Y-3.3471 F60.00
G01 X18.7876 Y-3.3617 F60.00
G01 X18.8058 Y-3.3782 F60.00
G01 X18.8223 Y-3.3964 F60.00
G01 X18.8369 Y-3.4161 F60.00
G01 X18.8495 Y-3.4372 F60.00
G01 X18.8600 Y-3.4593 F60.00
G01 X18.8682 Y-3.4824 F60.00
G01 X18.8742 Y-3.5062 F60.00
G01 X18.8778 Y-3.5305 F60.00
G01 X18.8790 Y-3.5550 F60.00
G00 X18.8790 Y-3.5550
G01 F60.00
G01 Z-1.0000
G01 F60.00
G01 X18.8778 Y-3.5795 F60.00
G01 X18.8742 Y-3.6038 F60.00
G01 X18.8682 Y-3.6276 F60.00
G01 X18.8600 Y-3.6507 F60.00
G01 X18.8495 Y-3.6728 F60.00
G01 X18.8369 Y-3.6939 F60.00
G01 X18.8223 Y-3.7136 F60.00
G01 X18.8058 Y-3.7318 F60.00
G01 X18.7876 Y-3.7483 F60.00
G01 X18.7679 Y-3.7629 F60.00
G01 X18.7468 Y-3.7755 F60.00
G01 X18.7247 Y-3.7860 F60.00
G01 X18.7016 Y-3.7942 F60.00
G01 X18.6778 Y-3.8002 F60.00
G01 X18.6535 Y-3.8038 F60.00
G01 X18.6290 Y-3.8050 F60.00
G01 X18.6045 Y-3.8038 F60.00
G01 X18.5802 Y-3.8002 F60.00
G01 X18.5564 Y-3.7942 F60.00
G01 X18.5333 Y-3.7860 F60.00
G01 X18.5112 Y-3.7755 F60.00
G01 X18.4901 Y-3.7629 F60.00
G01 X18.4704 Y-3.7483 F60.00
G01 X18.4522 Y-3.7318 F60.00
G01 X18.4357 Y-3.7136 F60.00
G01 X18.4211 Y-3.6939 F60.00
G01 X18.4085 Y-3.6728 F60.00
G01 X18.3980 Y-3.6507 F60.00
G01 X18.3898 Y-3.6276 F60.00
G01 X18.3838 Y-3.6038 F60.00
G01 X18.3802 Y-3.5795 F60.00
G01 X18.3790 Y-3.5550 F60.00
G01 X18.3802 Y-3.5305 F60.00
G01 X18.3838 Y-3.5062 F60.00
G01 X18.3898 Y-3.4824 F60.00
G01 X18.3980 Y-3.4593 F60.00
G01 X18.4085 Y-3.4372 F60.00
G01 X18.4211 Y-3.4161 F60.00
G01 X18.4357 Y-3.3964 F60.00
G01 X18.4522 Y-3.3782 F60.00
G01 X18.4704 Y-3.3617 F60.00
G01 X18.4901 Y-3.3471 F60.00
G01 X18.5112 Y-3.3345 F60.00
G01 X18.5333 Y-3.3240 F60.00
G01 X18.5564 Y-3.3158 F60.00
G01 X18.5802 Y-3.3098 F60.00
G01 X18.6045 Y-3.3062 F60.00
G01 X18.6290 Y-3.3050 F60.00
G01 X18.6535 Y-3.3062 F60.00
G01 X18.6778 Y-3.3098 F60.00
G01 X18.7016 Y-3.3158 F60.00
G01 X18.7247 Y-3.3240 F60.00
G01 X18.7468 Y-3.3345 F60.00
G01 X18.7679 Y-3.3471 F60.00
G01 X18.7876 Y-3.3617 F60.00
G01 X18.8058 Y-3.3782 F60.00
G01 X18.8223 Y-3.3964 F60.00
G01 X18.8369 Y-3.4161 F60.00
G01 X18.8495 Y-3.4372 F60.00
G01 X18.8600 Y-3.4593 F60.00
G01 X18.8682 Y-3.4824 F60.00
G01 X18.8742 Y-3.5062 F60.00
G01 X18.8778 Y-3.5305 F60.00
G01 X18.8790 Y-3.5550 F60.00
G00 X18.8790 Y-3.5550
G01 F60.00
G01 Z-1.5000
G01 F60.00
G01 X18.8778 Y-3.5795 F60.00
G01 X18.8742 Y-3.6038 F60.00
G01 X18.8682 Y-3.6276 F60.00
G01 X18.8600 Y-3.6507 F60.00
G01 X18.8495 Y-3.6728 F60.00
G01 X18.8369 Y-3.6939 F60.00
G01 X18.8223 Y-3.7136 F60.00
G01 X18.8058 Y-3.7318 F60.00
G01 X18.7876 Y-3.7483 F60.00
G01 X18.7679 Y-3.7629 F60.00
G01 X18.7468 Y-3.7755 F60.00
G01 X18.7247 Y-3.7860 F60.00
G01 X18.7016 Y-3.7942 F60.00
G01 X18.6778 Y-3.8002 F60.00
G01 X18.6535 Y-3.8038 F60.00
G01 X18.6290 Y-3.8050 F60.00
G01 X18.6045 Y-3.8038 F60.00
G01 X18.5802 Y-3.8002 F60.00
G01 X18.5564 Y-3.7942 F60.00
G01 X18.5333 Y-3.7860 F60.00
G01 X18.5112 Y-3.7755 F60.00
G01 X18.4901 Y-3.7629 F60.00
G01 X18.4704 Y-3.7483 F60.00
G01 X18.4522 Y-3.7318 F60.00
G01 X18.4357 Y-3.7136 F60.00
G01 X18.4211 Y-3.6939 F60.00
G01 X18.4085 Y-3.6728 F60.00
G01 X18.3980 Y-3.6507 F60.00
G01 X18.3898 Y-3.6276 F60.00
G01 X18.3838 Y-3.6038 F60.00
G01 X18.3802 Y-3.5795 F60.00
G01 X18.3790 Y-3.5550 F60.00
G01 X18.3802 Y-3.5305 F60.00
G01 X18.3838 Y-3.5062 F60.00
G01 X18.3898 Y-3.4824 F60.00
G01 X18.3980 Y-3.4593 F60.00
G01 X18.4085 Y-3.4372 F60.00
G01 X18.4211 Y-3.4161 F60.00
G01 X18.4357 Y-3.3964 F60.00
G01 X18.4522 Y-3.3782 F60.00
G01 X18.4704 Y-3.3617 F60.00
G01 X18.4901 Y-3.3471 F60.00
G01 X18.5112 Y-3.3345 F60.00
G01 X18.5333 Y-3.3240 F60.00
G01 X18.5564 Y-3.3158 F60.00
G01 X18.5802 Y-3.3098 F60.00
G01 X18.6045 Y-3.3062 F60.00
G01 X18.6290 Y-3.3050 F60.00
G01 X18.6535 Y-3.3062 F60.00
G01 X18.6778 Y-3.3098 F60.00
G01 X18.7016 Y-3.3158 F60.00
G01 X18.7247 Y-3.3240 F60.00
G01 X18.7468 Y-3.3345 F60.00
G01 X18.7679 Y-3.3471 F60.00
G01 X18.7876 Y-3.3617 F60.00
G01 X18.8058 Y-3.3782 F60.00
G01 X18.8223 Y-3.3964 F60.00
G01 X18.8369 Y-3.4161 F60.00
G01 X18.8495 Y-3.4372 F60.00
G01 X18.8600 Y-3.4593 F60.00
G01 X18.8682 Y-3.4824 F60.00
G01 X18.8742 Y-3.5062 F60.00
G01 X18.8778 Y-3.5305 F60.00
G01 X18.8790 Y-3.5550 F60.00
G00 X18.8790 Y-3.5550
G01 F60.00
G01 Z-2.0000
G01 F60.00
G01 X18.8778 Y-3.5795 F60.00
G01 X18.8742 Y-3.6038 F60.00
G01 X18.8682 Y-3.6276 F60.00
G01 X18.8600 Y-3.6507 F60.00
G01 X18.8495 Y-3.6728 F60.00
G01 X18.8369 Y-3.6939 F60.00
G01 X18.8223 Y-3.7136 F60.00
G01 X18.8058 Y-3.7318 F60.00
G01 X18.7876 Y-3.7483 F60.00
G01 X18.7679 Y-3.7629 F60.00
G01 X18.7468 Y-3.7755 F60.00
G01 X18.7247 Y-3.7860 F60.00
G01 X18.7016 Y-3.7942 F60.00
G01 X18.6778 Y-3.8002 F60.00
G01 X18.6535 Y-3.8038 F60.00
G01 X18.6290 Y-3.8050 F60.00
G01 X18.6045 Y-3.8038 F60.00
G01 X18.5802 Y-3.8002 F60.00
G01 X18.5564 Y-3.7942 F60.00
G01 X18.5333 Y-3.7860 F60.00
G01 X18.5112 Y-3.7755 F60.00
G01 X18.4901 Y-3.7629 F60.00
G01 X18.4704 Y-3.7483 F60.00
G01 X18.4522 Y-3.7318 F60.00
G01 X18.4357 Y-3.7136 F60.00
G01 X18.4211 Y-3.6939 F60.00
G01 X18.4085 Y-3.6728 F60.00
G01 X18.3980 Y-3.6507 F60.00
G01 X18.3898 Y-3.6276 F60.00
G01 X18.3838 Y-3.6038 F60.00
G01 X18.3802 Y-3.5795 F60.00
G01 X18.3790 Y-3.5550 F60.00
G01 X18.3802 Y-3.5305 F60.00
G01 X18.3838 Y-3.5062 F60.00
G01 X18.3898 Y-3.4824 F60.00
G01 X18.3980 Y-3.4593 F60.00
G01 X18.4085 Y-3.4372 F60.00
G01 X18.4211 Y-3.4161 F60.00
G01 X18.4357 Y-3.3964 F60.00
G01 X18.4522 Y-3.3782 F60.00
G01 X18.4704 Y-3.3617 F60.00
G01 X18.4901 Y-3.3471 F60.00
G01 X18.5112 Y-3.3345 F60.00
G01 X18.5333 Y-3.3240 F60.00
G01 X18.5564 Y-3.3158 F60.00
G01 X18.5802 Y-3.3098 F60.00
G01 X18.6045 Y-3.3062 F60.00
G01 X18.6290 Y-3.3050 F60.00
G01 X18.6535 Y-3.3062 F60.00
G01 X18.6778 Y-3.3098 F60.00
G01 X18.7016 Y-3.3158 F60.00
G01 X18.7247 Y-3.3240 F60.00
G01 X18.7468 Y-3.3345 F60.00
G01 X18.7679 Y-3.3471 F60.00
G01 X18.7876 Y-3.3617 F60.00
G01 X18.8058 Y-3.3782 F60.00
G01 X18.8223 Y-3.3964 F60.00
G01 X18.8369 Y-3.4161 F60.00
G01 X18.8495 Y-3.4372 F60.00
G01 X18.8600 Y-3.4593 F60.00
G01 X18.8682 Y-3.4824 F60.00
G01 X18.8742 Y-3.5062 F60.00
G01 X18.8778 Y-3.5305 F60.00
G01 X18.8790 Y-3.5550 F60.00
G00 X18.8790 Y-3.5550
G01 F60.00
G01 Z-2.5000
G01 F60.00
G01 X18.8778 Y-3.5795 F60.00
G01 X18.8742 Y-3.6038 F60.00
G01 X18.8682 Y-3.6276 F60.00
G01 X18.8600 Y-3.6507 F60.00
G01 X18.8495 Y-3.6728 F60.00
G01 X18.8369 Y-3.6939 F60.00
G01 X18.8223 Y-3.7136 F60.00
G01 X18.8058 Y-3.7318 F60.00
G01 X18.7876 Y-3.7483 F60.00
G01 X18.7679 Y-3.7629 F60.00
G01 X18.7468 Y-3.7755 F60.00
G01 X18.7247 Y-3.7860 F60.00
G01 X18.7016 Y-3.7942 F60.00
G01 X18.6778 Y-3.8002 F60.00
G01 X18.6535 Y-3.8038 F60.00
G01 X18.6290 Y-3.8050 F60.00
G01 X18.6045 Y-3.8038 F60.00
G01 X18.5802 Y-3.8002 F60.00
G01 X18.5564 Y-3.7942 F60.00
G01 X18.5333 Y-3.7860 F60.00
G01 X18.5112 Y-3.7755 F60.00
G01 X18.4901 Y-3.7629 F60.00
G01 X18.4704 Y-3.7483 F60.00
G01 X18.4522 Y-3.7318 F60.00
G01 X18.4357 Y-3.7136 F60.00
G01 X18.4211 Y-3.6939 F60.00
G01 X18.4085 Y-3.6728 F60.00
G01 X18.3980 Y-3.6507 F60.00
G01 X18.3898 Y-3.6276 F60.00
G01 X18.3838 Y-3.6038 F60.00
G01 X18.3802 Y-3.5795 F60.00
G01 X18.3790 Y-3.5550 F60.00
G01 X18.3802 Y-3.5305 F60.00
G01 X18.3838 Y-3.5062 F60.00
G01 X18.3898 Y-3.4824 F60.00
G01 X18.3980 Y-3.4593 F60.00
G01 X18.4085 Y-3.4372 F60.00
G01 X18.4211 Y-3.4161 F60.00
G01 X18.4357 Y-3.3964 F60.00
G01 X18.4522 Y-3.3782 F60.00
G01 X18.4704 Y-3.3617 F60.00
G01 X18.4901 Y-3.3471 F60.00
G01 X18.5112 Y-3.3345 F60.00
G01 X18.5333 Y-3.3240 F60.00
G01 X18.5564 Y-3.3158 F60.00
G01 X18.5802 Y-3.3098 F60.00
G01 X18.6045 Y-3.3062 F60.00
G01 X18.6290 Y-3.3050 F60.00
G01 X18.6535 Y-3.3062 F60.00
G01 X18.6778 Y-3.3098 F60.00
G01 X18.7016 Y-3.3158 F60.00
G01 X18.7247 Y-3.3240 F60.00
G01 X18.7468 Y-3.3345 F60.00
G01 X18.7679 Y-3.3471 F60.00
G01 X18.7876 Y-3.3617 F60.00
G01 X18.8058 Y-3.3782 F60.00
G01 X18.8223 Y-3.3964 F60.00
G01 X18.8369 Y-3.4161 F60.00
G01 X18.8495 Y-3.4372 F60.00
G01 X18.8600 Y-3.4593 F60.00
G01 X18.8682 Y-3.4824 F60.00
G01 X18.8742 Y-3.5062 F60.00
G01 X18.8778 Y-3.5305 F60.00
G01 X18.8790 Y-3.5550 F60.00
G00 Z2.0000
G00 X21.4190 Y-3.5550
G01 F60.00
G01 Z-0.5000
G01 F60.00
G01 X21.4178 Y-3.5795 F60.00
G01 X21.4142 Y-3.6038 F60.00
G01 X21.4082 Y-3.6276 F60.00
G01 X21.4000 Y-3.6507 F60.00
G01 X21.3895 Y-3.6728 F60.00
G01 X21.3769 Y-3.6939 F60.00
G01 X21.3623 Y-3.7136 F60.00
G01 X21.3458 Y-3.7318 F60.00
G01 X21.3276 Y-3.7483 F60.00
G01 X21.3079 Y-3.7629 F60.00
G01 X21.2868 Y-3.7755 F60.00
G01 X21.2647 Y-3.7860 F60.00
G01 X21.2416 Y-3.7942 F60.00
G01 X21.2178 Y-3.8002 F60.00
G01 X21.1935 Y-3.8038 F60.00
G01 X21.1690 Y-3.8050 F60.00
G01 X21.1445 Y-3.8038 F60.00
G01 X21.1202 Y-3.8002 F60.00
G01 X21.0964 Y-3.7942 F60.00
G01 X21.0733 Y-3.7860 F60.00
G01 X21.0512 Y-3.7755 F60.00
G01 X21.0301 Y-3.7629 F60.00
G01 X21.0104 Y-3.7483 F60.00
G01 X20.9922 Y-3.7318 F60.00
G01 X20.9757 Y-3.7136 F60.00
G01 X20.9611 Y-3.6939 F60.00
G01 X20.9485 Y-3.6728 F60.00
G01 X20.9380 Y-3.6507 F60.00
G01 X20.9298 Y-3.6276 F60.00
G01 X20.9238 Y-3.6038 F60.00
G01 X20.9202 Y-3.5795 F60.00
G01 X20.9190 Y-3.5550 F60.00
G01 X20.9202 Y-3.5305 F60.00
G01 X20.9238 Y-3.5062 F60.00
G01 X20.9298 Y-3.4824 F60.00
G01 X20.9380 Y-3.4593 F60.00
G01 X20.9485 Y-3.4372 F60.00
G01 X20.9611 Y-3.4161 F60.00
G01 X20.9757 Y-3.3964 F60.00
G01 X20.9922 Y-3.3782 F60.00
G01 X21.0104 Y-3.3617 F60.00
G01 X21.0301 Y-3.3471 F60.00
G01 X21.0512 Y-3.3345 F60.00
G01 X21.0733 Y-3.3240 F60.00
G01 X21.0964 Y-3.3158 F60.00
G01 X21.1202 Y-3.3098 F60.00
G01 X21.1445 Y-3.3062 F60.00
G01 X21.1690 Y-3.3050 F60.00
G01 X21.1935 Y-3.3062 F60.00
G01 X21.2178 Y-3.3098 F60.00
G01 X21.2416 Y-3.3158 F60.00
G01 X21.2647 Y-3.3240 F60.00
G01 X21.2868 Y-3.3345 F60.00
G01 X21.3079 Y-3.3471 F60.00
G01 X21.3276 Y-3.3617 F60.00
G01 X21.3458 Y-3.3782 F60.00
G01 X21.3623 Y-3.3964 F60.00
G01 X21.3769 Y-3.4161 F60.00
G01 X21.3895 Y-3.4372 F60.00
G01 X21.4000 Y-3.4593 F60.00
G01 X21.4082 Y-3.4824 F60.00
G01 X21.4142 Y-3.5062 F60.00
G01 X21.4178 Y-3.5305 F60.00
G01 X21.4190 Y-3.5550 F60.00
G00 X21.4190 Y-3.5550
G01 F60.00
G01 Z-1.0000
G01 F60.00
G01 X21.4178 Y-3.5795 F60.00
G01 X21.4142 Y-3.6038 F60.00
G01 X21.4082 Y-3.6276 F60.00
G01 X21.4000 Y-3.6507 F60.00
G01 X21.3895 Y-3.6728 F60.00
G01 X21.3769 Y-3.6939 F60.00
G01 X21.3623 Y-3.7136 F60.00
G01 X21.3458 Y-3.7318 F60.00
G01 X21.3276 Y-3.7483 F60.00
G01 X21.3079 Y-3.7629 F60.00
G01 X21.2868 Y-3.7755 F60.00
G01 X21.2647 Y-3.7860 F60.00
G01 X21.2416 Y-3.7942 F60.00
G01 X21.2178 Y-3.8002 F60.00
G01 X21.1935 Y-3.8038 F60.00
G01 X21.1690 Y-3.8050 F60.00
G01 X21.1445 Y-3.8038 F60.00
G01 X21.1202 Y-3.8002 F60.00
G01 X21.0964 Y-3.7942 F60.00
G01 X21.0733 Y-3.7860 F60.00
G01 X21.0512 Y-3.7755 F60.00
G01 X21.0301 Y-3.7629 F60.00
G01 X21.0104 Y-3.7483 F60.00
G01 X20.9922 Y-3.7318 F60.00
G01 X20.9757 Y-3.7136 F60.00
G01 X20.9611 Y-3.6939 F60.00
G01 X20.9485 Y-3.6728 F60.00
G01 X20.9380 Y-3.6507 F60.00
G01 X20.9298 Y-3.6276 F60.00
G01 X20.9238 Y-3.6038 F60.00
G01 X20.9202 Y-3.5795 F60.00
G01 X20.9190 Y-3.5550 F60.00
G01 X20.9202 Y-3.5305 F60.00
G01 X20.9238 Y-3.5062 F60.00
G01 X20.9298 Y-3.4824 F60.00
G01 X20.9380 Y-3.4593 F60.00
G01 X20.9485 Y-3.4372 F60.00
G01 X20.9611 Y-3.4161 F60.00
G01 X20.9757 Y-3.3964 F60.00
G01 X20.9922 Y-3.3782 F60.00
G01 X21.0104 Y-3.3617 F60.00
G01 X21.0301 Y-3.3471 F60.00
G01 X21.0512 Y-3.3345 F60.00
G01 X21.0733 Y-3.3240 F60.00
G01 X21.0964 Y-3.3158 F60.00
G01 X21.1202 Y-3.3098 F60.00
G01 X21.1445 Y-3.3062 F60.00
G01 X21.1690 Y-3.3050 F60.00
G01 X21.1935 Y-3.3062 F60.00
G01 X21.2178 Y-3.3098 F60.00
G01 X21.2416 Y-3.3158 F60.00
G01 X21.2647 Y-3.3240 F60.00
G01 X21.2868 Y-3.3345 F60.00
G01 X21.3079 Y-3.3471 F60.00
G01 X21.3276 Y-3.3617 F60.00
G01 X21.3458 Y-3.3782 F60.00
G01 X21.3623 Y-3.3964 F60.00
G01 X21.3769 Y-3.4161 F60.00
G01 X21.3895 Y-3.4372 F60.00
G01 X21.4000 Y-3.4593 F60.00
G01 X21.4082 Y-3.4824 F60.00
G01 X21.4142 Y-3.5062 F60.00
G01 X21.4178 Y-3.5305 F60.00
G01 X21.4190 Y-3.5550 F60.00
G00 X21.4190 Y-3.5550
G01 F60.00
G01 Z-1.5000
G01 F60.00
G01 X21.4178 Y-3.5795 F60.00
G01 X21.4142 Y-3.6038 F60.00
G01 X21.4082 Y-3.6276 F60.00
G01 X21.4000 Y-3.6507 F60.00
G01 X21.3895 Y-3.6728 F60.00
G01 X21.3769 Y-3.6939 F60.00
G01 X21.3623 Y-3.7136 F60.00
G01 X21.3458 Y-3.7318 F60.00
G01 X21.3276 Y-3.7483 F60.00
G01 X21.3079 Y-3.7629 F60.00
G01 X21.2868 Y-3.7755 F60.00
G01 X21.2647 Y-3.7860 F60.00
G01 X21.2416 Y-3.7942 F60.00
G01 X21.2178 Y-3.8002 F60.00
G01 X21.1935 Y-3.8038 F60.00
G01 X21.1690 Y-3.8050 F60.00
G01 X21.1445 Y-3.8038 F60.00
G01 X21.1202 Y-3.8002 F60.00
G01 X21.0964 Y-3.7942 F60.00
G01 X21.0733 Y-3.7860 F60.00
G01 X21.0512 Y-3.7755 F60.00
G01 X21.0301 Y-3.7629 F60.00
G01 X21.0104 Y-3.7483 F60.00
G01 X20.9922 Y-3.7318 F60.00
G01 X20.9757 Y-3.7136 F60.00
G01 X20.9611 Y-3.6939 F60.00
G01 X20.9485 Y-3.6728 F60.00
G01 X20.9380 Y-3.6507 F60.00
G01 X20.9298 Y-3.6276 F60.00
G01 X20.9238 Y-3.6038 F60.00
G01 X20.9202 Y-3.5795 F60.00
G01 X20.9190 Y-3.5550 F60.00
G01 X20.9202 Y-3.5305 F60.00
G01 X20.9238 Y-3.5062 F60.00
G01 X20.9298 Y-3.4824 F60.00
G01 X20.9380 Y-3.4593 F60.00
G01 X20.9485 Y-3.4372 F60.00
G01 X20.9611 Y-3.4161 F60.00
G01 X20.9757 Y-3.3964 F60.00
G01 X20.9922 Y-3.3782 F60.00
G01 X21.0104 Y-3.3617 F60.00
G01 X21.0301 Y-3.3471 F60.00
G01 X21.0512 Y-3.3345 F60.00
G01 X21.0733 Y-3.3240 F60.00
G01 X21.0964 Y-3.3158 F60.00
G01 X21.1202 Y-3.3098 F60.00
G01 X21.1445 Y-3.3062 F60.00
G01 X21.1690 Y-3.3050 F60.00
G01 X21.1935 Y-3.3062 F60.00
G01 X21.2178 Y-3.3098 F60.00
G01 X21.2416 Y-3.3158 F60.00
G01 X21.2647 Y-3.3240 F60.00
G01 X21.2868 Y-3.3345 F60.00
G01 X21.3079 Y-3.3471 F60.00
G01 X21.3276 Y-3.3617 F60.00
G01 X21.3458 Y-3.3782 F60.00
G01 X21.3623 Y-3.3964 F60.00
G01 X21.3769 Y-3.4161 F60.00
G01 X21.3895 Y-3.4372 F60.00
G01 X21.4000 Y-3.4593 F60.00
G01 X21.4082 Y-3.4824 F60.00
G01 X21.4142 Y-3.5062 F60.00
G01 X21.4178 Y-3.5305 F60.00
G01 X21.4190 Y-3.5550 F60.00
G00 X21.4190 Y-3.5550
G01 F60.00
G01 Z-2.0000
G01 F60.00
G01 X21.4178 Y-3.5795 F60.00
G01 X21.4142 Y-3.6038 F60.00
G01 X21.4082 Y-3.6276 F60.00
G01 X21.4000 Y-3.6507 F60.00
G01 X21.3895 Y-3.6728 F60.00
G01 X21.3769 Y-3.6939 F60.00
G01 X21.3623 Y-3.7136 F60.00
G01 X21.3458 Y-3.7318 F60.00
G01 X21.3276 Y-3.7483 F60.00
G01 X21.3079 Y-3.7629 F60.00
G01 X21.2868 Y-3.7755 F60.00
G01 X21.2647 Y-3.7860 F60.00
G01 X21.2416 Y-3.7942 F60.00
G01 X21.2178 Y-3.8002 F60.00
G01 X21.1935 Y-3.8038 F60.00
G01 X21.1690 Y-3.8050 F60.00
G01 X21.1445 Y-3.8038 F60.00
G01 X21.1202 Y-3.8002 F60.00
G01 X21.0964 Y-3.7942 F60.00
G01 X21.0733 Y-3.7860 F60.00
G01 X21.0512 Y-3.7755 F60.00
G01 X21.0301 Y-3.7629 F60.00
G01 X21.0104 Y-3.7483 F60.00
G01 X20.9922 Y-3.7318 F60.00
G01 X20.9757 Y-3.7136 F60.00
G01 X20.9611 Y-3.6939 F60.00
G01 X20.9485 Y-3.6728 F60.00
G01 X20.9380 Y-3.6507 F60.00
G01 X20.9298 Y-3.6276 F60.00
G01 X20.9238 Y-3.6038 F60.00
G01 X20.9202 Y-3.5795 F60.00
G01 X20.9190 Y-3.5550 F60.00
G01 X20.9202 Y-3.5305 F60.00
G01 X20.9238 Y-3.5062 F60.00
G01 X20.9298 Y-3.4824 F60.00
G01 X20.9380 Y-3.4593 F60.00
G01 X20.9485 Y-3.4372 F60.00
G01 X20.9611 Y-3.4161 F60.00
G01 X20.9757 Y-3.3964 F60.00
G01 X20.9922 Y-3.3782 F60.00
G01 X21.0104 Y-3.3617 F60.00
G01 X21.0301 Y-3.3471 F60.00
G01 X21.0512 Y-3.3345 F60.00
G01 X21.0733 Y-3.3240 F60.00
G01 X21.0964 Y-3.3158 F60.00
G01 X21.1202 Y-3.3098 F60.00
G01 X21.1445 Y-3.3062 F60.00
G01 X21.1690 Y-3.3050 F60.00
G01 X21.1935 Y-3.3062 F60.00
G01 X21.2178 Y-3.3098 F60.00
G01 X21.2416 Y-3.3158 F60.00
G01 X21.2647 Y-3.3240 F60.00
G01 X21.2868 Y-3.3345 F60.00
G01 X21.3079 Y-3.3471 F60.00
G01 X21.3276 Y-3.3617 F60.00
G01 X21.3458 Y-3.3782 F60.00
G01 X21.3623 Y-3.3964 F60.00
G01 X21.3769 Y-3.4161 F60.00
G01 X21.3895 Y-3.4372 F60.00
G01 X21.4000 Y-3.4593 F60.00
G01 X21.4082 Y-3.4824 F60.00
G01 X21.4142 Y-3.5062 F60.00
G01 X21.4178 Y-3.5305 F60.00
G01 X21.4190 Y-3.5550 F60.00
G00 X21.4190 Y-3.5550
G01 F60.00
G01 Z-2.5000
G01 F60.00
G01 X21.4178 Y-3.5795 F60.00
G01 X21.4142 Y-3.6038 F60.00
G01 X21.4082 Y-3.6276 F60.00
G01 X21.4000 Y-3.6507 F60.00
G01 X21.3895 Y-3.6728 F60.00
G01 X21.3769 Y-3.6939 F60.00
G01 X21.3623 Y-3.7136 F60.00
G01 X21.3458 Y-3.7318 F60.00
G01 X21.3276 Y-3.7483 F60.00
G01 X21.3079 Y-3.7629 F60.00
G01 X21.2868 Y-3.7755 F60.00
G01 X21.2647 Y-3.7860 F60.00
G01 X21.2416 Y-3.7942 F60.00
G01 X21.2178 Y-3.8002 F60.00
G01 X21.1935 Y-3.8038 F60.00
G01 X21.1690 Y-3.8050 F60.00
G01 X21.1445 Y-3.8038 F60.00
G01 X21.1202 Y-3.8002 F60.00
G01 X21.0964 Y-3.7942 F60.00
G01 X21.0733 Y-3.7860 F60.00
G01 X21.0512 Y-3.7755 F60.00
G01 X21.0301 Y-3.7629 F60.00
G01 X21.0104 Y-3.7483 F60.00
G01 X20.9922 Y-3.7318 F60.00
G01 X20.9757 Y-3.7136 F60.00
G01 X20.9611 Y-3.6939 F60.00
G01 X20.9485 Y-3.6728 F60.00
G01 X20.9380 Y-3.6507 F60.00
G01 X20.9298 Y-3.6276 F60.00
G01 X20.9238 Y-3.6038 F60.00
G01 X20.9202 Y-3.5795 F60.00
G01 X20.9190 Y-3.5550 F60.00
G01 X20.9202 Y-3.5305 F60.00
G01 X20.9238 Y-3.5062 F60.00
G01 X20.9298 Y-3.4824 F60.00
G01 X20.9380 Y-3.4593 F60.00
G01 X20.9485 Y-3.4372 F60.00
G01 X20.9611 Y-3.4161 F60.00
G01 X20.9757 Y-3.3964 F60.00
G01 X20.9922 Y-3.3782 F60.00
G01 X21.0104 Y-3.3617 F60.00
G01 X21.0301 Y-3.3471 F60.00
G01 X21.0512 Y-3.3345 F60.00
G01 X21.0733 Y-3.3240 F60.00
G01 X21.0964 Y-3.3158 F60.00
G01 X21.1202 Y-3.3098 F60.00
G01 X21.1445 Y-3.3062 F60.00
G01 X21.1690 Y-3.3050 F60.00
G01 X21.1935 Y-3.3062 F60.00
G01 X21.2178 Y-3.3098 F60.00
G01 X21.2416 Y-3.3158 F60.00
G01 X21.2647 Y-3.3240 F60.00
G01 X21.2868 Y-3.3345 F60.00
G01 X21.3079 Y-3.3471 F60.00
G01 X21.3276 Y-3.3617 F60.00
G01 X21.3458 Y-3.3782 F60.00
G01 X21.3623 Y-3.3964 F60.00
G01 X21.3769 Y-3.4161 F60.00
G01 X21.3895 Y-3.4372 F60.00
G01 X21.4000 Y-3.4593 F60.00
G01 X21.4082 Y-3.4824 F60.00
G01 X21.4142 Y-3.5062 F60.00
G01 X21.4178 Y-3.5305 F60.00
G01 X21.4190 Y-3.5550 F60.00
G00 Z2.0000
G00 X23.9590 Y-3.5550
G01 F60.00
G01 Z-0.5000
G01 F60.00
G01 X23.9578 Y-3.5795 F60.00
G01 X23.9542 Y-3.6038 F60.00
G01 X23.9482 Y-3.6276 F60.00
G01 X23.9400 Y-3.6507 F60.00
G01 X23.9295 Y-3.6728 F60.00
G01 X23.9169 Y-3.6939 F60.00
G01 X23.9023 Y-3.7136 F60.00
G01 X23.8858 Y-3.7318 F60.00
G01 X23.8676 Y-3.7483 F60.00
G01 X23.8479 Y-3.7629 F60.00
G01 X23.8268 Y-3.7755 F60.00
G01 X23.8047 Y-3.7860 F60.00
G01 X23.7816 Y-3.7942 F60.00
G01 X23.7578 Y-3.8002 F60.00
G01 X23.7335 Y-3.8038 F60.00
G01 X23.7090 Y-3.8050 F60.00
G01 X23.6845 Y-3.8038 F60.00
G01 X23.6602 Y-3.8002 F60.00
G01 X23.6364 Y-3.7942 F60.00
G01 X23.6133 Y-3.7860 F60.00
G01 X23.5912 Y-3.7755 F60.00
G01 X23.5701 Y-3.7629 F60.00
G01 X23.5504 Y-3.7483 F60.00
G01 X23.5322 Y-3.7318 F60.00
G01 X23.5157 Y-3.7136 F60.00
G01 X23.5011 Y-3.6939 F60.00
G01 X23.4885 Y-3.6728 F60.00
G01 X23.4780 Y-3.6507 F60.00
G01 X23.4698 Y-3.6276 F60.00
G01 X23.4638 Y-3.6038 F60.00
G01 X23.4602 Y-3.5795 F60.00
G01 X23.4590 Y-3.5550 F60.00
G01 X23.4602 Y-3.5305 F60.00
G01 X23.4638 Y-3.5062 F60.00
G01 X23.4698 Y-3.4824 F60.00
G01 X23.4780 Y-3.4593 F60.00
G01 X23.4885 Y-3.4372 F60.00
G01 X23.5011 Y-3.4161 F60.00
G01 X23.5157 Y-3.3964 F60.00
G01 X23.5322 Y-3.3782 F60.00
G01 X23.5504 Y-3.3617 F60.00
G01 X23.5701 Y-3.3471 F60.00
G01 X23.5912 Y-3.3345 F60.00
G01 X23.6133 Y-3.3240 F60.00
G01 X23.6364 Y-3.3158 F60.00
G01 X23.6602 Y-3.3098 F60.00
G01 X23.6845 Y-3.3062 F60.00
G01 X23.7090 Y-3.3050 F60.00
G01 X23.7335 Y-3.3062 F60.00
G01 X23.7578 Y-3.3098 F60.00
G01 X23.7816 Y-3.3158 F60.00
G01 X23.8047 Y-3.3240 F60.00
G01 X23.8268 Y-3.3345 F60.00
G01 X23.8479 Y-3.3471 F60.00
G01 X23.8676 Y-3.3617 F60.00
G01 X23.8858 Y-3.3782 F60.00
G01 X23.9023 Y-3.3964 F60.00
G01 X23.9169 Y-3.4161 F60.00
G01 X23.9295 Y-3.4372 F60.00
G01 X23.9400 Y-3.4593 F60.00
G01 X23.9482 Y-3.4824 F60.00
G01 X23.9542 Y-3.5062 F60.00
G01 X23.9578 Y-3.5305 F60.00
G01 X23.9590 Y-3.5550 F60.00
G00 X23.9590 Y-3.5550
G01 F60.00
G01 Z-1.0000
G01 F60.00
G01 X23.9578 Y-3.5795 F60.00
G01 X23.9542 Y-3.6038 F60.00
G01 X23.9482 Y-3.6276 F60.00
G01 X23.9400 Y-3.6507 F60.00
G01 X23.9295 Y-3.6728 F60.00
G01 X23.9169 Y-3.6939 F60.00
G01 X23.9023 Y-3.7136 F60.00
G01 X23.8858 Y-3.7318 F60.00
G01 X23.8676 Y-3.7483 F60.00
G01 X23.8479 Y-3.7629 F60.00
G01 X23.8268 Y-3.7755 F60.00
G01 X23.8047 Y-3.7860 F60.00
G01 X23.7816 Y-3.7942 F60.00
G01 X23.7578 Y-3.8002 F60.00
G01 X23.7335 Y-3.8038 F60.00
G01 X23.7090 Y-3.8050 F60.00
G01 X23.6845 Y-3.8038 F60.00
G01 X23.6602 Y-3.8002 F60.00
G01 X23.6364 Y-3.7942 F60.00
G01 X23.6133 Y-3.7860 F60.00
G01 X23.5912 Y-3.7755 F60.00
G01 X23.5701 Y-3.7629 F60.00
G01 X23.5504 Y-3.7483 F60.00
G01 X23.5322 Y-3.7318 F60.00
G01 X23.5157 Y-3.7136 F60.00
G01 X23.5011 Y-3.6939 F60.00
G01 X23.4885 Y-3.6728 F60.00
G01 X23.4780 Y-3.6507 F60.00
G01 X23.4698 Y-3.6276 F60.00
G01 X23.4638 Y-3.6038 F60.00
G01 X23.4602 Y-3.5795 F60.00
G01 X23.4590 Y-3.5550 F60.00
G01 X23.4602 Y-3.5305 F60.00
G01 X23.4638 Y-3.5062 F60.00
G01 X23.4698 Y-3.4824 F60.00
G01 X23.4780 Y-3.4593 F60.00
G01 X23.4885 Y-3.4372 F60.00
G01 X23.5011 Y-3.4161 F60.00
G01 X23.5157 Y-3.3964 F60.00
G01 X23.5322 Y-3.3782 F60.00
G01 X23.5504 Y-3.3617 F60.00
G01 X23.5701 Y-3.3471 F60.00
G01 X23.5912 Y-3.3345 F60.00
G01 X23.6133 Y-3.3240 F60.00
G01 X23.6364 Y-3.3158 F60.00
G01 X23.6602 Y-3.3098 F60.00
G01 X23.6845 Y-3.3062 F60.00
G01 X23.7090 Y-3.3050 F60.00
G01 X23.7335 Y-3.3062 F60.00
G01 X23.7578 Y-3.3098 F60.00
G01 X23.7816 Y-3.3158 F60.00
G01 X23.8047 Y-3.3240 F60.00
G01 X23.8268 Y-3.3345 F60.00
G01 X23.8479 Y-3.3471 F60.00
G01 X23.8676 Y-3.3617 F60.00
G01 X23.8858 Y-3.3782 F60.00
G01 X23.9023 Y-3.3964 F60.00
G01 X23.9169 Y-3.4161 F60.00
G01 X23.9295 Y-3.4372 F60.00
G01 X23.9400 Y-3.4593 F60.00
G01 X23.9482 Y-3.4824 F60.00
G01 X23.9542 Y-3.5062 F60.00
G01 X23.9578 Y-3.5305 F60.00
G01 X23.9590 Y-3.5550 F60.00
G00 X23.9590 Y-3.5550
G01 F60.00
G01 Z-1.5000
G01 F60.00
G01 X23.9578 Y-3.5795 F60.00
G01 X23.9542 Y-3.6038 F60.00
G01 X23.9482 Y-3.6276 F60.00
G01 X23.9400 Y-3.6507 F60.00
G01 X23.9295 Y-3.6728 F60.00
G01 X23.9169 Y-3.6939 F60.00
G01 X23.9023 Y-3.7136 F60.00
G01 X23.8858 Y-3.7318 F60.00
G01 X23.8676 Y-3.7483 F60.00
G01 X23.8479 Y-3.7629 F60.00
G01 X23.8268 Y-3.7755 F60.00
G01 X23.8047 Y-3.7860 F60.00
G01 X23.7816 Y-3.7942 F60.00
G01 X23.7578 Y-3.8002 F60.00
G01 X23.7335 Y-3.8038 F60.00
G01 X23.7090 Y-3.8050 F60.00
G01 X23.6845 Y-3.8038 F60.00
G01 X23.6602 Y-3.8002 F60.00
G01 X23.6364 Y-3.7942 F60.00
G01 X23.6133 Y-3.7860 F60.00
G01 X23.5912 Y-3.7755 F60.00
G01 X23.5701 Y-3.7629 F60.00
G01 X23.5504 Y-3.7483 F60.00
G01 X23.5322 Y-3.7318 F60.00
G01 X23.5157 Y-3.7136 F60.00
G01 X23.5011 Y-3.6939 F60.00
G01 X23.4885 Y-3.6728 F60.00
G01 X23.4780 Y-3.6507 F60.00
G01 X23.4698 Y-3.6276 F60.00
G01 X23.4638 Y-3.6038 F60.00
G01 X23.4602 Y-3.5795 F60.00
G01 X23.4590 Y-3.5550 F60.00
G01 X23.4602 Y-3.5305 F60.00
G01 X23.4638 Y-3.5062 F60.00
G01 X23.4698 Y-3.4824 F60.00
G01 X23.4780 Y-3.4593 F60.00
G01 X23.4885 Y-3.4372 F60.00
G01 X23.5011 Y-3.4161 F60.00
G01 X23.5157 Y-3.3964 F60.00
G01 X23.5322 Y-3.3782 F60.00
G01 X23.5504 Y-3.3617 F60.00
G01 X23.5701 Y-3.3471 F60.00
G01 X23.5912 Y-3.3345 F60.00
G01 X23.6133 Y-3.3240 F60.00
G01 X23.6364 Y-3.3158 F60.00
G01 X23.6602 Y-3.3098 F60.00
G01 X23.6845 Y-3.3062 F60.00
G01 X23.7090 Y-3.3050 F60.00
G01 X23.7335 Y-3.3062 F60.00
G01 X23.7578 Y-3.3098 F60.00
G01 X23.7816 Y-3.3158 F60.00
G01 X23.8047 Y-3.3240 F60.00
G01 X23.8268 Y-3.3345 F60.00
G01 X23.8479 Y-3.3471 F60.00
G01 X23.8676 Y-3.3617 F60.00
G01 X23.8858 Y-3.3782 F60.00
G01 X23.9023 Y-3.3964 F60.00
G01 X23.9169 Y-3.4161 F60.00
G01 X23.9295 Y-3.4372 F60.00
G01 X23.9400 Y-3.4593 F60.00
G01 X23.9482 Y-3.4824 F60.00
G01 X23.9542 Y-3.5062 F60.00
G01 X23.9578 Y-3.5305 F60.00
G01 X23.9590 Y-3.5550 F60.00
G00 X23.9590 Y-3.5550
G01 F60.00
G01 Z-2.0000
G01 F60.00
G01 X23.9578 Y-3.5795 F60.00
G01 X23.9542 Y-3.6038 F60.00
G01 X23.9482 Y-3.6276 F60.00
G01 X23.9400 Y-3.6507 F60.00
G01 X23.9295 Y-3.6728 F60.00
G01 X23.9169 Y-3.6939 F60.00
G01 X23.9023 Y-3.7136 F60.00
G01 X23.8858 Y-3.7318 F60.00
G01 X23.8676 Y-3.7483 F60.00
G01 X23.8479 Y-3.7629 F60.00
G01 X23.8268 Y-3.7755 F60.00
G01 X23.8047 Y-3.7860 F60.00
G01 X23.7816 Y-3.7942 F60.00
G01 X23.7578 Y-3.8002 F60.00
G01 X23.7335 Y-3.8038 F60.00
G01 X23.7090 Y-3.8050 F60.00
G01 X23.6845 Y-3.8038 F60.00
G01 X23.6602 Y-3.8002 F60.00
G01 X23.6364 Y-3.7942 F60.00
G01 X23.6133 Y-3.7860 F60.00
G01 X23.5912 Y-3.7755 F60.00
G01 X23.5701 Y-3.7629 F60.00
G01 X23.5504 Y-3.7483 F60.00
G01 X23.5322 Y-3.7318 F60.00
G01 X23.5157 Y-3.7136 F60.00
G01 X23.5011 Y-3.6939 F60.00
G01 X23.4885 Y-3.6728 F60.00
G01 X23.4780 Y-3.6507 F60.00
G01 X23.4698 Y-3.6276 F60.00
G01 X23.4638 Y-3.6038 F60.00
G01 X23.4602 Y-3.5795 F60.00
G01 X23.4590 Y-3.5550 F60.00
G01 X23.4602 Y-3.5305 F60.00
G01 X23.4638 Y-3.5062 F60.00
G01 X23.4698 Y-3.4824 F60.00
G01 X23.4780 Y-3.4593 F60.00
G01 X23.4885 Y-3.4372 F60.00
G01 X23.5011 Y-3.4161 F60.00
G01 X23.5157 Y-3.3964 F60.00
G01 X23.5322 Y-3.3782 F60.00
G01 X23.5504 Y-3.3617 F60.00
G01 X23.5701 Y-3.3471 F60.00
G01 X23.5912 Y-3.3345 F60.00
G01 X23.6133 Y-3.3240 F60.00
G01 X23.6364 Y-3.3158 F60.00
G01 X23.6602 Y-3.3098 F60.00
G01 X23.6845 Y-3.3062 F60.00
G01 X23.7090 Y-3.3050 F60.00
G01 X23.7335 Y-3.3062 F60.00
G01 X23.7578 Y-3.3098 F60.00
G01 X23.7816 Y-3.3158 F60.00
G01 X23.8047 Y-3.3240 F60.00
G01 X23.8268 Y-3.3345 F60.00
G01 X23.8479 Y-3.3471 F60.00
G01 X23.8676 Y-3.3617 F60.00
G01 X23.8858 Y-3.3782 F60.00
G01 X23.9023 Y-3.3964 F60.00
G01 X23.9169 Y-3.4161 F60.00
G01 X23.9295 Y-3.4372 F60.00
G01 X23.9400 Y-3.4593 F60.00
G01 X23.9482 Y-3.4824 F60.00
G01 X23.9542 Y-3.5062 F60.00
G01 X23.9578 Y-3.5305 F60.00
G01 X23.9590 Y-3.5550 F60.00
G00 X23.9590 Y-3.5550
G01 F60.00
G01 Z-2.5000
G01 F60.00
G01 X23.9578 Y-3.5795 F60.00
G01 X23.9542 Y-3.6038 F60.00
G01 X23.9482 Y-3.6276 F60.00
G01 X23.9400 Y-3.6507 F60.00
G01 X23.9295 Y-3.6728 F60.00
G01 X23.9169 Y-3.6939 F60.00
G01 X23.9023 Y-3.7136 F60.00
G01 X23.8858 Y-3.7318 F60.00
G01 X23.8676 Y-3.7483 F60.00
G01 X23.8479 Y-3.7629 F60.00
G01 X23.8268 Y-3.7755 F60.00
G01 X23.8047 Y-3.7860 F60.00
G01 X23.7816 Y-3.7942 F60.00
G01 X23.7578 Y-3.8002 F60.00
G01 X23.7335 Y-3.8038 F60.00
G01 X23.7090 Y-3.8050 F60.00
G01 X23.6845 Y-3.8038 F60.00
G01 X23.6602 Y-3.8002 F60.00
G01 X23.6364 Y-3.7942 F60.00
G01 X23.6133 Y-3.7860 F60.00
G01 X23.5912 Y-3.7755 F60.00
G01 X23.5701 Y-3.7629 F60.00
G01 X23.5504 Y-3.7483 F60.00
G01 X23.5322 Y-3.7318 F60.00
G01 X23.5157 Y-3.7136 F60.00
G01 X23.5011 Y-3.6939 F60.00
G01 X23.4885 Y-3.6728 F60.00
G01 X23.4780 Y-3.6507 F60.00
G01 X23.4698 Y-3.6276 F60.00
G01 X23.4638 Y-3.6038 F60.00
G01 X23.4602 Y-3.5795 F60.00
G01 X23.4590 Y-3.5550 F60.00
G01 X23.4602 Y-3.5305 F60.00
G01 X23.4638 Y-3.5062 F60.00
G01 X23.4698 Y-3.4824 F60.00
G01 X23.4780 Y-3.4593 F60.00
G01 X23.4885 Y-3.4372 F60.00
G01 X23.5011 Y-3.4161 F60.00
G01 X23.5157 Y-3.3964 F60.00
G01 X23.5322 Y-3.3782 F60.00
G01 X23.5504 Y-3.3617 F60.00
G01 X23.5701 Y-3.3471 F60.00
G01 X23.5912 Y-3.3345 F60.00
G01 X23.6133 Y-3.3240 F60.00
G01 X23.6364 Y-3.3158 F60.00
G01 X23.6602 Y-3.3098 F60.00
G01 X23.6845 Y-3.3062 F60.00
G01 X23.7090 Y-3.3050 F60.00
G01 X23.7335 Y-3.3062 F60.00
G01 X23.7578 Y-3.3098 F60.00
G01 X23.7816 Y-3.3158 F60.00
G01 X23.8047 Y-3.3240 F60.00
G01 X23.8268 Y-3.3345 F60.00
G01 X23.8479 Y-3.3471 F60.00
G01 X23.8676 Y-3.3617 F60.00
G01 X23.8858 Y-3.3782 F60.00
G01 X23.9023 Y-3.3964 F60.00
G01 X23.9169 Y-3.4161 F60.00
G01 X23.9295 Y-3.4372 F60.00
G01 X23.9400 Y-3.4593 F60.00
G01 X23.9482 Y-3.4824 F60.00
G01 X23.9542 Y-3.5062 F60.00
G01 X23.9578 Y-3.5305 F60.00
G01 X23.9590 Y-3.5550 F60.00
G00 Z2.0000
G00 X26.9610 Y-9.6760
G01 F60.00
G01 Z-0.5000
G01 F60.00
G01 X26.9598 Y-9.7005 F60.00
G01 X26.9562 Y-9.7248 F60.00
G01 X26.9502 Y-9.7486 F60.00
G01 X26.9420 Y-9.7717 F60.00
G01 X26.9315 Y-9.7938 F60.00
G01 X26.9189 Y-9.8149 F60.00
G01 X26.9043 Y-9.8346 F60.00
G01 X26.8878 Y-9.8528 F60.00
G01 X26.8696 Y-9.8693 F60.00
G01 X26.8499 Y-9.8839 F60.00
G01 X26.8288 Y-9.8965 F60.00
G01 X26.8067 Y-9.9070 F60.00
G01 X26.7836 Y-9.9152 F60.00
G01 X26.7598 Y-9.9212 F60.00
G01 X26.7355 Y-9.9248 F60.00
G01 X26.7110 Y-9.9260 F60.00
G01 X26.6865 Y-9.9248 F60.00
G01 X26.6622 Y-9.9212 F60.00
G01 X26.6384 Y-9.9152 F60.00
G01 X26.6153 Y-9.9070 F60.00
G01 X26.5932 Y-9.8965 F60.00
G01 X26.5721 Y-9.8839 F60.00
G01 X26.5524 Y-9.8693 F60.00
G01 X26.5342 Y-9.8528 F60.00
G01 X26.5177 Y-9.8346 F60.00
G01 X26.5031 Y-9.8149 F60.00
G01 X26.4905 Y-9.7938 F60.00
G01 X26.4800 Y-9.7717 F60.00
G01 X26.4718 Y-9.7486 F60.00
G01 X26.4658 Y-9.7248 F60.00
G01 X26.4622 Y-9.7005 F60.00
G01 X26.4610 Y-9.6760 F60.00
G01 X26.4622 Y-9.6515 F60.00
G01 X26.4658 Y-9.6272 F60.00
G01 X26.4718 Y-9.6034 F60.00
G01 X26.4800 Y-9.5803 F60.00
G01 X26.4905 Y-9.5582 F60.00
G01 X26.5031 Y-9.5371 F60.00
G01 X26.5177 Y-9.5174 F60.00
G01 X26.5342 Y-9.4992 F60.00
G01 X26.5524 Y-9.4827 F60.00
G01 X26.5721 Y-9.4681 F60.00
G01 X26.5932 Y-9.4555 F60.00
G01 X26.6153 Y-9.4450 F60.00
G01 X26.6384 Y-9.4368 F60.00
G01 X26.6622 Y-9.4308 F60.00
G01 X26.6865 Y-9.4272 F60.00
G01 X26.7110 Y-9.4260 F60.00
G01 X26.7355 Y-9.4272 F60.00
G01 X26.7598 Y-9.4308 F60.00
G01 X26.7836 Y-9.4368 F60.00
G01 X26.8067 Y-9.4450 F60.00
G01 X26.8288 Y-9.4555 F60.00
G01 X26.8499 Y-9.4681 F60.00
G01 X26.8696 Y-9.4827 F60.00
G01 X26.8878 Y-9.4992 F60.00
G01 X26.9043 Y-9.5174 F60.00
G01 X26.9189 Y-9.5371 F60.00
G01 X26.9315 Y-9.5582 F60.00
G01 X26.9420 Y-9.5803 F60.00
G01 X26.9502 Y-9.6034 F60.00
G01 X26.9562 Y-9.6272 F60.00
G01 X26.9598 Y-9.6515 F60.00
G01 X26.9610 Y-9.6760 F60.00
G00 X26.9610 Y-9.6760
G01 F60.00
G01 Z-1.0000
G01 F60.00
G01 X26.9598 Y-9.7005 F60.00
G01 X26.9562 Y-9.7248 F60.00
G01 X26.9502 Y-9.7486 F60.00
G01 X26.9420 Y-9.7717 F60.00
G01 X26.9315 Y-9.7938 F60.00
G01 X26.9189 Y-9.8149 F60.00
G01 X26.9043 Y-9.8346 F60.00
G01 X26.8878 Y-9.8528 F60.00
G01 X26.8696 Y-9.8693 F60.00
G01 X26.8499 Y-9.8839 F60.00
G01 X26.8288 Y-9.8965 F60.00
G01 X26.8067 Y-9.9070 F60.00
G01 X26.7836 Y-9.9152 F60.00
G01 X26.7598 Y-9.9212 F60.00
G01 X26.7355 Y-9.9248 F60.00
G01 X26.7110 Y-9.9260 F60.00
G01 X26.6865 Y-9.9248 F60.00
G01 X26.6622 Y-9.9212 F60.00
G01 X26.6384 Y-9.9152 F60.00
G01 X26.6153 Y-9.9070 F60.00
G01 X26.5932 Y-9.8965 F60.00
G01 X26.5721 Y-9.8839 F60.00
G01 X26.5524 Y-9.8693 F60.00
G01 X26.5342 Y-9.8528 F60.00
G01 X26.5177 Y-9.8346 F60.00
G01 X26.5031 Y-9.8149 F60.00
G01 X26.4905 Y-9.7938 F60.00
G01 X26.4800 Y-9.7717 F60.00
G01 X26.4718 Y-9.7486 F60.00
G01 X26.4658 Y-9.7248 F60.00
G01 X26.4622 Y-9.7005 F60.00
G01 X26.4610 Y-9.6760 F60.00
G01 X26.4622 Y-9.6515 F60.00
G01 X26.4658 Y-9.6272 F60.00
G01 X26.4718 Y-9.6034 F60.00
G01 X26.4800 Y-9.5803 F60.00
G01 X26.4905 Y-9.5582 F60.00
G01 X26.5031 Y-9.5371 F60.00
G01 X26.5177 Y-9.5174 F60.00
G01 X26.5342 Y-9.4992 F60.00
G01 X26.5524 Y-9.4827 F60.00
G01 X26.5721 Y-9.4681 F60.00
G01 X26.5932 Y-9.4555 F60.00
G01 X26.6153 Y-9.4450 F60.00
G01 X26.6384 Y-9.4368 F60.00
G01 X26.6622 Y-9.4308 F60.00
G01 X26.6865 Y-9.4272 F60.00
G01 X26.7110 Y-9.4260 F60.00
G01 X26.7355 Y-9.4272 F60.00
G01 X26.7598 Y-9.4308 F60.00
G01 X26.7836 Y-9.4368 F60.00
G01 X26.8067 Y-9.4450 F60.00
G01 X26.8288 Y-9.4555 F60.00
G01 X26.8499 Y-9.4681 F60.00
G01 X26.8696 Y-9.4827 F60.00
G01 X26.8878 Y-9.4992 F60.00
G01 X26.9043 Y-9.5174 F60.00
G01 X26.9189 Y-9.5371 F60.00
G01 X26.9315 Y-9.5582 F60.00
G01 X26.9420 Y-9.5803 F60.00
G01 X26.9502 Y-9.6034 F60.00
G01 X26.9562 Y-9.6272 F60.00
G01 X26.9598 Y-9.6515 F60.00
G01 X26.9610 Y-9.6760 F60.00
G00 X26.9610 Y-9.6760
G01 F60.00
G01 Z-1.5000
G01 F60.00
G01 X26.9598 Y-9.7005 F60.00
G01 X26.9562 Y-9.7248 F60.00
G01 X26.9502 Y-9.7486 F60.00
G01 X26.9420 Y-9.7717 F60.00
G01 X26.9315 Y-9.7938 F60.00
G01 X26.9189 Y-9.8149 F60.00
G01 X26.9043 Y-9.8346 F60.00
G01 X26.8878 Y-9.8528 F60.00
G01 X26.8696 Y-9.8693 F60.00
G01 X26.8499 Y-9.8839 F60.00
G01 X26.8288 Y-9.8965 F60.00
G01 X26.8067 Y-9.9070 F60.00
G01 X26.7836 Y-9.9152 F60.00
G01 X26.7598 Y-9.9212 F60.00
G01 X26.7355 Y-9.9248 F60.00
G01 X26.7110 Y-9.9260 F60.00
G01 X26.6865 Y-9.9248 F60.00
G01 X26.6622 Y-9.9212 F60.00
G01 X26.6384 Y-9.9152 F60.00
G01 X26.6153 Y-9.9070 F60.00
G01 X26.5932 Y-9.8965 F60.00
G01 X26.5721 Y-9.8839 F60.00
G01 X26.5524 Y-9.8693 F60.00
G01 X26.5342 Y-9.8528 F60.00
G01 X26.5177 Y-9.8346 F60.00
G01 X26.5031 Y-9.8149 F60.00
G01 X26.4905 Y-9.7938 F60.00
G01 X26.4800 Y-9.7717 F60.00
G01 X26.4718 Y-9.7486 F60.00
G01 X26.4658 Y-9.7248 F60.00
G01 X26.4622 Y-9.7005 F60.00
G01 X26.4610 Y-9.6760 F60.00
G01 X26.4622 Y-9.6515 F60.00
G01 X26.4658 Y-9.6272 F60.00
G01 X26.4718 Y-9.6034 F60.00
G01 X26.4800 Y-9.5803 F60.00
G01 X26.4905 Y-9.5582 F60.00
G01 X26.5031 Y-9.5371 F60.00
G01 X26.5177 Y-9.5174 F60.00
G01 X26.5342 Y-9.4992 F60.00
G01 X26.5524 Y-9.4827 F60.00
G01 X26.5721 Y-9.4681 F60.00
G01 X26.5932 Y-9.4555 F60.00
G01 X26.6153 Y-9.4450 F60.00
G01 X26.6384 Y-9.4368 F60.00
G01 X26.6622 Y-9.4308 F60.00
G01 X26.6865 Y-9.4272 F60.00
G01 X26.7110 Y-9.4260 F60.00
G01 X26.7355 Y-9.4272 F60.00
G01 X26.7598 Y-9.4308 F60.00
G01 X26.7836 Y-9.4368 F60.00
G01 X26.8067 Y-9.4450 F60.00
G01 X26.8288 Y-9.4555 F60.00
G01 X26.8499 Y-9.4681 F60.00
G01 X26.8696 Y-9.4827 F60.00
G01 X26.8878 Y-9.4992 F60.00
G01 X26.9043 Y-9.5174 F60.00
G01 X26.9189 Y-9.5371 F60.00
G01 X26.9315 Y-9.5582 F60.00
G01 X26.9420 Y-9.5803 F60.00
G01 X26.9502 Y-9.6034 F60.00
G01 X26.9562 Y-9.6272 F60.00
G01 X26.9598 Y-9.6515 F60.00
G01 X26.9610 Y-9.6760 F60.00
G00 X26.9610 Y-9.6760
G01 F60.00
G01 Z-2.0000
G01 F60.00
G01 X26.9598 Y-9.7005 F60.00
G01 X26.9562 Y-9.7248 F60.00
G01 X26.9502 Y-9.7486 F60.00
G01 X26.9420 Y-9.7717 F60.00
G01 X26.9315 Y-9.7938 F60.00
G01 X26.9189 Y-9.8149 F60.00
G01 X26.9043 Y-9.8346 F60.00
G01 X26.8878 Y-9.8528 F60.00
G01 X26.8696 Y-9.8693 F60.00
G01 X26.8499 Y-9.8839 F60.00
G01 X26.8288 Y-9.8965 F60.00
G01 X26.8067 Y-9.9070 F60.00
G01 X26.7836 Y-9.9152 F60.00
G01 X26.7598 Y-9.9212 F60.00
G01 X26.7355 Y-9.9248 F60.00
G01 X26.7110 Y-9.9260 F60.00
G01 X26.6865 Y-9.9248 F60.00
G01 X26.6622 Y-9.9212 F60.00
G01 X26.6384 Y-9.9152 F60.00
G01 X26.6153 Y-9.9070 F60.00
G01 X26.5932 Y-9.8965 F60.00
G01 X26.5721 Y-9.8839 F60.00
G01 X26.5524 Y-9.8693 F60.00
G01 X26.5342 Y-9.8528 F60.00
G01 X26.5177 Y-9.8346 F60.00
G01 X26.5031 Y-9.8149 F60.00
G01 X26.4905 Y-9.7938 F60.00
G01 X26.4800 Y-9.7717 F60.00
G01 X26.4718 Y-9.7486 F60.00
G01 X26.4658 Y-9.7248 F60.00
G01 X26.4622 Y-9.7005 F60.00
G01 X26.4610 Y-9.6760 F60.00
G01 X26.4622 Y-9.6515 F60.00
G01 X26.4658 Y-9.6272 F60.00
G01 X26.4718 Y-9.6034 F60.00
G01 X26.4800 Y-9.5803 F60.00
G01 X26.4905 Y-9.5582 F60.00
G01 X26.5031 Y-9.5371 F60.00
G01 X26.5177 Y-9.5174 F60.00
G01 X26.5342 Y-9.4992 F60.00
G01 X26.5524 Y-9.4827 F60.00
G01 X26.5721 Y-9.4681 F60.00
G01 X26.5932 Y-9.4555 F60.00
G01 X26.6153 Y-9.4450 F60.00
G01 X26.6384 Y-9.4368 F60.00
G01 X26.6622 Y-9.4308 F60.00
G01 X26.6865 Y-9.4272 F60.00
G01 X26.7110 Y-9.4260 F60.00
G01 X26.7355 Y-9.4272 F60.00
G01 X26.7598 Y-9.4308 F60.00
G01 X26.7836 Y-9.4368 F60.00
G01 X26.8067 Y-9.4450 F60.00
G01 X26.8288 Y-9.4555 F60.00
G01 X26.8499 Y-9.4681 F60.00
G01 X26.8696 Y-9.4827 F60.00
G01 X26.8878 Y-9.4992 F60.00
G01 X26.9043 Y-9.5174 F60.00
G01 X26.9189 Y-9.5371 F60.00
G01 X26.9315 Y-9.5582 F60.00
G01 X26.9420 Y-9.5803 F60.00
G01 X26.9502 Y-9.6034 F60.00
G01 X26.9562 Y-9.6272 F60.00
G01 X26.9598 Y-9.6515 F60.00
G01 X26.9610 Y-9.6760 F60.00
G00 X26.9610 Y-9.6760
G01 F60.00
G01 Z-2.5000
G01 F60.00
G01 X26.9598 Y-9.7005 F60.00
G01 X26.9562 Y-9.7248 F60.00
G01 X26.9502 Y-9.7486 F60.00
G01 X26.9420 Y-9.7717 F60.00
G01 X26.9315 Y-9.7938 F60.00
G01 X26.9189 Y-9.8149 F60.00
G01 X26.9043 Y-9.8346 F60.00
G01 X26.8878 Y-9.8528 F60.00
G01 X26.8696 Y-9.8693 F60.00
G01 X26.8499 Y-9.8839 F60.00
G01 X26.8288 Y-9.8965 F60.00
G01 X26.8067 Y-9.9070 F60.00
G01 X26.7836 Y-9.9152 F60.00
G01 X26.7598 Y-9.9212 F60.00
G01 X26.7355 Y-9.9248 F60.00
G01 X26.7110 Y-9.9260 F60.00
G01 X26.6865 Y-9.9248 F60.00
G01 X26.6622 Y-9.9212 F60.00
G01 X26.6384 Y-9.9152 F60.00
G01 X26.6153 Y-9.9070 F60.00
G01 X26.5932 Y-9.8965 F60.00
G01 X26.5721 Y-9.8839 F60.00
G01 X26.5524 Y-9.8693 F60.00
G01 X26.5342 Y-9.8528 F60.00
G01 X26.5177 Y-9.8346 F60.00
G01 X26.5031 Y-9.8149 F60.00
G01 X26.4905 Y-9.7938 F60.00
G01 X26.4800 Y-9.7717 F60.00
G01 X26.4718 Y-9.7486 F60.00
G01 X26.4658 Y-9.7248 F60.00
G01 X26.4622 Y-9.7005 F60.00
G01 X26.4610 Y-9.6760 F60.00
G01 X26.4622 Y-9.6515 F60.00
G01 X26.4658 Y-9.6272 F60.00
G01 X26.4718 Y-9.6034 F60.00
G01 X26.4800 Y-9.5803 F60.00
G01 X26.4905 Y-9.5582 F60.00
G01 X26.5031 Y-9.5371 F60.00
G01 X26.5177 Y-9.5174 F60.00
G01 X26.5342 Y-9.4992 F60.00
G01 X26.5524 Y-9.4827 F60.00
G01 X26.5721 Y-9.4681 F60.00
G01 X26.5932 Y-9.4555 F60.00
G01 X26.6153 Y-9.4450 F60.00
G01 X26.6384 Y-9.4368 F60.00
G01 X26.6622 Y-9.4308 F60.00
G01 X26.6865 Y-9.4272 F60.00
G01 X26.7110 Y-9.4260 F60.00
G01 X26.7355 Y-9.4272 F60.00
G01 X26.7598 Y-9.4308 F60.00
G01 X26.7836 Y-9.4368 F60.00
G01 X26.8067 Y-9.4450 F60.00
G01 X26.8288 Y-9.4555 F60.00
G01 X26.8499 Y-9.4681 F60.00
G01 X26.8696 Y-9.4827 F60.00
G01 X26.8878 Y-9.4992 F60.00
G01 X26.9043 Y-9.5174 F60.00
G01 X26.9189 Y-9.5371 F60.00
G01 X26.9315 Y-9.5582 F60.00
G01 X26.9420 Y-9.5803 F60.00
G01 X26.9502 Y-9.6034 F60.00
G01 X26.9562 Y-9.6272 F60.00
G01 X26.9598 Y-9.6515 F60.00
G01 X26.9610 Y-9.6760 F60.00
G00 Z2.0000
G00 X26.9610 Y-12.2160
G01 F60.00
G01 Z-0.5000
G01 F60.00
G01 X26.9598 Y-12.2405 F60.00
G01 X26.9562 Y-12.2648 F60.00
G01 X26.9502 Y-12.2886 F60.00
G01 X26.9420 Y-12.3117 F60.00
G01 X26.9315 Y-12.3338 F60.00
G01 X26.9189 Y-12.3549 F60.00
G01 X26.9043 Y-12.3746 F60.00
G01 X26.8878 Y-12.3928 F60.00
G01 X26.8696 Y-12.4093 F60.00
G01 X26.8499 Y-12.4239 F60.00
G01 X26.8288 Y-12.4365 F60.00
G01 X26.8067 Y-12.4470 F60.00
G01 X26.7836 Y-12.4552 F60.00
G01 X26.7598 Y-12.4612 F60.00
G01 X26.7355 Y-12.4648 F60.00
G01 X26.7110 Y-12.4660 F60.00
G01 X26.6865 Y-12.4648 F60.00
G01 X26.6622 Y-12.4612 F60.00
G01 X26.6384 Y-12.4552 F60.00
G01 X26.6153 Y-12.4470 F60.00
G01 X26.5932 Y-12.4365 F60.00
G01 X26.5721 Y-12.4239 F60.00
G01 X26.5524 Y-12.4093 F60.00
G01 X26.5342 Y-12.3928 F60.00
G01 X26.5177 Y-12.3746 F60.00
G01 X26.5031 Y-12.3549 F60.00
G01 X26.4905 Y-12.3338 F60.00
G01 X26.4800 Y-12.3117 F60.00
G01 X26.4718 Y-12.2886 F60.00
G01 X26.4658 Y-12.2648 F60.00
G01 X26.4622 Y-12.2405 F60.00
G01 X26.4610 Y-12.2160 F60.00
G01 X26.4622 Y-12.1915 F60.00
G01 X26.4658 Y-12.1672 F60.00
G01 X26.4718 Y-12.1434 F60.00
G01 X26.4800 Y-12.1203 F60.00
G01 X26.4905 Y-12.0982 F60.00
G01 X26.5031 Y-12.0771 F60.00
G01 X26.5177 Y-12.0574 F60.00
G01 X26.5342 Y-12.0392 F60.00
G01 X26.5524 Y-12.0227 F60.00
G01 X26.5721 Y-12.0081 F60.00
G01 X26.5932 Y-11.9955 F60.00
G01 X26.6153 Y-11.9850 F60.00
G01 X26.6384 Y-11.9768 F60.00
G01 X26.6622 Y-11.9708 F60.00
G01 X26.6865 Y-11.9672 F60.00
G01 X26.7110 Y-11.9660 F60.00
G01 X26.7355 Y-11.9672 F60.00
G01 X26.7598 Y-11.9708 F60.00
G01 X26.7836 Y-11.9768 F60.00
G01 X26.8067 Y-11.9850 F60.00
G01 X26.8288 Y-11.9955 F60.00
G01 X26.8499 Y-12.0081 F60.00
G01 X26.8696 Y-12.0227 F60.00
G01 X26.8878 Y-12.0392 F60.00
G01 X26.9043 Y-12.0574 F60.00
G01 X26.9189 Y-12.0771 F60.00
G01 X26.9315 Y-12.0982 F60.00
G01 X26.9420 Y-12.1203 F60.00
G01 X26.9502 Y-12.1434 F60.00
G01 X26.9562 Y-12.1672 F60.00
G01 X26.9598 Y-12.1915 F60.00
G01 X26.9610 Y-12.2160 F60.00
G00 X26.9610 Y-12.2160
G01 F60.00
G01 Z-1.0000
G01 F60.00
G01 X26.9598 Y-12.2405 F60.00
G01 X26.9562 Y-12.2648 F60.00
G01 X26.9502 Y-12.2886 F60.00
G01 X26.9420 Y-12.3117 F60.00
G01 X26.9315 Y-12.3338 F60.00
G01 X26.9189 Y-12.3549 F60.00
G01 X26.9043 Y-12.3746 F60.00
G01 X26.8878 Y-12.3928 F60.00
G01 X26.8696 Y-12.4093 F60.00
G01 X26.8499 Y-12.4239 F60.00
G01 X26.8288 Y-12.4365 F60.00
G01 X26.8067 Y-12.4470 F60.00
G01 X26.7836 Y-12.4552 F60.00
G01 X26.7598 Y-12.4612 F60.00
G01 X26.7355 Y-12.4648 F60.00
G01 X26.7110 Y-12.4660 F60.00
G01 X26.6865 Y-12.4648 F60.00
G01 X26.6622 Y-12.4612 F60.00
G01 X26.6384 Y-12.4552 F60.00
G01 X26.6153 Y-12.4470 F60.00
G01 X26.5932 Y-12.4365 F60.00
G01 X26.5721 Y-12.4239 F60.00
G01 X26.5524 Y-12.4093 F60.00
G01 X26.5342 Y-12.3928 F60.00
G01 X26.5177 Y-12.3746 F60.00
G01 X26.5031 Y-12.3549 F60.00
G01 X26.4905 Y-12.3338 F60.00
G01 X26.4800 Y-12.3117 F60.00
G01 X26.4718 Y-12.2886 F60.00
G01 X26.4658 Y-12.2648 F60.00
G01 X26.4622 Y-12.2405 F60.00
G01 X26.4610 Y-12.2160 F60.00
G01 X26.4622 Y-12.1915 F60.00
G01 X26.4658 Y-12.1672 F60.00
G01 X26.4718 Y-12.1434 F60.00
G01 X26.4800 Y-12.1203 F60.00
G01 X26.4905 Y-12.0982 F60.00
G01 X26.5031 Y-12.0771 F60.00
G01 X26.5177 Y-12.0574 F60.00
G01 X26.5342 Y-12.0392 F60.00
G01 X26.5524 Y-12.0227 F60.00
G01 X26.5721 Y-12.0081 F60.00
G01 X26.5932 Y-11.9955 F60.00
G01 X26.6153 Y-11.9850 F60.00
G01 X26.6384 Y-11.9768 F60.00
G01 X26.6622 Y-11.9708 F60.00
G01 X26.6865 Y-11.9672 F60.00
G01 X26.7110 Y-11.9660 F60.00
G01 X26.7355 Y-11.9672 F60.00
G01 X26.7598 Y-11.9708 F60.00
G01 X26.7836 Y-11.9768 F60.00
G01 X26.8067 Y-11.9850 F60.00
G01 X26.8288 Y-11.9955 F60.00
G01 X26.8499 Y-12.0081 F60.00
G01 X26.8696 Y-12.0227 F60.00
G01 X26.8878 Y-12.0392 F60.00
G01 X26.9043 Y-12.0574 F60.00
G01 X26.9189 Y-12.0771 F60.00
G01 X26.9315 Y-12.0982 F60.00
G01 X26.9420 Y-12.1203 F60.00
G01 X26.9502 Y-12.1434 F60.00
G01 X26.9562 Y-12.1672 F60.00
G01 X26.9598 Y-12.1915 F60.00
G01 X26.9610 Y-12.2160 F60.00
G00 X26.9610 Y-12.2160
G01 F60.00
G01 Z-1.5000
G01 F60.00
G01 X26.9598 Y-12.2405 F60.00
G01 X26.9562 Y-12.2648 F60.00
G01 X26.9502 Y-12.2886 F60.00
G01 X26.9420 Y-12.3117 F60.00
G01 X26.9315 Y-12.3338 F60.00
G01 X26.9189 Y-12.3549 F60.00
G01 X26.9043 Y-12.3746 F60.00
G01 X26.8878 Y-12.3928 F60.00
G01 X26.8696 Y-12.4093 F60.00
G01 X26.8499 Y-12.4239 F60.00
G01 X26.8288 Y-12.4365 F60.00
G01 X26.8067 Y-12.4470 F60.00
G01 X26.7836 Y-12.4552 F60.00
G01 X26.7598 Y-12.4612 F60.00
G01 X26.7355 Y-12.4648 F60.00
G01 X26.7110 Y-12.4660 F60.00
G01 X26.6865 Y-12.4648 F60.00
G01 X26.6622 Y-12.4612 F60.00
G01 X26.6384 Y-12.4552 F60.00
G01 X26.6153 Y-12.4470 F60.00
G01 X26.5932 Y-12.4365 F60.00
G01 X26.5721 Y-12.4239 F60.00
G01 X26.5524 Y-12.4093 F60.00
G01 X26.5342 Y-12.3928 F60.00
G01 X26.5177 Y-12.3746 F60.00
G01 X26.5031 Y-12.3549 F60.00
G01 X26.4905 Y-12.3338 F60.00
G01 X26.4800 Y-12.3117 F60.00
G01 X26.4718 Y-12.2886 F60.00
G01 X26.4658 Y-12.2648 F60.00
G01 X26.4622 Y-12.2405 F60.00
G01 X26.4610 Y-12.2160 F60.00
G01 X26.4622 Y-12.1915 F60.00
G01 X26.4658 Y-12.1672 F60.00
G01 X26.4718 Y-12.1434 F60.00
G01 X26.4800 Y-12.1203 F60.00
G01 X26.4905 Y-12.0982 F60.00
G01 X26.5031 Y-12.0771 F60.00
G01 X26.5177 Y-12.0574 F60.00
G01 X26.5342 Y-12.0392 F60.00
G01 X26.5524 Y-12.0227 F60.00
G01 X26.5721 Y-12.0081 F60.00
G01 X26.5932 Y-11.9955 F60.00
G01 X26.6153 Y-11.9850 F60.00
G01 X26.6384 Y-11.9768 F60.00
G01 X26.6622 Y-11.9708 F60.00
G01 X26.6865 Y-11.9672 F60.00
G01 X26.7110 Y-11.9660 F60.00
G01 X26.7355 Y-11.9672 F60.00
G01 X26.7598 Y-11.9708 F60.00
G01 X26.7836 Y-11.9768 F60.00
G01 X26.8067 Y-11.9850 F60.00
G01 X26.8288 Y-11.9955 F60.00
G01 X26.8499 Y-12.0081 F60.00
G01 X26.8696 Y-12.0227 F60.00
G01 X26.8878 Y-12.0392 F60.00
G01 X26.9043 Y-12.0574 F60.00
G01 X26.9189 Y-12.0771 F60.00
G01 X26.9315 Y-12.0982 F60.00
G01 X26.9420 Y-12.1203 F60.00
G01 X26.9502 Y-12.1434 F60.00
G01 X26.9562 Y-12.1672 F60.00
G01 X26.9598 Y-12.1915 F60.00
G01 X26.9610 Y-12.2160 F60.00
G00 X26.9610 Y-12.2160
G01 F60.00
G01 Z-2.0000
G01 F60.00
G01 X26.9598 Y-12.2405 F60.00
G01 X26.9562 Y-12.2648 F60.00
G01 X26.9502 Y-12.2886 F60.00
G01 X26.9420 Y-12.3117 F60.00
G01 X26.9315 Y-12.3338 F60.00
G01 X26.9189 Y-12.3549 F60.00
G01 X26.9043 Y-12.3746 F60.00
G01 X26.8878 Y-12.3928 F60.00
G01 X26.8696 Y-12.4093 F60.00
G01 X26.8499 Y-12.4239 F60.00
G01 X26.8288 Y-12.4365 F60.00
G01 X26.8067 Y-12.4470 F60.00
G01 X26.7836 Y-12.4552 F60.00
G01 X26.7598 Y-12.4612 F60.00
G01 X26.7355 Y-12.4648 F60.00
G01 X26.7110 Y-12.4660 F60.00
G01 X26.6865 Y-12.4648 F60.00
G01 X26.6622 Y-12.4612 F60.00
G01 X26.6384 Y-12.4552 F60.00
G01 X26.6153 Y-12.4470 F60.00
G01 X26.5932 Y-12.4365 F60.00
G01 X26.5721 Y-12.4239 F60.00
G01 X26.5524 Y-12.4093 F60.00
G01 X26.5342 Y-12.3928 F60.00
G01 X26.5177 Y-12.3746 F60.00
G01 X26.5031 Y-12.3549 F60.00
G01 X26.4905 Y-12.3338 F60.00
G01 X26.4800 Y-12.3117 F60.00
G01 X26.4718 Y-12.2886 F60.00
G01 X26.4658 Y-12.2648 F60.00
G01 X26.4622 Y-12.2405 F60.00
G01 X26.4610 Y-12.2160 F60.00
G01 X26.4622 Y-12.1915 F60.00
G01 X26.4658 Y-12.1672 F60.00
G01 X26.4718 Y-12.1434 F60.00
G01 X26.4800 Y-12.1203 F60.00
G01 X26.4905 Y-12.0982 F60.00
G01 X26.5031 Y-12.0771 F60.00
G01 X26.5177 Y-12.0574 F60.00
G01 X26.5342 Y-12.0392 F60.00
G01 X26.5524 Y-12.0227 F60.00
G01 X26.5721 Y-12.0081 F60.00
G01 X26.5932 Y-11.9955 F60.00
G01 X26.6153 Y-11.9850 F60.00
G01 X26.6384 Y-11.9768 F60.00
G01 X26.6622 Y-11.9708 F60.00
G01 X26.6865 Y-11.9672 F60.00
G01 X26.7110 Y-11.9660 F60.00
G01 X26.7355 Y-11.9672 F60.00
G01 X26.7598 Y-11.9708 F60.00
G01 X26.7836 Y-11.9768 F60.00
G01 X26.8067 Y-11.9850 F60.00
G01 X26.8288 Y-11.9955 F60.00
G01 X26.8499 Y-12.0081 F60.00
G01 X26.8696 Y-12.0227 F60.00
G01 X26.8878 Y-12.0392 F60.00
G01 X26.9043 Y-12.0574 F60.00
G01 X26.9189 Y-12.0771 F60.00
G01 X26.9315 Y-12.0982 F60.00
G01 X26.9420 Y-12.1203 F60.00
G01 X26.9502 Y-12.1434 F60.00
G01 X26.9562 Y-12.1672 F60.00
G01 X26.9598 Y-12.1915 F60.00
G01 X26.9610 Y-12.2160 F60.00
G00 X26.9610 Y-12.2160
G01 F60.00
G01 Z-2.5000
G01 F60.00
G01 X26.9598 Y-12.2405 F60.00
G01 X26.9562 Y-12.2648 F60.00
G01 X26.9502 Y-12.2886 F60.00
G01 X26.9420 Y-12.3117 F60.00
G01 X26.9315 Y-12.3338 F60.00
G01 X26.9189 Y-12.3549 F60.00
G01 X26.9043 Y-12.3746 F60.00
G01 X26.8878 Y-12.3928 F60.00
G01 X26.8696 Y-12.4093 F60.00
G01 X26.8499 Y-12.4239 F60.00
G01 X26.8288 Y-12.4365 F60.00
G01 X26.8067 Y-12.4470 F60.00
G01 X26.7836 Y-12.4552 F60.00
G01 X26.7598 Y-12.4612 F60.00
G01 X26.7355 Y-12.4648 F60.00
G01 X26.7110 Y-12.4660 F60.00
G01 X26.6865 Y-12.4648 F60.00
G01 X26.6622 Y-12.4612 F60.00
G01 X26.6384 Y-12.4552 F60.00
G01 X26.6153 Y-12.4470 F60.00
G01 X26.5932 Y-12.4365 F60.00
G01 X26.5721 Y-12.4239 F60.00
G01 X26.5524 Y-12.4093 F60.00
G01 X26.5342 Y-12.3928 F60.00
G01 X26.5177 Y-12.3746 F60.00
G01 X26.5031 Y-12.3549 F60.00
G01 X26.4905 Y-12.3338 F60.00
G01 X26.4800 Y-12.3117 F60.00
G01 X26.4718 Y-12.2886 F60.00
G01 X26.4658 Y-12.2648 F60.00
G01 X26.4622 Y-12.2405 F60.00
G01 X26.4610 Y-12.2160 F60.00
G01 X26.4622 Y-12.1915 F60.00
G01 X26.4658 Y-12.1672 F60.00
G01 X26.4718 Y-12.1434 F60.00
G01 X26.4800 Y-12.1203 F60.00
G01 X26.4905 Y-12.0982 F60.00
G01 X26.5031 Y-12.0771 F60.00
G01 X26.5177 Y-12.0574 F60.00
G01 X26.5342 Y-12.0392 F60.00
G01 X26.5524 Y-12.0227 F60.00
G01 X26.5721 Y-12.0081 F60.00
G01 X26.5932 Y-11.9955 F60.00
G01 X26.6153 Y-11.9850 F60.00
G01 X26.6384 Y-11.9768 F60.00
G01 X26.6622 Y-11.9708 F60.00
G01 X26.6865 Y-11.9672 F60.00
G01 X26.7110 Y-11.9660 F60.00
G01 X26.7355 Y-11.9672 F60.00
G01 X26.7598 Y-11.9708 F60.00
G01 X26.7836 Y-11.9768 F60.00
G01 X26.8067 Y-11.9850 F60.00
G01 X26.8288 Y-11.9955 F60.00
G01 X26.8499 Y-12.0081 F60.00
G01 X26.8696 Y-12.0227 F60.00
G01 X26.8878 Y-12.0392 F60.00
G01 X26.9043 Y-12.0574 F60.00
G01 X26.9189 Y-12.0771 F60.00
G01 X26.9315 Y-12.0982 F60.00
G01 X26.9420 Y-12.1203 F60.00
G01 X26.9502 Y-12.1434 F60.00
G01 X26.9562 Y-12.1672 F60.00
G01 X26.9598 Y-12.1915 F60.00
G01 X26.9610 Y-12.2160 F60.00
G00 Z2.0000
G00 X26.9610 Y-14.7560
G01 F60.00
G01 Z-0.5000
G01 F60.00
G01 X26.9598 Y-14.7805 F60.00
G01 X26.9562 Y-14.8048 F60.00
G01 X26.9502 Y-14.8286 F60.00
G01 X26.9420 Y-14.8517 F60.00
G01 X26.9315 Y-14.8738 F60.00
G01 X26.9189 Y-14.8949 F60.00
G01 X26.9043 Y-14.9146 F60.00
G01 X26.8878 Y-14.9328 F60.00
G01 X26.8696 Y-14.9493 F60.00
G01 X26.8499 Y-14.9639 F60.00
G01 X26.8288 Y-14.9765 F60.00
G01 X26.8067 Y-14.9870 F60.00
G01 X26.7836 Y-14.9952 F60.00
G01 X26.7598 Y-15.0012 F60.00
G01 X26.7355 Y-15.0048 F60.00
G01 X26.7110 Y-15.0060 F60.00
G01 X26.6865 Y-15.0048 F60.00
G01 X26.6622 Y-15.0012 F60.00
G01 X26.6384 Y-14.9952 F60.00
G01 X26.6153 Y-14.9870 F60.00
G01 X26.5932 Y-14.9765 F60.00
G01 X26.5721 Y-14.9639 F60.00
G01 X26.5524 Y-14.9493 F60.00
G01 X26.5342 Y-14.9328 F60.00
G01 X26.5177 Y-14.9146 F60.00
G01 X26.5031 Y-14.8949 F60.00
G01 X26.4905 Y-14.8738 F60.00
G01 X26.4800 Y-14.8517 F60.00
G01 X26.4718 Y-14.8286 F60.00
G01 X26.4658 Y-14.8048 F60.00
G01 X26.4622 Y-14.7805 F60.00
G01 X26.4610 Y-14.7560 F60.00
G01 X26.4622 Y-14.7315 F60.00
G01 X26.4658 Y-14.7072 F60.00
G01 X26.4718 Y-14.6834 F60.00
G01 X26.4800 Y-14.6603 F60.00
G01 X26.4905 Y-14.6382 F60.00
G01 X26.5031 Y-14.6171 F60.00
G01 X26.5177 Y-14.5974 F60.00
G01 X26.5342 Y-14.5792 F60.00
G01 X26.5524 Y-14.5627 F60.00
G01 X26.5721 Y-14.5481 F60.00
G01 X26.5932 Y-14.5355 F60.00
G01 X26.6153 Y-14.5250 F60.00
G01 X26.6384 Y-14.5168 F60.00
G01 X26.6622 Y-14.5108 F60.00
G01 X26.6865 Y-14.5072 F60.00
G01 X26.7110 Y-14.5060 F60.00
G01 X26.7355 Y-14.5072 F60.00
G01 X26.7598 Y-14.5108 F60.00
G01 X26.7836 Y-14.5168 F60.00
G01 X26.8067 Y-14.5250 F60.00
G01 X26.8288 Y-14.5355 F60.00
G01 X26.8499 Y-14.5481 F60.00
G01 X26.8696 Y-14.5627 F60.00
G01 X26.8878 Y-14.5792 F60.00
G01 X26.9043 Y-14.5974 F60.00
G01 X26.9189 Y-14.6171 F60.00
G01 X26.9315 Y-14.6382 F60.00
G01 X26.9420 Y-14.6603 F60.00
G01 X26.9502 Y-14.6834 F60.00
G01 X26.9562 Y-14.7072 F60.00
G01 X26.9598 Y-14.7315 F60.00
G01 X26.9610 Y-14.7560 F60.00
G00 X26.9610 Y-14.7560
G01 F60.00
G01 Z-1.0000
G01 F60.00
G01 X26.9598 Y-14.7805 F60.00
G01 X26.9562 Y-14.8048 F60.00
G01 X26.9502 Y-14.8286 F60.00
G01 X26.9420 Y-14.8517 F60.00
G01 X26.9315 Y-14.8738 F60.00
G01 X26.9189 Y-14.8949 F60.00
G01 X26.9043 Y-14.9146 F60.00
G01 X26.8878 Y-14.9328 F60.00
G01 X26.8696 Y-14.9493 F60.00
G01 X26.8499 Y-14.9639 F60.00
G01 X26.8288 Y-14.9765 F60.00
G01 X26.8067 Y-14.9870 F60.00
G01 X26.7836 Y-14.9952 F60.00
G01 X26.7598 Y-15.0012 F60.00
G01 X26.7355 Y-15.0048 F60.00
G01 X26.7110 Y-15.0060 F60.00
G01 X26.6865 Y-15.0048 F60.00
G01 X26.6622 Y-15.0012 F60.00
G01 X26.6384 Y-14.9952 F60.00
G01 X26.6153 Y-14.9870 F60.00
G01 X26.5932 Y-14.9765 F60.00
G01 X26.5721 Y-14.9639 F60.00
G01 X26.5524 Y-14.9493 F60.00
G01 X26.5342 Y-14.9328 F60.00
G01 X26.5177 Y-14.9146 F60.00
G01 X26.5031 Y-14.8949 F60.00
G01 X26.4905 Y-14.8738 F60.00
G01 X26.4800 Y-14.8517 F60.00
G01 X26.4718 Y-14.8286 F60.00
G01 X26.4658 Y-14.8048 F60.00
G01 X26.4622 Y-14.7805 F60.00
G01 X26.4610 Y-14.7560 F60.00
G01 X26.4622 Y-14.7315 F60.00
G01 X26.4658 Y-14.7072 F60.00
G01 X26.4718 Y-14.6834 F60.00
G01 X26.4800 Y-14.6603 F60.00
G01 X26.4905 Y-14.6382 F60.00
G01 X26.5031 Y-14.6171 F60.00
G01 X26.5177 Y-14.5974 F60.00
G01 X26.5342 Y-14.5792 F60.00
G01 X26.5524 Y-14.5627 F60.00
G01 X26.5721 Y-14.5481 F60.00
G01 X26.5932 Y-14.5355 F60.00
G01 X26.6153 Y-14.5250 F60.00
G01 X26.6384 Y-14.5168 F60.00
G01 X26.6622 Y-14.5108 F60.00
G01 X26.6865 Y-14.5072 F60.00
G01 X26.7110 Y-14.5060 F60.00
G01 X26.7355 Y-14.5072 F60.00
G01 X26.7598 Y-14.5108 F60.00
G01 X26.7836 Y-14.5168 F60.00
