(G-CODE GENERATED BY FLATCAM v8.994 - www.flatcam.org - Version Date: 2020/11/7)

(Name: Active_Electrode-F_Cu.gbr_iso_combined_cnc)
(Type: G-code from Geometry)
(Units: MM)

(Created on Saturday, 09 March 2024 at 21:47)

(This preprocessor is used with a motion controller loaded with GRBL firmware.)
(It is configured to be compatible with almost any version of GRBL firmware.)

(TOOL DIAMETER: 0.0212 mm)
(Feedrate_XY: 120.0 mm/min)
(Feedrate_Z: 60.0 mm/min)
(Feedrate rapids 1500.0 mm/min)

(Z_Cut: -0.0801 mm)
(Z_Move: 2.0 mm)
(Z Start: None mm)
(Z End: 15.0 mm)
(X,Y End: 0.0000, 0.0000 mm)
(Steps per circle: 64)
(Steps per circle: 64)
(Preprocessor Geometry: GRBL_11_no_M6)

(X range:   -0.0106 ...   30.2366  mm)
(Y range:  -59.7006 ...    0.0106  mm)

(Spindle Speed: 0.0 RPM)
G21
G90
G17
G94


G01 F120.00

M5             
G00 Z15.0000
G00 X0.0000 Y0.0000                
T1
(MSG, Change to Tool Dia = 0.0212)
M0
G00 Z15.0000
        
M03
G01 F120.00
G00 X5.5965 Y-5.1101
G01 F60.00
G01 Z-0.0801
G01 F120.00
G01 X5.2146 Y-4.7281 F120.00
G01 X5.1677 Y-4.8413 F120.00
G01 X5.1093 Y-5.0846 F120.00
G01 X5.0897 Y-5.3340 F120.00
G01 X5.1093 Y-5.5834 F120.00
G01 X5.1677 Y-5.8267 F120.00
G01 X5.2146 Y-5.9399 F120.00
G01 X5.5965 Y-5.5579 F120.00
G01 X5.5947 Y-5.5502 F120.00
G01 X5.5787 Y-5.4429 F120.00
G01 X5.5734 Y-5.3340 F120.00
G01 X5.5787 Y-5.2251 F120.00
G01 X5.5947 Y-5.1178 F120.00
G01 X5.5965 Y-5.1101 F120.00
G00 Z2.0000
G00 X6.4601 Y-6.4215
G01 F60.00
G01 Z-0.0801
G01 F120.00
G01 X6.0781 Y-6.8034 F120.00
G01 X6.1913 Y-6.8503 F120.00
G01 X6.4346 Y-6.9087 F120.00
G01 X6.6840 Y-6.9283 F120.00
G01 X6.9334 Y-6.9087 F120.00
G01 X7.1767 Y-6.8503 F120.00
G01 X7.2899 Y-6.8034 F120.00
G01 X6.9079 Y-6.4215 F120.00
G01 X6.9002 Y-6.4233 F120.00
G01 X6.7929 Y-6.4393 F120.00
G01 X6.6840 Y-6.4446 F120.00
G01 X6.5751 Y-6.4393 F120.00
G01 X6.4678 Y-6.4233 F120.00
G01 X6.4601 Y-6.4215 F120.00
G00 Z2.0000
G00 X7.7715 Y-5.5579
G01 F60.00
G01 Z-0.0801
G01 F120.00
G01 X8.1534 Y-5.9399 F120.00
G01 X8.2003 Y-5.8267 F120.00
G01 X8.2587 Y-5.5834 F120.00
G01 X8.2783 Y-5.3340 F120.00
G01 X8.2587 Y-5.0846 F120.00
G01 X8.2003 Y-4.8413 F120.00
G01 X8.1534 Y-4.7281 F120.00
G01 X7.7715 Y-5.1101 F120.00
G01 X7.7733 Y-5.1178 F120.00
G01 X7.7893 Y-5.2251 F120.00
G01 X7.7946 Y-5.3340 F120.00
G01 X7.7893 Y-5.4429 F120.00
G01 X7.7733 Y-5.5502 F120.00
G01 X7.7715 Y-5.5579 F120.00
G00 Z2.0000
G00 X6.6840 Y-3.7397
G01 F60.00
G01 Z-0.0801
G01 F120.00
G01 X6.4346 Y-3.7593 F120.00
G01 X6.1913 Y-3.8177 F120.00
G01 X6.0781 Y-3.8646 F120.00
G01 X6.4601 Y-4.2465 F120.00
G01 X6.4678 Y-4.2447 F120.00
G01 X6.5751 Y-4.2287 F120.00
G01 X6.6840 Y-4.2234 F120.00
G01 X6.7929 Y-4.2287 F120.00
G01 X6.9002 Y-4.2447 F120.00
G01 X6.9079 Y-4.2465 F120.00
G01 X7.2899 Y-3.8646 F120.00
G01 X7.1767 Y-3.8177 F120.00
G01 X6.9334 Y-3.7593 F120.00
G01 X6.6840 Y-3.7397 F120.00
G00 Z2.0000
G00 X4.1440 Y-6.5337
G01 F60.00
G01 Z-0.0801
G01 F120.00
G01 X3.8946 Y-6.5533 F120.00
G01 X3.6513 Y-6.6117 F120.00
G01 X3.5381 Y-6.6586 F120.00
G01 X3.9201 Y-7.0405 F120.00
G01 X3.9278 Y-7.0387 F120.00
G01 X4.0351 Y-7.0227 F120.00
G01 X4.1440 Y-7.0174 F120.00
G01 X4.2529 Y-7.0227 F120.00
G01 X4.3602 Y-7.0387 F120.00
G01 X4.3679 Y-7.0405 F120.00
G01 X4.7499 Y-6.6586 F120.00
G01 X4.6367 Y-6.6117 F120.00
G01 X4.3934 Y-6.5533 F120.00
G01 X4.1440 Y-6.5337 F120.00
G00 Z2.0000
G00 X3.0565 Y-7.9041
G01 F60.00
G01 Z-0.0801
G01 F120.00
G01 X2.6746 Y-7.5221 F120.00
G01 X2.6277 Y-7.6353 F120.00
G01 X2.5693 Y-7.8786 F120.00
G01 X2.5497 Y-8.1280 F120.00
G01 X2.5693 Y-8.3774 F120.00
G01 X2.6277 Y-8.6207 F120.00
G01 X2.6746 Y-8.7339 F120.00
G01 X3.0565 Y-8.3519 F120.00
G01 X3.0547 Y-8.3442 F120.00
G01 X3.0387 Y-8.2369 F120.00
G01 X3.0334 Y-8.1280 F120.00
G01 X3.0387 Y-8.0191 F120.00
G01 X3.0547 Y-7.9118 F120.00
G01 X3.0565 Y-7.9041 F120.00
G00 Z2.0000
G00 X3.9201 Y-9.2155
G01 F60.00
G01 Z-0.0801
G01 F120.00
G01 X3.5381 Y-9.5974 F120.00
G01 X3.6513 Y-9.6443 F120.00
G01 X3.8946 Y-9.7027 F120.00
G01 X4.1440 Y-9.7223 F120.00
G01 X4.3934 Y-9.7027 F120.00
G01 X4.6367 Y-9.6443 F120.00
G01 X4.7499 Y-9.5974 F120.00
G01 X4.3679 Y-9.2155 F120.00
G01 X4.3602 Y-9.2173 F120.00
G01 X4.2529 Y-9.2333 F120.00
G01 X4.1440 Y-9.2386 F120.00
G01 X4.0351 Y-9.2333 F120.00
G01 X3.9278 Y-9.2173 F120.00
G01 X3.9201 Y-9.2155 F120.00
G00 Z2.0000
G00 X5.2315 Y-8.3519
G01 F60.00
G01 Z-0.0801
G01 F120.00
G01 X5.6134 Y-8.7339 F120.00
G01 X5.6603 Y-8.6207 F120.00
G01 X5.7187 Y-8.3774 F120.00
G01 X5.7383 Y-8.1280 F120.00
G01 X5.7187 Y-7.8786 F120.00
G01 X5.6603 Y-7.6353 F120.00
G01 X5.6134 Y-7.5221 F120.00
G01 X5.2315 Y-7.9041 F120.00
G01 X5.2333 Y-7.9118 F120.00
G01 X5.2493 Y-8.0191 F120.00
G01 X5.2546 Y-8.1280 F120.00
G01 X5.2493 Y-8.2369 F120.00
G01 X5.2333 Y-8.3442 F120.00
G01 X5.2315 Y-8.3519 F120.00
G00 Z2.0000
G00 X11.1731 Y-6.3195
G01 F60.00
G01 Z-0.0801
G01 F120.00
G01 X11.1731 Y-7.0112 F120.00
G01 X11.1670 Y-7.0158 F120.00
G01 X11.0867 Y-7.0887 F120.00
G01 X11.0135 Y-7.1694 F120.00
G01 X10.9486 Y-7.2570 F120.00
G01 X10.8928 Y-7.3500 F120.00
G01 X10.8865 Y-7.3631 F120.00
G01 X9.9479 Y-7.3631 F120.00
G01 X9.9291 Y-7.3425 F120.00
G01 X9.8484 Y-7.2693 F120.00
G01 X9.7610 Y-7.2046 F120.00
G01 X9.6673 Y-7.1484 F120.00
G01 X9.5690 Y-7.1019 F120.00
G01 X9.4664 Y-7.0652 F120.00
G01 X9.3607 Y-7.0387 F120.00
G01 X9.2526 Y-7.0227 F120.00
G01 X9.1440 Y-7.0174 F120.00
G01 X9.0351 Y-7.0227 F120.00
G01 X8.9273 Y-7.0387 F120.00
G01 X8.8221 Y-7.0651 F120.00
G01 X8.7185 Y-7.1022 F120.00
G01 X8.6205 Y-7.1485 F120.00
G01 X8.5268 Y-7.2047 F120.00
G01 X8.4394 Y-7.2695 F120.00
G01 X8.3591 Y-7.3423 F120.00
G01 X8.2852 Y-7.4239 F120.00
G01 X8.2206 Y-7.5110 F120.00
G01 X8.1645 Y-7.6045 F120.00
G01 X8.1179 Y-7.7030 F120.00
G01 X8.0814 Y-7.8051 F120.00
G01 X8.0547 Y-7.9118 F120.00
G01 X8.0387 Y-8.0191 F120.00
G01 X8.0334 Y-8.1280 F120.00
G01 X8.0387 Y-8.2369 F120.00
G01 X8.0547 Y-8.3442 F120.00
G01 X8.0814 Y-8.4509 F120.00
G01 X8.1179 Y-8.5530 F120.00
G01 X8.1645 Y-8.6515 F120.00
G01 X8.2206 Y-8.7450 F120.00
G01 X8.2852 Y-8.8321 F120.00
G01 X8.3591 Y-8.9137 F120.00
G01 X8.4394 Y-8.9865 F120.00
G01 X8.5266 Y-9.0511 F120.00
G01 X8.6209 Y-9.1077 F120.00
G01 X8.7190 Y-9.1541 F120.00
G01 X8.8216 Y-9.1908 F120.00
G01 X8.9273 Y-9.2173 F120.00
G01 X9.0346 Y-9.2332 F120.00
G01 X9.1443 Y-9.2386 F120.00
G01 X9.2529 Y-9.2333 F120.00
G01 X9.3607 Y-9.2173 F120.00
G01 X9.4664 Y-9.1908 F120.00
G01 X9.5685 Y-9.1542 F120.00
G01 X9.6680 Y-9.1072 F120.00
G01 X9.7610 Y-9.0514 F120.00
G01 X9.8484 Y-8.9867 F120.00
G01 X9.9293 Y-8.9133 F120.00
G01 X10.0022 Y-8.8330 F120.00
G01 X10.0676 Y-8.7448 F120.00
G01 X10.1235 Y-8.6515 F120.00
G01 X10.1700 Y-8.5532 F120.00
G01 X10.2068 Y-8.4504 F120.00
G01 X10.2232 Y-8.3849 F120.00
G01 X10.8865 Y-8.3849 F120.00
G01 X10.8928 Y-8.3980 F120.00
G01 X10.9489 Y-8.4914 F120.00
G01 X11.0135 Y-8.5786 F120.00
G01 X11.0867 Y-8.6593 F120.00
G01 X11.1674 Y-8.7325 F120.00
G01 X11.2546 Y-8.7971 F120.00
G01 X11.3480 Y-8.8532 F120.00
G01 X11.3611 Y-8.8595 F120.00
G01 X11.3611 Y-9.3034 F120.00
G01 X10.7717 Y-9.3034 F120.00
G01 X10.7684 Y-9.3040 F120.00
G01 X10.7655 Y-9.3056 F120.00
G01 X10.7632 Y-9.3081 F120.00
G01 X10.7618 Y-9.3112 F120.00
G01 X10.7614 Y-9.3140 F120.00
G01 X10.7614 Y-11.5140 F120.00
G01 X10.7619 Y-11.5171 F120.00
G01 X10.7632 Y-11.5199 F120.00
G01 X10.7649 Y-11.5219 F120.00
G01 X10.7670 Y-11.5233 F120.00
G01 X10.7694 Y-11.5243 F120.00
G01 X10.7720 Y-11.5246 F120.00
G01 X12.9720 Y-11.5246 F120.00
G01 X12.9756 Y-11.5240 F120.00
G01 X12.9785 Y-11.5224 F120.00
G01 X12.9807 Y-11.5201 F120.00
G01 X12.9821 Y-11.5171 F120.00
G01 X12.9826 Y-11.5140 F120.00
G01 X12.9826 Y-9.3140 F120.00
G01 X12.9822 Y-9.3112 F120.00
G01 X12.9808 Y-9.3081 F120.00
G01 X12.9785 Y-9.3056 F120.00
G01 X12.9756 Y-9.3040 F120.00
G01 X12.9723 Y-9.3034 F120.00
G01 X12.3829 Y-9.3034 F120.00
G01 X12.3829 Y-8.8595 F120.00
G01 X12.3960 Y-8.8532 F120.00
G01 X12.4890 Y-8.7974 F120.00
G01 X12.5766 Y-8.7325 F120.00
G01 X12.6573 Y-8.6593 F120.00
G01 X12.7305 Y-8.5786 F120.00
G01 X12.7954 Y-8.4910 F120.00
G01 X12.8515 Y-8.3975 F120.00
G01 X12.8981 Y-8.2990 F120.00
G01 X12.9346 Y-8.1969 F120.00
G01 X12.9613 Y-8.0907 F120.00
G01 X12.9773 Y-7.9823 F120.00
G01 X12.9826 Y-7.8740 F120.00
G01 X12.9773 Y-7.7657 F120.00
G01 X12.9613 Y-7.6576 F120.00
G01 X12.9346 Y-7.5511 F120.00
G01 X12.8981 Y-7.4490 F120.00
G01 X12.8517 Y-7.3509 F120.00
G01 X12.7954 Y-7.2570 F120.00
G01 X12.7302 Y-7.1690 F120.00
G01 X12.6573 Y-7.0887 F120.00
G01 X12.5770 Y-7.0158 F120.00
G01 X12.4890 Y-6.9506 F120.00
G01 X12.3951 Y-6.8943 F120.00
G01 X12.2970 Y-6.8479 F120.00
G01 X12.1949 Y-6.8114 F120.00
G01 X12.1949 Y-6.3195 F120.00
G01 X12.2080 Y-6.3132 F120.00
G01 X12.3014 Y-6.2571 F120.00
G01 X12.3886 Y-6.1925 F120.00
G01 X12.4693 Y-6.1193 F120.00
G01 X12.5428 Y-6.0381 F120.00
G01 X12.6074 Y-5.9510 F120.00
G01 X12.6635 Y-5.8575 F120.00
G01 X12.7102 Y-5.7585 F120.00
G01 X12.7468 Y-5.6564 F120.00
G01 X12.7733 Y-5.5507 F120.00
G01 X12.7893 Y-5.4429 F120.00
G01 X12.7946 Y-5.3345 F120.00
G01 X12.7893 Y-5.2251 F120.00
G01 X12.7731 Y-5.1168 F120.00
G01 X12.7468 Y-5.0116 F120.00
G01 X12.7102 Y-4.9095 F120.00
G01 X12.6635 Y-4.8105 F120.00
G01 X12.6074 Y-4.7170 F120.00
G01 X12.5422 Y-4.6290 F120.00
G01 X12.4693 Y-4.5487 F120.00
G01 X12.3890 Y-4.4758 F120.00
G01 X12.3010 Y-4.4106 F120.00
G01 X12.2075 Y-4.3545 F120.00
G01 X12.1090 Y-4.3079 F120.00
G01 X12.0064 Y-4.2712 F120.00
G01 X11.9007 Y-4.2447 F120.00
G01 X11.7929 Y-4.2287 F120.00
G01 X11.6840 Y-4.2234 F120.00
G01 X11.5751 Y-4.2287 F120.00
G01 X11.4673 Y-4.2447 F120.00
G01 X11.3616 Y-4.2712 F120.00
G01 X11.2590 Y-4.3079 F120.00
G01 X11.1605 Y-4.3545 F120.00
G01 X11.0670 Y-4.4106 F120.00
G01 X10.9794 Y-4.4755 F120.00
G01 X10.8987 Y-4.5487 F120.00
G01 X10.8255 Y-4.6294 F120.00
G01 X10.7606 Y-4.7170 F120.00
G01 X10.7045 Y-4.8105 F120.00
G01 X10.6579 Y-4.9090 F120.00
G01 X10.6212 Y-5.0116 F120.00
G01 X10.5947 Y-5.1173 F120.00
G01 X10.5787 Y-5.2251 F120.00
G01 X10.5734 Y-5.3340 F120.00
G01 X10.5787 Y-5.4429 F120.00
G01 X10.5947 Y-5.5507 F120.00
G01 X10.6212 Y-5.6564 F120.00
G01 X10.6579 Y-5.7590 F120.00
G01 X10.7045 Y-5.8575 F120.00
G01 X10.7606 Y-5.9510 F120.00
G01 X10.8255 Y-6.0386 F120.00
G01 X10.8987 Y-6.1193 F120.00
G01 X10.9794 Y-6.1925 F120.00
G01 X11.0670 Y-6.2574 F120.00
G01 X11.1600 Y-6.3132 F120.00
G01 X11.1731 Y-6.3195 F120.00
G00 Z2.0000
G00 X15.8120 Y-2.9784
G01 F60.00
G01 Z-0.0801
G01 F120.00
G01 X13.6120 Y-2.9784 F120.00
G01 X13.6084 Y-2.9790 F120.00
G01 X13.6051 Y-2.9810 F120.00
G01 X13.6027 Y-2.9840 F120.00
G01 X13.6015 Y-2.9877 F120.00
G01 X13.6014 Y-5.1890 F120.00
G01 X13.6018 Y-5.1918 F120.00
G01 X13.6032 Y-5.1949 F120.00
G01 X13.6055 Y-5.1974 F120.00
G01 X13.6084 Y-5.1990 F120.00
G01 X13.6117 Y-5.1996 F120.00
G01 X14.2011 Y-5.1996 F120.00
G01 X14.2011 Y-16.3424 F120.00
G01 X13.0204 Y-17.5231 F120.00
G01 X12.9826 Y-17.5231 F120.00
G01 X12.9826 Y-16.9337 F120.00
G01 X12.9820 Y-16.9304 F120.00
G01 X12.9804 Y-16.9275 F120.00
G01 X12.9779 Y-16.9252 F120.00
G01 X12.9746 Y-16.9237 F120.00
G01 X12.9720 Y-16.9234 F120.00
G01 X10.7720 Y-16.9234 F120.00
G01 X10.7682 Y-16.9241 F120.00
G01 X10.7651 Y-16.9260 F120.00
G01 X10.7628 Y-16.9288 F120.00
G01 X10.7615 Y-16.9324 F120.00
G01 X10.7614 Y-19.1340 F120.00
G01 X10.7618 Y-19.1368 F120.00
G01 X10.7630 Y-19.1397 F120.00
G01 X10.7651 Y-19.1420 F120.00
G01 X10.7677 Y-19.1437 F120.00
G01 X10.7720 Y-19.1446 F120.00
G01 X12.9720 Y-19.1446 F120.00
G01 X12.9751 Y-19.1441 F120.00
G01 X12.9781 Y-19.1427 F120.00
G01 X12.9805 Y-19.1403 F120.00
G01 X12.9820 Y-19.1376 F120.00
G01 X12.9826 Y-19.1343 F120.00
G01 X12.9826 Y-18.5449 F120.00
G01 X13.2320 Y-18.5449 F120.00
G01 X13.2821 Y-18.5424 F120.00
G01 X13.3322 Y-18.5349 F120.00
G01 X13.3803 Y-18.5229 F120.00
G01 X13.4270 Y-18.5062 F120.00
G01 X13.4733 Y-18.4843 F120.00
G01 X13.5158 Y-18.4588 F120.00
G01 X13.5561 Y-18.4289 F120.00
G01 X13.5932 Y-18.3952 F120.00
G01 X13.7131 Y-18.2753 F120.00
G01 X13.7131 Y-31.5984 F120.00
G01 X13.0486 Y-32.2629 F120.00
G01 X13.0486 Y-31.8357 F120.00
G01 X13.0479 Y-31.8322 F120.00
G01 X13.0462 Y-31.8293 F120.00
G01 X13.0434 Y-31.8269 F120.00
G01 X13.0401 Y-31.8256 F120.00
G01 X10.8380 Y-31.8254 F120.00
G01 X10.8342 Y-31.8261 F120.00
G01 X10.8311 Y-31.8280 F120.00
G01 X10.8284 Y-31.8315 F120.00
G01 X10.8277 Y-31.8337 F120.00
G01 X10.8274 Y-31.8360 F120.00
G01 X10.8274 Y-34.0360 F120.00
G01 X10.8280 Y-34.0396 F120.00
G01 X10.8300 Y-34.0429 F120.00
G01 X10.8328 Y-34.0452 F120.00
G01 X10.8364 Y-34.0465 F120.00
G01 X13.0380 Y-34.0466 F120.00
G01 X13.0406 Y-34.0463 F120.00
G01 X13.0430 Y-34.0453 F120.00
G01 X13.0453 Y-34.0437 F120.00
G01 X13.0471 Y-34.0414 F120.00
G01 X13.0482 Y-34.0388 F120.00
G01 X13.0486 Y-34.0360 F120.00
G01 X13.0486 Y-33.4469 F120.00
G01 X13.0983 Y-33.4468 F120.00
G01 X13.1478 Y-33.4444 F120.00
G01 X13.1971 Y-33.4371 F120.00
G01 X13.2463 Y-33.4249 F120.00
G01 X13.2930 Y-33.4082 F120.00
G01 X13.3388 Y-33.3865 F120.00
G01 X13.3818 Y-33.3608 F120.00
G01 X13.4221 Y-33.3309 F120.00
G01 X13.4588 Y-33.2976 F120.00
G01 X14.5856 Y-32.1708 F120.00
G01 X14.6189 Y-32.1341 F120.00
G01 X14.6485 Y-32.0942 F120.00
G01 X14.6745 Y-32.0508 F120.00
G01 X14.6960 Y-32.0055 F120.00
G01 X14.7127 Y-31.9588 F120.00
G01 X14.7251 Y-31.9091 F120.00
G01 X14.7324 Y-31.8601 F120.00
G01 X14.7349 Y-31.8100 F120.00
G01 X14.7349 Y-17.2536 F120.00
G01 X15.0732 Y-16.9152 F120.00
G01 X15.1072 Y-16.8777 F120.00
G01 X15.1368 Y-16.8378 F120.00
G01 X15.1623 Y-16.7953 F120.00
G01 X15.1840 Y-16.7495 F120.00
G01 X15.2009 Y-16.7023 F120.00
G01 X15.2129 Y-16.6542 F120.00
G01 X15.2204 Y-16.6038 F120.00
G01 X15.2229 Y-16.5540 F120.00
G01 X15.2229 Y-5.1996 F120.00
G01 X15.8123 Y-5.1996 F120.00
G01 X15.8156 Y-5.1990 F120.00
G01 X15.8185 Y-5.1974 F120.00
G01 X15.8208 Y-5.1949 F120.00
G01 X15.8222 Y-5.1918 F120.00
G01 X15.8226 Y-5.1890 F120.00
G01 X15.8226 Y-2.9890 F120.00
G01 X15.8218 Y-2.9849 F120.00
G01 X15.8195 Y-2.9815 F120.00
G01 X15.8161 Y-2.9792 F120.00
G01 X15.8120 Y-2.9784 F120.00
G00 Z2.0000
G00 X16.1414 Y-2.9890
G01 F60.00
G01 Z-0.0801
G01 F120.00
G01 X16.1414 Y-5.1890 F120.00
G01 X16.1418 Y-5.1918 F120.00
G01 X16.1432 Y-5.1949 F120.00
G01 X16.1455 Y-5.1974 F120.00
G01 X16.1484 Y-5.1990 F120.00
G01 X16.1517 Y-5.1996 F120.00
G01 X16.7411 Y-5.1996 F120.00
G01 X16.7411 Y-14.2940 F120.00
G01 X16.7437 Y-14.3446 F120.00
G01 X16.7510 Y-14.3937 F120.00
G01 X16.7631 Y-14.4423 F120.00
G01 X16.7800 Y-14.4895 F120.00
G01 X16.8017 Y-14.5353 F120.00
G01 X16.8272 Y-14.5778 F120.00
G01 X16.8568 Y-14.6177 F120.00
G01 X16.8906 Y-14.6550 F120.00
G01 X18.0908 Y-15.8552 F120.00
G01 X18.1279 Y-15.8889 F120.00
G01 X18.1682 Y-15.9188 F120.00
G01 X18.2117 Y-15.9448 F120.00
G01 X18.2565 Y-15.9660 F120.00
G01 X18.3032 Y-15.9827 F120.00
G01 X18.3523 Y-15.9950 F120.00
G01 X18.4019 Y-16.0024 F120.00
G01 X18.4517 Y-16.0048 F120.00
G01 X18.7014 Y-16.0049 F120.00
G01 X18.7014 Y-16.5940 F120.00
G01 X18.7019 Y-16.5971 F120.00
G01 X18.7032 Y-16.5999 F120.00
G01 X18.7051 Y-16.6020 F120.00
G01 X18.7077 Y-16.6037 F120.00
G01 X18.7120 Y-16.6046 F120.00
G01 X20.9120 Y-16.6046 F120.00
G01 X20.9148 Y-16.6042 F120.00
G01 X20.9179 Y-16.6028 F120.00
G01 X20.9204 Y-16.6005 F120.00
G01 X20.9220 Y-16.5976 F120.00
G01 X20.9226 Y-16.5943 F120.00
G01 X20.9226 Y-16.0049 F120.00
G01 X20.9604 Y-16.0049 F120.00
G01 X21.5871 Y-16.6316 F120.00
G01 X21.5871 Y-21.1244 F120.00
G01 X16.9108 Y-25.8008 F120.00
G01 X16.8771 Y-25.8379 F120.00
G01 X16.8470 Y-25.8786 F120.00
G01 X16.8215 Y-25.9212 F120.00
G01 X16.8002 Y-25.9660 F120.00
G01 X16.7831 Y-26.0137 F120.00
G01 X16.7710 Y-26.0623 F120.00
G01 X16.7637 Y-26.1114 F120.00
G01 X16.7611 Y-26.1620 F120.00
G01 X16.7611 Y-37.3104 F120.00
G01 X14.0264 Y-40.0451 F120.00
G01 X13.0486 Y-40.0451 F120.00
G01 X13.0486 Y-39.4557 F120.00
G01 X13.0479 Y-39.4522 F120.00
G01 X13.0462 Y-39.4493 F120.00
G01 X13.0434 Y-39.4469 F120.00
G01 X13.0401 Y-39.4456 F120.00
G01 X10.8380 Y-39.4454 F120.00
G01 X10.8347 Y-39.4459 F120.00
G01 X10.8317 Y-39.4475 F120.00
G01 X10.8300 Y-39.4491 F120.00
G01 X10.8285 Y-39.4512 F120.00
G01 X10.8277 Y-39.4534 F120.00
G01 X10.8274 Y-39.4560 F120.00
G01 X10.8274 Y-41.6560 F120.00
G01 X10.8280 Y-41.6596 F120.00
G01 X10.8300 Y-41.6629 F120.00
G01 X10.8328 Y-41.6652 F120.00
G01 X10.8364 Y-41.6665 F120.00
G01 X13.0398 Y-41.6664 F120.00
G01 X13.0432 Y-41.6652 F120.00
G01 X13.0460 Y-41.6629 F120.00
G01 X13.0479 Y-41.6598 F120.00
G01 X13.0486 Y-41.6563 F120.00
G01 X13.0486 Y-41.0669 F120.00
G01 X14.2385 Y-41.0668 F120.00
G01 X14.2886 Y-41.0643 F120.00
G01 X14.3377 Y-41.0570 F120.00
G01 X14.3858 Y-41.0450 F120.00
G01 X14.4335 Y-41.0280 F120.00
G01 X14.4790 Y-41.0064 F120.00
G01 X14.5218 Y-40.9808 F120.00
G01 X14.5617 Y-40.9512 F120.00
G01 X14.5992 Y-40.9172 F120.00
G01 X17.6332 Y-37.8832 F120.00
G01 X17.6672 Y-37.8457 F120.00
G01 X17.6968 Y-37.8058 F120.00
G01 X17.7224 Y-37.7630 F120.00
G01 X17.7440 Y-37.7175 F120.00
G01 X17.7610 Y-37.6698 F120.00
G01 X17.7730 Y-37.6217 F120.00
G01 X17.7803 Y-37.5726 F120.00
G01 X17.7829 Y-37.5220 F120.00
G01 X17.7829 Y-26.3736 F120.00
G01 X22.4594 Y-21.6970 F120.00
G01 X22.4929 Y-21.6601 F120.00
G01 X22.5225 Y-21.6202 F120.00
G01 X22.5488 Y-21.5763 F120.00
G01 X22.5700 Y-21.5315 F120.00
G01 X22.5869 Y-21.4843 F120.00
G01 X22.5990 Y-21.4357 F120.00
G01 X22.6063 Y-21.3866 F120.00
G01 X22.6089 Y-21.3360 F120.00
G01 X22.6088 Y-16.4197 F120.00
G01 X22.6064 Y-16.3699 F120.00
G01 X22.5991 Y-16.3209 F120.00
G01 X22.5869 Y-16.2717 F120.00
G01 X22.5700 Y-16.2245 F120.00
G01 X22.5488 Y-16.1797 F120.00
G01 X22.5228 Y-16.1362 F120.00
G01 X22.4929 Y-16.0959 F120.00
G01 X22.4592 Y-16.0588 F120.00
G01 X21.5332 Y-15.1328 F120.00
G01 X21.4961 Y-15.0991 F120.00
G01 X21.4560 Y-15.0694 F120.00
G01 X21.4128 Y-15.0435 F120.00
G01 X21.3675 Y-15.0220 F120.00
G01 X21.3203 Y-15.0051 F120.00
G01 X21.2714 Y-14.9929 F120.00
G01 X21.2221 Y-14.9856 F120.00
G01 X21.1723 Y-14.9832 F120.00
G01 X20.9226 Y-14.9831 F120.00
G01 X20.9226 Y-14.3940 F120.00
G01 X20.9221 Y-14.3909 F120.00
G01 X20.9208 Y-14.3881 F120.00
G01 X20.9189 Y-14.3860 F120.00
G01 X20.9163 Y-14.3843 F120.00
G01 X20.9120 Y-14.3834 F120.00
G01 X18.7120 Y-14.3834 F120.00
G01 X18.7092 Y-14.3838 F120.00
G01 X18.7061 Y-14.3852 F120.00
G01 X18.7036 Y-14.3875 F120.00
G01 X18.7020 Y-14.3904 F120.00
G01 X18.7014 Y-14.3937 F120.00
G01 X18.7014 Y-14.9831 F120.00
G01 X18.6636 Y-14.9831 F120.00
G01 X17.7629 Y-14.0824 F120.00
G01 X17.7629 Y-5.1996 F120.00
G01 X18.3523 Y-5.1996 F120.00
G01 X18.3556 Y-5.1990 F120.00
G01 X18.3585 Y-5.1974 F120.00
G01 X18.3608 Y-5.1949 F120.00
G01 X18.3622 Y-5.1918 F120.00
G01 X18.3626 Y-5.1890 F120.00
G01 X18.3625 Y-2.9874 F120.00
G01 X18.3612 Y-2.9838 F120.00
G01 X18.3589 Y-2.9810 F120.00
G01 X18.3556 Y-2.9790 F120.00
G01 X18.3520 Y-2.9784 F120.00
G01 X16.1520 Y-2.9784 F120.00
G01 X16.1479 Y-2.9792 F120.00
G01 X16.1445 Y-2.9815 F120.00
G01 X16.1422 Y-2.9849 F120.00
G01 X16.1414 Y-2.9890 F120.00
G00 Z2.0000
G00 X20.2895 Y-7.3631
G01 F60.00
G01 Z-0.0801
G01 F120.00
G01 X20.2832 Y-7.3500 F120.00
G01 X20.2274 Y-7.2570 F120.00
G01 X20.1625 Y-7.1694 F120.00
G01 X20.0893 Y-7.0887 F120.00
G01 X20.0086 Y-7.0155 F120.00
G01 X19.9210 Y-6.9506 F120.00
G01 X19.8275 Y-6.8945 F120.00
G01 X19.7290 Y-6.8479 F120.00
G01 X19.6264 Y-6.8112 F120.00
G01 X19.5207 Y-6.7847 F120.00
G01 X19.4129 Y-6.7687 F120.00
G01 X19.3040 Y-6.7634 F120.00
G01 X19.1951 Y-6.7687 F120.00
G01 X19.0873 Y-6.7847 F120.00
G01 X18.9816 Y-6.8112 F120.00
G01 X18.8790 Y-6.8479 F120.00
G01 X18.7805 Y-6.8945 F120.00
G01 X18.6870 Y-6.9506 F120.00
G01 X18.5994 Y-7.0155 F120.00
G01 X18.5187 Y-7.0887 F120.00
G01 X18.4455 Y-7.1694 F120.00
G01 X18.3806 Y-7.2570 F120.00
G01 X18.3245 Y-7.3505 F120.00
G01 X18.2779 Y-7.4490 F120.00
G01 X18.2412 Y-7.5516 F120.00
G01 X18.2147 Y-7.6573 F120.00
G01 X18.1987 Y-7.7651 F120.00
G01 X18.1934 Y-7.8740 F120.00
G01 X18.1987 Y-7.9829 F120.00
G01 X18.2147 Y-8.0907 F120.00
G01 X18.2412 Y-8.1964 F120.00
G01 X18.2779 Y-8.2990 F120.00
G01 X18.3245 Y-8.3975 F120.00
G01 X18.3806 Y-8.4910 F120.00
G01 X18.4452 Y-8.5781 F120.00
G01 X18.5187 Y-8.6593 F120.00
G01 X18.5999 Y-8.7328 F120.00
G01 X18.6870 Y-8.7974 F120.00
G01 X18.7800 Y-8.8532 F120.00
G01 X18.8790 Y-8.9001 F120.00
G01 X18.9821 Y-8.9369 F120.00
G01 X19.0873 Y-8.9633 F120.00
G01 X19.1946 Y-8.9792 F120.00
G01 X19.3040 Y-8.9846 F120.00
G01 X19.4134 Y-8.9792 F120.00
G01 X19.5207 Y-8.9633 F120.00
G01 X19.6264 Y-8.9368 F120.00
G01 X19.7295 Y-8.8998 F120.00
G01 X19.8275 Y-8.8535 F120.00
G01 X19.9206 Y-8.7977 F120.00
G01 X20.0090 Y-8.7322 F120.00
G01 X20.0893 Y-8.6593 F120.00
G01 X20.1622 Y-8.5790 F120.00
G01 X20.2274 Y-8.4910 F120.00
G01 X20.2832 Y-8.3980 F120.00
G01 X20.2895 Y-8.3849 F120.00
G01 X20.6164 Y-8.3849 F120.00
G01 X24.3811 Y-12.1496 F120.00
G01 X24.3811 Y-13.7584 F120.00
G01 X23.5148 Y-14.6248 F120.00
G01 X23.4814 Y-14.6615 F120.00
G01 X23.4512 Y-14.7022 F120.00
G01 X23.4252 Y-14.7457 F120.00
G01 X23.4040 Y-14.7905 F120.00
G01 X23.3873 Y-14.8372 F120.00
G01 X23.3750 Y-14.8863 F120.00
G01 X23.3676 Y-14.9359 F120.00
G01 X23.3651 Y-14.9860 F120.00
G01 X23.3651 Y-22.1404 F120.00
G01 X22.5388 Y-22.9668 F120.00
G01 X22.5053 Y-23.0037 F120.00
G01 X22.4750 Y-23.0446 F120.00
G01 X22.4495 Y-23.0872 F120.00
G01 X22.4280 Y-23.1325 F120.00
G01 X22.4111 Y-23.1797 F120.00
G01 X22.3991 Y-23.2278 F120.00
G01 X22.3916 Y-23.2782 F120.00
G01 X22.3891 Y-23.3280 F120.00
G01 X22.3891 Y-38.7647 F120.00
G01 X21.2792 Y-37.6548 F120.00
G01 X21.2421 Y-37.6211 F120.00
G01 X21.2022 Y-37.5915 F120.00
G01 X21.1588 Y-37.5655 F120.00
G01 X21.1135 Y-37.5440 F120.00
G01 X21.0663 Y-37.5271 F120.00
G01 X21.0174 Y-37.5149 F120.00
G01 X20.9681 Y-37.5076 F120.00
G01 X20.9183 Y-37.5052 F120.00
G01 X20.6686 Y-37.5051 F120.00
G01 X20.6686 Y-36.9160 F120.00
G01 X20.6681 Y-36.9129 F120.00
G01 X20.6670 Y-36.9103 F120.00
G01 X20.6649 Y-36.9080 F120.00
G01 X20.6625 Y-36.9064 F120.00
G01 X20.6603 Y-36.9057 F120.00
G01 X20.6580 Y-36.9054 F120.00
G01 X18.4570 Y-36.9055 F120.00
G01 X18.4532 Y-36.9065 F120.00
G01 X18.4501 Y-36.9089 F120.00
G01 X18.4481 Y-36.9122 F120.00
G01 X18.4474 Y-36.9160 F120.00
G01 X18.4474 Y-39.1168 F120.00
G01 X18.4484 Y-39.1205 F120.00
G01 X18.4507 Y-39.1237 F120.00
G01 X18.4542 Y-39.1259 F120.00
G01 X18.4580 Y-39.1266 F120.00
G01 X20.6580 Y-39.1266 F120.00
G01 X20.6606 Y-39.1263 F120.00
G01 X20.6637 Y-39.1250 F120.00
G01 X20.6664 Y-39.1225 F120.00
G01 X20.6680 Y-39.1196 F120.00
G01 X20.6686 Y-39.1163 F120.00
G01 X20.6686 Y-38.5269 F120.00
G01 X20.7064 Y-38.5269 F120.00
G01 X22.0764 Y-39.8969 F120.00
G01 X22.0413 Y-39.9356 F120.00
G01 X21.9767 Y-40.0228 F120.00
G01 X21.9207 Y-40.1162 F120.00
G01 X21.8739 Y-40.2150 F120.00
G01 X21.8373 Y-40.3174 F120.00
G01 X21.8107 Y-40.4233 F120.00
G01 X21.7947 Y-40.5311 F120.00
G01 X21.7894 Y-40.6400 F120.00
G01 X21.7948 Y-40.7491 F120.00
G01 X21.8109 Y-40.8572 F120.00
G01 X21.8372 Y-40.9624 F120.00
G01 X21.8738 Y-41.0645 F120.00
G01 X21.9205 Y-41.1635 F120.00
G01 X21.9766 Y-41.2570 F120.00
G01 X22.0418 Y-41.3450 F120.00
G01 X22.1147 Y-41.4253 F120.00
G01 X22.1950 Y-41.4982 F120.00
G01 X22.2830 Y-41.5634 F120.00
G01 X22.3760 Y-41.6192 F120.00
G01 X22.3891 Y-41.6255 F120.00
G01 X22.3891 Y-42.4485 F120.00
G01 X22.3760 Y-42.4548 F120.00
G01 X22.2830 Y-42.5106 F120.00
G01 X22.1950 Y-42.5758 F120.00
G01 X22.1147 Y-42.6487 F120.00
G01 X22.0418 Y-42.7290 F120.00
G01 X21.9763 Y-42.8174 F120.00
G01 X21.9205 Y-42.9105 F120.00
G01 X21.8742 Y-43.0085 F120.00
G01 X21.8372 Y-43.1116 F120.00
G01 X21.8107 Y-43.2173 F120.00
G01 X21.7948 Y-43.3246 F120.00
G01 X21.7894 Y-43.4343 F120.00
G01 X21.7947 Y-43.5429 F120.00
G01 X21.8107 Y-43.6502 F120.00
G01 X21.8372 Y-43.7564 F120.00
G01 X21.8742 Y-43.8595 F120.00
G01 X21.9205 Y-43.9575 F120.00
G01 X21.9763 Y-44.0506 F120.00
G01 X22.0418 Y-44.1390 F120.00
G01 X22.1147 Y-44.2193 F120.00
G01 X22.1950 Y-44.2922 F120.00
G01 X22.2830 Y-44.3574 F120.00
G01 X22.3760 Y-44.4132 F120.00
G01 X22.3891 Y-44.4195 F120.00
G01 X22.3891 Y-55.5314 F120.00
G01 X21.7600 Y-55.5314 F120.00
G01 X21.7567 Y-55.5319 F120.00
G01 X21.7537 Y-55.5335 F120.00
G01 X21.7513 Y-55.5359 F120.00
G01 X21.7498 Y-55.5392 F120.00
G01 X21.7494 Y-55.5420 F120.00
G01 X21.7495 Y-57.7430 F120.00
G01 X21.7505 Y-57.7468 F120.00
G01 X21.7529 Y-57.7499 F120.00
G01 X21.7562 Y-57.7519 F120.00
G01 X21.7600 Y-57.7526 F120.00
G01 X23.9608 Y-57.7526 F120.00
G01 X23.9645 Y-57.7516 F120.00
G01 X23.9679 Y-57.7491 F120.00
G01 X23.9699 Y-57.7458 F120.00
G01 X23.9706 Y-57.7420 F120.00
G01 X23.9706 Y-55.5420 F120.00
G01 X23.9703 Y-55.5394 F120.00
G01 X23.9688 Y-55.5361 F120.00
G01 X23.9665 Y-55.5336 F120.00
G01 X23.9636 Y-55.5320 F120.00
G01 X23.9603 Y-55.5314 F120.00
G01 X23.4109 Y-55.5314 F120.00
G01 X23.4109 Y-44.4195 F120.00
G01 X23.4240 Y-44.4132 F120.00
G01 X23.5170 Y-44.3574 F120.00
G01 X23.6050 Y-44.2922 F120.00
G01 X23.6853 Y-44.2193 F120.00
G01 X23.7582 Y-44.1390 F120.00
G01 X23.8237 Y-44.0506 F120.00
G01 X23.8795 Y-43.9575 F120.00
G01 X23.9258 Y-43.8595 F120.00
G01 X23.9628 Y-43.7564 F120.00
G01 X23.9893 Y-43.6507 F120.00
G01 X24.0052 Y-43.5434 F120.00
G01 X24.0106 Y-43.4340 F120.00
G01 X24.0052 Y-43.3246 F120.00
G01 X23.9893 Y-43.2173 F120.00
G01 X23.9628 Y-43.1116 F120.00
G01 X23.9258 Y-43.0085 F120.00
G01 X23.8795 Y-42.9105 F120.00
G01 X23.8237 Y-42.8174 F120.00
G01 X23.7582 Y-42.7290 F120.00
G01 X23.6853 Y-42.6487 F120.00
G01 X23.6050 Y-42.5758 F120.00
G01 X23.5170 Y-42.5106 F120.00
G01 X23.4240 Y-42.4548 F120.00
G01 X23.4109 Y-42.4485 F120.00
G01 X23.4109 Y-41.6255 F120.00
G01 X23.4240 Y-41.6192 F120.00
G01 X23.5170 Y-41.5634 F120.00
G01 X23.6050 Y-41.4982 F120.00
G01 X23.6853 Y-41.4253 F120.00
G01 X23.7582 Y-41.3450 F120.00
G01 X23.8237 Y-41.2566 F120.00
G01 X23.8795 Y-41.1635 F120.00
G01 X23.9258 Y-41.0655 F120.00
G01 X23.9628 Y-40.9624 F120.00
G01 X23.9893 Y-40.8567 F120.00
G01 X24.0052 Y-40.7494 F120.00
G01 X24.0106 Y-40.6400 F120.00
G01 X24.0052 Y-40.5306 F120.00
G01 X23.9893 Y-40.4233 F120.00
G01 X23.9628 Y-40.3176 F120.00
G01 X23.9258 Y-40.2145 F120.00
G01 X23.8795 Y-40.1165 F120.00
G01 X23.8237 Y-40.0234 F120.00
G01 X23.7582 Y-39.9350 F120.00
G01 X23.6853 Y-39.8547 F120.00
G01 X23.6050 Y-39.7818 F120.00
G01 X23.5170 Y-39.7166 F120.00
G01 X23.4240 Y-39.6608 F120.00
G01 X23.4109 Y-39.6545 F120.00
G01 X23.4109 Y-23.5396 F120.00
G01 X24.2372 Y-22.7132 F120.00
G01 X24.2706 Y-22.6765 F120.00
G01 X24.3008 Y-22.6358 F120.00
G01 X24.3268 Y-22.5923 F120.00
G01 X24.3480 Y-22.5475 F120.00
G01 X24.3647 Y-22.5008 F120.00
G01 X24.3771 Y-22.4514 F120.00
G01 X24.3844 Y-22.4021 F120.00
G01 X24.3869 Y-22.3520 F120.00
G01 X24.3869 Y-15.1976 F120.00
G01 X25.2536 Y-14.3308 F120.00
G01 X25.2872 Y-14.2937 F120.00
G01 X25.3168 Y-14.2538 F120.00
G01 X25.3423 Y-14.2113 F120.00
G01 X25.3640 Y-14.1655 F120.00
G01 X25.3809 Y-14.1183 F120.00
G01 X25.3930 Y-14.0697 F120.00
G01 X25.4003 Y-14.0206 F120.00
G01 X25.4029 Y-13.9700 F120.00
G01 X25.4029 Y-11.9380 F120.00
G01 X25.4004 Y-11.8882 F120.00
G01 X25.3930 Y-11.8383 F120.00
G01 X25.3810 Y-11.7902 F120.00
G01 X25.3638 Y-11.7420 F120.00
G01 X25.3425 Y-11.6972 F120.00
G01 X25.3168 Y-11.6542 F120.00
G01 X25.2869 Y-11.6139 F120.00
G01 X25.2534 Y-11.5770 F120.00
G01 X21.1892 Y-7.5128 F120.00
G01 X21.1525 Y-7.4794 F120.00
G01 X21.1114 Y-7.4490 F120.00
G01 X21.0688 Y-7.4235 F120.00
G01 X21.0235 Y-7.4020 F120.00
G01 X20.9758 Y-7.3850 F120.00
G01 X20.9277 Y-7.3730 F120.00
G01 X20.8783 Y-7.3656 F120.00
G01 X20.8280 Y-7.3631 F120.00
G01 X20.2895 Y-7.3631 F120.00
G00 Z2.0000
G00 X18.7014 Y-9.3140
G01 F60.00
G01 Z-0.0801
G01 F120.00
G01 X18.7014 Y-11.5140 F120.00
G01 X18.7018 Y-11.5168 F120.00
G01 X18.7032 Y-11.5199 F120.00
G01 X18.7055 Y-11.5224 F120.00
G01 X18.7084 Y-11.5240 F120.00
G01 X18.7117 Y-11.5246 F120.00
G01 X19.3011 Y-11.5246 F120.00
G01 X19.3011 Y-11.8434 F120.00
G01 X18.7117 Y-11.8434 F120.00
G01 X18.7084 Y-11.8440 F120.00
G01 X18.7053 Y-11.8458 F120.00
G01 X18.7029 Y-11.8486 F120.00
G01 X18.7017 Y-11.8517 F120.00
G01 X18.7014 Y-11.8540 F120.00
G01 X18.7014 Y-14.0540 F120.00
G01 X18.7022 Y-14.0581 F120.00
G01 X18.7045 Y-14.0615 F120.00
G01 X18.7079 Y-14.0638 F120.00
G01 X18.7120 Y-14.0646 F120.00
G01 X20.9120 Y-14.0646 F120.00
G01 X20.9148 Y-14.0642 F120.00
G01 X20.9179 Y-14.0628 F120.00
G01 X20.9204 Y-14.0605 F120.00
G01 X20.9220 Y-14.0576 F120.00
G01 X20.9226 Y-14.0543 F120.00
G01 X20.9226 Y-13.4649 F120.00
G01 X21.4065 Y-13.4649 F120.00
G01 X21.4128 Y-13.4780 F120.00
G01 X21.4686 Y-13.5710 F120.00
G01 X21.5338 Y-13.6590 F120.00
G01 X21.6067 Y-13.7393 F120.00
G01 X21.6870 Y-13.8122 F120.00
G01 X21.7750 Y-13.8774 F120.00
G01 X21.8685 Y-13.9335 F120.00
G01 X21.9675 Y-13.9802 F120.00
G01 X22.0696 Y-14.0168 F120.00
G01 X22.1748 Y-14.0431 F120.00
G01 X22.2829 Y-14.0592 F120.00
G01 X22.3920 Y-14.0646 F120.00
G01 X22.5009 Y-14.0593 F120.00
G01 X22.6087 Y-14.0433 F120.00
G01 X22.7149 Y-14.0166 F120.00
G01 X22.8170 Y-13.9801 F120.00
G01 X22.9151 Y-13.9337 F120.00
G01 X23.0086 Y-13.8777 F120.00
G01 X23.0966 Y-13.8125 F120.00
G01 X23.1773 Y-13.7393 F120.00
G01 X23.2505 Y-13.6586 F120.00
G01 X23.3154 Y-13.5710 F120.00
G01 X23.3715 Y-13.4775 F120.00
G01 X23.4182 Y-13.3785 F120.00
G01 X23.4549 Y-13.2759 F120.00
G01 X23.4813 Y-13.1707 F120.00
G01 X23.4972 Y-13.0634 F120.00
G01 X23.5026 Y-12.9540 F120.00
G01 X23.4973 Y-12.8451 F120.00
G01 X23.4813 Y-12.7373 F120.00
G01 X23.4548 Y-12.6316 F120.00
G01 X23.4181 Y-12.5290 F120.00
G01 X23.3712 Y-12.4300 F120.00
G01 X23.3154 Y-12.3370 F120.00
G01 X23.2508 Y-12.2499 F120.00
G01 X23.1777 Y-12.1691 F120.00
G01 X23.0966 Y-12.0955 F120.00
G01 X23.0090 Y-12.0306 F120.00
G01 X22.9155 Y-11.9745 F120.00
G01 X22.8170 Y-11.9279 F120.00
G01 X22.7144 Y-11.8912 F120.00
G01 X22.6087 Y-11.8647 F120.00
G01 X22.5009 Y-11.8487 F120.00
G01 X22.3920 Y-11.8434 F120.00
G01 X22.2831 Y-11.8487 F120.00
G01 X22.1753 Y-11.8647 F120.00
G01 X22.0696 Y-11.8912 F120.00
G01 X21.9665 Y-11.9282 F120.00
G01 X21.8680 Y-11.9748 F120.00
G01 X21.7750 Y-12.0306 F120.00
G01 X21.6879 Y-12.0952 F120.00
G01 X21.6067 Y-12.1687 F120.00
G01 X21.5335 Y-12.2494 F120.00
G01 X21.4686 Y-12.3370 F120.00
G01 X21.4128 Y-12.4300 F120.00
G01 X21.4065 Y-12.4431 F120.00
G01 X20.9226 Y-12.4431 F120.00
G01 X20.9226 Y-11.8540 F120.00
G01 X20.9218 Y-11.8499 F120.00
G01 X20.9195 Y-11.8465 F120.00
G01 X20.9161 Y-11.8442 F120.00
G01 X20.9120 Y-11.8434 F120.00
G01 X20.3229 Y-11.8434 F120.00
G01 X20.3229 Y-11.5246 F120.00
G01 X20.9123 Y-11.5246 F120.00
G01 X20.9158 Y-11.5239 F120.00
G01 X20.9187 Y-11.5222 F120.00
G01 X20.9211 Y-11.5194 F120.00
G01 X20.9223 Y-11.5163 F120.00
G01 X20.9226 Y-11.5140 F120.00
G01 X20.9226 Y-9.3140 F120.00
G01 X20.9218 Y-9.3099 F120.00
G01 X20.9195 Y-9.3065 F120.00
G01 X20.9161 Y-9.3042 F120.00
G01 X20.9120 Y-9.3034 F120.00
G01 X18.7120 Y-9.3034 F120.00
G01 X18.7079 Y-9.3042 F120.00
G01 X18.7045 Y-9.3065 F120.00
G01 X18.7022 Y-9.3099 F120.00
G01 X18.7014 Y-9.3140 F120.00
G00 Z2.0000
G00 X12.9720 Y-11.8434
G01 F60.00
G01 Z-0.0801
G01 F120.00
G01 X10.7720 Y-11.8434 F120.00
G01 X10.7697 Y-11.8437 F120.00
G01 X10.7675 Y-11.8444 F120.00
G01 X10.7655 Y-11.8456 F120.00
G01 X10.7638 Y-11.8473 F120.00
G01 X10.7620 Y-11.8504 F120.00
G01 X10.7614 Y-11.8540 F120.00
G01 X10.7614 Y-14.0540 F120.00
G01 X10.7617 Y-14.0563 F120.00
G01 X10.7630 Y-14.0597 F120.00
G01 X10.7653 Y-14.0622 F120.00
G01 X10.7682 Y-14.0639 F120.00
G01 X10.7717 Y-14.0646 F120.00
G01 X11.3611 Y-14.0646 F120.00
G01 X11.3611 Y-14.3834 F120.00
G01 X10.7720 Y-14.3834 F120.00
G01 X10.7679 Y-14.3842 F120.00
G01 X10.7647 Y-14.3863 F120.00
G01 X10.7623 Y-14.3897 F120.00
G01 X10.7614 Y-14.3940 F120.00
G01 X10.7614 Y-14.9831 F120.00
G01 X10.7117 Y-14.9832 F120.00
G01 X10.6622 Y-14.9856 F120.00
G01 X10.6129 Y-14.9929 F120.00
G01 X10.5637 Y-15.0051 F120.00
G01 X10.5170 Y-15.0218 F120.00
G01 X10.4712 Y-15.0435 F120.00
G01 X10.4282 Y-15.0692 F120.00
G01 X10.3879 Y-15.0991 F120.00
G01 X10.3510 Y-15.1326 F120.00
G01 X6.7078 Y-18.7758 F120.00
G01 X6.6619 Y-18.7594 F120.00
G01 X6.5567 Y-18.7330 F120.00
G01 X6.4484 Y-18.7170 F120.00
G01 X6.3398 Y-18.7116 F120.00
G01 X6.2314 Y-18.7169 F120.00
G01 X6.1228 Y-18.7330 F120.00
G01 X6.0174 Y-18.7595 F120.00
G01 X5.9152 Y-18.7960 F120.00
G01 X5.8162 Y-18.8428 F120.00
G01 X5.7228 Y-18.8988 F120.00
G01 X5.6356 Y-18.9634 F120.00
G01 X5.5541 Y-19.0373 F120.00
G01 X5.4813 Y-19.1177 F120.00
G01 X5.4163 Y-19.2052 F120.00
G01 X5.3603 Y-19.2987 F120.00
G01 X5.3135 Y-19.3977 F120.00
G01 X5.2769 Y-19.5003 F120.00
G01 X5.2505 Y-19.6056 F120.00
G01 X5.2346 Y-19.7129 F120.00
G01 X5.2292 Y-19.8222 F120.00
G01 X5.2345 Y-19.9306 F120.00
G01 X5.2505 Y-20.0389 F120.00
G01 X5.2770 Y-20.1446 F120.00
G01 X5.3137 Y-20.2472 F120.00
G01 X5.3603 Y-20.3458 F120.00
G01 X5.4163 Y-20.4392 F120.00
G01 X5.4813 Y-20.5268 F120.00
G01 X5.5545 Y-20.6075 F120.00
G01 X5.6352 Y-20.6807 F120.00
G01 X5.7228 Y-20.7457 F120.00
G01 X5.8158 Y-20.8014 F120.00
G01 X5.9152 Y-20.8485 F120.00
G01 X6.0174 Y-20.8850 F120.00
G01 X6.1231 Y-20.9115 F120.00
G01 X6.2309 Y-20.9275 F120.00
G01 X6.3398 Y-20.9328 F120.00
G01 X6.4486 Y-20.9275 F120.00
G01 X6.5564 Y-20.9115 F120.00
G01 X6.6622 Y-20.8850 F120.00
G01 X6.7643 Y-20.8485 F120.00
G01 X6.8638 Y-20.8014 F120.00
G01 X6.9568 Y-20.7457 F120.00
G01 X7.0445 Y-20.6806 F120.00
G01 X7.1251 Y-20.6075 F120.00
G01 X7.1979 Y-20.5272 F120.00
G01 X7.2632 Y-20.4392 F120.00
G01 X7.3192 Y-20.3458 F120.00
G01 X7.3656 Y-20.2477 F120.00
G01 X7.4025 Y-20.1446 F120.00
G01 X7.4290 Y-20.0389 F120.00
G01 X7.4450 Y-19.9316 F120.00
G01 X7.4504 Y-19.8222 F120.00
G01 X7.4450 Y-19.7129 F120.00
G01 X7.4290 Y-19.6056 F120.00
G01 X7.4078 Y-19.5207 F120.00
G01 X10.7614 Y-16.1671 F120.00
G01 X10.7614 Y-16.5943 F120.00
G01 X10.7621 Y-16.5978 F120.00
G01 X10.7638 Y-16.6007 F120.00
G01 X10.7666 Y-16.6031 F120.00
G01 X10.7699 Y-16.6044 F120.00
G01 X12.9720 Y-16.6046 F120.00
G01 X12.9743 Y-16.6043 F120.00
G01 X12.9765 Y-16.6036 F120.00
G01 X12.9785 Y-16.6024 F120.00
G01 X12.9802 Y-16.6007 F120.00
G01 X12.9820 Y-16.5976 F120.00
G01 X12.9826 Y-16.5940 F120.00
G01 X12.9826 Y-14.3940 F120.00
G01 X12.9822 Y-14.3912 F120.00
G01 X12.9808 Y-14.3881 F120.00
G01 X12.9785 Y-14.3856 F120.00
G01 X12.9756 Y-14.3840 F120.00
G01 X12.9723 Y-14.3834 F120.00
G01 X12.3829 Y-14.3834 F120.00
G01 X12.3829 Y-14.0646 F120.00
G01 X12.9723 Y-14.0646 F120.00
G01 X12.9756 Y-14.0640 F120.00
G01 X12.9787 Y-14.0622 F120.00
G01 X12.9811 Y-14.0594 F120.00
G01 X12.9823 Y-14.0563 F120.00
G01 X12.9826 Y-14.0540 F120.00
G01 X12.9826 Y-11.8540 F120.00
G01 X12.9818 Y-11.8499 F120.00
G01 X12.9795 Y-11.8465 F120.00
G01 X12.9761 Y-11.8442 F120.00
G01 X12.9720 Y-11.8434 F120.00
G00 Z2.0000
G00 X18.7014 Y-16.9340
G01 F60.00
G01 Z-0.0801
G01 F120.00
G01 X18.7014 Y-18.4221 F120.00
G01 X17.0107 Y-20.1128 F120.00
G01 X16.9933 Y-20.1024 F120.00
G01 X16.8952 Y-20.0560 F120.00
G01 X16.7924 Y-20.0192 F120.00
G01 X16.6867 Y-19.9927 F120.00
G01 X16.5783 Y-19.9767 F120.00
G01 X16.4695 Y-19.9714 F120.00
G01 X16.3611 Y-19.9767 F120.00
G01 X16.2538 Y-19.9927 F120.00
G01 X16.1476 Y-20.0192 F120.00
G01 X16.0445 Y-20.0562 F120.00
G01 X15.9460 Y-20.1028 F120.00
G01 X15.8530 Y-20.1586 F120.00
G01 X15.7659 Y-20.2232 F120.00
G01 X15.6847 Y-20.2967 F120.00
G01 X15.6115 Y-20.3774 F120.00
G01 X15.5463 Y-20.4654 F120.00
G01 X15.4905 Y-20.5585 F120.00
G01 X15.4442 Y-20.6565 F120.00
G01 X15.4072 Y-20.7596 F120.00
G01 X15.3807 Y-20.8653 F120.00
G01 X15.3647 Y-20.9731 F120.00
G01 X15.3594 Y-21.0815 F120.00
G01 X15.3648 Y-21.1914 F120.00
G01 X15.3807 Y-21.2987 F120.00
G01 X15.4072 Y-21.4044 F120.00
G01 X15.4439 Y-21.5070 F120.00
G01 X15.4904 Y-21.6053 F120.00
G01 X15.5466 Y-21.6990 F120.00
G01 X15.6112 Y-21.7861 F120.00
G01 X15.6849 Y-21.8675 F120.00
G01 X15.7654 Y-21.9405 F120.00
G01 X15.8528 Y-22.0053 F120.00
G01 X15.9462 Y-22.0613 F120.00
G01 X15.9991 Y-22.0864 F120.00
G01 X15.9991 Y-22.8905 F120.00
G01 X15.9860 Y-22.8968 F120.00
G01 X15.8926 Y-22.9529 F120.00
G01 X15.8054 Y-23.0175 F120.00
G01 X15.7243 Y-23.0911 F120.00
G01 X15.6515 Y-23.1714 F120.00
G01 X15.5866 Y-23.2590 F120.00
G01 X15.5305 Y-23.3525 F120.00
G01 X15.4840 Y-23.4508 F120.00
G01 X15.4472 Y-23.5536 F120.00
G01 X15.4207 Y-23.6593 F120.00
G01 X15.4047 Y-23.7671 F120.00
G01 X15.3994 Y-23.8755 F120.00
G01 X15.4047 Y-23.9849 F120.00
G01 X15.4207 Y-24.0922 F120.00
G01 X15.4471 Y-24.1979 F120.00
G01 X15.4519 Y-24.2116 F120.00
G01 X15.3866 Y-24.2770 F120.00
G01 X15.3531 Y-24.3139 F120.00
G01 X15.3232 Y-24.3542 F120.00
G01 X15.2976 Y-24.3970 F120.00
G01 X15.2760 Y-24.4425 F120.00
G01 X15.2591 Y-24.4897 F120.00
G01 X15.2470 Y-24.5383 F120.00
G01 X15.2396 Y-24.5882 F120.00
G01 X15.2371 Y-24.6380 F120.00
G01 X15.2371 Y-35.1544 F120.00
G01 X13.0486 Y-37.3429 F120.00
G01 X13.0486 Y-36.9157 F120.00
G01 X13.0479 Y-36.9122 F120.00
G01 X13.0462 Y-36.9093 F120.00
G01 X13.0434 Y-36.9069 F120.00
G01 X13.0401 Y-36.9056 F120.00
G01 X10.8380 Y-36.9054 F120.00
G01 X10.8347 Y-36.9059 F120.00
G01 X10.8317 Y-36.9075 F120.00
G01 X10.8298 Y-36.9093 F120.00
G01 X10.8285 Y-36.9112 F120.00
G01 X10.8277 Y-36.9137 F120.00
G01 X10.8274 Y-36.9160 F120.00
G01 X10.8274 Y-37.5051 F120.00
G01 X10.7777 Y-37.5052 F120.00
G01 X10.7277 Y-37.5076 F120.00
G01 X10.6783 Y-37.5150 F120.00
G01 X10.6297 Y-37.5271 F120.00
G01 X10.5825 Y-37.5440 F120.00
G01 X10.5372 Y-37.5655 F120.00
G01 X10.4942 Y-37.5912 F120.00
G01 X10.4537 Y-37.6213 F120.00
G01 X10.4168 Y-37.6548 F120.00
G01 X8.7824 Y-39.2892 F120.00
G01 X8.7491 Y-39.3259 F120.00
G01 X8.7192 Y-39.3662 F120.00
G01 X8.6935 Y-39.4092 F120.00
G01 X8.6720 Y-39.4545 F120.00
G01 X8.6551 Y-39.5017 F120.00
G01 X8.6430 Y-39.5503 F120.00
G01 X8.6356 Y-39.5999 F120.00
G01 X8.6331 Y-39.6545 F120.00
G01 X8.6200 Y-39.6608 F120.00
G01 X8.5266 Y-39.7169 F120.00
G01 X8.4394 Y-39.7815 F120.00
G01 X8.3587 Y-39.8547 F120.00
G01 X8.2852 Y-39.9359 F120.00
G01 X8.2206 Y-40.0230 F120.00
G01 X8.1648 Y-40.1160 F120.00
G01 X8.1179 Y-40.2150 F120.00
G01 X8.0812 Y-40.3176 F120.00
G01 X8.0547 Y-40.4233 F120.00
G01 X8.0388 Y-40.5309 F120.00
G01 X8.0334 Y-40.6405 F120.00
G01 X8.0387 Y-40.7489 F120.00
G01 X8.0547 Y-40.8567 F120.00
G01 X8.0814 Y-40.9629 F120.00
G01 X8.1179 Y-41.0650 F120.00
G01 X8.1645 Y-41.1635 F120.00
G01 X8.2206 Y-41.2570 F120.00
G01 X8.2852 Y-41.3441 F120.00
G01 X8.3587 Y-41.4253 F120.00
G01 X8.4394 Y-41.4985 F120.00
G01 X8.5266 Y-41.5631 F120.00
G01 X8.6200 Y-41.6192 F120.00
G01 X8.6331 Y-41.6255 F120.00
G01 X8.6331 Y-44.3464 F120.00
G01 X8.6200 Y-44.3527 F120.00
G01 X8.5270 Y-44.4084 F120.00
G01 X8.4390 Y-44.4737 F120.00
G01 X8.3587 Y-44.5465 F120.00
G01 X8.2858 Y-44.6269 F120.00
G01 X8.2203 Y-44.7153 F120.00
G01 X8.1645 Y-44.8083 F120.00
G01 X8.1182 Y-44.9064 F120.00
G01 X8.0812 Y-45.0095 F120.00
G01 X8.0547 Y-45.1152 F120.00
G01 X8.0388 Y-45.2225 F120.00
G01 X8.0334 Y-45.3319 F120.00
G01 X8.0388 Y-45.4412 F120.00
G01 X8.0547 Y-45.5485 F120.00
G01 X8.0812 Y-45.6543 F120.00
G01 X8.1182 Y-45.7573 F120.00
G01 X8.1645 Y-45.8554 F120.00
G01 X8.2203 Y-45.9484 F120.00
G01 X8.2858 Y-46.0368 F120.00
G01 X8.3587 Y-46.1172 F120.00
G01 X8.4390 Y-46.1900 F120.00
G01 X8.5270 Y-46.2553 F120.00
G01 X8.6200 Y-46.3111 F120.00
G01 X8.6331 Y-46.3173 F120.00
G01 X8.6331 Y-47.2440 F120.00
G01 X8.6356 Y-47.2936 F120.00
G01 X8.6430 Y-47.3437 F120.00
G01 X8.6551 Y-47.3923 F120.00
G01 X8.6720 Y-47.4395 F120.00
G01 X8.6934 Y-47.4846 F120.00
G01 X8.7195 Y-47.5282 F120.00
G01 X8.7491 Y-47.5681 F120.00
G01 X8.7828 Y-47.6052 F120.00
G01 X14.7291 Y-53.5516 F120.00
G01 X14.7291 Y-55.5314 F120.00
G01 X14.1397 Y-55.5314 F120.00
G01 X14.1362 Y-55.5321 F120.00
G01 X14.1331 Y-55.5340 F120.00
G01 X14.1308 Y-55.5368 F120.00
G01 X14.1295 Y-55.5404 F120.00
G01 X14.1294 Y-57.7420 F120.00
G01 X14.1301 Y-57.7458 F120.00
G01 X14.1321 Y-57.7491 F120.00
G01 X14.1352 Y-57.7515 F120.00
G01 X14.1387 Y-57.7525 F120.00
G01 X16.3400 Y-57.7526 F120.00
G01 X16.3441 Y-57.7518 F120.00
G01 X16.3475 Y-57.7495 F120.00
G01 X16.3498 Y-57.7461 F120.00
G01 X16.3506 Y-57.7420 F120.00
G01 X16.3506 Y-55.5420 F120.00
G01 X16.3503 Y-55.5394 F120.00
G01 X16.3490 Y-55.5363 F120.00
G01 X16.3467 Y-55.5338 F120.00
G01 X16.3436 Y-55.5320 F120.00
G01 X16.3403 Y-55.5314 F120.00
G01 X15.7509 Y-55.5314 F120.00
G01 X15.7508 Y-53.3395 F120.00
G01 X15.7484 Y-53.2899 F120.00
G01 X15.7410 Y-53.2403 F120.00
G01 X15.7289 Y-53.1917 F120.00
G01 X15.7122 Y-53.1450 F120.00
G01 X15.6903 Y-53.0987 F120.00
G01 X15.6648 Y-53.0562 F120.00
G01 X15.6351 Y-53.0161 F120.00
G01 X15.6012 Y-52.9788 F120.00
G01 X9.6549 Y-47.0324 F120.00
G01 X9.6549 Y-46.3173 F120.00
G01 X9.6680 Y-46.3111 F120.00
G01 X9.7610 Y-46.2553 F120.00
G01 X9.8490 Y-46.1900 F120.00
G01 X9.9293 Y-46.1172 F120.00
G01 X10.0022 Y-46.0368 F120.00
G01 X10.0677 Y-45.9484 F120.00
G01 X10.1235 Y-45.8554 F120.00
G01 X10.1698 Y-45.7573 F120.00
G01 X10.2068 Y-45.6543 F120.00
G01 X10.2333 Y-45.5480 F120.00
G01 X10.2493 Y-45.4407 F120.00
G01 X10.2546 Y-45.3321 F120.00
G01 X10.2492 Y-45.2225 F120.00
G01 X10.2333 Y-45.1152 F120.00
G01 X10.2068 Y-45.0095 F120.00
G01 X10.1698 Y-44.9064 F120.00
G01 X10.1235 Y-44.8083 F120.00
G01 X10.0677 Y-44.7153 F120.00
G01 X10.0022 Y-44.6269 F120.00
G01 X9.9293 Y-44.5465 F120.00
G01 X9.8490 Y-44.4737 F120.00
G01 X9.7610 Y-44.4084 F120.00
G01 X9.6680 Y-44.3527 F120.00
G01 X9.6549 Y-44.3464 F120.00
G01 X9.6549 Y-41.6255 F120.00
G01 X9.6680 Y-41.6192 F120.00
G01 X9.7610 Y-41.5634 F120.00
G01 X9.8490 Y-41.4982 F120.00
G01 X9.9293 Y-41.4253 F120.00
G01 X10.0022 Y-41.3450 F120.00
G01 X10.0677 Y-41.2566 F120.00
G01 X10.1235 Y-41.1635 F120.00
G01 X10.1698 Y-41.0655 F120.00
G01 X10.2068 Y-40.9624 F120.00
G01 X10.2333 Y-40.8562 F120.00
G01 X10.2493 Y-40.7489 F120.00
G01 X10.2546 Y-40.6403 F120.00
G01 X10.2493 Y-40.5311 F120.00
G01 X10.2331 Y-40.4228 F120.00
G01 X10.2068 Y-40.3176 F120.00
G01 X10.1702 Y-40.2155 F120.00
G01 X10.1235 Y-40.1165 F120.00
G01 X10.0674 Y-40.0230 F120.00
G01 X10.0022 Y-39.9350 F120.00
G01 X9.9289 Y-39.8543 F120.00
G01 X9.8486 Y-39.7815 F120.00
G01 X9.7833 Y-39.7331 F120.00
G01 X10.8274 Y-38.6891 F120.00
G01 X10.8274 Y-39.1163 F120.00
G01 X10.8281 Y-39.1198 F120.00
G01 X10.8298 Y-39.1227 F120.00
G01 X10.8326 Y-39.1251 F120.00
G01 X10.8359 Y-39.1264 F120.00
G01 X13.0380 Y-39.1266 F120.00
G01 X13.0411 Y-39.1261 F120.00
G01 X13.0437 Y-39.1250 F120.00
G01 X13.0457 Y-39.1233 F120.00
G01 X13.0473 Y-39.1210 F120.00
G01 X13.0483 Y-39.1186 F120.00
G01 X13.0486 Y-39.1160 F120.00
G01 X13.0486 Y-38.5269 F120.00
G01 X13.0983 Y-38.5268 F120.00
G01 X13.1478 Y-38.5244 F120.00
G01 X13.1971 Y-38.5171 F120.00
G01 X13.2463 Y-38.5049 F120.00
G01 X13.2930 Y-38.4882 F120.00
G01 X13.3388 Y-38.4665 F120.00
G01 X13.3818 Y-38.4408 F120.00
G01 X13.4221 Y-38.4109 F120.00
G01 X13.4590 Y-38.3774 F120.00
G01 X16.1092 Y-35.7272 F120.00
G01 X16.1429 Y-35.6901 F120.00
G01 X16.1728 Y-35.6498 F120.00
G01 X16.1985 Y-35.6068 F120.00
G01 X16.2201 Y-35.5613 F120.00
G01 X16.2369 Y-35.5143 F120.00
G01 X16.2490 Y-35.4657 F120.00
G01 X16.2564 Y-35.4161 F120.00
G01 X16.2589 Y-35.3660 F120.00
G01 X16.2589 Y-24.9566 F120.00
G01 X16.2936 Y-24.9653 F120.00
G01 X16.4009 Y-24.9812 F120.00
G01 X16.5097 Y-24.9866 F120.00
G01 X16.6189 Y-24.9813 F120.00
G01 X16.7264 Y-24.9653 F120.00
G01 X16.8324 Y-24.9388 F120.00
G01 X16.9350 Y-24.9021 F120.00
G01 X17.0335 Y-24.8555 F120.00
G01 X17.1272 Y-24.7993 F120.00
G01 X17.2146 Y-24.7345 F120.00
G01 X17.2957 Y-24.6609 F120.00
G01 X17.3688 Y-24.5801 F120.00
G01 X17.4334 Y-24.4930 F120.00
G01 X17.4892 Y-24.4000 F120.00
G01 X17.5361 Y-24.3010 F120.00
G01 X17.5728 Y-24.1984 F120.00
G01 X17.5993 Y-24.0927 F120.00
G01 X17.6153 Y-23.9843 F120.00
G01 X17.6206 Y-23.8760 F120.00
G01 X17.6153 Y-23.7677 F120.00
G01 X17.5993 Y-23.6593 F120.00
G01 X17.5726 Y-23.5531 F120.00
G01 X17.5361 Y-23.4510 F120.00
G01 X17.4895 Y-23.3525 F120.00
G01 X17.4334 Y-23.2590 F120.00
G01 X17.3688 Y-23.1719 F120.00
G01 X17.2953 Y-23.0907 F120.00
G01 X17.2146 Y-23.0175 F120.00
G01 X17.1274 Y-22.9529 F120.00
G01 X17.0340 Y-22.8968 F120.00
G01 X17.0209 Y-22.8905 F120.00
G01 X17.0209 Y-22.0451 F120.00
G01 X17.0870 Y-22.0054 F120.00
G01 X17.1741 Y-21.9408 F120.00
G01 X17.2555 Y-21.8671 F120.00
G01 X17.3285 Y-21.7866 F120.00
G01 X17.3931 Y-21.6994 F120.00
G01 X17.4495 Y-21.6055 F120.00
G01 X17.4962 Y-21.5065 F120.00
G01 X17.5328 Y-21.4044 F120.00
G01 X17.5593 Y-21.2987 F120.00
G01 X17.5753 Y-21.1903 F120.00
G01 X17.5806 Y-21.0820 F120.00
G01 X17.5762 Y-20.9922 F120.00
G01 X19.4239 Y-19.1446 F120.00
G01 X20.9120 Y-19.1446 F120.00
G01 X20.9158 Y-19.1439 F120.00
G01 X20.9191 Y-19.1419 F120.00
G01 X20.9213 Y-19.1390 F120.00
G01 X20.9225 Y-19.1353 F120.00
G01 X20.9226 Y-16.9340 F120.00
G01 X20.9218 Y-16.9299 F120.00
G01 X20.9195 Y-16.9265 F120.00
G01 X20.9161 Y-16.9242 F120.00
G01 X20.9120 Y-16.9234 F120.00
G01 X18.7120 Y-16.9234 F120.00
G01 X18.7079 Y-16.9242 F120.00
G01 X18.7045 Y-16.9265 F120.00
G01 X18.7022 Y-16.9299 F120.00
G01 X18.7014 Y-16.9340 F120.00
G00 Z2.0000
G00 X26.3339 Y-13.2896
G01 F60.00
G01 Z-0.0801
G01 F120.00
G01 X26.3086 Y-13.3150 F120.00
G01 X26.2749 Y-13.3521 F120.00
G01 X26.2452 Y-13.3922 F120.00
G01 X26.2194 Y-13.4354 F120.00
G01 X26.1980 Y-13.4805 F120.00
G01 X26.1811 Y-13.5277 F120.00
G01 X26.1690 Y-13.5763 F120.00
G01 X26.1616 Y-13.6257 F120.00
G01 X26.1591 Y-13.6760 F120.00
G01 X26.1591 Y-14.7744 F120.00
G01 X25.2928 Y-15.6408 F120.00
G01 X25.2591 Y-15.6779 F120.00
G01 X25.2292 Y-15.7182 F120.00
G01 X25.2037 Y-15.7607 F120.00
G01 X25.1818 Y-15.8070 F120.00
G01 X25.1651 Y-15.8537 F120.00
G01 X25.1530 Y-15.9023 F120.00
G01 X25.1456 Y-15.9519 F120.00
G01 X25.1432 Y-16.0015 F120.00
G01 X25.1431 Y-22.9024 F120.00
G01 X25.0386 Y-23.0070 F120.00
G01 X25.0053 Y-23.0437 F120.00
G01 X24.9752 Y-23.0842 F120.00
G01 X24.9495 Y-23.1272 F120.00
G01 X24.9278 Y-23.1730 F120.00
G01 X24.9111 Y-23.2197 F120.00
G01 X24.8991 Y-23.2678 F120.00
G01 X24.8916 Y-23.3179 F120.00
G01 X24.8891 Y-23.3680 F120.00
G01 X24.8891 Y-55.5314 F120.00
G01 X24.2997 Y-55.5314 F120.00
G01 X24.2964 Y-55.5320 F120.00
G01 X24.2935 Y-55.5336 F120.00
G01 X24.2912 Y-55.5361 F120.00
G01 X24.2898 Y-55.5392 F120.00
G01 X24.2894 Y-55.5420 F120.00
G01 X24.2894 Y-57.7420 F120.00
G01 X24.2901 Y-57.7458 F120.00
G01 X24.2923 Y-57.7493 F120.00
G01 X24.2955 Y-57.7516 F120.00
G01 X24.2995 Y-57.7526 F120.00
G01 X26.5000 Y-57.7526 F120.00
G01 X26.5038 Y-57.7519 F120.00
G01 X26.5071 Y-57.7499 F120.00
G01 X26.5095 Y-57.7468 F120.00
G01 X26.5105 Y-57.7430 F120.00
G01 X26.5106 Y-55.5420 F120.00
G01 X26.5102 Y-55.5392 F120.00
G01 X26.5088 Y-55.5361 F120.00
G01 X26.5065 Y-55.5336 F120.00
G01 X26.5036 Y-55.5320 F120.00
G01 X26.5003 Y-55.5314 F120.00
G01 X25.9109 Y-55.5314 F120.00
G01 X25.9109 Y-23.5796 F120.00
G01 X26.0154 Y-23.4750 F120.00
G01 X26.0487 Y-23.4383 F120.00
G01 X26.0788 Y-23.3978 F120.00
G01 X26.1045 Y-23.3548 F120.00
G01 X26.1260 Y-23.3095 F120.00
G01 X26.1430 Y-23.2618 F120.00
G01 X26.1550 Y-23.2137 F120.00
G01 X26.1623 Y-23.1646 F120.00
G01 X26.1648 Y-23.1143 F120.00
G01 X26.1649 Y-16.2136 F120.00
G01 X27.0314 Y-15.3470 F120.00
G01 X27.0649 Y-15.3101 F120.00
G01 X27.0948 Y-15.2698 F120.00
G01 X27.1205 Y-15.2268 F120.00
G01 X27.1418 Y-15.1820 F120.00
G01 X27.1589 Y-15.1343 F120.00
G01 X27.1710 Y-15.0857 F120.00
G01 X27.1784 Y-15.0361 F120.00
G01 X27.1808 Y-14.9863 F120.00
G01 X27.1809 Y-14.0441 F120.00
G01 X27.2831 Y-14.0593 F120.00
G01 X27.3915 Y-14.0646 F120.00
G01 X27.5009 Y-14.0593 F120.00
G01 X27.6087 Y-14.0433 F120.00
G01 X27.7139 Y-14.0169 F120.00
G01 X27.8170 Y-13.9801 F120.00
G01 X27.9160 Y-13.9332 F120.00
G01 X28.0090 Y-13.8774 F120.00
G01 X28.0966 Y-13.8125 F120.00
G01 X28.1773 Y-13.7393 F120.00
G01 X28.2502 Y-13.6590 F120.00
G01 X28.3156 Y-13.5708 F120.00
G01 X28.3715 Y-13.4775 F120.00
G01 X28.4182 Y-13.3785 F120.00
G01 X28.4549 Y-13.2759 F120.00
G01 X28.4813 Y-13.1707 F120.00
G01 X28.4972 Y-13.0634 F120.00
G01 X28.5026 Y-12.9540 F120.00
G01 X28.4973 Y-12.8451 F120.00
G01 X28.4813 Y-12.7373 F120.00
G01 X28.4548 Y-12.6316 F120.00
G01 X28.4181 Y-12.5290 F120.00
G01 X28.3715 Y-12.4305 F120.00
G01 X28.3154 Y-12.3370 F120.00
G01 X28.2505 Y-12.2494 F120.00
G01 X28.1773 Y-12.1687 F120.00
G01 X28.0966 Y-12.0955 F120.00
G01 X28.0090 Y-12.0306 F120.00
G01 X27.9155 Y-11.9745 F120.00
G01 X27.8170 Y-11.9279 F120.00
G01 X27.7144 Y-11.8912 F120.00
G01 X27.6087 Y-11.8647 F120.00
G01 X27.5009 Y-11.8487 F120.00
G01 X27.3920 Y-11.8434 F120.00
G01 X27.2831 Y-11.8487 F120.00
G01 X27.1753 Y-11.8647 F120.00
G01 X27.0696 Y-11.8912 F120.00
G01 X26.9670 Y-11.9279 F120.00
G01 X26.8685 Y-11.9745 F120.00
G01 X26.7750 Y-12.0306 F120.00
G01 X26.6874 Y-12.0955 F120.00
G01 X26.6067 Y-12.1687 F120.00
G01 X26.5335 Y-12.2494 F120.00
G01 X26.4686 Y-12.3370 F120.00
G01 X26.4125 Y-12.4305 F120.00
G01 X26.3659 Y-12.5290 F120.00
G01 X26.3292 Y-12.6316 F120.00
G01 X26.3027 Y-12.7373 F120.00
G01 X26.2867 Y-12.8451 F120.00
G01 X26.2814 Y-12.9540 F120.00
G01 X26.2867 Y-13.0629 F120.00
G01 X26.3027 Y-13.1707 F120.00
G01 X26.3291 Y-13.2759 F120.00
G01 X26.3339 Y-13.2896 F120.00
G00 Z2.0000
G00 X30.1020 Y0.0106
G01 F60.00
G01 Z-0.0801
G01 F120.00
G01 X0.1240 Y0.0106 F120.00
G01 X0.0702 Y-0.0008 F120.00
G01 X0.0673 Y-0.0020 F120.00
G01 X0.0127 Y-0.0490 F120.00
G01 X0.0102 Y-0.0523 F120.00
G01 X-0.0102 Y-0.1210 F120.00
G01 X-0.0106 Y-0.1240 F120.00
G01 X-0.0106 Y-59.5660 F120.00
G01 X0.0008 Y-59.6198 F120.00
G01 X0.0020 Y-59.6227 F120.00
G01 X0.0490 Y-59.6773 F120.00
G01 X0.0523 Y-59.6798 F120.00
G01 X0.1210 Y-59.7002 F120.00
G01 X0.1240 Y-59.7006 F120.00
G01 X30.1020 Y-59.7006 F120.00
G01 X30.1558 Y-59.6892 F120.00
G01 X30.1587 Y-59.6880 F120.00
G01 X30.2133 Y-59.6410 F120.00
G01 X30.2158 Y-59.6377 F120.00
G01 X30.2362 Y-59.5690 F120.00
G01 X30.2366 Y-59.5660 F120.00
G01 X30.2366 Y-0.1240 F120.00
G01 X30.2252 Y-0.0702 F120.00
G01 X30.2242 Y-0.0675 F120.00
G01 X30.2228 Y-0.0655 F120.00
G01 X30.1765 Y-0.0122 F120.00
G01 X30.1744 Y-0.0106 F120.00
G01 X30.1720 Y-0.0095 F120.00
G01 X30.1050 Y0.0102 F120.00
G01 X30.1020 Y0.0106 F120.00
G00 Z2.0000
G00 X10.3825 Y-20.8581
G01 F60.00
G01 Z-0.0801
G01 F120.00
G01 X10.0006 Y-20.4761 F120.00
G01 X9.9537 Y-20.5893 F120.00
G01 X9.8953 Y-20.8326 F120.00
G01 X9.8757 Y-21.0820 F120.00
G01 X9.8953 Y-21.3314 F120.00
G01 X9.9537 Y-21.5747 F120.00
G01 X10.0006 Y-21.6879 F120.00
G01 X10.3825 Y-21.3059 F120.00
G01 X10.3807 Y-21.2982 F120.00
G01 X10.3647 Y-21.1909 F120.00
G01 X10.3594 Y-21.0820 F120.00
G01 X10.3647 Y-20.9731 F120.00
G01 X10.3807 Y-20.8658 F120.00
G01 X10.3825 Y-20.8581 F120.00
G00 Z2.0000
G00 X11.2461 Y-22.1695
G01 F60.00
G01 Z-0.0801
G01 F120.00
G01 X10.9565 Y-22.4590 F120.00
G01 X11.2861 Y-22.7885 F120.00
G01 X11.2938 Y-22.7867 F120.00
G01 X11.4011 Y-22.7707 F120.00
G01 X11.5100 Y-22.7654 F120.00
G01 X11.6189 Y-22.7707 F120.00
G01 X11.7262 Y-22.7867 F120.00
G01 X11.7339 Y-22.7885 F120.00
G01 X12.0235 Y-22.4990 F120.00
G01 X11.6939 Y-22.1695 F120.00
G01 X11.6862 Y-22.1713 F120.00
G01 X11.5789 Y-22.1873 F120.00
G01 X11.4700 Y-22.1926 F120.00
G01 X11.3611 Y-22.1873 F120.00
G01 X11.2538 Y-22.1713 F120.00
G01 X11.2461 Y-22.1695 F120.00
G00 Z2.0000
G00 X10.4225 Y-23.6521
G01 F60.00
G01 Z-0.0801
G01 F120.00
G01 X10.0406 Y-23.2701 F120.00
G01 X9.9937 Y-23.3833 F120.00
G01 X9.9353 Y-23.6266 F120.00
G01 X9.9157 Y-23.8760 F120.00
G01 X9.9353 Y-24.1254 F120.00
G01 X9.9937 Y-24.3687 F120.00
G01 X10.0406 Y-24.4819 F120.00
G01 X10.4225 Y-24.0999 F120.00
G01 X10.4207 Y-24.0922 F120.00
G01 X10.4047 Y-23.9849 F120.00
G01 X10.3994 Y-23.8760 F120.00
G01 X10.4047 Y-23.7671 F120.00
G01 X10.4207 Y-23.6598 F120.00
G01 X10.4225 Y-23.6521 F120.00
G00 Z2.0000
G00 X11.2861 Y-24.9635
G01 F60.00
G01 Z-0.0801
G01 F120.00
G01 X10.9041 Y-25.3454 F120.00
G01 X11.0173 Y-25.3923 F120.00
G01 X11.2606 Y-25.4507 F120.00
G01 X11.5100 Y-25.4703 F120.00
G01 X11.7594 Y-25.4507 F120.00
G01 X12.0027 Y-25.3923 F120.00
G01 X12.1159 Y-25.3454 F120.00
G01 X11.7339 Y-24.9635 F120.00
G01 X11.7262 Y-24.9653 F120.00
G01 X11.6189 Y-24.9813 F120.00
G01 X11.5100 Y-24.9866 F120.00
G01 X11.4011 Y-24.9813 F120.00
G01 X11.2938 Y-24.9653 F120.00
G01 X11.2861 Y-24.9635 F120.00
G00 Z2.0000
G00 X10.8274 Y-26.7560
G01 F60.00
G01 Z-0.0801
G01 F120.00
G01 X10.8274 Y-27.3451 F120.00
G01 X9.7360 Y-27.3451 F120.00
G01 X9.6859 Y-27.3476 F120.00
G01 X9.6363 Y-27.3550 F120.00
G01 X9.5882 Y-27.3670 F120.00
G01 X9.5400 Y-27.3842 F120.00
G01 X9.4952 Y-27.4055 F120.00
G01 X9.4522 Y-27.4312 F120.00
G01 X9.4119 Y-27.4611 F120.00
G01 X9.3752 Y-27.4944 F120.00
G01 X3.4486 Y-33.4210 F120.00
G01 X3.4151 Y-33.4579 F120.00
G01 X3.3855 Y-33.4978 F120.00
G01 X3.3592 Y-33.5417 F120.00
G01 X3.3380 Y-33.5865 F120.00
G01 X3.3211 Y-33.6337 F120.00
G01 X3.3090 Y-33.6823 F120.00
G01 X3.3017 Y-33.7314 F120.00
G01 X3.2991 Y-33.7820 F120.00
G01 X3.2991 Y-51.3080 F120.00
G01 X3.3016 Y-51.3583 F120.00
G01 X3.3090 Y-51.4077 F120.00
G01 X3.3211 Y-51.4563 F120.00
G01 X3.3380 Y-51.5035 F120.00
G01 X3.3592 Y-51.5483 F120.00
G01 X3.3855 Y-51.5922 F120.00
G01 X3.4151 Y-51.6321 F120.00
G01 X3.4486 Y-51.6690 F120.00
G01 X7.1091 Y-55.3296 F120.00
G01 X7.1091 Y-55.5314 F120.00
G01 X6.5197 Y-55.5314 F120.00
G01 X6.5162 Y-55.5321 F120.00
G01 X6.5133 Y-55.5338 F120.00
G01 X6.5110 Y-55.5363 F120.00
G01 X6.5097 Y-55.5394 F120.00
G01 X6.5094 Y-55.5420 F120.00
G01 X6.5094 Y-57.7420 F120.00
G01 X6.5100 Y-57.7456 F120.00
G01 X6.5120 Y-57.7489 F120.00
G01 X6.5148 Y-57.7512 F120.00
G01 X6.5184 Y-57.7525 F120.00
G01 X8.7200 Y-57.7526 F120.00
G01 X8.7241 Y-57.7518 F120.00
G01 X8.7275 Y-57.7495 F120.00
G01 X8.7298 Y-57.7461 F120.00
G01 X8.7306 Y-57.7420 F120.00
G01 X8.7305 Y-55.5410 F120.00
G01 X8.7295 Y-55.5372 F120.00
G01 X8.7271 Y-55.5341 F120.00
G01 X8.7241 Y-55.5322 F120.00
G01 X8.7203 Y-55.5314 F120.00
G01 X8.1309 Y-55.5314 F120.00
G01 X8.1308 Y-55.1177 F120.00
G01 X8.1284 Y-55.0679 F120.00
G01 X8.1211 Y-55.0189 F120.00
G01 X8.1089 Y-54.9697 F120.00
G01 X8.0918 Y-54.9220 F120.00
G01 X8.0705 Y-54.8772 F120.00
G01 X8.0450 Y-54.8346 F120.00
G01 X8.0147 Y-54.7937 F120.00
G01 X7.9812 Y-54.7568 F120.00
G01 X4.3209 Y-51.0964 F120.00
G01 X4.3209 Y-33.9936 F120.00
G01 X9.9476 Y-28.3669 F120.00
G01 X10.8274 Y-28.3669 F120.00
G01 X10.8274 Y-28.9563 F120.00
G01 X10.8281 Y-28.9598 F120.00
G01 X10.8300 Y-28.9629 F120.00
G01 X10.8328 Y-28.9652 F120.00
G01 X10.8359 Y-28.9664 F120.00
G01 X13.0380 Y-28.9666 F120.00
G01 X13.0423 Y-28.9657 F120.00
G01 X13.0459 Y-28.9631 F120.00
G01 X13.0479 Y-28.9598 F120.00
G01 X13.0486 Y-28.9560 F120.00
G01 X13.0486 Y-26.7560 F120.00
G01 X13.0478 Y-26.7519 F120.00
G01 X13.0455 Y-26.7485 F120.00
G01 X13.0421 Y-26.7462 F120.00
G01 X13.0380 Y-26.7454 F120.00
G01 X10.8380 Y-26.7454 F120.00
G01 X10.8339 Y-26.7462 F120.00
G01 X10.8305 Y-26.7485 F120.00
G01 X10.8282 Y-26.7519 F120.00
G01 X10.8274 Y-26.7560 F120.00
G00 Z2.0000
G00 X10.8274 Y-29.2960
G01 F60.00
G01 Z-0.0801
G01 F120.00
G01 X10.8274 Y-29.8851 F120.00
G01 X10.2440 Y-29.8851 F120.00
G01 X10.1937 Y-29.8876 F120.00
G01 X10.1443 Y-29.8950 F120.00
G01 X10.0962 Y-29.9070 F120.00
G01 X10.0485 Y-29.9240 F120.00
G01 X10.0032 Y-29.9455 F120.00
G01 X9.9606 Y-29.9710 F120.00
G01 X9.9195 Y-30.0014 F120.00
G01 X9.8828 Y-30.0348 F120.00
G01 X5.2266 Y-34.6910 F120.00
G01 X5.1931 Y-34.7279 F120.00
G01 X5.1632 Y-34.7682 F120.00
G01 X5.1375 Y-34.8112 F120.00
G01 X5.1162 Y-34.8560 F120.00
G01 X5.0990 Y-34.9042 F120.00
G01 X5.0870 Y-34.9523 F120.00
G01 X5.0796 Y-35.0022 F120.00
G01 X5.0771 Y-35.0520 F120.00
G01 X5.0771 Y-50.6466 F120.00
G01 X5.0796 Y-50.6967 F120.00
G01 X5.0869 Y-50.7460 F120.00
G01 X5.0993 Y-50.7954 F120.00
G01 X5.1160 Y-50.8421 F120.00
G01 X5.1375 Y-50.8874 F120.00
G01 X5.1635 Y-50.9308 F120.00
G01 X5.1931 Y-50.9707 F120.00
G01 X5.2266 Y-51.0076 F120.00
G01 X9.6491 Y-55.4302 F120.00
G01 X9.6491 Y-55.5314 F120.00
G01 X9.0597 Y-55.5314 F120.00
G01 X9.0562 Y-55.5321 F120.00
G01 X9.0533 Y-55.5338 F120.00
G01 X9.0510 Y-55.5363 F120.00
G01 X9.0497 Y-55.5394 F120.00
G01 X9.0494 Y-55.5420 F120.00
G01 X9.0494 Y-57.7420 F120.00
G01 X9.0501 Y-57.7458 F120.00
G01 X9.0521 Y-57.7491 F120.00
G01 X9.0555 Y-57.7516 F120.00
G01 X9.0592 Y-57.7526 F120.00
G01 X11.2600 Y-57.7526 F120.00
G01 X11.2641 Y-57.7518 F120.00
G01 X11.2675 Y-57.7495 F120.00
G01 X11.2698 Y-57.7461 F120.00
G01 X11.2706 Y-57.7420 F120.00
G01 X11.2705 Y-55.5407 F120.00
G01 X11.2693 Y-55.5370 F120.00
G01 X11.2671 Y-55.5341 F120.00
G01 X11.2641 Y-55.5322 F120.00
G01 X11.2603 Y-55.5314 F120.00
G01 X10.6709 Y-55.5314 F120.00
G01 X10.6708 Y-55.2183 F120.00
G01 X10.6684 Y-55.1685 F120.00
G01 X10.6611 Y-55.1192 F120.00
G01 X10.6487 Y-55.0698 F120.00
G01 X10.6320 Y-55.0231 F120.00
G01 X10.6108 Y-54.9783 F120.00
G01 X10.5848 Y-54.9348 F120.00
G01 X10.5546 Y-54.8941 F120.00
G01 X10.5212 Y-54.8574 F120.00
G01 X6.0989 Y-50.4350 F120.00
G01 X6.0989 Y-35.2636 F120.00
G01 X10.4556 Y-30.9069 F120.00
G01 X10.8274 Y-30.9069 F120.00
G01 X10.8274 Y-31.4963 F120.00
G01 X10.8281 Y-31.4998 F120.00
G01 X10.8298 Y-31.5027 F120.00
G01 X10.8326 Y-31.5051 F120.00
G01 X10.8357 Y-31.5063 F120.00
G01 X10.8380 Y-31.5066 F120.00
G01 X13.0380 Y-31.5066 F120.00
G01 X13.0403 Y-31.5063 F120.00
G01 X13.0428 Y-31.5055 F120.00
G01 X13.0447 Y-31.5042 F120.00
G01 X13.0464 Y-31.5025 F120.00
G01 X13.0480 Y-31.4996 F120.00
G01 X13.0486 Y-31.4960 F120.00
G01 X13.0486 Y-29.2960 F120.00
G01 X13.0478 Y-29.2919 F120.00
G01 X13.0455 Y-29.2885 F120.00
G01 X13.0421 Y-29.2862 F120.00
G01 X13.0380 Y-29.2854 F120.00
G01 X10.8380 Y-29.2854 F120.00
G01 X10.8339 Y-29.2862 F120.00
G01 X10.8305 Y-29.2885 F120.00
G01 X10.8282 Y-29.2919 F120.00
G01 X10.8274 Y-29.2960 F120.00
G00 Z2.0000
G00 X8.0565 Y-35.4161
G01 F60.00
G01 Z-0.0801
G01 F120.00
G01 X7.6746 Y-35.0341 F120.00
G01 X7.6277 Y-35.1473 F120.00
G01 X7.5693 Y-35.3906 F120.00
G01 X7.5497 Y-35.6400 F120.00
G01 X7.5693 Y-35.8894 F120.00
G01 X7.6277 Y-36.1327 F120.00
G01 X7.6746 Y-36.2459 F120.00
G01 X8.0565 Y-35.8639 F120.00
G01 X8.0547 Y-35.8562 F120.00
G01 X8.0387 Y-35.7489 F120.00
G01 X8.0334 Y-35.6400 F120.00
G01 X8.0387 Y-35.5311 F120.00
G01 X8.0547 Y-35.4238 F120.00
G01 X8.0565 Y-35.4161 F120.00
G00 Z2.0000
G00 X10.8274 Y-41.9960
G01 F60.00
G01 Z-0.0801
G01 F120.00
G01 X10.8274 Y-44.1960 F120.00
G01 X10.8283 Y-44.2003 F120.00
G01 X10.8307 Y-44.2037 F120.00
G01 X10.8342 Y-44.2059 F120.00
G01 X10.8380 Y-44.2066 F120.00
G01 X13.0390 Y-44.2065 F120.00
G01 X13.0428 Y-44.2055 F120.00
G01 X13.0457 Y-44.2033 F120.00
G01 X13.0478 Y-44.2001 F120.00
G01 X13.0486 Y-44.1965 F120.00
G01 X13.0486 Y-43.9951 F120.00
G01 X19.8091 Y-50.7556 F120.00
G01 X19.8091 Y-55.5314 F120.00
G01 X19.2197 Y-55.5314 F120.00
G01 X19.2164 Y-55.5320 F120.00
G01 X19.2135 Y-55.5336 F120.00
G01 X19.2112 Y-55.5361 F120.00
G01 X19.2098 Y-55.5392 F120.00
G01 X19.2094 Y-55.5420 F120.00
G01 X19.2094 Y-57.7420 F120.00
G01 X19.2097 Y-57.7443 F120.00
G01 X19.2109 Y-57.7474 F120.00
G01 X19.2133 Y-57.7502 F120.00
G01 X19.2164 Y-57.7520 F120.00
G01 X19.2200 Y-57.7526 F120.00
G01 X21.4200 Y-57.7526 F120.00
G01 X21.4231 Y-57.7521 F120.00
G01 X21.4259 Y-57.7508 F120.00
G01 X21.4279 Y-57.7491 F120.00
G01 X21.4293 Y-57.7470 F120.00
G01 X21.4303 Y-57.7446 F120.00
G01 X21.4306 Y-57.7420 F120.00
G01 X21.4306 Y-55.5420 F120.00
G01 X21.4302 Y-55.5392 F120.00
G01 X21.4288 Y-55.5361 F120.00
G01 X21.4265 Y-55.5336 F120.00
G01 X21.4236 Y-55.5320 F120.00
G01 X21.4203 Y-55.5314 F120.00
G01 X20.8309 Y-55.5314 F120.00
G01 X20.8308 Y-50.5437 F120.00
G01 X20.8284 Y-50.4939 F120.00
G01 X20.8211 Y-50.4449 F120.00
G01 X20.8089 Y-50.3957 F120.00
G01 X20.7920 Y-50.3485 F120.00
G01 X20.7708 Y-50.3037 F120.00
G01 X20.7448 Y-50.2602 F120.00
G01 X20.7149 Y-50.2199 F120.00
G01 X20.6812 Y-50.1828 F120.00
G01 X13.2332 Y-42.7348 F120.00
G01 X13.1961 Y-42.7011 F120.00
G01 X13.1556 Y-42.6711 F120.00
G01 X13.1126 Y-42.6454 F120.00
G01 X13.0677 Y-42.6241 F120.00
G01 X13.0486 Y-42.6173 F120.00
G01 X13.0486 Y-41.9960 F120.00
G01 X13.0483 Y-41.9937 F120.00
G01 X13.0476 Y-41.9915 F120.00
G01 X13.0464 Y-41.9895 F120.00
G01 X13.0447 Y-41.9878 F120.00
G01 X13.0416 Y-41.9860 F120.00
G01 X13.0380 Y-41.9854 F120.00
G01 X10.8380 Y-41.9854 F120.00
G01 X10.8339 Y-41.9862 F120.00
G01 X10.8305 Y-41.9885 F120.00
G01 X10.8282 Y-41.9919 F120.00
G01 X10.8274 Y-41.9960 F120.00
G00 Z2.0000
G00 X10.8274 Y-44.5360
G01 F60.00
G01 Z-0.0801
G01 F120.00
G01 X10.8274 Y-46.7360 F120.00
G01 X10.8282 Y-46.7401 F120.00
G01 X10.8305 Y-46.7435 F120.00
G01 X10.8339 Y-46.7458 F120.00
G01 X10.8380 Y-46.7466 F120.00
G01 X13.0041 Y-46.7466 F120.00
G01 X17.2691 Y-51.0116 F120.00
G01 X17.2691 Y-55.5314 F120.00
G01 X16.6797 Y-55.5314 F120.00
G01 X16.6764 Y-55.5320 F120.00
G01 X16.6735 Y-55.5336 F120.00
G01 X16.6712 Y-55.5361 F120.00
G01 X16.6698 Y-55.5392 F120.00
G01 X16.6694 Y-55.5420 F120.00
G01 X16.6694 Y-57.7420 F120.00
G01 X16.6697 Y-57.7446 F120.00
G01 X16.6712 Y-57.7479 F120.00
G01 X16.6735 Y-57.7504 F120.00
G01 X16.6767 Y-57.7521 F120.00
G01 X16.6800 Y-57.7526 F120.00
G01 X18.8800 Y-57.7526 F120.00
G01 X18.8828 Y-57.7522 F120.00
G01 X18.8854 Y-57.7511 F120.00
G01 X18.8875 Y-57.7495 F120.00
G01 X18.8892 Y-57.7472 F120.00
G01 X18.8902 Y-57.7448 F120.00
G01 X18.8906 Y-57.7420 F120.00
G01 X18.8906 Y-55.5420 F120.00
G01 X18.8902 Y-55.5392 F120.00
G01 X18.8888 Y-55.5361 F120.00
G01 X18.8865 Y-55.5336 F120.00
G01 X18.8836 Y-55.5320 F120.00
G01 X18.8803 Y-55.5314 F120.00
G01 X18.2909 Y-55.5314 F120.00
G01 X18.2908 Y-50.7997 F120.00
G01 X18.2884 Y-50.7499 F120.00
G01 X18.2811 Y-50.7009 F120.00
G01 X18.2689 Y-50.6517 F120.00
G01 X18.2518 Y-50.6040 F120.00
G01 X18.2305 Y-50.5592 F120.00
G01 X18.2050 Y-50.5166 F120.00
G01 X18.1749 Y-50.4759 F120.00
G01 X18.1412 Y-50.4388 F120.00
G01 X13.0486 Y-45.3461 F120.00
G01 X13.0486 Y-44.5360 F120.00
G01 X13.0483 Y-44.5337 F120.00
G01 X13.0476 Y-44.5315 F120.00
G01 X13.0464 Y-44.5295 F120.00
G01 X13.0447 Y-44.5278 F120.00
G01 X13.0416 Y-44.5260 F120.00
G01 X13.0380 Y-44.5254 F120.00
G01 X10.8380 Y-44.5254 F120.00
G01 X10.8339 Y-44.5262 F120.00
G01 X10.8305 Y-44.5285 F120.00
G01 X10.8282 Y-44.5319 F120.00
G01 X10.8274 Y-44.5360 F120.00
G00 Z2.0000
G00 X18.4474 Y-44.5360
G01 F60.00
G01 Z-0.0801
G01 F120.00
G01 X18.4474 Y-46.7360 F120.00
G01 X18.4482 Y-46.7401 F120.00
G01 X18.4505 Y-46.7435 F120.00
G01 X18.4539 Y-46.7458 F120.00
G01 X18.4580 Y-46.7466 F120.00
G01 X20.6580 Y-46.7466 F120.00
G01 X20.6621 Y-46.7458 F120.00
G01 X20.6655 Y-46.7435 F120.00
G01 X20.6678 Y-46.7401 F120.00
G01 X20.6686 Y-46.7360 F120.00
G01 X20.6686 Y-44.5360 F120.00
G01 X20.6678 Y-44.5319 F120.00
G01 X20.6655 Y-44.5285 F120.00
G01 X20.6621 Y-44.5262 F120.00
G01 X20.6580 Y-44.5254 F120.00
G01 X18.4580 Y-44.5254 F120.00
G01 X18.4539 Y-44.5262 F120.00
G01 X18.4505 Y-44.5285 F120.00
G01 X18.4482 Y-44.5319 F120.00
G01 X18.4474 Y-44.5360 F120.00
G00 Z2.0000
G00 X18.4474 Y-41.9960
G01 F60.00
G01 Z-0.0801
G01 F120.00
G01 X18.4474 Y-44.1960 F120.00
G01 X18.4482 Y-44.2001 F120.00
G01 X18.4505 Y-44.2035 F120.00
G01 X18.4539 Y-44.2058 F120.00
G01 X18.4580 Y-44.2066 F120.00
G01 X20.6580 Y-44.2066 F120.00
G01 X20.6621 Y-44.2058 F120.00
G01 X20.6655 Y-44.2035 F120.00
G01 X20.6678 Y-44.2001 F120.00
G01 X20.6686 Y-44.1960 F120.00
G01 X20.6686 Y-41.9960 F120.00
G01 X20.6678 Y-41.9919 F120.00
G01 X20.6655 Y-41.9885 F120.00
G01 X20.6621 Y-41.9862 F120.00
G01 X20.6580 Y-41.9854 F120.00
G01 X18.4580 Y-41.9854 F120.00
G01 X18.4539 Y-41.9862 F120.00
G01 X18.4505 Y-41.9885 F120.00
G01 X18.4482 Y-41.9919 F120.00
G01 X18.4474 Y-41.9960 F120.00
G00 Z2.0000
G00 X18.4474 Y-39.4560
G01 F60.00
G01 Z-0.0801
G01 F120.00
G01 X18.4474 Y-41.6560 F120.00
G01 X18.4482 Y-41.6601 F120.00
G01 X18.4505 Y-41.6635 F120.00
G01 X18.4539 Y-41.6658 F120.00
G01 X18.4580 Y-41.6666 F120.00
G01 X20.6580 Y-41.6666 F120.00
G01 X20.6621 Y-41.6658 F120.00
G01 X20.6655 Y-41.6635 F120.00
G01 X20.6678 Y-41.6601 F120.00
G01 X20.6686 Y-41.6560 F120.00
G01 X20.6686 Y-39.4560 F120.00
G01 X20.6678 Y-39.4519 F120.00
G01 X20.6655 Y-39.4485 F120.00
G01 X20.6621 Y-39.4462 F120.00
G01 X20.6580 Y-39.4454 F120.00
G01 X18.4580 Y-39.4454 F120.00
G01 X18.4539 Y-39.4462 F120.00
G01 X18.4505 Y-39.4485 F120.00
G01 X18.4482 Y-39.4519 F120.00
G01 X18.4474 Y-39.4560 F120.00
G00 Z2.0000
G00 X18.4474 Y-34.3760
G01 F60.00
G01 Z-0.0801
G01 F120.00
G01 X18.4474 Y-36.5760 F120.00
G01 X18.4482 Y-36.5801 F120.00
G01 X18.4505 Y-36.5835 F120.00
G01 X18.4539 Y-36.5858 F120.00
G01 X18.4580 Y-36.5866 F120.00
G01 X20.6580 Y-36.5866 F120.00
G01 X20.6621 Y-36.5858 F120.00
G01 X20.6655 Y-36.5835 F120.00
G01 X20.6678 Y-36.5801 F120.00
G01 X20.6686 Y-36.5760 F120.00
G01 X20.6686 Y-34.3760 F120.00
G01 X20.6678 Y-34.3719 F120.00
G01 X20.6655 Y-34.3685 F120.00
G01 X20.6621 Y-34.3662 F120.00
G01 X20.6580 Y-34.3654 F120.00
G01 X18.4580 Y-34.3654 F120.00
G01 X18.4539 Y-34.3662 F120.00
G01 X18.4505 Y-34.3685 F120.00
G01 X18.4482 Y-34.3719 F120.00
G01 X18.4474 Y-34.3760 F120.00
G00 Z2.0000
G00 X18.4474 Y-31.8360
G01 F60.00
G01 Z-0.0801
G01 F120.00
G01 X18.4474 Y-34.0360 F120.00
G01 X18.4482 Y-34.0401 F120.00
G01 X18.4505 Y-34.0435 F120.00
G01 X18.4539 Y-34.0458 F120.00
G01 X18.4580 Y-34.0466 F120.00
G01 X20.6580 Y-34.0466 F120.00
G01 X20.6621 Y-34.0458 F120.00
G01 X20.6655 Y-34.0435 F120.00
G01 X20.6678 Y-34.0401 F120.00
G01 X20.6686 Y-34.0360 F120.00
G01 X20.6686 Y-31.8360 F120.00
G01 X20.6678 Y-31.8319 F120.00
G01 X20.6655 Y-31.8285 F120.00
G01 X20.6621 Y-31.8262 F120.00
G01 X20.6580 Y-31.8254 F120.00
G01 X18.4580 Y-31.8254 F120.00
G01 X18.4539 Y-31.8262 F120.00
G01 X18.4505 Y-31.8285 F120.00
G01 X18.4482 Y-31.8319 F120.00
G01 X18.4474 Y-31.8360 F120.00
G00 Z2.0000
G00 X18.4474 Y-29.2960
G01 F60.00
G01 Z-0.0801
G01 F120.00
G01 X18.4474 Y-31.4960 F120.00
G01 X18.4482 Y-31.5001 F120.00
G01 X18.4505 Y-31.5035 F120.00
G01 X18.4539 Y-31.5058 F120.00
G01 X18.4580 Y-31.5066 F120.00
G01 X20.6580 Y-31.5066 F120.00
G01 X20.6621 Y-31.5058 F120.00
G01 X20.6655 Y-31.5035 F120.00
G01 X20.6678 Y-31.5001 F120.00
G01 X20.6686 Y-31.4960 F120.00
G01 X20.6686 Y-29.2960 F120.00
G01 X20.6678 Y-29.2919 F120.00
G01 X20.6655 Y-29.2885 F120.00
G01 X20.6621 Y-29.2862 F120.00
G01 X20.6580 Y-29.2854 F120.00
G01 X18.4580 Y-29.2854 F120.00
G01 X18.4539 Y-29.2862 F120.00
G01 X18.4505 Y-29.2885 F120.00
G01 X18.4482 Y-29.2919 F120.00
G01 X18.4474 Y-29.2960 F120.00
G00 Z2.0000
G00 X18.4474 Y-26.7560
G01 F60.00
G01 Z-0.0801
G01 F120.00
G01 X18.4474 Y-28.9560 F120.00
G01 X18.4482 Y-28.9601 F120.00
G01 X18.4505 Y-28.9635 F120.00
G01 X18.4539 Y-28.9658 F120.00
G01 X18.4580 Y-28.9666 F120.00
G01 X20.6580 Y-28.9666 F120.00
G01 X20.6621 Y-28.9658 F120.00
G01 X20.6655 Y-28.9635 F120.00
G01 X20.6678 Y-28.9601 F120.00
G01 X20.6686 Y-28.9560 F120.00
G01 X20.6686 Y-26.7560 F120.00
G01 X20.6678 Y-26.7519 F120.00
G01 X20.6655 Y-26.7485 F120.00
G01 X20.6621 Y-26.7462 F120.00
G01 X20.6580 Y-26.7454 F120.00
G01 X18.4580 Y-26.7454 F120.00
G01 X18.4539 Y-26.7462 F120.00
G01 X18.4505 Y-26.7485 F120.00
G01 X18.4482 Y-26.7519 F120.00
G01 X18.4474 Y-26.7560 F120.00
G00 Z2.0000
G00 X27.6761 Y-39.5525
G01 F60.00
G01 Z-0.0801
G01 F120.00
G01 X27.6838 Y-39.5507 F120.00
G01 X27.7911 Y-39.5347 F120.00
G01 X27.9000 Y-39.5294 F120.00
G01 X28.0089 Y-39.5347 F120.00
G01 X28.1162 Y-39.5507 F120.00
G01 X28.1239 Y-39.5525 F120.00
G01 X28.5059 Y-39.1706 F120.00
G01 X28.3927 Y-39.1237 F120.00
G01 X28.1494 Y-39.0653 F120.00
G01 X27.9000 Y-39.0457 F120.00
G01 X27.6506 Y-39.0653 F120.00
G01 X27.4073 Y-39.1237 F120.00
G01 X27.2941 Y-39.1706 F120.00
G01 X27.6761 Y-39.5525 F120.00
G00 Z2.0000
G00 X28.9875 Y-40.4161
G01 F60.00
G01 Z-0.0801
G01 F120.00
G01 X28.9893 Y-40.4238 F120.00
G01 X29.0053 Y-40.5311 F120.00
G01 X29.0106 Y-40.6400 F120.00
G01 X29.0053 Y-40.7489 F120.00
G01 X28.9893 Y-40.8562 F120.00
G01 X28.9875 Y-40.8639 F120.00
G01 X29.3694 Y-41.2459 F120.00
G01 X29.4163 Y-41.1327 F120.00
G01 X29.4747 Y-40.8894 F120.00
G01 X29.4943 Y-40.6400 F120.00
G01 X29.4747 Y-40.3906 F120.00
G01 X29.4163 Y-40.1473 F120.00
G01 X29.3694 Y-40.0341 F120.00
G01 X28.9875 Y-40.4161 F120.00
G00 Z2.0000
G00 X28.1239 Y-41.7275
G01 F60.00
G01 Z-0.0801
G01 F120.00
G01 X28.1162 Y-41.7293 F120.00
G01 X28.0089 Y-41.7453 F120.00
G01 X27.9000 Y-41.7506 F120.00
G01 X27.7911 Y-41.7453 F120.00
G01 X27.6838 Y-41.7293 F120.00
G01 X27.6761 Y-41.7275 F120.00
G01 X27.3665 Y-42.0370 F120.00
G01 X27.6761 Y-42.3465 F120.00
G01 X27.6838 Y-42.3447 F120.00
G01 X27.7911 Y-42.3287 F120.00
G01 X27.9000 Y-42.3234 F120.00
G01 X28.0089 Y-42.3287 F120.00
G01 X28.1162 Y-42.3447 F120.00
G01 X28.1239 Y-42.3465 F120.00
G01 X28.4335 Y-42.0370 F120.00
G01 X28.1239 Y-41.7275 F120.00
G00 Z2.0000
G00 X28.9875 Y-43.2101
G01 F60.00
G01 Z-0.0801
G01 F120.00
G01 X28.9893 Y-43.2178 F120.00
G01 X29.0053 Y-43.3251 F120.00
G01 X29.0106 Y-43.4340 F120.00
G01 X29.0053 Y-43.5429 F120.00
G01 X28.9893 Y-43.6502 F120.00
G01 X28.9875 Y-43.6579 F120.00
G01 X29.3694 Y-44.0399 F120.00
G01 X29.4163 Y-43.9267 F120.00
G01 X29.4747 Y-43.6834 F120.00
G01 X29.4943 Y-43.4340 F120.00
G01 X29.4747 Y-43.1846 F120.00
G01 X29.4163 Y-42.9413 F120.00
G01 X29.3694 Y-42.8281 F120.00
G01 X28.9875 Y-43.2101 F120.00
G00 Z2.0000
G00 X28.1239 Y-44.5215
G01 F60.00
G01 Z-0.0801
G01 F120.00
G01 X28.1162 Y-44.5233 F120.00
G01 X28.0089 Y-44.5393 F120.00
G01 X27.9000 Y-44.5446 F120.00
G01 X27.7911 Y-44.5393 F120.00
G01 X27.6838 Y-44.5233 F120.00
G01 X27.6761 Y-44.5215 F120.00
G01 X27.2941 Y-44.9034 F120.00
G01 X27.4073 Y-44.9503 F120.00
G01 X27.6506 Y-45.0087 F120.00
G01 X27.9000 Y-45.0283 F120.00
G01 X28.1494 Y-45.0087 F120.00
G01 X28.3927 Y-44.9503 F120.00
G01 X28.5059 Y-44.9034 F120.00
G01 X28.1239 Y-44.5215 F120.00
G00 Z2.0000
G00 X1.0399 Y-53.6695
G01 F60.00
G01 Z-0.0801
G01 F120.00
G01 X1.0501 Y-53.7270 F120.00
G01 X1.0515 Y-53.7367 F120.00
G01 X1.0574 Y-53.7943 F120.00
G01 X1.0662 Y-53.8225 F120.00
G01 X1.0701 Y-53.8382 F120.00
G01 X1.0754 Y-53.8677 F120.00
G01 X1.0969 Y-53.9215 F120.00
G01 X1.1002 Y-53.9307 F120.00
G01 X1.1176 Y-53.9864 F120.00
G01 X1.1322 Y-54.0127 F120.00
G01 X1.1391 Y-54.0272 F120.00
G01 X1.1501 Y-54.0547 F120.00
G01 X1.1819 Y-54.1030 F120.00
G01 X1.1870 Y-54.1114 F120.00
G01 X1.2153 Y-54.1624 F120.00
G01 X1.2346 Y-54.1848 F120.00
G01 X1.2443 Y-54.1977 F120.00
G01 X1.2609 Y-54.2228 F120.00
G01 X1.3018 Y-54.2637 F120.00
G01 X1.3085 Y-54.2709 F120.00
G01 X1.3465 Y-54.3152 F120.00
G01 X1.3699 Y-54.3333 F120.00
G01 X1.3825 Y-54.3444 F120.00
G01 X3.4507 Y-56.4126 F120.00
G01 X3.4522 Y-56.4146 F120.00
G01 X3.4865 Y-56.4775 F120.00
G01 X3.4872 Y-56.4803 F120.00
G01 X3.4901 Y-56.5075 F120.00
G01 X3.4901 Y-57.7893 F120.00
G01 X3.4963 Y-57.8470 F120.00
G01 X3.5456 Y-57.9792 F120.00
G01 X3.6300 Y-58.0920 F120.00
G01 X3.7428 Y-58.1764 F120.00
G01 X3.8750 Y-58.2257 F120.00
G01 X3.9327 Y-58.2319 F120.00
G01 X6.2273 Y-58.2319 F120.00
G01 X6.2850 Y-58.2257 F120.00
G01 X6.3032 Y-58.2189 F120.00
G01 X6.3054 Y-58.2184 F120.00
G01 X6.3764 Y-58.2134 F120.00
G01 X6.3791 Y-58.2137 F120.00
G01 X6.3966 Y-58.2188 F120.00
G01 X6.4150 Y-58.2257 F120.00
G01 X6.4727 Y-58.2319 F120.00
G01 X8.7673 Y-58.2319 F120.00
G01 X8.8250 Y-58.2257 F120.00
G01 X8.8432 Y-58.2189 F120.00
G01 X8.8454 Y-58.2184 F120.00
G01 X8.9164 Y-58.2134 F120.00
G01 X8.9191 Y-58.2137 F120.00
G01 X8.9366 Y-58.2188 F120.00
G01 X8.9550 Y-58.2257 F120.00
G01 X9.0127 Y-58.2319 F120.00
G01 X11.3073 Y-58.2319 F120.00
G01 X11.3650 Y-58.2257 F120.00
G01 X11.3839 Y-58.2187 F120.00
G01 X11.3861 Y-58.2181 F120.00
G01 X11.4571 Y-58.2131 F120.00
G01 X11.4598 Y-58.2134 F120.00
G01 X11.4773 Y-58.2186 F120.00
G01 X11.4951 Y-58.2252 F120.00
G01 X11.5527 Y-58.2314 F120.00
G01 X12.0894 Y-58.2314 F120.00
G01 X12.0894 Y-57.7526 F120.00
G01 X11.5997 Y-57.7526 F120.00
G01 X11.5962 Y-57.7519 F120.00
G01 X11.5931 Y-57.7500 F120.00
G01 X11.5908 Y-57.7472 F120.00
G01 X11.5896 Y-57.7438 F120.00
G01 X11.5894 Y-55.5420 F120.00
G01 X11.5902 Y-55.5379 F120.00
G01 X11.5923 Y-55.5347 F120.00
G01 X11.5957 Y-55.5323 F120.00
G01 X11.5997 Y-55.5314 F120.00
G01 X12.0894 Y-55.5314 F120.00
G01 X12.0894 Y-55.0526 F120.00
G01 X11.5527 Y-55.0526 F120.00
G01 X11.4951 Y-55.0588 F120.00
G01 X11.4775 Y-55.0653 F120.00
G01 X11.4753 Y-55.0659 F120.00
G01 X11.4041 Y-55.0709 F120.00
G01 X11.4016 Y-55.0706 F120.00
G01 X11.3842 Y-55.0654 F120.00
G01 X11.3650 Y-55.0583 F120.00
G01 X11.3073 Y-55.0521 F120.00
G01 X11.2467 Y-55.0520 F120.00
G01 X11.1784 Y-55.0320 F120.00
G01 X11.1747 Y-55.0300 F120.00
G01 X11.1276 Y-54.9760 F120.00
G01 X11.1262 Y-54.9738 F120.00
G01 X11.1168 Y-54.9454 F120.00
G01 X11.0951 Y-54.8911 F120.00
G01 X11.0918 Y-54.8819 F120.00
G01 X11.0744 Y-54.8262 F120.00
G01 X11.0600 Y-54.8004 F120.00
G01 X11.0531 Y-54.7858 F120.00
G01 X11.0419 Y-54.7579 F120.00
G01 X11.0101 Y-54.7096 F120.00
G01 X11.0050 Y-54.7012 F120.00
G01 X10.9767 Y-54.6502 F120.00
G01 X10.9571 Y-54.6274 F120.00
G01 X10.9474 Y-54.6145 F120.00
G01 X10.9311 Y-54.5898 F120.00
G01 X10.8902 Y-54.5489 F120.00
G01 X10.8835 Y-54.5417 F120.00
G01 X10.8455 Y-54.4974 F120.00
G01 X10.8221 Y-54.4793 F120.00
G01 X10.8095 Y-54.4682 F120.00
G01 X8.3407 Y-51.9993 F120.00
G01 X8.3061 Y-51.9363 F120.00
G01 X8.3050 Y-51.9333 F120.00
G01 X8.3048 Y-51.9305 F120.00
G01 X8.3098 Y-51.8608 F120.00
G01 X8.3105 Y-51.8577 F120.00
G01 X8.3119 Y-51.8552 F120.00
G01 X8.3537 Y-51.7992 F120.00
G01 X8.3558 Y-51.7972 F120.00
G01 X8.3585 Y-51.7957 F120.00
G01 X8.4240 Y-51.7713 F120.00
G01 X8.4263 Y-51.7707 F120.00
G01 X8.4294 Y-51.7707 F120.00
G01 X8.4875 Y-51.7803 F120.00
G01 X8.6513 Y-51.8481 F120.00
G01 X8.8946 Y-51.9065 F120.00
G01 X9.1440 Y-51.9262 F120.00
G01 X9.3934 Y-51.9065 F120.00
G01 X9.6367 Y-51.8481 F120.00
G01 X9.7499 Y-51.8013 F120.00
G01 X9.3679 Y-51.4193 F120.00
G01 X9.3602 Y-51.4212 F120.00
G01 X9.2529 Y-51.4371 F120.00
G01 X9.1435 Y-51.4424 F120.00
G01 X9.0351 Y-51.4371 F120.00
G01 X8.9278 Y-51.4212 F120.00
G01 X8.8216 Y-51.3946 F120.00
G01 X8.7190 Y-51.3579 F120.00
G01 X8.6200 Y-51.3111 F120.00
G01 X8.5270 Y-51.2553 F120.00
G01 X8.4399 Y-51.1907 F120.00
G01 X8.3587 Y-51.1172 F120.00
G01 X8.2852 Y-51.0360 F120.00
G01 X8.2206 Y-50.9489 F120.00
G01 X8.1648 Y-50.8558 F120.00
G01 X8.1179 Y-50.7569 F120.00
G01 X8.0812 Y-50.6543 F120.00
G01 X8.0547 Y-50.5480 F120.00
G01 X8.0387 Y-50.4407 F120.00
G01 X8.0334 Y-50.3324 F120.00
G01 X8.0387 Y-50.2230 F120.00
G01 X8.0547 Y-50.1157 F120.00
G01 X8.0565 Y-50.1079 F120.00
G01 X7.6746 Y-49.7260 F120.00
G01 X7.6277 Y-49.8392 F120.00
G01 X7.5693 Y-50.0825 F120.00
G01 X7.5497 Y-50.3319 F120.00
G01 X7.5693 Y-50.5813 F120.00
G01 X7.6277 Y-50.8245 F120.00
G01 X7.6958 Y-50.9890 F120.00
G01 X7.7036 Y-51.0607 F120.00
G01 X7.7034 Y-51.0633 F120.00
G01 X7.7026 Y-51.0658 F120.00
G01 X7.6712 Y-51.1286 F120.00
G01 X7.6696 Y-51.1309 F120.00
G01 X7.6672 Y-51.1329 F120.00
G01 X7.6057 Y-51.1693 F120.00
G01 X7.6013 Y-51.1701 F120.00
G01 X7.5315 Y-51.1676 F120.00
G01 X7.5291 Y-51.1672 F120.00
G01 X7.5263 Y-51.1660 F120.00
G01 X7.4760 Y-51.1347 F120.00
G01 X6.6171 Y-50.2758 F120.00
G01 X6.6155 Y-50.2736 F120.00
G01 X6.5816 Y-50.2113 F120.00
G01 X6.5808 Y-50.2086 F120.00
G01 X6.5779 Y-50.1817 F120.00
G01 X6.5781 Y-35.5158 F120.00
G01 X6.5985 Y-35.4465 F120.00
G01 X6.5999 Y-35.4441 F120.00
G01 X6.6173 Y-35.4226 F120.00
G01 X10.1183 Y-31.9216 F120.00
G01 X10.1207 Y-31.9198 F120.00
G01 X10.1821 Y-31.8863 F120.00
G01 X10.1848 Y-31.8853 F120.00
G01 X10.1879 Y-31.8850 F120.00
G01 X10.2586 Y-31.8902 F120.00
G01 X10.2609 Y-31.8908 F120.00
G01 X10.2632 Y-31.8921 F120.00
G01 X10.3191 Y-31.9340 F120.00
G01 X10.3215 Y-31.9364 F120.00
G01 X10.3227 Y-31.9388 F120.00
G01 X10.3472 Y-32.0045 F120.00
G01 X10.3477 Y-32.0070 F120.00
G01 X10.3481 Y-32.0164 F120.00
G01 X10.3481 Y-34.0833 F120.00
G01 X10.3543 Y-34.1410 F120.00
G01 X10.3613 Y-34.1599 F120.00
G01 X10.3619 Y-34.1621 F120.00
G01 X10.3669 Y-34.2331 F120.00
G01 X10.3666 Y-34.2358 F120.00
G01 X10.3614 Y-34.2533 F120.00
G01 X10.3548 Y-34.2711 F120.00
G01 X10.3509 Y-34.3059 F120.00
G01 X10.3238 Y-34.3714 F120.00
G01 X10.3225 Y-34.3737 F120.00
G01 X10.3200 Y-34.3761 F120.00
G01 X10.2626 Y-34.4159 F120.00
G01 X10.2598 Y-34.4173 F120.00
G01 X10.2570 Y-34.4178 F120.00
G01 X10.1871 Y-34.4203 F120.00
G01 X10.1833 Y-34.4198 F120.00
G01 X10.1313 Y-34.3929 F120.00
G01 X10.0811 Y-34.3502 F120.00
G01 X9.8678 Y-34.2195 F120.00
G01 X9.6367 Y-34.1237 F120.00
G01 X9.3934 Y-34.0653 F120.00
G01 X9.1440 Y-34.0457 F120.00
G01 X8.8946 Y-34.0653 F120.00
G01 X8.6513 Y-34.1237 F120.00
G01 X8.5381 Y-34.1706 F120.00
G01 X8.9201 Y-34.5525 F120.00
G01 X8.9278 Y-34.5507 F120.00
G01 X9.0351 Y-34.5347 F120.00
G01 X9.1440 Y-34.5294 F120.00
G01 X9.2529 Y-34.5347 F120.00
G01 X9.3607 Y-34.5507 F120.00
G01 X9.4664 Y-34.5772 F120.00
G01 X9.5690 Y-34.6139 F120.00
G01 X9.6675 Y-34.6605 F120.00
G01 X9.7606 Y-34.7163 F120.00
G01 X9.8490 Y-34.7818 F120.00
G01 X9.9293 Y-34.8547 F120.00
G01 X10.0022 Y-34.9350 F120.00
G01 X10.0674 Y-35.0230 F120.00
G01 X10.1232 Y-35.1160 F120.00
G01 X10.1295 Y-35.1291 F120.00
G01 X10.8274 Y-35.1291 F120.00
G01 X10.8274 Y-34.3757 F120.00
G01 X10.8282 Y-34.3719 F120.00
G01 X10.8303 Y-34.3687 F120.00
G01 X10.8335 Y-34.3664 F120.00
G01 X10.8372 Y-34.3654 F120.00
G01 X13.0398 Y-34.3656 F120.00
G01 X13.0432 Y-34.3668 F120.00
G01 X13.0460 Y-34.3691 F120.00
G01 X13.0479 Y-34.3722 F120.00
G01 X13.0486 Y-34.3757 F120.00
G01 X13.0486 Y-34.8654 F120.00
G01 X13.5274 Y-34.8654 F120.00
G01 X13.5274 Y-34.3287 F120.00
G01 X13.5212 Y-34.2711 F120.00
G01 X13.5147 Y-34.2535 F120.00
G01 X13.5141 Y-34.2513 F120.00
G01 X13.5091 Y-34.1801 F120.00
G01 X13.5094 Y-34.1776 F120.00
G01 X13.5146 Y-34.1602 F120.00
G01 X13.5217 Y-34.1410 F120.00
G01 X13.5279 Y-34.0833 F120.00
G01 X13.5280 Y-33.9095 F120.00
G01 X13.5480 Y-33.8407 F120.00
G01 X13.5493 Y-33.8379 F120.00
G01 X13.5880 Y-33.7986 F120.00
G01 X13.6072 Y-33.7860 F120.00
G01 X13.6156 Y-33.7809 F120.00
G01 X13.6664 Y-33.7527 F120.00
G01 X13.6889 Y-33.7334 F120.00
G01 X13.7017 Y-33.7237 F120.00
G01 X13.7268 Y-33.7071 F120.00
G01 X13.7677 Y-33.6662 F120.00
G01 X13.7749 Y-33.6595 F120.00
G01 X13.8192 Y-33.6215 F120.00
G01 X13.8373 Y-33.5981 F120.00
G01 X13.8484 Y-33.5855 F120.00
G01 X14.5297 Y-32.9045 F120.00
G01 X14.5921 Y-32.8703 F120.00
G01 X14.5950 Y-32.8692 F120.00
G01 X14.5979 Y-32.8690 F120.00
G01 X14.6676 Y-32.8740 F120.00
G01 X14.6707 Y-32.8747 F120.00
G01 X14.6732 Y-32.8761 F120.00
G01 X14.7291 Y-32.9180 F120.00
G01 X14.7312 Y-32.9200 F120.00
G01 X14.7327 Y-32.9228 F120.00
G01 X14.7571 Y-32.9882 F120.00
G01 X14.7577 Y-32.9908 F120.00
G01 X14.7581 Y-33.0008 F120.00
G01 X14.7581 Y-34.9002 F120.00
G01 X14.7577 Y-34.9032 F120.00
G01 X14.7374 Y-34.9717 F120.00
G01 X14.7361 Y-34.9739 F120.00
G01 X14.7187 Y-34.9954 F120.00
G01 X13.6653 Y-36.0485 F120.00
G01 X13.6020 Y-36.0830 F120.00
G01 X13.5995 Y-36.0837 F120.00
G01 X13.5723 Y-36.0866 F120.00
G01 X13.0486 Y-36.0866 F120.00
G01 X13.0486 Y-36.5760 F120.00
G01 X13.0483 Y-36.5786 F120.00
G01 X13.0473 Y-36.5810 F120.00
G01 X13.0459 Y-36.5831 F120.00
G01 X13.0439 Y-36.5848 F120.00
G01 X13.0411 Y-36.5861 F120.00
G01 X13.0380 Y-36.5866 F120.00
G01 X10.8364 Y-36.5865 F120.00
G01 X10.8328 Y-36.5852 F120.00
G01 X10.8300 Y-36.5829 F120.00
G01 X10.8281 Y-36.5798 F120.00
G01 X10.8274 Y-36.5763 F120.00
G01 X10.8274 Y-36.1509 F120.00
G01 X10.1295 Y-36.1509 F120.00
G01 X10.1232 Y-36.1640 F120.00
G01 X10.0674 Y-36.2570 F120.00
G01 X10.0022 Y-36.3450 F120.00
G01 X9.9293 Y-36.4253 F120.00
G01 X9.8490 Y-36.4982 F120.00
G01 X9.7606 Y-36.5637 F120.00
G01 X9.6675 Y-36.6195 F120.00
G01 X9.5690 Y-36.6661 F120.00
G01 X9.4664 Y-36.7028 F120.00
G01 X9.3607 Y-36.7293 F120.00
G01 X9.2529 Y-36.7453 F120.00
G01 X9.1440 Y-36.7506 F120.00
G01 X9.0351 Y-36.7453 F120.00
G01 X8.9278 Y-36.7293 F120.00
G01 X8.9201 Y-36.7275 F120.00
G01 X8.5381 Y-37.1094 F120.00
G01 X8.6513 Y-37.1563 F120.00
G01 X8.8946 Y-37.2147 F120.00
G01 X9.1440 Y-37.2343 F120.00
G01 X9.3934 Y-37.2147 F120.00
G01 X9.6367 Y-37.1563 F120.00
G01 X9.8678 Y-37.0605 F120.00
G01 X10.0811 Y-36.9298 F120.00
G01 X10.1275 Y-36.8904 F120.00
G01 X10.1924 Y-36.8612 F120.00
G01 X10.1946 Y-36.8605 F120.00
G01 X10.1983 Y-36.8604 F120.00
G01 X10.2677 Y-36.8709 F120.00
G01 X10.2704 Y-36.8718 F120.00
G01 X10.2728 Y-36.8734 F120.00
G01 X10.3253 Y-36.9195 F120.00
G01 X10.3273 Y-36.9219 F120.00
G01 X10.3285 Y-36.9245 F120.00
G01 X10.3481 Y-36.9930 F120.00
G01 X10.3479 Y-37.0433 F120.00
G01 X10.3279 Y-37.1116 F120.00
G01 X10.3268 Y-37.1139 F120.00
G01 X10.3254 Y-37.1158 F120.00
G01 X10.2880 Y-37.1534 F120.00
G01 X10.2688 Y-37.1660 F120.00
G01 X10.2604 Y-37.1711 F120.00
G01 X10.2096 Y-37.1993 F120.00
G01 X10.1868 Y-37.2189 F120.00
G01 X10.1739 Y-37.2286 F120.00
G01 X10.1492 Y-37.2449 F120.00
G01 X10.1083 Y-37.2858 F120.00
G01 X10.1011 Y-37.2925 F120.00
G01 X10.0568 Y-37.3305 F120.00
G01 X10.0387 Y-37.3539 F120.00
G01 X10.0276 Y-37.3665 F120.00
G01 X8.4541 Y-38.9399 F120.00
G01 X8.3890 Y-39.0019 F120.00
G01 X8.3559 Y-39.0494 F120.00
G01 X8.3500 Y-39.0573 F120.00
G01 X8.3132 Y-39.1025 F120.00
G01 X8.2993 Y-39.1291 F120.00
G01 X8.2909 Y-39.1429 F120.00
G01 X8.2740 Y-39.1671 F120.00
G01 X8.2512 Y-39.2203 F120.00
G01 X8.2470 Y-39.2292 F120.00
G01 X8.2200 Y-39.2809 F120.00
G01 X8.2118 Y-39.3095 F120.00
G01 X8.2063 Y-39.3250 F120.00
G01 X8.2005 Y-39.3378 F120.00
G01 X8.1658 Y-39.3846 F120.00
G01 X8.0163 Y-39.5123 F120.00
G01 X7.8538 Y-39.7026 F120.00
G01 X7.7230 Y-39.9160 F120.00
G01 X7.6272 Y-40.1472 F120.00
G01 X7.5688 Y-40.3905 F120.00
G01 X7.5492 Y-40.6400 F120.00
G01 X7.5688 Y-40.8895 F120.00
G01 X7.6272 Y-41.1328 F120.00
G01 X7.7230 Y-41.3640 F120.00
G01 X7.8538 Y-41.5774 F120.00
G01 X8.0163 Y-41.7677 F120.00
G01 X8.1069 Y-41.8451 F120.00
G01 X8.1086 Y-41.8470 F120.00
G01 X8.1478 Y-41.9072 F120.00
G01 X8.1487 Y-41.9101 F120.00
G01 X8.1541 Y-41.9475 F120.00
G01 X8.1540 Y-44.0262 F120.00
G01 X8.1340 Y-44.0944 F120.00
G01 X8.1320 Y-44.0982 F120.00
G01 X8.1071 Y-44.1266 F120.00
G01 X8.0163 Y-44.2042 F120.00
G01 X7.8538 Y-44.3945 F120.00
G01 X7.7230 Y-44.6078 F120.00
G01 X7.6272 Y-44.8390 F120.00
G01 X7.5688 Y-45.0824 F120.00
G01 X7.5492 Y-45.3319 F120.00
G01 X7.5688 Y-45.5813 F120.00
G01 X7.6272 Y-45.8247 F120.00
G01 X7.7230 Y-46.0559 F120.00
G01 X7.8538 Y-46.2693 F120.00
G01 X8.0163 Y-46.4596 F120.00
G01 X8.1080 Y-46.5380 F120.00
G01 X8.1471 Y-46.5977 F120.00
G01 X8.1483 Y-46.6003 F120.00
G01 X8.1541 Y-46.6393 F120.00
G01 X8.1541 Y-47.2297 F120.00
G01 X8.1519 Y-47.3195 F120.00
G01 X8.1621 Y-47.3770 F120.00
G01 X8.1635 Y-47.3867 F120.00
G01 X8.1694 Y-47.4443 F120.00
G01 X8.1782 Y-47.4725 F120.00
G01 X8.1821 Y-47.4882 F120.00
G01 X8.1874 Y-47.5177 F120.00
G01 X8.2089 Y-47.5715 F120.00
G01 X8.2122 Y-47.5807 F120.00
G01 X8.2296 Y-47.6364 F120.00
G01 X8.2442 Y-47.6627 F120.00
G01 X8.2511 Y-47.6772 F120.00
G01 X8.2621 Y-47.7047 F120.00
G01 X8.2939 Y-47.7530 F120.00
G01 X8.2990 Y-47.7614 F120.00
G01 X8.3273 Y-47.8124 F120.00
G01 X8.3466 Y-47.8348 F120.00
G01 X8.3563 Y-47.8477 F120.00
G01 X8.3729 Y-47.8728 F120.00
G01 X8.4138 Y-47.9137 F120.00
G01 X8.4205 Y-47.9209 F120.00
G01 X8.4585 Y-47.9652 F120.00
G01 X8.4819 Y-47.9833 F120.00
G01 X8.4945 Y-47.9944 F120.00
G01 X9.0245 Y-48.5244 F120.00
G01 X9.0261 Y-48.5267 F120.00
G01 X9.0596 Y-48.5880 F120.00
G01 X9.0605 Y-48.5902 F120.00
G01 X9.0609 Y-48.5938 F120.00
G01 X9.0559 Y-48.6635 F120.00
G01 X9.0552 Y-48.6666 F120.00
G01 X9.0538 Y-48.6691 F120.00
G01 X9.0120 Y-48.7251 F120.00
G01 X9.0103 Y-48.7268 F120.00
G01 X9.0084 Y-48.7281 F120.00
G01 X8.9413 Y-48.7534 F120.00
G01 X8.8946 Y-48.7572 F120.00
G01 X8.6513 Y-48.8156 F120.00
G01 X8.5381 Y-48.8625 F120.00
G01 X8.9201 Y-49.2444 F120.00
G01 X8.9278 Y-49.2425 F120.00
G01 X9.0351 Y-49.2266 F120.00
G01 X9.1440 Y-49.2213 F120.00
G01 X9.2529 Y-49.2266 F120.00
G01 X9.3612 Y-49.2427 F120.00
G01 X9.4664 Y-49.2691 F120.00
G01 X9.5685 Y-49.3056 F120.00
G01 X9.6671 Y-49.3522 F120.00
G01 X9.7610 Y-49.4084 F120.00
G01 X9.8488 Y-49.4735 F120.00
G01 X9.9293 Y-49.5465 F120.00
G01 X10.0022 Y-49.6269 F120.00
G01 X10.0674 Y-49.7148 F120.00
G01 X10.1237 Y-49.8088 F120.00
G01 X10.1701 Y-49.9069 F120.00
G01 X10.2066 Y-50.0090 F120.00
G01 X10.2333 Y-50.1157 F120.00
G01 X10.2493 Y-50.2230 F120.00
G01 X10.2546 Y-50.3313 F120.00
G01 X10.2493 Y-50.4407 F120.00
G01 X10.2333 Y-50.5480 F120.00
G01 X10.2315 Y-50.5558 F120.00
G01 X10.6134 Y-50.9377 F120.00
G01 X10.6603 Y-50.8245 F120.00
G01 X10.7187 Y-50.5813 F120.00
G01 X10.7225 Y-50.5344 F120.00
G01 X10.7478 Y-50.4679 F120.00
G01 X10.7490 Y-50.4656 F120.00
G01 X10.7514 Y-50.4632 F120.00
G01 X10.8078 Y-50.4215 F120.00
G01 X10.8104 Y-50.4202 F120.00
G01 X10.8132 Y-50.4196 F120.00
G01 X10.8830 Y-50.4152 F120.00
G01 X10.8861 Y-50.4154 F120.00
G01 X10.8888 Y-50.4164 F120.00
G01 X10.9501 Y-50.4503 F120.00
G01 X14.2107 Y-53.7106 F120.00
G01 X14.2125 Y-53.7130 F120.00
G01 X14.2467 Y-53.7760 F120.00
G01 X14.2501 Y-53.8058 F120.00
G01 X14.2501 Y-54.9178 F120.00
G01 X14.2497 Y-54.9205 F120.00
G01 X14.2300 Y-54.9875 F120.00
G01 X14.2284 Y-54.9908 F120.00
G01 X14.2268 Y-54.9926 F120.00
G01 X14.1740 Y-55.0383 F120.00
G01 X14.1720 Y-55.0397 F120.00
G01 X14.1698 Y-55.0405 F120.00
G01 X14.1170 Y-55.0520 F120.00
G01 X14.0927 Y-55.0521 F120.00
G01 X14.0350 Y-55.0583 F120.00
G01 X14.0141 Y-55.0658 F120.00
G01 X13.9437 Y-55.0709 F120.00
G01 X13.9402 Y-55.0706 F120.00
G01 X13.9227 Y-55.0654 F120.00
G01 X13.9049 Y-55.0588 F120.00
G01 X13.8473 Y-55.0526 F120.00
G01 X13.3106 Y-55.0526 F120.00
G01 X13.3106 Y-55.5314 F120.00
G01 X13.8003 Y-55.5314 F120.00
G01 X13.8038 Y-55.5321 F120.00
G01 X13.8069 Y-55.5340 F120.00
G01 X13.8092 Y-55.5368 F120.00
G01 X13.8104 Y-55.5402 F120.00
G01 X13.8106 Y-57.7420 F120.00
G01 X13.8098 Y-57.7461 F120.00
G01 X13.8077 Y-57.7493 F120.00
G01 X13.8043 Y-57.7517 F120.00
G01 X13.8003 Y-57.7526 F120.00
G01 X13.3106 Y-57.7526 F120.00
G01 X13.3106 Y-58.2314 F120.00
G01 X13.8473 Y-58.2314 F120.00
G01 X13.9049 Y-58.2252 F120.00
G01 X13.9225 Y-58.2187 F120.00
G01 X13.9247 Y-58.2181 F120.00
G01 X13.9956 Y-58.2131 F120.00
G01 X13.9984 Y-58.2134 F120.00
G01 X14.0158 Y-58.2186 F120.00
G01 X14.0350 Y-58.2257 F120.00
G01 X14.0927 Y-58.2319 F120.00
G01 X16.3873 Y-58.2319 F120.00
G01 X16.4450 Y-58.2257 F120.00
G01 X16.4632 Y-58.2189 F120.00
G01 X16.4654 Y-58.2184 F120.00
G01 X16.5364 Y-58.2134 F120.00
G01 X16.5391 Y-58.2137 F120.00
G01 X16.5566 Y-58.2188 F120.00
G01 X16.5750 Y-58.2257 F120.00
G01 X16.6327 Y-58.2319 F120.00
G01 X18.9273 Y-58.2319 F120.00
G01 X18.9850 Y-58.2257 F120.00
G01 X19.0032 Y-58.2189 F120.00
G01 X19.0054 Y-58.2184 F120.00
G01 X19.0764 Y-58.2134 F120.00
G01 X19.0791 Y-58.2137 F120.00
G01 X19.0966 Y-58.2188 F120.00
G01 X19.1150 Y-58.2257 F120.00
G01 X19.1727 Y-58.2319 F120.00
G01 X21.4673 Y-58.2319 F120.00
G01 X21.5250 Y-58.2257 F120.00
G01 X21.5432 Y-58.2189 F120.00
G01 X21.5454 Y-58.2184 F120.00
G01 X21.6164 Y-58.2134 F120.00
G01 X21.6191 Y-58.2137 F120.00
G01 X21.6366 Y-58.2188 F120.00
G01 X21.6550 Y-58.2257 F120.00
G01 X21.7127 Y-58.2319 F120.00
G01 X24.0073 Y-58.2319 F120.00
G01 X24.0650 Y-58.2257 F120.00
G01 X24.0832 Y-58.2189 F120.00
G01 X24.0854 Y-58.2184 F120.00
G01 X24.1564 Y-58.2134 F120.00
G01 X24.1591 Y-58.2137 F120.00
G01 X24.1766 Y-58.2188 F120.00
G01 X24.1950 Y-58.2257 F120.00
G01 X24.2527 Y-58.2319 F120.00
G01 X26.5473 Y-58.2319 F120.00
G01 X26.6050 Y-58.2257 F120.00
G01 X26.7372 Y-58.1764 F120.00
G01 X26.8500 Y-58.0920 F120.00
G01 X26.9344 Y-57.9792 F120.00
G01 X26.9837 Y-57.8470 F120.00
G01 X26.9899 Y-57.7893 F120.00
G01 X26.9899 Y-55.4947 F120.00
G01 X26.9837 Y-55.4370 F120.00
G01 X26.9344 Y-55.3048 F120.00
G01 X26.8500 Y-55.1920 F120.00
G01 X26.7372 Y-55.1076 F120.00
G01 X26.6050 Y-55.0583 F120.00
G01 X26.5473 Y-55.0521 F120.00
G01 X26.5227 Y-55.0520 F120.00
G01 X26.4545 Y-55.0320 F120.00
G01 X26.4521 Y-55.0309 F120.00
G01 X26.4495 Y-55.0288 F120.00
G01 X26.4037 Y-54.9760 F120.00
G01 X26.4023 Y-54.9740 F120.00
G01 X26.4013 Y-54.9713 F120.00
G01 X26.3899 Y-54.9175 F120.00
G01 X26.3899 Y-44.1358 F120.00
G01 X26.3903 Y-44.1333 F120.00
G01 X26.4104 Y-44.0653 F120.00
G01 X26.4118 Y-44.0628 F120.00
G01 X26.4289 Y-44.0416 F120.00
G01 X26.8125 Y-43.6579 F120.00
G01 X26.8107 Y-43.6502 F120.00
G01 X26.7947 Y-43.5429 F120.00
G01 X26.7894 Y-43.4340 F120.00
G01 X26.7947 Y-43.3251 F120.00
G01 X26.8107 Y-43.2178 F120.00
G01 X26.8125 Y-43.2101 F120.00
G01 X26.4288 Y-42.8263 F120.00
G01 X26.3936 Y-42.7622 F120.00
G01 X26.3928 Y-42.7594 F120.00
G01 X26.3899 Y-42.7317 F120.00
G01 X26.3901 Y-41.3401 F120.00
G01 X26.4105 Y-41.2711 F120.00
G01 X26.4118 Y-41.2688 F120.00
G01 X26.4289 Y-41.2476 F120.00
G01 X26.8125 Y-40.8639 F120.00
G01 X26.8107 Y-40.8562 F120.00
G01 X26.7947 Y-40.7489 F120.00
G01 X26.7894 Y-40.6400 F120.00
G01 X26.7947 Y-40.5311 F120.00
G01 X26.8107 Y-40.4238 F120.00
G01 X26.8125 Y-40.4161 F120.00
G01 X26.4288 Y-40.0323 F120.00
G01 X26.3936 Y-39.9682 F120.00
G01 X26.3928 Y-39.9654 F120.00
G01 X26.3899 Y-39.9377 F120.00
G01 X26.3899 Y-23.8317 F120.00
G01 X26.3903 Y-23.8288 F120.00
G01 X26.4107 Y-23.7600 F120.00
G01 X26.4423 Y-23.7143 F120.00
G01 X26.4482 Y-23.7064 F120.00
G01 X26.4848 Y-23.6615 F120.00
G01 X26.4985 Y-23.6353 F120.00
G01 X26.5068 Y-23.6215 F120.00
G01 X26.5240 Y-23.5969 F120.00
G01 X26.5468 Y-23.5437 F120.00
G01 X26.5510 Y-23.5348 F120.00
G01 X26.5780 Y-23.4831 F120.00
G01 X26.5862 Y-23.4547 F120.00
G01 X26.5916 Y-23.4395 F120.00
G01 X26.6034 Y-23.4119 F120.00
G01 X26.6151 Y-23.3547 F120.00
G01 X26.6175 Y-23.3452 F120.00
G01 X26.6334 Y-23.2895 F120.00
G01 X26.6356 Y-23.2600 F120.00
G01 X26.6379 Y-23.2441 F120.00
G01 X26.6439 Y-23.2147 F120.00
G01 X26.6439 Y-23.1568 F120.00
G01 X26.6443 Y-23.1469 F120.00
G01 X26.6487 Y-23.0888 F120.00
G01 X26.6450 Y-23.0595 F120.00
G01 X26.6439 Y-23.0427 F120.00
G01 X26.6439 Y-16.4673 F120.00
G01 X26.6443 Y-16.4648 F120.00
G01 X26.6644 Y-16.3968 F120.00
G01 X26.6658 Y-16.3943 F120.00
G01 X26.6829 Y-16.3730 F120.00
G01 X27.3599 Y-15.6961 F120.00
G01 X27.4250 Y-15.6341 F120.00
G01 X27.4583 Y-15.5863 F120.00
G01 X27.4642 Y-15.5784 F120.00
G01 X27.5008 Y-15.5335 F120.00
G01 X27.5145 Y-15.5073 F120.00
G01 X27.5228 Y-15.4935 F120.00
G01 X27.5400 Y-15.4689 F120.00
G01 X27.5628 Y-15.4157 F120.00
G01 X27.5670 Y-15.4068 F120.00
G01 X27.5940 Y-15.3551 F120.00
G01 X27.6022 Y-15.3267 F120.00
G01 X27.6076 Y-15.3115 F120.00
G01 X27.6194 Y-15.2839 F120.00
G01 X27.6311 Y-15.2267 F120.00
G01 X27.6335 Y-15.2172 F120.00
G01 X27.6494 Y-15.1615 F120.00
G01 X27.6516 Y-15.1320 F120.00
G01 X27.6539 Y-15.1161 F120.00
G01 X27.6599 Y-15.0867 F120.00
G01 X27.6599 Y-15.0288 F120.00
G01 X27.6603 Y-15.0189 F120.00
G01 X27.6647 Y-14.9608 F120.00
G01 X27.6610 Y-14.9315 F120.00
G01 X27.6599 Y-14.9149 F120.00
G01 X27.6599 Y-14.6304 F120.00
G01 X27.6603 Y-14.6279 F120.00
G01 X27.6800 Y-14.5608 F120.00
G01 X27.6818 Y-14.5573 F120.00
G01 X27.7360 Y-14.5101 F120.00
G01 X27.7388 Y-14.5083 F120.00
G01 X27.7628 Y-14.5001 F120.00
G01 X27.8848 Y-14.4708 F120.00
G01 X28.1160 Y-14.3750 F120.00
G01 X28.3294 Y-14.2442 F120.00
G01 X28.5197 Y-14.0817 F120.00
G01 X28.6822 Y-13.8914 F120.00
G01 X28.8130 Y-13.6780 F120.00
G01 X28.9088 Y-13.4468 F120.00
G01 X28.9672 Y-13.2035 F120.00
G01 X28.9868 Y-12.9540 F120.00
G01 X28.9672 Y-12.7045 F120.00
G01 X28.9088 Y-12.4612 F120.00
G01 X28.8130 Y-12.2300 F120.00
G01 X28.6822 Y-12.0166 F120.00
G01 X28.5197 Y-11.8263 F120.00
G01 X28.3294 Y-11.6638 F120.00
G01 X28.1160 Y-11.5330 F120.00
G01 X27.8848 Y-11.4372 F120.00
G01 X27.6415 Y-11.3788 F120.00
G01 X27.3920 Y-11.3592 F120.00
G01 X27.1425 Y-11.3788 F120.00
G01 X26.8992 Y-11.4372 F120.00
G01 X26.6680 Y-11.5330 F120.00
G01 X26.4546 Y-11.6638 F120.00
G01 X26.2643 Y-11.8263 F120.00
G01 X26.1191 Y-11.9962 F120.00
G01 X26.0588 Y-12.0357 F120.00
G01 X26.0563 Y-12.0368 F120.00
G01 X26.0537 Y-12.0372 F120.00
G01 X25.9836 Y-12.0377 F120.00
G01 X25.9808 Y-12.0373 F120.00
G01 X25.9779 Y-12.0360 F120.00
G01 X25.9182 Y-11.9982 F120.00
G01 X25.9163 Y-11.9964 F120.00
G01 X25.9150 Y-11.9944 F120.00
G01 X25.8847 Y-11.9289 F120.00
G01 X25.8831 Y-11.9049 F120.00
G01 X25.8841 Y-11.8624 F120.00
G01 X25.8739 Y-11.8054 F120.00
G01 X25.8725 Y-11.7957 F120.00
G01 X25.8666 Y-11.7377 F120.00
G01 X25.8577 Y-11.7091 F120.00
G01 X25.8538 Y-11.6934 F120.00
G01 X25.8486 Y-11.6643 F120.00
G01 X25.8270 Y-11.6101 F120.00
G01 X25.8237 Y-11.6009 F120.00
G01 X25.8064 Y-11.5456 F120.00
G01 X25.7920 Y-11.5198 F120.00
G01 X25.7851 Y-11.5052 F120.00
G01 X25.7739 Y-11.4773 F120.00
G01 X25.7421 Y-11.4290 F120.00
G01 X25.7370 Y-11.4206 F120.00
G01 X25.7087 Y-11.3696 F120.00
G01 X25.6891 Y-11.3468 F120.00
G01 X25.6794 Y-11.3339 F120.00
G01 X25.6631 Y-11.3092 F120.00
G01 X25.6222 Y-11.2683 F120.00
G01 X25.6155 Y-11.2611 F120.00
G01 X25.5775 Y-11.2168 F120.00
G01 X25.5541 Y-11.1987 F120.00
G01 X25.5415 Y-11.1876 F120.00
G01 X21.5381 Y-7.1841 F120.00
G01 X21.4761 Y-7.1190 F120.00
G01 X21.4283 Y-7.0857 F120.00
G01 X21.4204 Y-7.0798 F120.00
G01 X21.3755 Y-7.0432 F120.00
G01 X21.3493 Y-7.0295 F120.00
G01 X21.3355 Y-7.0211 F120.00
G01 X21.3109 Y-7.0040 F120.00
G01 X21.2573 Y-6.9810 F120.00
G01 X21.2484 Y-6.9768 F120.00
G01 X21.1971 Y-6.9500 F120.00
G01 X21.1687 Y-6.9418 F120.00
G01 X21.1535 Y-6.9364 F120.00
G01 X21.1259 Y-6.9246 F120.00
G01 X21.0688 Y-6.9129 F120.00
G01 X21.0592 Y-6.9105 F120.00
G01 X21.0035 Y-6.8946 F120.00
G01 X20.9736 Y-6.8923 F120.00
G01 X20.9576 Y-6.8900 F120.00
G01 X20.9287 Y-6.8841 F120.00
G01 X20.8708 Y-6.8841 F120.00
G01 X20.8609 Y-6.8837 F120.00
G01 X20.8028 Y-6.8793 F120.00
G01 X20.7735 Y-6.8830 F120.00
G01 X20.7569 Y-6.8841 F120.00
G01 X20.6107 Y-6.8841 F120.00
G01 X20.5405 Y-6.8637 F120.00
G01 X20.5376 Y-6.8620 F120.00
G01 X20.5095 Y-6.8373 F120.00
G01 X20.4317 Y-6.7463 F120.00
G01 X20.2414 Y-6.5838 F120.00
G01 X20.0280 Y-6.4530 F120.00
G01 X19.7968 Y-6.3572 F120.00
G01 X19.5535 Y-6.2988 F120.00
G01 X19.3040 Y-6.2792 F120.00
G01 X19.0545 Y-6.2988 F120.00
G01 X18.8112 Y-6.3572 F120.00
G01 X18.5800 Y-6.4530 F120.00
G01 X18.4468 Y-6.5346 F120.00
G01 X18.4443 Y-6.5357 F120.00
G01 X18.3766 Y-6.5540 F120.00
G01 X18.3735 Y-6.5544 F120.00
G01 X18.3706 Y-6.5539 F120.00
G01 X18.3040 Y-6.5328 F120.00
G01 X18.3019 Y-6.5318 F120.00
G01 X18.2998 Y-6.5302 F120.00
G01 X18.2533 Y-6.4740 F120.00
G01 X18.2522 Y-6.4711 F120.00
G01 X18.2419 Y-6.4204 F120.00
G01 X18.2419 Y-5.8132 F120.00
G01 X18.2423 Y-5.8105 F120.00
G01 X18.2624 Y-5.7425 F120.00
G01 X18.2636 Y-5.7402 F120.00
G01 X18.2652 Y-5.7384 F120.00
G01 X18.3180 Y-5.6927 F120.00
G01 X18.3215 Y-5.6907 F120.00
G01 X18.3750 Y-5.6790 F120.00
G01 X18.3993 Y-5.6789 F120.00
G01 X18.4570 Y-5.6727 F120.00
G01 X18.5892 Y-5.6234 F120.00
G01 X18.7020 Y-5.5390 F120.00
G01 X18.7864 Y-5.4262 F120.00
G01 X18.8357 Y-5.2940 F120.00
G01 X18.8419 Y-5.2363 F120.00
G01 X18.8419 Y-2.9417 F120.00
G01 X18.8357 Y-2.8840 F120.00
G01 X18.7864 Y-2.7518 F120.00
G01 X18.7020 Y-2.6390 F120.00
G01 X18.5892 Y-2.5546 F120.00
G01 X18.4570 Y-2.5053 F120.00
G01 X18.3993 Y-2.4991 F120.00
G01 X16.1047 Y-2.4991 F120.00
G01 X16.0470 Y-2.5053 F120.00
G01 X16.0288 Y-2.5121 F120.00
G01 X16.0266 Y-2.5126 F120.00
G01 X15.9556 Y-2.5176 F120.00
G01 X15.9529 Y-2.5173 F120.00
G01 X15.9354 Y-2.5122 F120.00
G01 X15.9170 Y-2.5053 F120.00
G01 X15.8593 Y-2.4991 F120.00
G01 X13.5647 Y-2.4991 F120.00
G01 X13.5070 Y-2.5053 F120.00
G01 X13.3748 Y-2.5546 F120.00
G01 X13.2620 Y-2.6390 F120.00
G01 X13.1776 Y-2.7518 F120.00
G01 X13.1283 Y-2.8840 F120.00
G01 X13.1221 Y-2.9417 F120.00
G01 X13.1221 Y-4.2054 F120.00
G01 X13.1217 Y-4.2079 F120.00
G01 X13.1020 Y-4.2749 F120.00
G01 X13.1008 Y-4.2775 F120.00
G01 X13.0988 Y-4.2799 F120.00
G01 X13.0447 Y-4.3266 F120.00
G01 X13.0405 Y-4.3282 F120.00
G01 X12.9714 Y-4.3381 F120.00
G01 X12.9685 Y-4.3381 F120.00
G01 X12.9655 Y-4.3373 F120.00
G01 X12.9006 Y-4.3075 F120.00
G01 X12.8853 Y-4.2925 F120.00
G01 X12.8117 Y-4.2063 F120.00
G01 X12.6214 Y-4.0438 F120.00
G01 X12.4080 Y-3.9130 F120.00
G01 X12.1768 Y-3.8172 F120.00
G01 X11.9335 Y-3.7588 F120.00
G01 X11.6840 Y-3.7392 F120.00
G01 X11.4345 Y-3.7588 F120.00
G01 X11.1912 Y-3.8172 F120.00
G01 X10.9600 Y-3.9130 F120.00
G01 X10.7466 Y-4.0438 F120.00
G01 X10.5563 Y-4.2063 F120.00
G01 X10.3938 Y-4.3966 F120.00
G01 X10.2630 Y-4.6100 F120.00
G01 X10.1672 Y-4.8412 F120.00
G01 X10.1088 Y-5.0845 F120.00
G01 X10.0892 Y-5.3340 F120.00
G01 X10.1088 Y-5.5835 F120.00
G01 X10.1672 Y-5.8268 F120.00
G01 X10.2630 Y-6.0580 F120.00
G01 X10.3938 Y-6.2714 F120.00
G01 X10.5563 Y-6.4617 F120.00
G01 X10.6480 Y-6.5402 F120.00
G01 X10.6880 Y-6.6017 F120.00
G01 X10.6887 Y-6.6041 F120.00
G01 X10.6941 Y-6.6409 F120.00
G01 X10.6941 Y-6.7495 F120.00
G01 X10.6937 Y-6.7522 F120.00
G01 X10.6740 Y-6.8195 F120.00
G01 X10.6727 Y-6.8224 F120.00
G01 X10.6708 Y-6.8245 F120.00
G01 X10.6178 Y-6.8705 F120.00
G01 X10.6158 Y-6.8718 F120.00
G01 X10.6135 Y-6.8726 F120.00
G01 X10.5598 Y-6.8841 F120.00
G01 X10.1833 Y-6.8839 F120.00
G01 X10.1153 Y-6.8640 F120.00
G01 X10.1131 Y-6.8631 F120.00
G01 X10.0981 Y-6.8520 F120.00
G01 X10.0814 Y-6.8378 F120.00
G01 X9.8680 Y-6.7070 F120.00
G01 X9.6368 Y-6.6112 F120.00
G01 X9.3935 Y-6.5528 F120.00
G01 X9.1440 Y-6.5332 F120.00
G01 X8.8945 Y-6.5528 F120.00
G01 X8.6512 Y-6.6112 F120.00
G01 X8.4200 Y-6.7070 F120.00
G01 X8.2066 Y-6.8378 F120.00
G01 X8.0163 Y-7.0003 F120.00
G01 X7.8538 Y-7.1906 F120.00
G01 X7.7230 Y-7.4040 F120.00
G01 X7.6272 Y-7.6352 F120.00
G01 X7.5688 Y-7.8785 F120.00
G01 X7.5492 Y-8.1280 F120.00
G01 X7.5688 Y-8.3775 F120.00
G01 X7.6272 Y-8.6208 F120.00
G01 X7.7230 Y-8.8520 F120.00
G01 X7.8538 Y-9.0654 F120.00
G01 X8.0163 Y-9.2557 F120.00
G01 X8.2066 Y-9.4182 F120.00
G01 X8.4200 Y-9.5490 F120.00
G01 X8.6512 Y-9.6448 F120.00
G01 X8.8945 Y-9.7032 F120.00
G01 X9.1440 Y-9.7228 F120.00
G01 X9.3935 Y-9.7032 F120.00
G01 X9.6368 Y-9.6448 F120.00
G01 X9.8680 Y-9.5490 F120.00
G01 X10.0781 Y-9.4203 F120.00
G01 X10.1484 Y-9.4012 F120.00
G01 X10.1510 Y-9.4011 F120.00
G01 X10.1534 Y-9.4015 F120.00
G01 X10.2200 Y-9.4226 F120.00
G01 X10.2226 Y-9.4239 F120.00
G01 X10.2249 Y-9.4260 F120.00
G01 X10.2695 Y-9.4797 F120.00
G01 X10.2714 Y-9.4831 F120.00
G01 X10.2821 Y-9.5356 F120.00
G01 X10.2821 Y-11.5613 F120.00
G01 X10.2883 Y-11.6190 F120.00
G01 X10.2951 Y-11.6372 F120.00
G01 X10.2956 Y-11.6394 F120.00
G01 X10.3006 Y-11.7104 F120.00
G01 X10.3003 Y-11.7131 F120.00
G01 X10.2952 Y-11.7306 F120.00
G01 X10.2883 Y-11.7490 F120.00
G01 X10.2821 Y-11.8067 F120.00
G01 X10.2821 Y-14.1013 F120.00
G01 X10.2883 Y-14.1590 F120.00
G01 X10.2951 Y-14.1772 F120.00
G01 X10.2956 Y-14.1794 F120.00
G01 X10.3006 Y-14.2504 F120.00
G01 X10.3003 Y-14.2531 F120.00
G01 X10.2952 Y-14.2706 F120.00
G01 X10.2883 Y-14.2890 F120.00
G01 X10.2821 Y-14.3467 F120.00
G01 X10.2821 Y-14.5193 F120.00
G01 X10.2818 Y-14.5218 F120.00
G01 X10.2612 Y-14.5912 F120.00
G01 X10.2594 Y-14.5938 F120.00
G01 X10.2233 Y-14.6303 F120.00
G01 X10.2030 Y-14.6439 F120.00
G01 X10.1944 Y-14.6491 F120.00
G01 X10.1436 Y-14.6773 F120.00
G01 X10.1208 Y-14.6969 F120.00
G01 X10.1079 Y-14.7066 F120.00
G01 X10.0832 Y-14.7229 F120.00
G01 X10.0423 Y-14.7638 F120.00
G01 X10.0351 Y-14.7705 F120.00
G01 X9.9908 Y-14.8085 F120.00
G01 X9.9727 Y-14.8319 F120.00
G01 X9.9616 Y-14.8445 F120.00
G01 X6.6044 Y-18.2016 F120.00
G01 X6.5414 Y-18.2363 F120.00
G01 X6.5378 Y-18.2375 F120.00
G01 X6.4996 Y-18.2400 F120.00
G01 X6.3398 Y-18.2274 F120.00
G01 X6.0903 Y-18.2471 F120.00
G01 X5.8469 Y-18.3055 F120.00
G01 X5.6157 Y-18.4012 F120.00
G01 X5.4024 Y-18.5320 F120.00
G01 X5.2121 Y-18.6945 F120.00
G01 X5.0495 Y-18.8848 F120.00
G01 X4.9188 Y-19.0982 F120.00
G01 X4.8230 Y-19.3294 F120.00
G01 X4.7646 Y-19.5727 F120.00
G01 X4.7450 Y-19.8222 F120.00
G01 X4.7646 Y-20.0717 F120.00
G01 X4.8230 Y-20.3151 F120.00
G01 X4.9188 Y-20.5463 F120.00
G01 X5.0495 Y-20.7596 F120.00
G01 X5.2121 Y-20.9499 F120.00
G01 X5.4024 Y-21.1125 F120.00
G01 X5.6157 Y-21.2432 F120.00
G01 X5.8469 Y-21.3390 F120.00
G01 X6.0903 Y-21.3974 F120.00
G01 X6.3398 Y-21.4170 F120.00
G01 X6.5893 Y-21.3974 F120.00
G01 X6.8326 Y-21.3390 F120.00
G01 X7.0638 Y-21.2432 F120.00
G01 X7.2772 Y-21.1125 F120.00
G01 X7.4675 Y-20.9499 F120.00
G01 X7.6300 Y-20.7596 F120.00
G01 X7.7608 Y-20.5463 F120.00
G01 X7.8565 Y-20.3151 F120.00
G01 X7.9149 Y-20.0717 F120.00
G01 X7.9346 Y-19.8222 F120.00
G01 X7.9284 Y-19.7442 F120.00
G01 X7.9285 Y-19.7417 F120.00
G01 X7.9434 Y-19.6714 F120.00
G01 X7.9449 Y-19.6687 F120.00
G01 X7.9669 Y-19.6390 F120.00
G01 X10.0523 Y-17.5536 F120.00
G01 X10.0547 Y-17.5518 F120.00
G01 X10.1161 Y-17.5183 F120.00
G01 X10.1185 Y-17.5173 F120.00
G01 X10.1211 Y-17.5170 F120.00
G01 X10.1916 Y-17.5220 F120.00
G01 X10.1944 Y-17.5226 F120.00
G01 X10.1972 Y-17.5241 F120.00
G01 X10.2531 Y-17.5660 F120.00
G01 X10.2552 Y-17.5680 F120.00
G01 X10.2566 Y-17.5705 F120.00
G01 X10.2811 Y-17.6362 F120.00
G01 X10.2817 Y-17.6390 F120.00
G01 X10.2821 Y-17.6488 F120.00
G01 X10.2821 Y-19.1813 F120.00
G01 X10.2883 Y-19.2390 F120.00
G01 X10.3376 Y-19.3712 F120.00
G01 X10.4220 Y-19.4840 F120.00
G01 X10.5348 Y-19.5684 F120.00
G01 X10.6670 Y-19.6177 F120.00
G01 X10.7247 Y-19.6239 F120.00
G01 X10.8209 Y-19.6240 F120.00
G01 X10.8897 Y-19.6440 F120.00
G01 X10.8921 Y-19.6450 F120.00
G01 X10.9148 Y-19.6633 F120.00
G01 X11.2461 Y-19.9945 F120.00
G01 X11.2538 Y-19.9927 F120.00
G01 X11.3611 Y-19.9767 F120.00
G01 X11.4700 Y-19.9714 F120.00
G01 X11.5789 Y-19.9767 F120.00
G01 X11.6862 Y-19.9927 F120.00
