(G-CODE GENERATED BY FLATCAM v8.994 - www.flatcam.org - Version Date: 2020/11/7)

(Name: Active_Electrode-PTH.drl_1_cnc)
(Type: G-code from Geometry)
(Units: MM)

(Created on Monday, 11 March 2024 at 22:15)

(This preprocessor is used with a motion controller loaded with GRBL firmware.)
(It is configured to be compatible with almost any version of GRBL firmware.)


(TOOLS DIAMETER: )
(Tool: 1 -> Dia: 1.0)

(FEEDRATE Z: )
(Tool: 1 -> Feedrate: 60.0)

(FEEDRATE RAPIDS: )
(Tool: 1 -> Feedrate Rapids: 1500)

(Z_CUT: )
(Tool: 1 -> Z_Cut: -3.0)

(Tools Offset: )
(Tool: 1 -> Offset Z: 0.0)

(Z_MOVE: )
(Tool: 1 -> Z_Move: 2)

(Z Toolchange: 15 mm)
(X,Y Toolchange: 0.0000, 0.0000 mm)
(Z Start: None mm)
(Z End: 15.0 mm)
(X,Y End: 0.0000, 0.0000 mm)
(Steps per circle: 64)
(Steps per circle: 64)
(Preprocessor Excellon: GRBL_11_no_M6)

(X range:    2.3040 ...   28.4000  mm)
(Y range:  -57.1420 ...   -3.5890  mm)

(Spindle Speed: 0 RPM)
G21
G90
G17
G94


G01 F60.00

M5             
G00 Z15.0000
G00 X0.0000 Y0.0000                
T1
(MSG, Change to Tool Dia = 1.0000 ||| Total drills for tool T1 = 57)
M0
G00 Z15.0000
        
G01 F60.00
M03
G00 X11.9060 Y-7.8400
G01 Z-3.0000
G01 Z0
G00 Z2.0000
G00 X11.8720 Y-10.4140
G01 Z-3.0000
G01 Z0
G00 Z2.0000
G00 X11.8720 Y-12.9540
G01 Z-3.0000
G01 Z0
G00 Z2.0000
G00 X11.8720 Y-15.4940
G01 Z-3.0000
G01 Z0
G00 Z2.0000
G00 X11.8720 Y-18.0340
G01 Z-3.0000
G01 Z0
G00 Z2.0000
G00 X11.4700 Y-21.0820
G01 Z-3.0000
G01 Z0
G00 Z2.0000
G00 X11.5100 Y-23.8760
G01 Z-3.0000
G01 Z0
G00 Z2.0000
G00 X16.4700 Y-21.0820
G01 Z-3.0000
G01 Z0
G00 Z2.0000
G00 X16.5100 Y-23.8760
G01 Z-3.0000
G01 Z0
G00 Z2.0000
G00 X19.5580 Y-27.8560
G01 Z-3.0000
G01 Z0
G00 Z2.0000
G00 X19.5580 Y-30.3960
G01 Z-3.0000
G01 Z0
G00 Z2.0000
G00 X19.5580 Y-32.9360
G01 Z-3.0000
G01 Z0
G00 Z2.0000
G00 X19.5580 Y-35.4760
G01 Z-3.0000
G01 Z0
G00 Z2.0000
G00 X19.5580 Y-38.0160
G01 Z-3.0000
G01 Z0
G00 Z2.0000
G00 X19.5580 Y-40.5560
G01 Z-3.0000
G01 Z0
G00 Z2.0000
G00 X19.5580 Y-43.0960
G01 Z-3.0000
G01 Z0
G00 Z2.0000
G00 X19.5580 Y-45.6360
G01 Z-3.0000
G01 Z0
G00 Z2.0000
G00 X22.9000 Y-43.4340
G01 Z-3.0000
G01 Z0
G00 Z2.0000
G00 X22.9000 Y-40.6400
G01 Z-3.0000
G01 Z0
G00 Z2.0000
G00 X27.9000 Y-40.6400
G01 Z-3.0000
G01 Z0
G00 Z2.0000
G00 X27.9000 Y-43.4340
G01 Z-3.0000
G01 Z0
G00 Z2.0000
G00 X25.4000 Y-56.6420
G01 Z-3.0000
G01 Z0
G00 Z2.0000
G00 X22.8600 Y-56.6420
G01 Z-3.0000
G01 Z0
G00 Z2.0000
G00 X20.3200 Y-56.6420
G01 Z-3.0000
G01 Z0
G00 Z2.0000
G00 X17.7800 Y-56.6420
G01 Z-3.0000
G01 Z0
G00 Z2.0000
G00 X15.2400 Y-56.6420
G01 Z-3.0000
G01 Z0
G00 Z2.0000
G00 X12.7000 Y-56.6420
G01 Z-3.0000
G01 Z0
G00 Z2.0000
G00 X10.1600 Y-56.6420
G01 Z-3.0000
G01 Z0
G00 Z2.0000
G00 X7.6200 Y-56.6420
G01 Z-3.0000
G01 Z0
G00 Z2.0000
G00 X5.0800 Y-56.6420
G01 Z-3.0000
G01 Z0
G00 Z2.0000
G00 X9.1440 Y-50.3320
G01 Z-3.0000
G01 Z0
G00 Z2.0000
G00 X9.1440 Y-45.3320
G01 Z-3.0000
G01 Z0
G00 Z2.0000
G00 X11.9380 Y-45.6360
G01 Z-3.0000
G01 Z0
G00 Z2.0000
G00 X11.9380 Y-43.0960
G01 Z-3.0000
G01 Z0
G00 Z2.0000
G00 X11.9380 Y-40.5560
G01 Z-3.0000
G01 Z0
G00 Z2.0000
G00 X9.1440 Y-40.6400
G01 Z-3.0000
G01 Z0
G00 Z2.0000
G00 X11.9380 Y-38.0160
G01 Z-3.0000
G01 Z0
G00 Z2.0000
G00 X11.9380 Y-35.4760
G01 Z-3.0000
G01 Z0
G00 Z2.0000
G00 X9.1440 Y-35.6400
G01 Z-3.0000
G01 Z0
G00 Z2.0000
G00 X11.9380 Y-32.9360
G01 Z-3.0000
G01 Z0
G00 Z2.0000
G00 X11.9380 Y-30.3960
G01 Z-3.0000
G01 Z0
G00 Z2.0000
G00 X11.9380 Y-27.8560
G01 Z-3.0000
G01 Z0
G00 Z2.0000
G00 X2.8040 Y-23.3580
G01 Z-3.0000
G01 Z0
G00 Z2.0000
G00 X6.3400 Y-19.8220
G01 Z-3.0000
G01 Z0
G00 Z2.0000
G00 X4.1440 Y-7.8740
G01 Z-3.0000
G01 Z0
G00 Z2.0000
G00 X6.6840 Y-5.0800
G01 Z-3.0000
G01 Z0
G00 Z2.0000
G00 X9.1440 Y-7.8740
G01 Z-3.0000
G01 Z0
G00 Z2.0000
G00 X11.6840 Y-5.0800
G01 Z-3.0000
G01 Z0
G00 Z2.0000
G00 X14.7120 Y-4.0890
G01 Z-3.0000
G01 Z0
G00 Z2.0000
G00 X17.2520 Y-4.0890
G01 Z-3.0000
G01 Z0
G00 Z2.0000
G00 X19.3040 Y-7.8440
G01 Z-3.0000
G01 Z0
G00 Z2.0000
G00 X19.8120 Y-10.4140
G01 Z-3.0000
G01 Z0
G00 Z2.0000
G00 X27.3920 Y-12.9540
G01 Z-3.0000
G01 Z0
G00 Z2.0000
G00 X22.3920 Y-12.9540
G01 Z-3.0000
G01 Z0
G00 Z2.0000
G00 X19.8120 Y-18.0340
G01 Z-3.0000
G01 Z0
G00 Z2.0000
G00 X19.8120 Y-15.4940
G01 Z-3.0000
G01 Z0
G00 Z2.0000
G00 X19.8120 Y-12.9540
G01 Z-3.0000
G01 Z0
G00 Z2.0000
M05
G00 Z15.00
G00 X0.0 Y0.0


