(G-CODE GENERATED BY FLATCAM v8.994 - www.flatcam.org - Version Date: 2020/11/7)

(Name: Active_Electrode-PTH.drl_1_cnc)
(Type: G-code from Geometry)
(Units: MM)

(Created on Friday, 08 March 2024 at 13:19)

(This preprocessor is used with a motion controller loaded with GRBL firmware.)
(It is configured to be compatible with almost any version of GRBL firmware.)


(TOOLS DIAMETER: )
(Tool: 1 -> Dia: 1.0)

(FEEDRATE Z: )
(Tool: 1 -> Feedrate: 60.0)

(FEEDRATE RAPIDS: )
(Tool: 1 -> Feedrate Rapids: 1500)

(Z_CUT: )
(Tool: 1 -> Z_Cut: -3.0)

(Tools Offset: )
(Tool: 1 -> Offset Z: 0.0)

(Z_MOVE: )
(Tool: 1 -> Z_Move: 2)

(Z Toolchange: 15 mm)
(X,Y Toolchange: 0.0000, 0.0000 mm)
(Z Start: None mm)
(Z End: 15.0 mm)
(X,Y End: 0.0000, 0.0000 mm)
(Steps per circle: 64)
(Steps per circle: 64)
(Preprocessor Excellon: GRBL_11_no_M6)

(X range:    3.5890 ...   57.1420  mm)
(Y range:  -27.9220 ...   -1.8260  mm)

(Spindle Speed: 0 RPM)
G21
G90
G17
G94


G01 F60.00

M5             
G00 Z15.0000
G00 X0.0000 Y0.0000                
T1
(MSG, Change to Tool Dia = 1.0000 ||| Total drills for tool T1 = 57)
M0
G00 Z15.0000
        
G01 F60.00
M03
G00 X7.8740 Y-10.9220
G01 Z-3.0000
G01 Z0
G00 Z2.0000
G00 X4.0890 Y-12.9740
G01 Z-3.0000
G01 Z0
G00 Z2.0000
G00 X4.0890 Y-15.5140
G01 Z-3.0000
G01 Z0
G00 Z2.0000
G00 X5.3340 Y-18.5420
G01 Z-3.0000
G01 Z0
G00 Z2.0000
G00 X5.3340 Y-23.5420
G01 Z-3.0000
G01 Z0
G00 Z2.0000
G00 X8.1280 Y-26.0820
G01 Z-3.0000
G01 Z0
G00 Z2.0000
G00 X8.1280 Y-21.0820
G01 Z-3.0000
G01 Z0
G00 Z2.0000
G00 X7.8740 Y-18.3540
G01 Z-3.0000
G01 Z0
G00 Z2.0000
G00 X10.4140 Y-18.3540
G01 Z-3.0000
G01 Z0
G00 Z2.0000
G00 X12.9540 Y-18.3540
G01 Z-3.0000
G01 Z0
G00 Z2.0000
G00 X15.4940 Y-18.3540
G01 Z-3.0000
G01 Z0
G00 Z2.0000
G00 X18.0340 Y-18.3540
G01 Z-3.0000
G01 Z0
G00 Z2.0000
G00 X19.8220 Y-23.8860
G01 Z-3.0000
G01 Z0
G00 Z2.0000
G00 X23.3580 Y-27.4220
G01 Z-3.0000
G01 Z0
G00 Z2.0000
G00 X21.0820 Y-18.7560
G01 Z-3.0000
G01 Z0
G00 Z2.0000
G00 X23.8760 Y-18.7160
G01 Z-3.0000
G01 Z0
G00 Z2.0000
G00 X27.8560 Y-18.2880
G01 Z-3.0000
G01 Z0
G00 Z2.0000
G00 X30.3960 Y-18.2880
G01 Z-3.0000
G01 Z0
G00 Z2.0000
G00 X32.9360 Y-18.2880
G01 Z-3.0000
G01 Z0
G00 Z2.0000
G00 X35.6400 Y-21.0820
G01 Z-3.0000
G01 Z0
G00 Z2.0000
G00 X35.4760 Y-18.2880
G01 Z-3.0000
G01 Z0
G00 Z2.0000
G00 X38.0160 Y-18.2880
G01 Z-3.0000
G01 Z0
G00 Z2.0000
G00 X40.5560 Y-18.2880
G01 Z-3.0000
G01 Z0
G00 Z2.0000
G00 X40.6400 Y-21.0820
G01 Z-3.0000
G01 Z0
G00 Z2.0000
G00 X43.0960 Y-18.2880
G01 Z-3.0000
G01 Z0
G00 Z2.0000
G00 X45.6360 Y-18.2880
G01 Z-3.0000
G01 Z0
G00 Z2.0000
G00 X45.3320 Y-21.0820
G01 Z-3.0000
G01 Z0
G00 Z2.0000
G00 X50.3320 Y-21.0820
G01 Z-3.0000
G01 Z0
G00 Z2.0000
G00 X56.6420 Y-25.1460
G01 Z-3.0000
G01 Z0
G00 Z2.0000
G00 X56.6420 Y-22.6060
G01 Z-3.0000
G01 Z0
G00 Z2.0000
G00 X56.6420 Y-20.0660
G01 Z-3.0000
G01 Z0
G00 Z2.0000
G00 X56.6420 Y-17.5260
G01 Z-3.0000
G01 Z0
G00 Z2.0000
G00 X56.6420 Y-14.9860
G01 Z-3.0000
G01 Z0
G00 Z2.0000
G00 X56.6420 Y-12.4460
G01 Z-3.0000
G01 Z0
G00 Z2.0000
G00 X56.6420 Y-9.9060
G01 Z-3.0000
G01 Z0
G00 Z2.0000
G00 X56.6420 Y-7.3660
G01 Z-3.0000
G01 Z0
G00 Z2.0000
G00 X56.6420 Y-4.8260
G01 Z-3.0000
G01 Z0
G00 Z2.0000
G00 X43.4340 Y-2.3260
G01 Z-3.0000
G01 Z0
G00 Z2.0000
G00 X40.6400 Y-2.3260
G01 Z-3.0000
G01 Z0
G00 Z2.0000
G00 X40.6400 Y-7.3260
G01 Z-3.0000
G01 Z0
G00 Z2.0000
G00 X43.4340 Y-7.3260
G01 Z-3.0000
G01 Z0
G00 Z2.0000
G00 X45.6360 Y-10.6680
G01 Z-3.0000
G01 Z0
G00 Z2.0000
G00 X43.0960 Y-10.6680
G01 Z-3.0000
G01 Z0
G00 Z2.0000
G00 X40.5560 Y-10.6680
G01 Z-3.0000
G01 Z0
G00 Z2.0000
G00 X38.0160 Y-10.6680
G01 Z-3.0000
G01 Z0
G00 Z2.0000
G00 X35.4760 Y-10.6680
G01 Z-3.0000
G01 Z0
G00 Z2.0000
G00 X32.9360 Y-10.6680
G01 Z-3.0000
G01 Z0
G00 Z2.0000
G00 X30.3960 Y-10.6680
G01 Z-3.0000
G01 Z0
G00 Z2.0000
G00 X27.8560 Y-10.6680
G01 Z-3.0000
G01 Z0
G00 Z2.0000
G00 X23.8760 Y-13.7160
G01 Z-3.0000
G01 Z0
G00 Z2.0000
G00 X21.0820 Y-13.7560
G01 Z-3.0000
G01 Z0
G00 Z2.0000
G00 X18.0340 Y-10.4140
G01 Z-3.0000
G01 Z0
G00 Z2.0000
G00 X15.4940 Y-10.4140
G01 Z-3.0000
G01 Z0
G00 Z2.0000
G00 X12.9540 Y-10.4140
G01 Z-3.0000
G01 Z0
G00 Z2.0000
G00 X12.9540 Y-7.8340
G01 Z-3.0000
G01 Z0
G00 Z2.0000
G00 X12.9540 Y-2.8340
G01 Z-3.0000
G01 Z0
G00 Z2.0000
G00 X10.4140 Y-10.4140
G01 Z-3.0000
G01 Z0
G00 Z2.0000
M05
G00 Z15.00
G00 X0.0 Y0.0


