(G-CODE GENERATED BY FLATCAM v8.994 - www.flatcam.org - Version Date: 2020/11/7)

(Name: Active_Electrode-F_Cu.gbr_iso_combined_1_cnc)
(Type: G-code from Geometry)
(Units: MM)

(Created on Friday, 08 March 2024 at 15:36)

(This preprocessor is used with a motion controller loaded with GRBL firmware.)
(It is configured to be compatible with almost any version of GRBL firmware.)

(TOOL DIAMETER: 0.0212 mm)
(Feedrate_XY: 120.0 mm/min)
(Feedrate_Z: 60.0 mm/min)
(Feedrate rapids 1500.0 mm/min)

(Z_Cut: -0.0801 mm)
(Z_Move: 2.0 mm)
(Z Start: None mm)
(Z End: 15.0 mm)
(X,Y End: 0.0000, 0.0000 mm)
(Steps per circle: 64)
(Steps per circle: 64)
(Preprocessor Geometry: GRBL_11_no_M6)

(X range:   -0.0106 ...   30.2366  mm)
(Y range:  -59.7006 ...    0.0106  mm)

(Spindle Speed: 0.0 RPM)
G21
G90
G17
G94


G01 F120.00

M5             
G00 Z15.0000
G00 X0.0000 Y0.0000                
T1
(MSG, Change to Tool Dia = 0.0212)
M0
G00 Z15.0000
        
M03
G01 F120.00
G00 X0.0000 Y-0.1240
G01 F60.00
G01 Z-0.0801
G01 F120.00
G01 X0.0197 Y-0.0570 F120.00
G01 X0.0725 Y-0.0112 F120.00
G01 X0.1241 Y-0.0000 F120.00
G01 X30.1019 Y-0.0000 F120.00
G01 X30.1690 Y-0.0197 F120.00
G01 X30.2148 Y-0.0725 F120.00
G01 X30.2260 Y-0.1241 F120.00
G01 X30.2260 Y-59.5659 F120.00
G01 X30.2063 Y-59.6330 F120.00
G01 X30.1535 Y-59.6788 F120.00
G01 X30.1019 Y-59.6900 F120.00
G01 X0.1241 Y-59.6900 F120.00
G01 X0.0570 Y-59.6703 F120.00
G01 X0.0112 Y-59.6175 F120.00
G01 X0.0000 Y-59.5659 F120.00
G01 X0.0000 Y-0.1240 F120.00
G00 Z2.0000
G00 X5.5848 Y-5.1133
G01 F60.00
G01 Z-0.0801
G01 F120.00
G01 X5.5682 Y-5.2241 F120.00
G01 X5.5628 Y-5.3340 F120.00
G01 X5.5682 Y-5.4439 F120.00
G01 X5.5848 Y-5.5547 F120.00
G01 X5.2183 Y-5.9212 F120.00
G01 X5.1778 Y-5.8234 F120.00
G01 X5.1198 Y-5.5817 F120.00
G01 X5.1003 Y-5.3340 F120.00
G01 X5.1198 Y-5.0863 F120.00
G01 X5.1778 Y-4.8446 F120.00
G01 X5.2183 Y-4.7468 F120.00
G01 X5.5848 Y-5.1133 F120.00
G00 Z2.0000
G00 X6.4633 Y-6.4332
G01 F60.00
G01 Z-0.0801
G01 F120.00
G01 X6.5741 Y-6.4498 F120.00
G01 X6.6840 Y-6.4552 F120.00
G01 X6.7939 Y-6.4498 F120.00
G01 X6.9047 Y-6.4332 F120.00
G01 X7.2712 Y-6.7997 F120.00
G01 X7.1734 Y-6.8402 F120.00
G01 X6.9317 Y-6.8982 F120.00
G01 X6.6840 Y-6.9177 F120.00
G01 X6.4363 Y-6.8982 F120.00
G01 X6.1946 Y-6.8402 F120.00
G01 X6.0968 Y-6.7997 F120.00
G01 X6.4633 Y-6.4332 F120.00
G00 Z2.0000
G00 X7.7832 Y-5.5547
G01 F60.00
G01 Z-0.0801
G01 F120.00
G01 X7.7998 Y-5.4439 F120.00
G01 X7.8052 Y-5.3340 F120.00
G01 X7.7998 Y-5.2241 F120.00
G01 X7.7832 Y-5.1133 F120.00
G01 X8.1497 Y-4.7468 F120.00
G01 X8.1902 Y-4.8446 F120.00
G01 X8.2482 Y-5.0863 F120.00
G01 X8.2677 Y-5.3340 F120.00
G01 X8.2482 Y-5.5817 F120.00
G01 X8.1902 Y-5.8234 F120.00
G01 X8.1497 Y-5.9212 F120.00
G01 X7.7832 Y-5.5547 F120.00
G00 Z2.0000
G00 X6.6840 Y-3.7503
G01 F60.00
G01 Z-0.0801
G01 F120.00
G01 X6.9317 Y-3.7698 F120.00
G01 X7.1734 Y-3.8278 F120.00
G01 X7.2712 Y-3.8683 F120.00
G01 X6.9047 Y-4.2348 F120.00
G01 X6.7939 Y-4.2182 F120.00
G01 X6.6840 Y-4.2128 F120.00
G01 X6.5741 Y-4.2182 F120.00
G01 X6.4633 Y-4.2348 F120.00
G01 X6.0968 Y-3.8683 F120.00
G01 X6.1946 Y-3.8278 F120.00
G01 X6.4363 Y-3.7698 F120.00
G01 X6.6840 Y-3.7503 F120.00
G00 Z2.0000
G00 X4.1440 Y-6.5443
G01 F60.00
G01 Z-0.0801
G01 F120.00
G01 X4.3917 Y-6.5638 F120.00
G01 X4.6334 Y-6.6218 F120.00
G01 X4.7312 Y-6.6623 F120.00
G01 X4.3647 Y-7.0288 F120.00
G01 X4.2539 Y-7.0122 F120.00
G01 X4.1440 Y-7.0068 F120.00
G01 X4.0341 Y-7.0122 F120.00
G01 X3.9233 Y-7.0288 F120.00
G01 X3.5568 Y-6.6623 F120.00
G01 X3.6546 Y-6.6218 F120.00
G01 X3.8963 Y-6.5638 F120.00
G01 X4.1440 Y-6.5443 F120.00
G00 Z2.0000
G00 X3.0448 Y-7.9073
G01 F60.00
G01 Z-0.0801
G01 F120.00
G01 X3.0282 Y-8.0181 F120.00
G01 X3.0228 Y-8.1280 F120.00
G01 X3.0282 Y-8.2379 F120.00
G01 X3.0448 Y-8.3487 F120.00
G01 X2.6783 Y-8.7152 F120.00
G01 X2.6378 Y-8.6174 F120.00
G01 X2.5798 Y-8.3757 F120.00
G01 X2.5603 Y-8.1280 F120.00
G01 X2.5798 Y-7.8803 F120.00
G01 X2.6378 Y-7.6386 F120.00
G01 X2.6783 Y-7.5408 F120.00
G01 X3.0448 Y-7.9073 F120.00
G00 Z2.0000
G00 X3.9233 Y-9.2272
G01 F60.00
G01 Z-0.0801
G01 F120.00
G01 X4.0341 Y-9.2438 F120.00
G01 X4.1440 Y-9.2492 F120.00
G01 X4.2539 Y-9.2438 F120.00
G01 X4.3647 Y-9.2272 F120.00
G01 X4.7312 Y-9.5937 F120.00
G01 X4.6334 Y-9.6342 F120.00
G01 X4.3917 Y-9.6922 F120.00
G01 X4.1440 Y-9.7117 F120.00
G01 X3.8963 Y-9.6922 F120.00
G01 X3.6546 Y-9.6342 F120.00
G01 X3.5568 Y-9.5937 F120.00
G01 X3.9233 Y-9.2272 F120.00
G00 Z2.0000
G00 X5.2432 Y-8.3487
G01 F60.00
G01 Z-0.0801
G01 F120.00
G01 X5.2598 Y-8.2379 F120.00
G01 X5.2652 Y-8.1280 F120.00
G01 X5.2598 Y-8.0181 F120.00
G01 X5.2432 Y-7.9073 F120.00
G01 X5.6097 Y-7.5408 F120.00
G01 X5.6502 Y-7.6386 F120.00
G01 X5.7082 Y-7.8803 F120.00
G01 X5.7277 Y-8.1280 F120.00
G01 X5.7082 Y-8.3757 F120.00
G01 X5.6502 Y-8.6174 F120.00
G01 X5.6097 Y-8.7152 F120.00
G01 X5.2432 Y-8.3487 F120.00
G00 Z2.0000
G00 X8.0440 Y-8.1280
G01 F60.00
G01 Z-0.0801
G01 F120.00
G01 X8.0493 Y-8.0202 F120.00
G01 X8.0651 Y-7.9135 F120.00
G01 X8.0914 Y-7.8086 F120.00
G01 X8.1277 Y-7.7070 F120.00
G01 X8.1739 Y-7.6095 F120.00
G01 X8.2294 Y-7.5169 F120.00
G01 X8.2936 Y-7.4302 F120.00
G01 X8.3662 Y-7.3501 F120.00
G01 X8.4462 Y-7.2777 F120.00
G01 X8.5329 Y-7.2134 F120.00
G01 X8.6255 Y-7.1579 F120.00
G01 X8.7230 Y-7.1117 F120.00
G01 X8.8247 Y-7.0754 F120.00
G01 X8.9294 Y-7.0491 F120.00
G01 X9.0361 Y-7.0333 F120.00
G01 X9.1440 Y-7.0280 F120.00
G01 X9.2519 Y-7.0333 F120.00
G01 X9.3586 Y-7.0491 F120.00
G01 X9.4633 Y-7.0754 F120.00
G01 X9.5650 Y-7.1118 F120.00
G01 X9.6625 Y-7.1579 F120.00
G01 X9.7551 Y-7.2134 F120.00
G01 X9.8418 Y-7.2777 F120.00
G01 X9.9218 Y-7.3502 F120.00
G01 X9.9432 Y-7.3737 F120.00
G01 X10.8932 Y-7.3737 F120.00
G01 X10.9019 Y-7.3555 F120.00
G01 X10.9574 Y-7.2629 F120.00
G01 X11.0217 Y-7.1762 F120.00
G01 X11.0942 Y-7.0962 F120.00
G01 X11.1741 Y-7.0237 F120.00
G01 X11.1837 Y-7.0166 F120.00
G01 X11.1837 Y-6.3128 F120.00
G01 X11.1655 Y-6.3041 F120.00
G01 X11.0729 Y-6.2486 F120.00
G01 X10.9862 Y-6.1843 F120.00
G01 X10.9062 Y-6.1118 F120.00
G01 X10.8337 Y-6.0318 F120.00
G01 X10.7694 Y-5.9451 F120.00
G01 X10.7139 Y-5.8525 F120.00
G01 X10.6677 Y-5.7550 F120.00
G01 X10.6314 Y-5.6533 F120.00
G01 X10.6051 Y-5.5486 F120.00
G01 X10.5893 Y-5.4418 F120.00
G01 X10.5840 Y-5.3340 F120.00
G01 X10.5893 Y-5.2262 F120.00
G01 X10.6051 Y-5.1194 F120.00
G01 X10.6314 Y-5.0147 F120.00
G01 X10.6677 Y-4.9130 F120.00
G01 X10.7139 Y-4.8155 F120.00
G01 X10.7694 Y-4.7229 F120.00
G01 X10.8337 Y-4.6362 F120.00
G01 X10.9062 Y-4.5562 F120.00
G01 X10.9862 Y-4.4837 F120.00
G01 X11.0729 Y-4.4194 F120.00
G01 X11.1655 Y-4.3639 F120.00
G01 X11.2630 Y-4.3177 F120.00
G01 X11.3647 Y-4.2813 F120.00
G01 X11.4694 Y-4.2551 F120.00
G01 X11.5761 Y-4.2393 F120.00
G01 X11.6839 Y-4.2340 F120.00
G01 X11.7918 Y-4.2393 F120.00
G01 X11.8985 Y-4.2551 F120.00
G01 X12.0033 Y-4.2814 F120.00
G01 X12.1050 Y-4.3177 F120.00
G01 X12.2025 Y-4.3639 F120.00
G01 X12.2951 Y-4.4194 F120.00
G01 X12.3818 Y-4.4837 F120.00
G01 X12.4619 Y-4.5562 F120.00
G01 X12.5344 Y-4.6362 F120.00
G01 X12.5986 Y-4.7229 F120.00
G01 X12.6541 Y-4.8154 F120.00
G01 X12.7003 Y-4.9130 F120.00
G01 X12.7366 Y-5.0147 F120.00
G01 X12.7629 Y-5.1194 F120.00
G01 X12.7787 Y-5.2262 F120.00
G01 X12.7840 Y-5.3341 F120.00
G01 X12.7787 Y-5.4418 F120.00
G01 X12.7629 Y-5.5486 F120.00
G01 X12.7366 Y-5.6533 F120.00
G01 X12.7003 Y-5.7549 F120.00
G01 X12.6541 Y-5.8525 F120.00
G01 X12.5986 Y-5.9451 F120.00
G01 X12.5344 Y-6.0318 F120.00
G01 X12.4618 Y-6.1118 F120.00
G01 X12.3818 Y-6.1843 F120.00
G01 X12.2952 Y-6.2486 F120.00
G01 X12.2025 Y-6.3041 F120.00
G01 X12.1843 Y-6.3128 F120.00
G01 X12.1843 Y-6.8189 F120.00
G01 X12.2930 Y-6.8577 F120.00
G01 X12.3906 Y-6.9039 F120.00
G01 X12.4831 Y-6.9594 F120.00
G01 X12.5698 Y-7.0236 F120.00
G01 X12.6499 Y-7.0962 F120.00
G01 X12.7223 Y-7.1762 F120.00
G01 X12.7866 Y-7.2628 F120.00
G01 X12.8421 Y-7.3555 F120.00
G01 X12.8883 Y-7.4530 F120.00
G01 X12.9246 Y-7.5546 F120.00
G01 X12.9509 Y-7.6594 F120.00
G01 X12.9667 Y-7.7662 F120.00
G01 X12.9720 Y-7.8739 F120.00
G01 X12.9667 Y-7.9819 F120.00
G01 X12.9509 Y-8.0886 F120.00
G01 X12.9246 Y-8.1933 F120.00
G01 X12.8883 Y-8.2950 F120.00
G01 X12.8421 Y-8.3925 F120.00
G01 X12.7866 Y-8.4852 F120.00
G01 X12.7223 Y-8.5718 F120.00
G01 X12.6498 Y-8.6518 F120.00
G01 X12.5698 Y-8.7243 F120.00
G01 X12.4832 Y-8.7886 F120.00
G01 X12.3905 Y-8.8441 F120.00
G01 X12.3723 Y-8.8528 F120.00
G01 X12.3723 Y-9.3140 F120.00
G01 X12.9720 Y-9.3140 F120.00
G01 X12.9720 Y-11.5140 F120.00
G01 X10.7720 Y-11.5140 F120.00
G01 X10.7720 Y-9.3140 F120.00
G01 X11.3717 Y-9.3140 F120.00
G01 X11.3717 Y-8.8528 F120.00
G01 X11.3535 Y-8.8441 F120.00
G01 X11.2608 Y-8.7886 F120.00
G01 X11.1742 Y-8.7243 F120.00
G01 X11.0942 Y-8.6518 F120.00
G01 X11.0217 Y-8.5718 F120.00
G01 X10.9574 Y-8.4852 F120.00
G01 X10.9019 Y-8.3925 F120.00
G01 X10.8932 Y-8.3743 F120.00
G01 X10.2149 Y-8.3743 F120.00
G01 X10.1966 Y-8.4473 F120.00
G01 X10.1603 Y-8.5490 F120.00
G01 X10.1141 Y-8.6465 F120.00
G01 X10.0586 Y-8.7391 F120.00
G01 X9.9943 Y-8.8258 F120.00
G01 X9.9218 Y-8.9058 F120.00
G01 X9.8418 Y-8.9783 F120.00
G01 X9.7551 Y-9.0426 F120.00
G01 X9.6625 Y-9.0981 F120.00
G01 X9.5650 Y-9.1442 F120.00
G01 X9.4633 Y-9.1807 F120.00
G01 X9.3586 Y-9.2069 F120.00
G01 X9.2518 Y-9.2227 F120.00
G01 X9.1440 Y-9.2280 F120.00
G01 X9.0362 Y-9.2227 F120.00
G01 X8.9294 Y-9.2069 F120.00
G01 X8.8247 Y-9.1806 F120.00
G01 X8.7230 Y-9.1443 F120.00
G01 X8.6255 Y-9.0981 F120.00
G01 X8.5329 Y-9.0426 F120.00
G01 X8.4462 Y-8.9783 F120.00
G01 X8.3662 Y-8.9058 F120.00
G01 X8.2937 Y-8.8259 F120.00
G01 X8.2294 Y-8.7391 F120.00
G01 X8.1739 Y-8.6466 F120.00
G01 X8.1277 Y-8.5489 F120.00
G01 X8.0914 Y-8.4473 F120.00
G01 X8.0651 Y-8.3426 F120.00
G01 X8.0493 Y-8.2358 F120.00
G01 X8.0440 Y-8.1280 F120.00
G00 Z2.0000
G00 X10.7720 Y-16.9340
G01 F60.00
G01 Z-0.0801
G01 F120.00
G01 X12.9720 Y-16.9340 F120.00
G01 X12.9720 Y-17.5337 F120.00
G01 X13.0248 Y-17.5337 F120.00
G01 X14.2117 Y-16.3468 F120.00
G01 X14.2117 Y-5.1890 F120.00
G01 X13.6120 Y-5.1890 F120.00
G01 X13.6120 Y-2.9890 F120.00
G01 X15.8120 Y-2.9890 F120.00
G01 X15.8120 Y-5.1890 F120.00
G01 X15.2123 Y-5.1890 F120.00
G01 X15.2123 Y-16.5539 F120.00
G01 X15.2098 Y-16.6030 F120.00
G01 X15.2026 Y-16.6517 F120.00
G01 X15.1907 Y-16.6992 F120.00
G01 X15.1742 Y-16.7454 F120.00
G01 X15.1531 Y-16.7899 F120.00
G01 X15.1279 Y-16.8319 F120.00
G01 X15.0987 Y-16.8713 F120.00
G01 X15.0657 Y-16.9078 F120.00
G01 X14.7243 Y-17.2492 F120.00
G01 X14.7243 Y-31.8099 F120.00
G01 X14.7218 Y-31.8590 F120.00
G01 X14.7146 Y-31.9077 F120.00
G01 X14.7027 Y-31.9552 F120.00
G01 X14.6862 Y-32.0014 F120.00
G01 X14.6652 Y-32.0458 F120.00
G01 X14.6400 Y-32.0879 F120.00
G01 X14.6107 Y-32.1274 F120.00
G01 X14.5777 Y-32.1638 F120.00
G01 X13.4517 Y-33.2897 F120.00
G01 X13.4154 Y-33.3227 F120.00
G01 X13.3759 Y-33.3520 F120.00
G01 X13.3338 Y-33.3772 F120.00
G01 X13.2894 Y-33.3982 F120.00
G01 X13.2433 Y-33.4147 F120.00
G01 X13.1956 Y-33.4266 F120.00
G01 X13.1470 Y-33.4338 F120.00
G01 X13.0980 Y-33.4362 F120.00
G01 X13.0380 Y-33.4363 F120.00
G01 X13.0380 Y-34.0360 F120.00
G01 X10.8380 Y-34.0360 F120.00
G01 X10.8380 Y-31.8360 F120.00
G01 X13.0380 Y-31.8360 F120.00
G01 X13.0380 Y-32.2885 F120.00
G01 X13.7237 Y-31.6028 F120.00
G01 X13.7237 Y-18.2497 F120.00
G01 X13.5858 Y-18.3877 F120.00
G01 X13.5494 Y-18.4207 F120.00
G01 X13.5099 Y-18.4499 F120.00
G01 X13.4679 Y-18.4751 F120.00
G01 X13.4234 Y-18.4962 F120.00
G01 X13.3772 Y-18.5127 F120.00
G01 X13.3297 Y-18.5246 F120.00
G01 X13.2810 Y-18.5318 F120.00
G01 X13.2319 Y-18.5343 F120.00
G01 X12.9720 Y-18.5343 F120.00
G01 X12.9720 Y-19.1340 F120.00
G01 X10.7720 Y-19.1340 F120.00
G01 X10.7720 Y-16.9340 F120.00
G00 Z2.0000
G00 X10.3708 Y-20.8613
G01 F60.00
G01 Z-0.0801
G01 F120.00
G01 X10.3542 Y-20.9721 F120.00
G01 X10.3488 Y-21.0820 F120.00
G01 X10.3542 Y-21.1919 F120.00
G01 X10.3708 Y-21.3027 F120.00
G01 X10.0043 Y-21.6692 F120.00
G01 X9.9638 Y-21.5714 F120.00
G01 X9.9058 Y-21.3297 F120.00
G01 X9.8863 Y-21.0820 F120.00
G01 X9.9058 Y-20.8343 F120.00
G01 X9.9638 Y-20.5926 F120.00
G01 X10.0043 Y-20.4948 F120.00
G01 X10.3708 Y-20.8613 F120.00
G00 Z2.0000
G00 X11.2493 Y-22.1812
G01 F60.00
G01 Z-0.0801
G01 F120.00
G01 X11.3601 Y-22.1978 F120.00
G01 X11.4700 Y-22.2032 F120.00
G01 X11.5799 Y-22.1978 F120.00
G01 X11.6907 Y-22.1812 F120.00
G01 X12.0085 Y-22.4990 F120.00
G01 X11.7307 Y-22.7768 F120.00
G01 X11.6199 Y-22.7602 F120.00
G01 X11.5100 Y-22.7548 F120.00
G01 X11.4001 Y-22.7602 F120.00
G01 X11.2893 Y-22.7768 F120.00
G01 X10.9715 Y-22.4590 F120.00
G01 X11.2493 Y-22.1812 F120.00
G00 Z2.0000
G00 X10.4108 Y-23.6553
G01 F60.00
G01 Z-0.0801
G01 F120.00
G01 X10.3942 Y-23.7661 F120.00
G01 X10.3888 Y-23.8760 F120.00
G01 X10.3942 Y-23.9859 F120.00
G01 X10.4108 Y-24.0967 F120.00
G01 X10.0443 Y-24.4632 F120.00
G01 X10.0038 Y-24.3654 F120.00
G01 X9.9458 Y-24.1237 F120.00
G01 X9.9263 Y-23.8760 F120.00
G01 X9.9458 Y-23.6283 F120.00
G01 X10.0038 Y-23.3866 F120.00
G01 X10.0443 Y-23.2888 F120.00
G01 X10.4108 Y-23.6553 F120.00
G00 Z2.0000
G00 X11.2893 Y-24.9752
G01 F60.00
G01 Z-0.0801
G01 F120.00
G01 X11.4001 Y-24.9918 F120.00
G01 X11.5100 Y-24.9972 F120.00
G01 X11.6199 Y-24.9918 F120.00
G01 X11.7307 Y-24.9752 F120.00
G01 X12.0972 Y-25.3417 F120.00
G01 X11.9994 Y-25.3822 F120.00
G01 X11.7577 Y-25.4402 F120.00
G01 X11.5100 Y-25.4597 F120.00
G01 X11.2623 Y-25.4402 F120.00
G01 X11.0206 Y-25.3822 F120.00
G01 X10.9228 Y-25.3417 F120.00
G01 X11.2893 Y-24.9752 F120.00
G00 Z2.0000
G00 X18.4580 Y-26.7561
G01 F60.00
G01 Z-0.0801
G01 F120.00
G01 X20.6580 Y-26.7560 F120.00
G01 X20.6580 Y-28.9560 F120.00
G01 X18.4580 Y-28.9560 F120.00
G01 X18.4580 Y-26.7561 F120.00
G00 Z2.0000
G00 X18.4580 Y-29.2961
G01 F60.00
G01 Z-0.0801
G01 F120.00
G01 X20.6580 Y-29.2960 F120.00
G01 X20.6580 Y-31.4960 F120.00
G01 X18.4580 Y-31.4960 F120.00
G01 X18.4580 Y-29.2961 F120.00
G00 Z2.0000
G00 X18.4580 Y-31.8361
G01 F60.00
G01 Z-0.0801
G01 F120.00
G01 X20.6580 Y-31.8360 F120.00
G01 X20.6580 Y-34.0360 F120.00
G01 X18.4580 Y-34.0360 F120.00
G01 X18.4580 Y-31.8361 F120.00
G00 Z2.0000
G00 X18.4580 Y-34.3761
G01 F60.00
G01 Z-0.0801
G01 F120.00
G01 X20.6580 Y-34.3760 F120.00
G01 X20.6580 Y-36.5760 F120.00
G01 X18.4580 Y-36.5760 F120.00
G01 X18.4580 Y-34.3761 F120.00
G00 Z2.0000
G00 X18.4580 Y-39.4561
G01 F60.00
G01 Z-0.0801
G01 F120.00
G01 X20.6580 Y-39.4560 F120.00
G01 X20.6580 Y-41.6560 F120.00
G01 X18.4580 Y-41.6560 F120.00
G01 X18.4580 Y-39.4561 F120.00
G00 Z2.0000
G00 X18.4580 Y-41.9961
G01 F60.00
G01 Z-0.0801
G01 F120.00
G01 X20.6580 Y-41.9960 F120.00
G01 X20.6580 Y-44.1960 F120.00
G01 X18.4580 Y-44.1960 F120.00
G01 X18.4580 Y-41.9961 F120.00
G00 Z2.0000
G00 X18.4580 Y-44.5361
G01 F60.00
G01 Z-0.0801
G01 F120.00
G01 X20.6580 Y-44.5360 F120.00
G01 X20.6580 Y-46.7360 F120.00
G01 X18.4580 Y-46.7360 F120.00
G01 X18.4580 Y-44.5361 F120.00
G00 Z2.0000
G00 X10.8380 Y-44.5361
G01 F60.00
G01 Z-0.0801
G01 F120.00
G01 X13.0380 Y-44.5360 F120.00
G01 X13.0380 Y-45.3505 F120.00
G01 X18.1337 Y-50.4462 F120.00
G01 X18.1667 Y-50.4826 F120.00
G01 X18.1960 Y-50.5221 F120.00
G01 X18.2212 Y-50.5642 F120.00
G01 X18.2421 Y-50.6085 F120.00
G01 X18.2587 Y-50.6548 F120.00
G01 X18.2706 Y-50.7024 F120.00
G01 X18.2778 Y-50.7509 F120.00
G01 X18.2802 Y-50.8000 F120.00
G01 X18.2803 Y-55.5420 F120.00
G01 X18.8800 Y-55.5420 F120.00
G01 X18.8800 Y-57.7420 F120.00
G01 X16.6800 Y-57.7420 F120.00
G01 X16.6800 Y-55.5420 F120.00
G01 X17.2797 Y-55.5420 F120.00
G01 X17.2797 Y-51.0072 F120.00
G01 X13.0085 Y-46.7360 F120.00
G01 X10.8380 Y-46.7360 F120.00
G01 X10.8380 Y-44.5361 F120.00
G00 Z2.0000
G00 X10.8380 Y-41.9961
G01 F60.00
G01 Z-0.0801
G01 F120.00
G01 X13.0380 Y-41.9960 F120.00
G01 X13.0380 Y-42.6247 F120.00
G01 X13.0634 Y-42.6338 F120.00
G01 X13.1078 Y-42.6548 F120.00
G01 X13.1499 Y-42.6801 F120.00
G01 X13.1894 Y-42.7093 F120.00
G01 X13.2258 Y-42.7423 F120.00
G01 X20.6737 Y-50.1902 F120.00
G01 X20.7067 Y-50.2266 F120.00
G01 X20.7359 Y-50.2661 F120.00
G01 X20.7612 Y-50.3082 F120.00
G01 X20.7822 Y-50.3526 F120.00
G01 X20.7987 Y-50.3988 F120.00
G01 X20.8106 Y-50.4464 F120.00
G01 X20.8178 Y-50.4949 F120.00
G01 X20.8202 Y-50.5440 F120.00
G01 X20.8203 Y-55.5420 F120.00
G01 X21.4200 Y-55.5420 F120.00
G01 X21.4200 Y-57.7420 F120.00
G01 X19.2200 Y-57.7420 F120.00
G01 X19.2200 Y-55.5420 F120.00
G01 X19.8197 Y-55.5420 F120.00
G01 X19.8197 Y-50.7512 F120.00
G01 X13.0380 Y-43.9695 F120.00
G01 X13.0380 Y-44.1960 F120.00
G01 X10.8380 Y-44.1960 F120.00
G01 X10.8380 Y-41.9961 F120.00
G00 Z2.0000
G00 X10.8380 Y-39.4560
G01 F60.00
G01 Z-0.0801
G01 F120.00
G01 X13.0380 Y-39.4560 F120.00
G01 X13.0380 Y-40.0557 F120.00
G01 X14.0308 Y-40.0557 F120.00
G01 X16.7717 Y-37.3148 F120.00
G01 X16.7717 Y-26.1621 F120.00
G01 X16.7742 Y-26.1129 F120.00
G01 X16.7814 Y-26.0644 F120.00
G01 X16.7933 Y-26.0168 F120.00
G01 X16.8099 Y-25.9705 F120.00
G01 X16.8308 Y-25.9262 F120.00
G01 X16.8560 Y-25.8841 F120.00
G01 X16.8853 Y-25.8446 F120.00
G01 X16.9183 Y-25.8082 F120.00
G01 X21.5977 Y-21.1288 F120.00
G01 X21.5977 Y-16.6272 F120.00
G01 X20.9648 Y-15.9943 F120.00
G01 X20.9120 Y-15.9943 F120.00
G01 X20.9120 Y-16.5940 F120.00
G01 X18.7120 Y-16.5940 F120.00
G01 X18.7120 Y-15.9943 F120.00
G01 X18.4520 Y-15.9942 F120.00
G01 X18.4030 Y-15.9918 F120.00
G01 X18.3544 Y-15.9846 F120.00
G01 X18.3067 Y-15.9727 F120.00
G01 X18.2606 Y-15.9562 F120.00
G01 X18.2162 Y-15.9352 F120.00
G01 X18.1741 Y-15.9099 F120.00
G01 X18.1346 Y-15.8807 F120.00
G01 X18.0982 Y-15.8477 F120.00
G01 X16.8982 Y-14.6477 F120.00
G01 X16.8653 Y-14.6114 F120.00
G01 X16.8361 Y-14.5720 F120.00
G01 X16.8108 Y-14.5298 F120.00
G01 X16.7898 Y-14.4854 F120.00
G01 X16.7733 Y-14.4392 F120.00
G01 X16.7614 Y-14.3916 F120.00
G01 X16.7542 Y-14.3430 F120.00
G01 X16.7517 Y-14.2939 F120.00
G01 X16.7517 Y-5.1890 F120.00
G01 X16.1520 Y-5.1890 F120.00
G01 X16.1520 Y-2.9890 F120.00
G01 X18.3520 Y-2.9890 F120.00
G01 X18.3520 Y-5.1890 F120.00
G01 X17.7523 Y-5.1890 F120.00
G01 X17.7523 Y-14.0868 F120.00
G01 X18.6592 Y-14.9937 F120.00
G01 X18.7120 Y-14.9937 F120.00
G01 X18.7120 Y-14.3940 F120.00
G01 X20.9120 Y-14.3940 F120.00
G01 X20.9120 Y-14.9937 F120.00
G01 X21.1720 Y-14.9938 F120.00
G01 X21.2210 Y-14.9962 F120.00
G01 X21.2695 Y-15.0034 F120.00
G01 X21.3172 Y-15.0153 F120.00
G01 X21.3634 Y-15.0318 F120.00
G01 X21.4078 Y-15.0528 F120.00
G01 X21.4499 Y-15.0781 F120.00
G01 X21.4894 Y-15.1073 F120.00
G01 X21.5258 Y-15.1403 F120.00
G01 X22.4517 Y-16.0662 F120.00
G01 X22.4847 Y-16.1026 F120.00
G01 X22.5139 Y-16.1421 F120.00
G01 X22.5392 Y-16.1842 F120.00
G01 X22.5602 Y-16.2286 F120.00
G01 X22.5767 Y-16.2748 F120.00
G01 X22.5886 Y-16.3224 F120.00
G01 X22.5958 Y-16.3709 F120.00
G01 X22.5982 Y-16.4200 F120.00
G01 X22.5983 Y-21.3359 F120.00
G01 X22.5958 Y-21.3850 F120.00
G01 X22.5886 Y-21.4336 F120.00
G01 X22.5767 Y-21.4812 F120.00
G01 X22.5602 Y-21.5274 F120.00
G01 X22.5392 Y-21.5718 F120.00
G01 X22.5139 Y-21.6139 F120.00
G01 X22.4847 Y-21.6533 F120.00
G01 X22.4517 Y-21.6898 F120.00
G01 X17.7723 Y-26.3692 F120.00
G01 X17.7723 Y-37.5219 F120.00
G01 X17.7698 Y-37.5711 F120.00
G01 X17.7626 Y-37.6196 F120.00
G01 X17.7507 Y-37.6672 F120.00
G01 X17.7342 Y-37.7134 F120.00
G01 X17.7132 Y-37.7578 F120.00
G01 X17.6879 Y-37.7999 F120.00
G01 X17.6587 Y-37.8394 F120.00
G01 X17.6257 Y-37.8758 F120.00
G01 X14.5918 Y-40.9097 F120.00
G01 X14.5554 Y-40.9427 F120.00
G01 X14.5159 Y-40.9719 F120.00
G01 X14.4738 Y-40.9972 F120.00
G01 X14.4294 Y-41.0182 F120.00
G01 X14.3833 Y-41.0347 F120.00
G01 X14.3356 Y-41.0466 F120.00
G01 X14.2870 Y-41.0538 F120.00
G01 X14.2379 Y-41.0563 F120.00
G01 X13.0380 Y-41.0563 F120.00
G01 X13.0380 Y-41.6560 F120.00
G01 X10.8380 Y-41.6560 F120.00
G01 X10.8380 Y-39.4560 F120.00
G00 Z2.0000
G00 X8.0448 Y-35.4193
G01 F60.00
G01 Z-0.0801
G01 F120.00
G01 X8.0282 Y-35.5301 F120.00
G01 X8.0228 Y-35.6400 F120.00
G01 X8.0282 Y-35.7499 F120.00
G01 X8.0448 Y-35.8607 F120.00
G01 X7.6783 Y-36.2272 F120.00
G01 X7.6378 Y-36.1294 F120.00
G01 X7.5798 Y-35.8877 F120.00
G01 X7.5603 Y-35.6400 F120.00
G01 X7.5798 Y-35.3923 F120.00
G01 X7.6378 Y-35.1506 F120.00
G01 X7.6783 Y-35.0528 F120.00
G01 X8.0448 Y-35.4193 F120.00
G00 Z2.0000
G00 X5.0902 Y-35.0030
G01 F60.00
G01 Z-0.0801
G01 F120.00
G01 X5.0974 Y-34.9544 F120.00
G01 X5.1093 Y-34.9068 F120.00
G01 X5.1258 Y-34.8606 F120.00
G01 X5.1468 Y-34.8162 F120.00
G01 X5.1721 Y-34.7740 F120.00
G01 X5.2013 Y-34.7346 F120.00
G01 X5.2343 Y-34.6983 F120.00
G01 X9.8902 Y-30.0423 F120.00
G01 X9.9266 Y-30.0093 F120.00
G01 X9.9661 Y-29.9800 F120.00
G01 X10.0082 Y-29.9548 F120.00
G01 X10.0526 Y-29.9338 F120.00
G01 X10.0988 Y-29.9173 F120.00
G01 X10.1463 Y-29.9054 F120.00
G01 X10.1950 Y-29.8982 F120.00
G01 X10.2441 Y-29.8957 F120.00
G01 X10.8380 Y-29.8957 F120.00
G01 X10.8380 Y-29.2960 F120.00
G01 X13.0380 Y-29.2960 F120.00
G01 X13.0380 Y-31.4960 F120.00
G01 X10.8380 Y-31.4960 F120.00
G01 X10.8380 Y-30.8963 F120.00
G01 X10.4512 Y-30.8963 F120.00
G01 X6.0883 Y-35.2592 F120.00
G01 X6.0883 Y-50.4394 F120.00
G01 X10.5137 Y-54.8648 F120.00
G01 X10.5467 Y-54.9012 F120.00
G01 X10.5759 Y-54.9407 F120.00
G01 X10.6012 Y-54.9829 F120.00
G01 X10.6222 Y-55.0272 F120.00
G01 X10.6387 Y-55.0733 F120.00
G01 X10.6506 Y-55.1210 F120.00
G01 X10.6578 Y-55.1696 F120.00
G01 X10.6602 Y-55.2186 F120.00
G01 X10.6603 Y-55.5420 F120.00
G01 X11.2600 Y-55.5420 F120.00
G01 X11.2600 Y-57.7420 F120.00
G01 X9.0600 Y-57.7420 F120.00
G01 X9.0600 Y-55.5420 F120.00
G01 X9.6597 Y-55.5420 F120.00
G01 X9.6597 Y-55.4258 F120.00
G01 X5.2343 Y-51.0004 F120.00
G01 X5.2013 Y-50.9640 F120.00
G01 X5.1720 Y-50.9245 F120.00
G01 X5.1468 Y-50.8824 F120.00
G01 X5.1259 Y-50.8381 F120.00
G01 X5.1093 Y-50.7918 F120.00
G01 X5.0974 Y-50.7442 F120.00
G01 X5.0902 Y-50.6957 F120.00
G01 X5.0877 Y-50.6465 F120.00
G01 X5.0877 Y-35.0521 F120.00
G01 X5.0902 Y-35.0030 F120.00
G00 Z2.0000
G00 X3.3122 Y-33.7330
G01 F60.00
G01 Z-0.0801
G01 F120.00
G01 X3.3194 Y-33.6844 F120.00
G01 X3.3313 Y-33.6368 F120.00
G01 X3.3478 Y-33.5906 F120.00
G01 X3.3688 Y-33.5462 F120.00
G01 X3.3941 Y-33.5040 F120.00
G01 X3.4233 Y-33.4646 F120.00
G01 X3.4563 Y-33.4282 F120.00
G01 X9.3822 Y-27.5023 F120.00
G01 X9.4186 Y-27.4693 F120.00
G01 X9.4581 Y-27.4401 F120.00
G01 X9.5002 Y-27.4148 F120.00
G01 X9.5446 Y-27.3938 F120.00
G01 X9.5907 Y-27.3773 F120.00
G01 X9.6384 Y-27.3654 F120.00
G01 X9.6870 Y-27.3582 F120.00
G01 X9.7361 Y-27.3557 F120.00
G01 X10.8380 Y-27.3557 F120.00
G01 X10.8380 Y-26.7560 F120.00
G01 X13.0380 Y-26.7560 F120.00
G01 X13.0380 Y-28.9560 F120.00
G01 X10.8380 Y-28.9560 F120.00
G01 X10.8380 Y-28.3563 F120.00
G01 X9.9432 Y-28.3563 F120.00
G01 X4.3103 Y-33.9892 F120.00
G01 X4.3103 Y-51.1008 F120.00
G01 X7.9737 Y-54.7642 F120.00
G01 X8.0067 Y-54.8006 F120.00
G01 X8.0360 Y-54.8401 F120.00
G01 X8.0612 Y-54.8822 F120.00
G01 X8.0821 Y-54.9265 F120.00
G01 X8.0987 Y-54.9728 F120.00
G01 X8.1106 Y-55.0205 F120.00
G01 X8.1178 Y-55.0690 F120.00
G01 X8.1202 Y-55.1180 F120.00
G01 X8.1203 Y-55.5420 F120.00
G01 X8.7200 Y-55.5420 F120.00
G01 X8.7200 Y-57.7420 F120.00
G01 X6.5200 Y-57.7420 F120.00
G01 X6.5200 Y-55.5420 F120.00
G01 X7.1197 Y-55.5420 F120.00
G01 X7.1197 Y-55.3252 F120.00
G01 X3.4563 Y-51.6617 F120.00
G01 X3.4233 Y-51.6253 F120.00
G01 X3.3941 Y-51.5859 F120.00
G01 X3.3688 Y-51.5438 F120.00
G01 X3.3478 Y-51.4994 F120.00
G01 X3.3313 Y-51.4532 F120.00
G01 X3.3194 Y-51.4056 F120.00
G01 X3.3122 Y-51.3570 F120.00
G01 X3.3097 Y-51.3079 F120.00
G01 X3.3097 Y-33.7821 F120.00
G01 X3.3122 Y-33.7330 F120.00
G00 Z2.0000
G00 X1.5342 Y-24.0810
G01 F60.00
G01 Z-0.0801
G01 F120.00
G01 X1.5414 Y-24.0324 F120.00
G01 X1.5533 Y-23.9848 F120.00
G01 X1.5698 Y-23.9386 F120.00
G01 X1.5908 Y-23.8942 F120.00
G01 X1.6161 Y-23.8521 F120.00
G01 X1.6453 Y-23.8126 F120.00
G01 X1.6783 Y-23.7763 F120.00
G01 X1.7584 Y-23.6961 F120.00
G01 X1.7516 Y-23.6771 F120.00
G01 X1.7254 Y-23.5723 F120.00
G01 X1.7095 Y-23.4656 F120.00
G01 X1.7042 Y-23.3577 F120.00
G01 X1.7095 Y-23.2499 F120.00
G01 X1.7254 Y-23.1432 F120.00
G01 X1.7516 Y-23.0385 F120.00
G01 X1.7880 Y-22.9368 F120.00
G01 X1.8341 Y-22.8392 F120.00
G01 X1.8896 Y-22.7467 F120.00
G01 X1.9540 Y-22.6599 F120.00
G01 X2.0264 Y-22.5800 F120.00
G01 X2.1064 Y-22.5075 F120.00
G01 X2.1931 Y-22.4432 F120.00
G01 X2.2857 Y-22.3877 F120.00
G01 X2.3833 Y-22.3415 F120.00
G01 X2.4849 Y-22.3051 F120.00
G01 X2.5896 Y-22.2789 F120.00
G01 X2.6964 Y-22.2631 F120.00
G01 X2.8042 Y-22.2578 F120.00
G01 X2.9121 Y-22.2631 F120.00
G01 X3.0188 Y-22.2789 F120.00
G01 X3.1235 Y-22.3051 F120.00
G01 X3.2252 Y-22.3415 F120.00
G01 X3.3228 Y-22.3877 F120.00
G01 X3.4154 Y-22.4432 F120.00
G01 X3.5021 Y-22.5075 F120.00
G01 X3.5820 Y-22.5800 F120.00
G01 X3.6545 Y-22.6599 F120.00
G01 X3.7188 Y-22.7466 F120.00
G01 X3.7743 Y-22.8392 F120.00
G01 X3.8205 Y-22.9368 F120.00
G01 X3.8568 Y-23.0384 F120.00
G01 X3.8831 Y-23.1432 F120.00
G01 X3.8989 Y-23.2499 F120.00
G01 X3.9042 Y-23.3577 F120.00
G01 X3.8989 Y-23.4656 F120.00
G01 X3.8831 Y-23.5724 F120.00
G01 X3.8569 Y-23.6770 F120.00
G01 X3.8205 Y-23.7787 F120.00
G01 X3.7743 Y-23.8764 F120.00
G01 X3.7188 Y-23.9689 F120.00
G01 X3.6545 Y-24.0556 F120.00
G01 X3.5820 Y-24.1356 F120.00
G01 X3.5021 Y-24.2080 F120.00
G01 X3.4154 Y-24.2724 F120.00
G01 X3.3227 Y-24.3279 F120.00
G01 X3.2252 Y-24.3740 F120.00
G01 X3.1235 Y-24.4104 F120.00
G01 X3.0188 Y-24.4366 F120.00
G01 X2.9121 Y-24.4525 F120.00
G01 X2.8042 Y-24.4578 F120.00
G01 X2.6964 Y-24.4525 F120.00
G01 X2.5896 Y-24.4366 F120.00
G01 X2.5323 Y-24.4223 F120.00
G01 X2.5323 Y-53.3868 F120.00
G01 X4.6875 Y-55.5420 F120.00
G01 X6.1800 Y-55.5420 F120.00
G01 X6.1800 Y-57.7420 F120.00
G01 X3.9800 Y-57.7420 F120.00
G01 X3.9800 Y-56.2495 F120.00
G01 X1.6783 Y-53.9477 F120.00
G01 X1.6453 Y-53.9114 F120.00
G01 X1.6161 Y-53.8720 F120.00
G01 X1.5908 Y-53.8298 F120.00
G01 X1.5698 Y-53.7854 F120.00
G01 X1.5533 Y-53.7392 F120.00
G01 X1.5414 Y-53.6916 F120.00
G01 X1.5342 Y-53.6431 F120.00
G01 X1.5317 Y-53.5939 F120.00
G01 X1.5317 Y-24.1301 F120.00
G01 X1.5342 Y-24.0810 F120.00
G00 Z2.0000
G00 X5.2398 Y-19.8222
G01 F60.00
G01 Z-0.0801
G01 F120.00
G01 X5.2451 Y-19.7144 F120.00
G01 X5.2609 Y-19.6076 F120.00
G01 X5.2871 Y-19.5029 F120.00
G01 X5.3235 Y-19.4012 F120.00
G01 X5.3697 Y-19.3036 F120.00
G01 X5.4252 Y-19.2111 F120.00
G01 X5.4894 Y-19.1245 F120.00
G01 X5.5620 Y-19.0444 F120.00
G01 X5.6419 Y-18.9719 F120.00
G01 X5.7287 Y-18.9076 F120.00
G01 X5.8212 Y-18.8521 F120.00
G01 X5.9188 Y-18.8060 F120.00
G01 X6.0205 Y-18.7696 F120.00
G01 X6.1252 Y-18.7434 F120.00
G01 X6.2319 Y-18.7275 F120.00
G01 X6.3397 Y-18.7222 F120.00
G01 X6.4476 Y-18.7275 F120.00
G01 X6.5544 Y-18.7434 F120.00
G01 X6.6591 Y-18.7696 F120.00
G01 X6.7105 Y-18.7880 F120.00
G01 X10.3583 Y-15.1403 F120.00
G01 X10.3946 Y-15.1073 F120.00
G01 X10.4341 Y-15.0780 F120.00
G01 X10.4762 Y-15.0528 F120.00
G01 X10.5206 Y-15.0318 F120.00
G01 X10.5667 Y-15.0153 F120.00
G01 X10.6144 Y-15.0034 F120.00
G01 X10.6630 Y-14.9962 F120.00
G01 X10.7120 Y-14.9938 F120.00
G01 X10.7720 Y-14.9937 F120.00
G01 X10.7720 Y-14.3940 F120.00
G01 X11.3717 Y-14.3940 F120.00
G01 X11.3717 Y-14.0540 F120.00
G01 X10.7720 Y-14.0540 F120.00
G01 X10.7720 Y-11.8540 F120.00
G01 X12.9720 Y-11.8540 F120.00
G01 X12.9720 Y-14.0540 F120.00
G01 X12.3723 Y-14.0540 F120.00
G01 X12.3723 Y-14.3940 F120.00
G01 X12.9720 Y-14.3940 F120.00
G01 X12.9720 Y-16.5940 F120.00
G01 X10.7720 Y-16.5940 F120.00
G01 X10.7720 Y-16.1415 F120.00
G01 X7.3960 Y-19.5174 F120.00
G01 X7.4186 Y-19.6076 F120.00
G01 X7.4345 Y-19.7144 F120.00
G01 X7.4398 Y-19.8222 F120.00
G01 X7.4345 Y-19.9301 F120.00
G01 X7.4186 Y-20.0368 F120.00
G01 X7.3924 Y-20.1415 F120.00
G01 X7.3560 Y-20.2432 F120.00
G01 X7.3099 Y-20.3407 F120.00
G01 X7.2544 Y-20.4334 F120.00
G01 X7.1901 Y-20.5200 F120.00
G01 X7.1175 Y-20.6001 F120.00
G01 X7.0376 Y-20.6725 F120.00
G01 X6.9509 Y-20.7368 F120.00
G01 X6.8583 Y-20.7923 F120.00
G01 X6.7607 Y-20.8385 F120.00
G01 X6.6590 Y-20.8749 F120.00
G01 X6.5544 Y-20.9011 F120.00
G01 X6.4477 Y-20.9169 F120.00
G01 X6.3398 Y-20.9222 F120.00
G01 X6.2319 Y-20.9169 F120.00
G01 X6.1251 Y-20.9011 F120.00
G01 X6.0205 Y-20.8749 F120.00
G01 X5.9189 Y-20.8385 F120.00
G01 X5.8212 Y-20.7923 F120.00
G01 X5.7286 Y-20.7368 F120.00
G01 X5.6419 Y-20.6725 F120.00
G01 X5.5620 Y-20.6000 F120.00
G01 X5.4895 Y-20.5201 F120.00
G01 X5.4252 Y-20.4334 F120.00
G01 X5.3697 Y-20.3408 F120.00
G01 X5.3235 Y-20.2432 F120.00
G01 X5.2871 Y-20.1415 F120.00
G01 X5.2609 Y-20.0368 F120.00
G01 X5.2451 Y-19.9301 F120.00
G01 X5.2398 Y-19.8222 F120.00
G00 Z2.0000
G00 X18.7120 Y-9.3141
G01 F60.00
G01 Z-0.0801
G01 F120.00
G01 X20.9120 Y-9.3140 F120.00
G01 X20.9120 Y-11.5140 F120.00
G01 X20.3123 Y-11.5140 F120.00
G01 X20.3123 Y-11.8540 F120.00
G01 X20.9120 Y-11.8540 F120.00
G01 X20.9120 Y-12.4537 F120.00
G01 X21.4132 Y-12.4537 F120.00
G01 X21.4219 Y-12.4355 F120.00
G01 X21.4774 Y-12.3429 F120.00
G01 X21.5417 Y-12.2562 F120.00
G01 X21.6142 Y-12.1762 F120.00
G01 X21.6942 Y-12.1036 F120.00
G01 X21.7809 Y-12.0394 F120.00
G01 X21.8734 Y-11.9839 F120.00
G01 X21.9710 Y-11.9378 F120.00
G01 X22.0727 Y-11.9014 F120.00
G01 X22.1774 Y-11.8751 F120.00
G01 X22.2842 Y-11.8593 F120.00
G01 X22.3920 Y-11.8540 F120.00
G01 X22.4998 Y-11.8593 F120.00
G01 X22.6066 Y-11.8751 F120.00
G01 X22.7113 Y-11.9014 F120.00
G01 X22.8130 Y-11.9377 F120.00
G01 X22.9105 Y-11.9839 F120.00
G01 X23.0031 Y-12.0394 F120.00
G01 X23.0898 Y-12.1037 F120.00
G01 X23.1699 Y-12.1762 F120.00
G01 X23.2424 Y-12.2562 F120.00
G01 X23.3066 Y-12.3429 F120.00
G01 X23.3621 Y-12.4354 F120.00
G01 X23.4083 Y-12.5330 F120.00
G01 X23.4446 Y-12.6347 F120.00
G01 X23.4709 Y-12.7394 F120.00
G01 X23.4867 Y-12.8462 F120.00
G01 X23.4920 Y-12.9540 F120.00
G01 X23.4867 Y-13.0619 F120.00
G01 X23.4709 Y-13.1686 F120.00
G01 X23.4447 Y-13.2733 F120.00
G01 X23.4083 Y-13.3749 F120.00
G01 X23.3621 Y-13.4725 F120.00
G01 X23.3066 Y-13.5651 F120.00
G01 X23.2423 Y-13.6518 F120.00
G01 X23.1698 Y-13.7318 F120.00
G01 X23.0898 Y-13.8043 F120.00
G01 X23.0031 Y-13.8686 F120.00
G01 X22.9105 Y-13.9241 F120.00
G01 X22.8129 Y-13.9703 F120.00
G01 X22.7113 Y-14.0067 F120.00
G01 X22.6066 Y-14.0329 F120.00
G01 X22.4999 Y-14.0487 F120.00
G01 X22.3920 Y-14.0540 F120.00
G01 X22.2842 Y-14.0487 F120.00
G01 X22.1773 Y-14.0328 F120.00
G01 X22.0727 Y-14.0066 F120.00
G01 X21.9711 Y-13.9703 F120.00
G01 X21.8735 Y-13.9241 F120.00
G01 X21.7809 Y-13.8686 F120.00
G01 X21.6941 Y-13.8043 F120.00
G01 X21.6142 Y-13.7318 F120.00
G01 X21.5417 Y-13.6519 F120.00
G01 X21.4774 Y-13.5651 F120.00
G01 X21.4219 Y-13.4725 F120.00
G01 X21.4132 Y-13.4543 F120.00
G01 X20.9120 Y-13.4543 F120.00
G01 X20.9120 Y-14.0540 F120.00
G01 X18.7120 Y-14.0540 F120.00
G01 X18.7120 Y-11.8540 F120.00
G01 X19.3117 Y-11.8540 F120.00
G01 X19.3117 Y-11.5140 F120.00
G01 X18.7120 Y-11.5140 F120.00
G01 X18.7120 Y-9.3141 F120.00
G00 Z2.0000
G00 X18.2040 Y-7.8740
G01 F60.00
G01 Z-0.0801
G01 F120.00
G01 X18.2093 Y-7.7662 F120.00
G01 X18.2251 Y-7.6594 F120.00
G01 X18.2514 Y-7.5547 F120.00
G01 X18.2877 Y-7.4531 F120.00
G01 X18.3339 Y-7.3554 F120.00
G01 X18.3894 Y-7.2629 F120.00
G01 X18.4537 Y-7.1762 F120.00
G01 X18.5262 Y-7.0962 F120.00
G01 X18.6062 Y-7.0237 F120.00
G01 X18.6929 Y-6.9594 F120.00
G01 X18.7854 Y-6.9039 F120.00
G01 X18.8830 Y-6.8577 F120.00
G01 X18.9846 Y-6.8214 F120.00
G01 X19.0895 Y-6.7951 F120.00
G01 X19.1962 Y-6.7793 F120.00
G01 X19.3039 Y-6.7740 F120.00
G01 X19.4119 Y-6.7793 F120.00
G01 X19.5186 Y-6.7951 F120.00
G01 X19.6233 Y-6.8214 F120.00
G01 X19.7250 Y-6.8577 F120.00
G01 X19.8225 Y-6.9039 F120.00
G01 X19.9152 Y-6.9594 F120.00
G01 X20.0018 Y-7.0237 F120.00
G01 X20.0818 Y-7.0962 F120.00
G01 X20.1543 Y-7.1762 F120.00
G01 X20.2186 Y-7.2628 F120.00
G01 X20.2741 Y-7.3555 F120.00
G01 X20.2828 Y-7.3737 F120.00
G01 X20.8279 Y-7.3737 F120.00
G01 X20.8770 Y-7.3762 F120.00
G01 X20.9256 Y-7.3834 F120.00
G01 X20.9732 Y-7.3953 F120.00
G01 X21.0194 Y-7.4118 F120.00
G01 X21.0638 Y-7.4328 F120.00
G01 X21.1059 Y-7.4581 F120.00
G01 X21.1453 Y-7.4873 F120.00
G01 X21.1818 Y-7.5203 F120.00
G01 X25.2457 Y-11.5843 F120.00
G01 X25.2787 Y-11.6206 F120.00
G01 X25.3079 Y-11.6600 F120.00
G01 X25.3332 Y-11.7022 F120.00
G01 X25.3542 Y-11.7466 F120.00
G01 X25.3707 Y-11.7928 F120.00
G01 X25.3826 Y-11.8404 F120.00
G01 X25.3898 Y-11.8890 F120.00
G01 X25.3923 Y-11.9381 F120.00
G01 X25.3923 Y-13.9699 F120.00
G01 X25.3898 Y-14.0191 F120.00
G01 X25.3826 Y-14.0676 F120.00
G01 X25.3707 Y-14.1152 F120.00
G01 X25.3542 Y-14.1614 F120.00
G01 X25.3331 Y-14.2059 F120.00
G01 X25.3079 Y-14.2479 F120.00
G01 X25.2787 Y-14.2873 F120.00
G01 X25.2458 Y-14.3237 F120.00
G01 X24.3763 Y-15.1932 F120.00
G01 X24.3763 Y-22.3519 F120.00
G01 X24.3738 Y-22.4010 F120.00
G01 X24.3666 Y-22.4496 F120.00
G01 X24.3547 Y-22.4973 F120.00
G01 X24.3382 Y-22.5434 F120.00
G01 X24.3172 Y-22.5878 F120.00
G01 X24.2919 Y-22.6299 F120.00
G01 X24.2627 Y-22.6694 F120.00
G01 X24.2297 Y-22.7058 F120.00
G01 X23.4003 Y-23.5352 F120.00
G01 X23.4003 Y-39.6612 F120.00
G01 X23.4185 Y-39.6699 F120.00
G01 X23.5111 Y-39.7254 F120.00
G01 X23.5979 Y-39.7897 F120.00
G01 X23.6778 Y-39.8622 F120.00
G01 X23.7503 Y-39.9421 F120.00
G01 X23.8146 Y-40.0289 F120.00
G01 X23.8701 Y-40.1215 F120.00
G01 X23.9162 Y-40.2190 F120.00
G01 X23.9526 Y-40.3207 F120.00
G01 X23.9789 Y-40.4254 F120.00
G01 X23.9947 Y-40.5321 F120.00
G01 X24.0000 Y-40.6400 F120.00
G01 X23.9947 Y-40.7479 F120.00
G01 X23.9789 Y-40.8546 F120.00
G01 X23.9526 Y-40.9593 F120.00
G01 X23.9162 Y-41.0610 F120.00
G01 X23.8701 Y-41.1585 F120.00
G01 X23.8146 Y-41.2511 F120.00
G01 X23.7503 Y-41.3379 F120.00
G01 X23.6778 Y-41.4178 F120.00
G01 X23.5979 Y-41.4903 F120.00
G01 X23.5111 Y-41.5546 F120.00
G01 X23.4185 Y-41.6101 F120.00
G01 X23.4003 Y-41.6188 F120.00
G01 X23.4003 Y-42.4552 F120.00
G01 X23.4185 Y-42.4639 F120.00
G01 X23.5111 Y-42.5194 F120.00
G01 X23.5979 Y-42.5837 F120.00
G01 X23.6778 Y-42.6562 F120.00
G01 X23.7503 Y-42.7361 F120.00
G01 X23.8146 Y-42.8229 F120.00
G01 X23.8701 Y-42.9155 F120.00
G01 X23.9162 Y-43.0130 F120.00
G01 X23.9526 Y-43.1147 F120.00
G01 X23.9789 Y-43.2194 F120.00
G01 X23.9947 Y-43.3261 F120.00
G01 X24.0000 Y-43.4340 F120.00
G01 X23.9947 Y-43.5419 F120.00
G01 X23.9789 Y-43.6486 F120.00
G01 X23.9526 Y-43.7533 F120.00
G01 X23.9162 Y-43.8550 F120.00
G01 X23.8701 Y-43.9525 F120.00
G01 X23.8146 Y-44.0451 F120.00
G01 X23.7503 Y-44.1319 F120.00
G01 X23.6778 Y-44.2118 F120.00
G01 X23.5979 Y-44.2843 F120.00
G01 X23.5111 Y-44.3486 F120.00
G01 X23.4185 Y-44.4041 F120.00
G01 X23.4003 Y-44.4128 F120.00
G01 X23.4003 Y-55.5420 F120.00
G01 X23.9600 Y-55.5420 F120.00
G01 X23.9600 Y-57.7420 F120.00
G01 X21.7600 Y-57.7420 F120.00
G01 X21.7600 Y-55.5420 F120.00
G01 X22.3997 Y-55.5420 F120.00
G01 X22.3997 Y-44.4128 F120.00
G01 X22.3815 Y-44.4041 F120.00
G01 X22.2889 Y-44.3486 F120.00
G01 X22.2021 Y-44.2843 F120.00
G01 X22.1222 Y-44.2118 F120.00
G01 X22.0497 Y-44.1319 F120.00
G01 X21.9854 Y-44.0451 F120.00
G01 X21.9299 Y-43.9525 F120.00
G01 X21.8838 Y-43.8550 F120.00
G01 X21.8474 Y-43.7533 F120.00
G01 X21.8211 Y-43.6486 F120.00
G01 X21.8053 Y-43.5419 F120.00
G01 X21.8000 Y-43.4340 F120.00
G01 X21.8053 Y-43.3261 F120.00
G01 X21.8211 Y-43.2194 F120.00
G01 X21.8474 Y-43.1147 F120.00
G01 X21.8838 Y-43.0130 F120.00
G01 X21.9299 Y-42.9155 F120.00
G01 X21.9854 Y-42.8229 F120.00
G01 X22.0497 Y-42.7361 F120.00
G01 X22.1222 Y-42.6562 F120.00
G01 X22.2021 Y-42.5837 F120.00
G01 X22.2889 Y-42.5194 F120.00
G01 X22.3815 Y-42.4639 F120.00
G01 X22.3997 Y-42.4552 F120.00
G01 X22.3997 Y-41.6188 F120.00
G01 X22.3815 Y-41.6101 F120.00
G01 X22.2889 Y-41.5546 F120.00
G01 X22.2021 Y-41.4903 F120.00
G01 X22.1222 Y-41.4178 F120.00
G01 X22.0497 Y-41.3379 F120.00
G01 X21.9854 Y-41.2511 F120.00
G01 X21.9299 Y-41.1585 F120.00
G01 X21.8837 Y-41.0609 F120.00
G01 X21.8474 Y-40.9593 F120.00
G01 X21.8212 Y-40.8547 F120.00
G01 X21.8053 Y-40.7478 F120.00
G01 X21.8000 Y-40.6400 F120.00
G01 X21.8053 Y-40.5322 F120.00
G01 X21.8211 Y-40.4254 F120.00
G01 X21.8474 Y-40.3207 F120.00
G01 X21.8837 Y-40.2190 F120.00
G01 X21.9299 Y-40.1215 F120.00
G01 X21.9854 Y-40.0289 F120.00
G01 X22.0497 Y-39.9422 F120.00
G01 X22.0911 Y-39.8965 F120.00
G01 X20.7108 Y-38.5163 F120.00
G01 X20.6580 Y-38.5163 F120.00
G01 X20.6580 Y-39.1160 F120.00
G01 X18.4580 Y-39.1160 F120.00
G01 X18.4580 Y-36.9161 F120.00
G01 X20.6580 Y-36.9160 F120.00
G01 X20.6580 Y-37.5157 F120.00
G01 X20.9180 Y-37.5158 F120.00
G01 X20.9670 Y-37.5182 F120.00
G01 X21.0155 Y-37.5254 F120.00
G01 X21.0632 Y-37.5373 F120.00
G01 X21.1094 Y-37.5538 F120.00
G01 X21.1538 Y-37.5748 F120.00
G01 X21.1960 Y-37.6001 F120.00
G01 X21.2354 Y-37.6293 F120.00
G01 X21.2718 Y-37.6623 F120.00
G01 X22.3997 Y-38.7903 F120.00
G01 X22.3997 Y-23.3281 F120.00
G01 X22.4022 Y-23.2790 F120.00
G01 X22.4094 Y-23.2303 F120.00
G01 X22.4213 Y-23.1828 F120.00
G01 X22.4378 Y-23.1366 F120.00
G01 X22.4589 Y-23.0921 F120.00
G01 X22.4841 Y-23.0501 F120.00
G01 X22.5133 Y-23.0106 F120.00
G01 X22.5463 Y-22.9742 F120.00
G01 X23.3757 Y-22.1448 F120.00
G01 X23.3757 Y-14.9861 F120.00
G01 X23.3782 Y-14.9370 F120.00
G01 X23.3854 Y-14.8883 F120.00
G01 X23.3973 Y-14.8408 F120.00
G01 X23.4138 Y-14.7946 F120.00
G01 X23.4349 Y-14.7501 F120.00
G01 X23.4601 Y-14.7081 F120.00
G01 X23.4893 Y-14.6686 F120.00
G01 X23.5223 Y-14.6322 F120.00
G01 X24.3917 Y-13.7628 F120.00
G01 X24.3917 Y-12.1452 F120.00
G01 X20.6208 Y-8.3743 F120.00
G01 X20.2828 Y-8.3743 F120.00
G01 X20.2741 Y-8.3925 F120.00
G01 X20.2186 Y-8.4852 F120.00
G01 X20.1543 Y-8.5718 F120.00
G01 X20.0818 Y-8.6519 F120.00
G01 X20.0018 Y-8.7243 F120.00
G01 X19.9151 Y-8.7886 F120.00
G01 X19.8225 Y-8.8441 F120.00
G01 X19.7250 Y-8.8903 F120.00
G01 X19.6233 Y-8.9267 F120.00
G01 X19.5186 Y-8.9529 F120.00
G01 X19.4118 Y-8.9687 F120.00
G01 X19.3039 Y-8.9740 F120.00
G01 X19.1962 Y-8.9687 F120.00
G01 X19.0894 Y-8.9529 F120.00
G01 X18.9847 Y-8.9266 F120.00
G01 X18.8831 Y-8.8903 F120.00
G01 X18.7854 Y-8.8441 F120.00
G01 X18.6929 Y-8.7886 F120.00
G01 X18.6062 Y-8.7243 F120.00
G01 X18.5262 Y-8.6518 F120.00
G01 X18.4537 Y-8.5718 F120.00
G01 X18.3894 Y-8.4851 F120.00
G01 X18.3339 Y-8.3926 F120.00
G01 X18.2877 Y-8.2949 F120.00
G01 X18.2514 Y-8.1933 F120.00
G01 X18.2251 Y-8.0886 F120.00
G01 X18.2093 Y-7.9818 F120.00
G01 X18.2040 Y-7.8740 F120.00
G00 Z2.0000
G00 X27.6793 Y-39.5408
G01 F60.00
G01 Z-0.0801
G01 F120.00
G01 X27.3128 Y-39.1743 F120.00
G01 X27.4106 Y-39.1338 F120.00
G01 X27.6523 Y-39.0758 F120.00
G01 X27.9000 Y-39.0563 F120.00
G01 X28.1477 Y-39.0758 F120.00
G01 X28.3894 Y-39.1338 F120.00
G01 X28.4872 Y-39.1743 F120.00
G01 X28.1207 Y-39.5408 F120.00
G01 X28.0099 Y-39.5242 F120.00
G01 X27.9000 Y-39.5188 F120.00
G01 X27.7901 Y-39.5242 F120.00
G01 X27.6793 Y-39.5408 F120.00
G00 Z2.0000
G00 X28.9992 Y-40.4193
G01 F60.00
G01 Z-0.0801
G01 F120.00
G01 X29.3657 Y-40.0528 F120.00
G01 X29.4062 Y-40.1506 F120.00
G01 X29.4642 Y-40.3923 F120.00
G01 X29.4837 Y-40.6400 F120.00
G01 X29.4642 Y-40.8877 F120.00
G01 X29.4062 Y-41.1294 F120.00
G01 X29.3657 Y-41.2272 F120.00
G01 X28.9992 Y-40.8607 F120.00
G01 X29.0158 Y-40.7499 F120.00
G01 X29.0212 Y-40.6400 F120.00
G01 X29.0158 Y-40.5301 F120.00
G01 X28.9992 Y-40.4193 F120.00
G00 Z2.0000
G00 X28.1207 Y-41.7392
G01 F60.00
G01 Z-0.0801
G01 F120.00
G01 X28.4185 Y-42.0370 F120.00
G01 X28.1207 Y-42.3348 F120.00
G01 X28.0099 Y-42.3182 F120.00
G01 X27.9000 Y-42.3128 F120.00
G01 X27.7901 Y-42.3182 F120.00
G01 X27.6793 Y-42.3348 F120.00
G01 X27.3815 Y-42.0370 F120.00
G01 X27.6793 Y-41.7392 F120.00
G01 X27.7901 Y-41.7558 F120.00
G01 X27.9000 Y-41.7612 F120.00
G01 X28.0099 Y-41.7558 F120.00
G01 X28.1207 Y-41.7392 F120.00
G00 Z2.0000
G00 X28.9992 Y-43.2133
G01 F60.00
G01 Z-0.0801
G01 F120.00
G01 X29.3657 Y-42.8468 F120.00
G01 X29.4062 Y-42.9446 F120.00
G01 X29.4642 Y-43.1863 F120.00
G01 X29.4837 Y-43.4340 F120.00
G01 X29.4642 Y-43.6817 F120.00
G01 X29.4062 Y-43.9234 F120.00
G01 X29.3657 Y-44.0212 F120.00
G01 X28.9992 Y-43.6547 F120.00
G01 X29.0158 Y-43.5439 F120.00
G01 X29.0212 Y-43.4340 F120.00
G01 X29.0158 Y-43.3241 F120.00
G01 X28.9992 Y-43.2133 F120.00
G00 Z2.0000
G00 X28.1207 Y-44.5332
G01 F60.00
G01 Z-0.0801
G01 F120.00
G01 X28.4872 Y-44.8997 F120.00
G01 X28.3894 Y-44.9402 F120.00
G01 X28.1477 Y-44.9982 F120.00
G01 X27.9000 Y-45.0177 F120.00
G01 X27.6523 Y-44.9982 F120.00
G01 X27.4106 Y-44.9402 F120.00
G01 X27.3128 Y-44.8997 F120.00
G01 X27.6793 Y-44.5332 F120.00
G01 X27.7901 Y-44.5498 F120.00
G01 X27.9000 Y-44.5552 F120.00
G01 X28.0099 Y-44.5498 F120.00
G01 X28.1207 Y-44.5332 F120.00
G00 Z2.0000
G00 X24.3000 Y-55.5420
G01 F60.00
G01 Z-0.0801
G01 F120.00
G01 X24.8997 Y-55.5420 F120.00
G01 X24.8997 Y-23.3681 F120.00
G01 X24.9022 Y-23.3190 F120.00
G01 X24.9094 Y-23.2703 F120.00
G01 X24.9213 Y-23.2228 F120.00
G01 X24.9378 Y-23.1766 F120.00
G01 X24.9588 Y-23.1322 F120.00
G01 X24.9841 Y-23.0901 F120.00
G01 X25.0133 Y-23.0506 F120.00
G01 X25.0463 Y-23.0142 F120.00
G01 X25.1537 Y-22.9068 F120.00
G01 X25.1537 Y-16.0021 F120.00
G01 X25.1562 Y-15.9530 F120.00
G01 X25.1634 Y-15.9043 F120.00
G01 X25.1753 Y-15.8568 F120.00
G01 X25.1918 Y-15.8106 F120.00
G01 X25.2129 Y-15.7661 F120.00
G01 X25.2381 Y-15.7241 F120.00
G01 X25.2673 Y-15.6846 F120.00
G01 X25.3003 Y-15.6482 F120.00
G01 X26.1697 Y-14.7788 F120.00
G01 X26.1697 Y-13.6761 F120.00
G01 X26.1722 Y-13.6270 F120.00
G01 X26.1794 Y-13.5784 F120.00
G01 X26.1913 Y-13.5308 F120.00
G01 X26.2078 Y-13.4846 F120.00
G01 X26.2288 Y-13.4402 F120.00
G01 X26.2541 Y-13.3981 F120.00
G01 X26.2833 Y-13.3586 F120.00
G01 X26.3163 Y-13.3223 F120.00
G01 X26.3462 Y-13.2924 F120.00
G01 X26.3394 Y-13.2733 F120.00
G01 X26.3131 Y-13.1686 F120.00
G01 X26.2973 Y-13.0618 F120.00
G01 X26.2920 Y-12.9540 F120.00
G01 X26.2973 Y-12.8462 F120.00
G01 X26.3131 Y-12.7394 F120.00
G01 X26.3394 Y-12.6347 F120.00
G01 X26.3757 Y-12.5330 F120.00
G01 X26.4219 Y-12.4355 F120.00
G01 X26.4774 Y-12.3429 F120.00
G01 X26.5416 Y-12.2562 F120.00
G01 X26.6142 Y-12.1762 F120.00
G01 X26.6942 Y-12.1036 F120.00
G01 X26.7809 Y-12.0394 F120.00
G01 X26.8735 Y-11.9839 F120.00
G01 X26.9710 Y-11.9377 F120.00
G01 X27.0726 Y-11.9014 F120.00
G01 X27.1774 Y-11.8751 F120.00
G01 X27.2842 Y-11.8593 F120.00
G01 X27.3919 Y-11.8540 F120.00
G01 X27.4998 Y-11.8593 F120.00
G01 X27.6066 Y-11.8751 F120.00
G01 X27.7113 Y-11.9014 F120.00
G01 X27.8130 Y-11.9377 F120.00
G01 X27.9105 Y-11.9839 F120.00
G01 X28.0031 Y-12.0394 F120.00
G01 X28.0898 Y-12.1037 F120.00
G01 X28.1698 Y-12.1762 F120.00
G01 X28.2423 Y-12.2562 F120.00
G01 X28.3066 Y-12.3429 F120.00
G01 X28.3621 Y-12.4355 F120.00
G01 X28.4083 Y-12.5330 F120.00
G01 X28.4446 Y-12.6347 F120.00
G01 X28.4709 Y-12.7394 F120.00
G01 X28.4867 Y-12.8462 F120.00
G01 X28.4920 Y-12.9540 F120.00
G01 X28.4867 Y-13.0619 F120.00
G01 X28.4709 Y-13.1686 F120.00
G01 X28.4446 Y-13.2733 F120.00
G01 X28.4083 Y-13.3750 F120.00
G01 X28.3621 Y-13.4726 F120.00
G01 X28.3066 Y-13.5651 F120.00
G01 X28.2423 Y-13.6519 F120.00
G01 X28.1698 Y-13.7318 F120.00
G01 X28.0899 Y-13.8043 F120.00
G01 X28.0032 Y-13.8686 F120.00
G01 X27.9105 Y-13.9241 F120.00
G01 X27.8130 Y-13.9703 F120.00
G01 X27.7113 Y-14.0066 F120.00
G01 X27.6066 Y-14.0329 F120.00
G01 X27.4998 Y-14.0487 F120.00
G01 X27.3920 Y-14.0540 F120.00
G01 X27.2842 Y-14.0487 F120.00
G01 X27.1703 Y-14.0318 F120.00
G01 X27.1702 Y-14.9860 F120.00
G01 X27.1678 Y-15.0350 F120.00
G01 X27.1606 Y-15.0836 F120.00
G01 X27.1487 Y-15.1312 F120.00
G01 X27.1321 Y-15.1775 F120.00
G01 X27.1112 Y-15.2218 F120.00
G01 X27.0859 Y-15.2639 F120.00
G01 X27.0567 Y-15.3034 F120.00
G01 X27.0237 Y-15.3397 F120.00
G01 X26.1543 Y-16.2092 F120.00
G01 X26.1542 Y-23.1140 F120.00
G01 X26.1518 Y-23.1630 F120.00
G01 X26.1446 Y-23.2117 F120.00
G01 X26.1327 Y-23.2592 F120.00
G01 X26.1162 Y-23.3054 F120.00
G01 X26.0952 Y-23.3498 F120.00
G01 X26.0699 Y-23.3919 F120.00
G01 X26.0407 Y-23.4314 F120.00
G01 X26.0077 Y-23.4678 F120.00
G01 X25.9003 Y-23.5752 F120.00
G01 X25.9003 Y-55.5420 F120.00
G01 X26.5000 Y-55.5420 F120.00
G01 X26.5000 Y-57.7420 F120.00
G01 X24.3000 Y-57.7420 F120.00
G01 X24.3000 Y-55.5420 F120.00
G00 Z2.0000
G00 X8.0440 Y-45.3319
G01 F60.00
G01 Z-0.0801
G01 F120.00
G01 X8.0493 Y-45.2240 F120.00
G01 X8.0651 Y-45.1173 F120.00
G01 X8.0914 Y-45.0125 F120.00
G01 X8.1278 Y-44.9109 F120.00
G01 X8.1739 Y-44.8133 F120.00
G01 X8.2294 Y-44.7208 F120.00
G01 X8.2937 Y-44.6340 F120.00
G01 X8.3662 Y-44.5540 F120.00
G01 X8.4461 Y-44.4816 F120.00
G01 X8.5329 Y-44.4172 F120.00
G01 X8.6255 Y-44.3617 F120.00
G01 X8.6437 Y-44.3531 F120.00
G01 X8.6437 Y-41.6188 F120.00
G01 X8.6255 Y-41.6101 F120.00
G01 X8.5329 Y-41.5546 F120.00
G01 X8.4462 Y-41.4903 F120.00
G01 X8.3662 Y-41.4178 F120.00
G01 X8.2937 Y-41.3378 F120.00
G01 X8.2294 Y-41.2511 F120.00
G01 X8.1739 Y-41.1585 F120.00
G01 X8.1277 Y-41.0610 F120.00
G01 X8.0913 Y-40.9593 F120.00
G01 X8.0651 Y-40.8546 F120.00
G01 X8.0493 Y-40.7479 F120.00
G01 X8.0440 Y-40.6401 F120.00
G01 X8.0493 Y-40.5322 F120.00
G01 X8.0651 Y-40.4255 F120.00
G01 X8.0914 Y-40.3207 F120.00
G01 X8.1277 Y-40.2190 F120.00
G01 X8.1739 Y-40.1215 F120.00
G01 X8.2294 Y-40.0289 F120.00
G01 X8.2937 Y-39.9421 F120.00
G01 X8.3662 Y-39.8622 F120.00
G01 X8.4461 Y-39.7897 F120.00
G01 X8.5329 Y-39.7254 F120.00
G01 X8.6255 Y-39.6699 F120.00
G01 X8.6437 Y-39.6612 F120.00
G01 X8.6438 Y-39.6499 F120.00
G01 X8.6462 Y-39.6010 F120.00
G01 X8.6534 Y-39.5524 F120.00
G01 X8.6653 Y-39.5048 F120.00
G01 X8.6818 Y-39.4586 F120.00
G01 X8.7028 Y-39.4142 F120.00
G01 X8.7281 Y-39.3721 F120.00
G01 X8.7573 Y-39.3326 F120.00
G01 X8.7902 Y-39.2963 F120.00
G01 X10.4243 Y-37.6623 F120.00
G01 X10.4606 Y-37.6293 F120.00
G01 X10.5001 Y-37.6000 F120.00
G01 X10.5422 Y-37.5748 F120.00
G01 X10.5866 Y-37.5538 F120.00
G01 X10.6327 Y-37.5373 F120.00
G01 X10.6804 Y-37.5254 F120.00
G01 X10.7290 Y-37.5182 F120.00
G01 X10.7780 Y-37.5158 F120.00
G01 X10.8380 Y-37.5157 F120.00
G01 X10.8380 Y-36.9160 F120.00
G01 X13.0380 Y-36.9160 F120.00
G01 X13.0380 Y-37.3685 F120.00
G01 X15.2477 Y-35.1588 F120.00
G01 X15.2477 Y-24.6381 F120.00
G01 X15.2502 Y-24.5890 F120.00
G01 X15.2574 Y-24.5404 F120.00
G01 X15.2693 Y-24.4928 F120.00
G01 X15.2858 Y-24.4466 F120.00
G01 X15.3068 Y-24.4022 F120.00
G01 X15.3321 Y-24.3601 F120.00
G01 X15.3613 Y-24.3206 F120.00
G01 X15.3943 Y-24.2843 F120.00
G01 X15.4642 Y-24.2144 F120.00
G01 X15.4574 Y-24.1953 F120.00
G01 X15.4311 Y-24.0905 F120.00
G01 X15.4153 Y-23.9838 F120.00
G01 X15.4100 Y-23.8759 F120.00
G01 X15.4153 Y-23.7682 F120.00
G01 X15.4311 Y-23.6614 F120.00
G01 X15.4574 Y-23.5567 F120.00
G01 X15.4937 Y-23.4550 F120.00
G01 X15.5399 Y-23.3575 F120.00
G01 X15.5954 Y-23.2649 F120.00
G01 X15.6597 Y-23.1782 F120.00
G01 X15.7321 Y-23.0982 F120.00
G01 X15.8122 Y-23.0257 F120.00
G01 X15.8988 Y-22.9614 F120.00
G01 X15.9915 Y-22.9059 F120.00
G01 X16.0097 Y-22.8972 F120.00
G01 X16.0097 Y-22.0797 F120.00
G01 X15.9515 Y-22.0521 F120.00
G01 X15.8589 Y-21.9966 F120.00
G01 X15.7722 Y-21.9323 F120.00
G01 X15.6922 Y-21.8598 F120.00
G01 X15.6197 Y-21.7798 F120.00
G01 X15.5554 Y-21.6931 F120.00
G01 X15.4999 Y-21.6005 F120.00
G01 X15.4537 Y-21.5030 F120.00
G01 X15.4174 Y-21.4014 F120.00
G01 X15.3912 Y-21.2967 F120.00
G01 X15.3753 Y-21.1898 F120.00
G01 X15.3700 Y-21.0820 F120.00
G01 X15.3753 Y-20.9742 F120.00
G01 X15.3911 Y-20.8674 F120.00
G01 X15.4173 Y-20.7627 F120.00
G01 X15.4537 Y-20.6610 F120.00
G01 X15.4999 Y-20.5635 F120.00
G01 X15.5554 Y-20.4708 F120.00
G01 X15.6197 Y-20.3841 F120.00
G01 X15.6922 Y-20.3042 F120.00
G01 X15.7721 Y-20.2317 F120.00
G01 X15.8589 Y-20.1674 F120.00
G01 X15.9515 Y-20.1119 F120.00
G01 X16.0490 Y-20.0657 F120.00
G01 X16.1507 Y-20.0294 F120.00
G01 X16.2554 Y-20.0031 F120.00
G01 X16.3622 Y-19.9873 F120.00
G01 X16.4700 Y-19.9820 F120.00
G01 X16.5778 Y-19.9873 F120.00
G01 X16.6846 Y-20.0031 F120.00
G01 X16.7893 Y-20.0294 F120.00
G01 X16.8910 Y-20.0657 F120.00
G01 X16.9885 Y-20.1119 F120.00
G01 X17.0124 Y-20.1262 F120.00
G01 X18.7120 Y-18.4265 F120.00
G01 X18.7120 Y-16.9340 F120.00
G01 X20.9120 Y-16.9340 F120.00
G01 X20.9120 Y-19.1340 F120.00
G01 X19.4195 Y-19.1340 F120.00
G01 X17.5654 Y-20.9881 F120.00
G01 X17.5700 Y-21.0820 F120.00
G01 X17.5647 Y-21.1898 F120.00
G01 X17.5489 Y-21.2966 F120.00
G01 X17.5226 Y-21.4013 F120.00
G01 X17.4863 Y-21.5029 F120.00
G01 X17.4401 Y-21.6005 F120.00
G01 X17.3846 Y-21.6931 F120.00
G01 X17.3204 Y-21.7798 F120.00
G01 X17.2478 Y-21.8598 F120.00
G01 X17.1678 Y-21.9324 F120.00
G01 X17.0811 Y-21.9966 F120.00
G01 X17.0103 Y-22.0391 F120.00
G01 X17.0103 Y-22.8972 F120.00
G01 X17.0285 Y-22.9059 F120.00
G01 X17.1212 Y-22.9614 F120.00
G01 X17.2078 Y-23.0257 F120.00
G01 X17.2879 Y-23.0982 F120.00
G01 X17.3603 Y-23.1782 F120.00
G01 X17.4246 Y-23.2649 F120.00
G01 X17.4801 Y-23.3575 F120.00
G01 X17.5263 Y-23.4550 F120.00
G01 X17.5626 Y-23.5567 F120.00
G01 X17.5889 Y-23.6614 F120.00
G01 X17.6047 Y-23.7682 F120.00
G01 X17.6100 Y-23.8759 F120.00
G01 X17.6047 Y-23.9839 F120.00
G01 X17.5889 Y-24.0906 F120.00
G01 X17.5626 Y-24.1953 F120.00
G01 X17.5263 Y-24.2970 F120.00
G01 X17.4801 Y-24.3945 F120.00
G01 X17.4246 Y-24.4871 F120.00
G01 X17.3603 Y-24.5738 F120.00
G01 X17.2878 Y-24.6538 F120.00
G01 X17.2078 Y-24.7263 F120.00
G01 X17.1211 Y-24.7906 F120.00
G01 X17.0285 Y-24.8461 F120.00
G01 X16.9310 Y-24.8923 F120.00
G01 X16.8293 Y-24.9286 F120.00
G01 X16.7246 Y-24.9549 F120.00
G01 X16.6178 Y-24.9707 F120.00
G01 X16.5100 Y-24.9760 F120.00
G01 X16.4022 Y-24.9707 F120.00
G01 X16.2954 Y-24.9549 F120.00
G01 X16.2483 Y-24.9431 F120.00
G01 X16.2483 Y-35.3659 F120.00
G01 X16.2458 Y-35.4150 F120.00
G01 X16.2386 Y-35.4637 F120.00
G01 X16.2267 Y-35.5112 F120.00
G01 X16.2102 Y-35.5574 F120.00
G01 X16.1892 Y-35.6018 F120.00
G01 X16.1639 Y-35.6439 F120.00
G01 X16.1347 Y-35.6833 F120.00
G01 X16.1017 Y-35.7198 F120.00
G01 X13.4517 Y-38.3698 F120.00
G01 X13.4154 Y-38.4027 F120.00
G01 X13.3759 Y-38.4320 F120.00
G01 X13.3338 Y-38.4572 F120.00
G01 X13.2894 Y-38.4782 F120.00
G01 X13.2433 Y-38.4947 F120.00
G01 X13.1956 Y-38.5066 F120.00
G01 X13.1470 Y-38.5138 F120.00
G01 X13.0980 Y-38.5162 F120.00
G01 X13.0380 Y-38.5163 F120.00
G01 X13.0380 Y-39.1160 F120.00
G01 X10.8380 Y-39.1160 F120.00
G01 X10.8380 Y-38.6635 F120.00
G01 X9.7672 Y-39.7343 F120.00
G01 X9.8418 Y-39.7897 F120.00
G01 X9.9218 Y-39.8621 F120.00
G01 X9.9943 Y-39.9421 F120.00
G01 X10.0586 Y-40.0289 F120.00
G01 X10.1141 Y-40.1215 F120.00
G01 X10.1603 Y-40.2190 F120.00
G01 X10.1967 Y-40.3207 F120.00
G01 X10.2229 Y-40.4254 F120.00
G01 X10.2387 Y-40.5321 F120.00
G01 X10.2440 Y-40.6400 F120.00
G01 X10.2387 Y-40.7479 F120.00
G01 X10.2229 Y-40.8546 F120.00
G01 X10.1966 Y-40.9593 F120.00
G01 X10.1602 Y-41.0610 F120.00
G01 X10.1141 Y-41.1585 F120.00
G01 X10.0586 Y-41.2511 F120.00
G01 X9.9943 Y-41.3379 F120.00
G01 X9.9218 Y-41.4178 F120.00
G01 X9.8419 Y-41.4903 F120.00
G01 X9.7551 Y-41.5546 F120.00
G01 X9.6625 Y-41.6101 F120.00
G01 X9.6443 Y-41.6188 F120.00
G01 X9.6443 Y-44.3531 F120.00
G01 X9.6625 Y-44.3617 F120.00
G01 X9.7551 Y-44.4172 F120.00
G01 X9.8419 Y-44.4816 F120.00
G01 X9.9218 Y-44.5540 F120.00
G01 X9.9943 Y-44.6340 F120.00
G01 X10.0586 Y-44.7208 F120.00
G01 X10.1141 Y-44.8133 F120.00
G01 X10.1602 Y-44.9109 F120.00
G01 X10.1966 Y-45.0125 F120.00
G01 X10.2229 Y-45.1173 F120.00
G01 X10.2387 Y-45.2240 F120.00
G01 X10.2440 Y-45.3319 F120.00
G01 X10.2387 Y-45.4397 F120.00
G01 X10.2229 Y-45.5465 F120.00
G01 X10.1966 Y-45.6512 F120.00
G01 X10.1602 Y-45.7529 F120.00
G01 X10.1141 Y-45.8504 F120.00
G01 X10.0586 Y-45.9429 F120.00
G01 X9.9943 Y-46.0297 F120.00
G01 X9.9218 Y-46.1097 F120.00
G01 X9.8419 Y-46.1821 F120.00
G01 X9.7551 Y-46.2465 F120.00
G01 X9.6625 Y-46.3020 F120.00
G01 X9.6443 Y-46.3106 F120.00
G01 X9.6443 Y-47.0368 F120.00
G01 X15.5937 Y-52.9862 F120.00
G01 X15.6267 Y-53.0226 F120.00
G01 X15.6559 Y-53.0621 F120.00
G01 X15.6812 Y-53.1042 F120.00
G01 X15.7022 Y-53.1486 F120.00
G01 X15.7187 Y-53.1948 F120.00
G01 X15.7306 Y-53.2424 F120.00
G01 X15.7378 Y-53.2909 F120.00
G01 X15.7402 Y-53.3400 F120.00
G01 X15.7403 Y-55.5420 F120.00
G01 X16.3400 Y-55.5420 F120.00
G01 X16.3400 Y-57.7420 F120.00
G01 X14.1400 Y-57.7420 F120.00
G01 X14.1400 Y-55.5420 F120.00
G01 X14.7397 Y-55.5420 F120.00
G01 X14.7397 Y-53.5472 F120.00
G01 X8.7903 Y-47.5978 F120.00
G01 X8.7573 Y-47.5614 F120.00
G01 X8.7281 Y-47.5219 F120.00
G01 X8.7029 Y-47.4799 F120.00
G01 X8.6818 Y-47.4354 F120.00
G01 X8.6653 Y-47.3892 F120.00
G01 X8.6534 Y-47.3417 F120.00
G01 X8.6462 Y-47.2930 F120.00
G01 X8.6437 Y-47.2439 F120.00
G01 X8.6437 Y-46.3106 F120.00
G01 X8.6255 Y-46.3020 F120.00
G01 X8.5329 Y-46.2465 F120.00
G01 X8.4461 Y-46.1821 F120.00
G01 X8.3662 Y-46.1097 F120.00
G01 X8.2937 Y-46.0297 F120.00
G01 X8.2294 Y-45.9429 F120.00
G01 X8.1739 Y-45.8504 F120.00
G01 X8.1278 Y-45.7529 F120.00
G01 X8.0914 Y-45.6512 F120.00
G01 X8.0651 Y-45.5465 F120.00
G01 X8.0493 Y-45.4397 F120.00
G01 X8.0440 Y-45.3319 F120.00
G00 Z2.0000
G00 X1.0505 Y-53.6687
G01 F60.00
G01 Z-0.0801
G01 F120.00
G01 X1.0527 Y-53.5798 F120.00
G01 X1.0527 Y-24.2013 F120.00
G01 X1.0516 Y-24.1834 F120.00
G01 X1.0480 Y-24.1549 F120.00
G01 X1.0523 Y-24.0975 F120.00
G01 X1.0527 Y-24.0873 F120.00
G01 X1.0527 Y-24.0304 F120.00
G01 X1.0585 Y-24.0023 F120.00
G01 X1.0608 Y-23.9858 F120.00
G01 X1.0631 Y-23.9563 F120.00
G01 X1.0789 Y-23.9010 F120.00
G01 X1.0813 Y-23.8910 F120.00
G01 X1.0928 Y-23.8353 F120.00
G01 X1.1044 Y-23.8081 F120.00
G01 X1.1100 Y-23.7924 F120.00
G01 X1.1179 Y-23.7649 F120.00
G01 X1.1445 Y-23.7138 F120.00
G01 X1.1489 Y-23.7046 F120.00
G01 X1.1713 Y-23.6523 F120.00
G01 X1.1877 Y-23.6287 F120.00
G01 X1.1964 Y-23.6145 F120.00
G01 X1.2154 Y-23.5784 F120.00
G01 X1.2165 Y-23.5748 F120.00
G01 X1.2310 Y-23.5059 F120.00
G01 X1.2313 Y-23.5004 F120.00
G01 X1.2200 Y-23.3578 F120.00
G01 X1.2396 Y-23.1099 F120.00
G01 X1.2976 Y-22.8682 F120.00
G01 X1.3927 Y-22.6386 F120.00
G01 X1.5226 Y-22.4266 F120.00
G01 X1.6840 Y-22.2376 F120.00
G01 X1.8731 Y-22.0761 F120.00
G01 X2.0850 Y-21.9462 F120.00
G01 X2.3147 Y-21.8511 F120.00
G01 X2.5564 Y-21.7931 F120.00
G01 X2.8042 Y-21.7736 F120.00
G01 X3.0521 Y-21.7931 F120.00
G01 X3.2938 Y-21.8511 F120.00
G01 X3.5234 Y-21.9462 F120.00
G01 X3.7354 Y-22.0761 F120.00
G01 X3.9244 Y-22.2376 F120.00
G01 X4.0859 Y-22.4266 F120.00
G01 X4.2158 Y-22.6386 F120.00
G01 X4.3109 Y-22.8682 F120.00
G01 X4.3689 Y-23.1099 F120.00
G01 X4.3884 Y-23.3578 F120.00
G01 X4.3689 Y-23.6056 F120.00
G01 X4.3109 Y-23.8473 F120.00
G01 X4.2158 Y-24.0770 F120.00
G01 X4.0859 Y-24.2889 F120.00
G01 X3.9244 Y-24.4780 F120.00
G01 X3.7354 Y-24.6394 F120.00
G01 X3.5234 Y-24.7693 F120.00
G01 X3.2938 Y-24.8644 F120.00
G01 X3.1221 Y-24.9056 F120.00
G01 X3.0980 Y-24.9139 F120.00
G01 X3.0948 Y-24.9153 F120.00
G01 X3.0912 Y-24.9178 F120.00
G01 X3.0383 Y-24.9637 F120.00
G01 X3.0345 Y-24.9680 F120.00
G01 X3.0319 Y-24.9736 F120.00
G01 X3.0121 Y-25.0408 F120.00
G01 X3.0114 Y-25.0442 F120.00
G01 X3.0113 Y-32.8453 F120.00
G01 X3.0117 Y-32.8559 F120.00
G01 X3.0126 Y-32.8605 F120.00
G01 X3.0374 Y-32.9270 F120.00
G01 X3.0398 Y-32.9316 F120.00
G01 X3.0441 Y-32.9362 F120.00
G01 X3.1005 Y-32.9784 F120.00
G01 X3.1041 Y-32.9805 F120.00
G01 X3.1075 Y-32.9818 F120.00
G01 X3.1116 Y-32.9825 F120.00
G01 X3.1814 Y-32.9875 F120.00
G01 X3.1876 Y-32.9870 F120.00
G01 X3.1930 Y-32.9850 F120.00
G01 X3.2544 Y-32.9515 F120.00
G01 X3.2591 Y-32.9479 F120.00
G01 X8.9931 Y-27.2139 F120.00
G01 X9.0050 Y-27.2005 F120.00
G01 X9.0226 Y-27.1778 F120.00
G01 X9.0662 Y-27.1403 F120.00
G01 X9.0737 Y-27.1333 F120.00
G01 X9.1139 Y-27.0931 F120.00
G01 X9.1379 Y-27.0773 F120.00
G01 X9.1512 Y-27.0673 F120.00
G01 X9.1737 Y-27.0481 F120.00
G01 X9.2240 Y-27.0201 F120.00
G01 X9.2328 Y-27.0148 F120.00
G01 X9.2803 Y-26.9835 F120.00
G01 X9.3077 Y-26.9725 F120.00
G01 X9.3227 Y-26.9654 F120.00
G01 X9.3478 Y-26.9514 F120.00
G01 X9.4021 Y-26.9344 F120.00
G01 X9.4117 Y-26.9310 F120.00
G01 X9.4652 Y-26.9096 F120.00
G01 X9.4943 Y-26.9044 F120.00
G01 X9.5104 Y-26.9004 F120.00
G01 X9.5379 Y-26.8918 F120.00
G01 X9.5944 Y-26.8860 F120.00
G01 X9.6046 Y-26.8846 F120.00
G01 X9.6613 Y-26.8745 F120.00
G01 X9.7502 Y-26.8767 F120.00
G01 X10.2140 Y-26.8767 F120.00
G01 X10.2179 Y-26.8762 F120.00
G01 X10.2696 Y-26.8650 F120.00
G01 X10.2745 Y-26.8632 F120.00
G01 X10.2789 Y-26.8604 F120.00
G01 X10.3318 Y-26.8145 F120.00
G01 X10.3346 Y-26.8115 F120.00
G01 X10.3368 Y-26.8079 F120.00
G01 X10.3381 Y-26.8046 F120.00
G01 X10.3583 Y-26.7355 F120.00
G01 X10.3587 Y-26.7320 F120.00
G01 X10.3587 Y-26.7093 F120.00
G01 X10.3647 Y-26.6534 F120.00
G01 X10.4130 Y-26.5239 F120.00
G01 X10.4956 Y-26.4136 F120.00
G01 X10.6059 Y-26.3310 F120.00
G01 X10.7354 Y-26.2827 F120.00
G01 X10.7913 Y-26.2767 F120.00
G01 X13.0896 Y-26.2769 F120.00
G01 X13.0938 Y-26.2764 F120.00
G01 X13.0974 Y-26.2752 F120.00
G01 X13.1549 Y-26.2659 F120.00
G01 X13.1602 Y-26.2641 F120.00
G01 X13.1648 Y-26.2611 F120.00
G01 X13.2199 Y-26.2131 F120.00
G01 X13.2223 Y-26.2096 F120.00
G01 X13.2241 Y-26.2053 F120.00
G01 X13.2439 Y-26.1382 F120.00
G01 X13.2447 Y-26.1323 F120.00
G01 X13.2447 Y-24.5436 F120.00
G01 X13.2441 Y-24.5388 F120.00
G01 X13.2310 Y-24.4832 F120.00
G01 X13.2292 Y-24.4784 F120.00
G01 X13.2263 Y-24.4741 F120.00
G01 X13.1782 Y-24.4225 F120.00
G01 X13.1743 Y-24.4192 F120.00
G01 X13.1715 Y-24.4177 F120.00
G01 X13.1681 Y-24.4165 F120.00
G01 X13.1003 Y-24.3992 F120.00
G01 X13.0962 Y-24.3985 F120.00
G01 X13.0925 Y-24.3987 F120.00
G01 X13.0884 Y-24.3996 F120.00
G01 X13.0220 Y-24.4217 F120.00
G01 X13.0178 Y-24.4237 F120.00
G01 X13.0148 Y-24.4258 F120.00
G01 X13.0126 Y-24.4281 F120.00
G01 X12.9805 Y-24.4680 F120.00
G01 X12.6092 Y-24.0967 F120.00
G01 X12.6258 Y-23.9859 F120.00
G01 X12.6312 Y-23.8760 F120.00
G01 X12.6258 Y-23.7661 F120.00
G01 X12.6092 Y-23.6553 F120.00
G01 X12.9797 Y-23.2848 F120.00
G01 X13.0014 Y-23.3149 F120.00
G01 X13.0039 Y-23.3176 F120.00
G01 X13.0067 Y-23.3199 F120.00
G01 X13.0735 Y-23.3506 F120.00
G01 X13.0775 Y-23.3519 F120.00
G01 X13.0822 Y-23.3523 F120.00
G01 X13.1541 Y-23.3421 F120.00
G01 X13.1576 Y-23.3413 F120.00
G01 X13.1605 Y-23.3401 F120.00
G01 X13.1648 Y-23.3372 F120.00
G01 X13.2181 Y-23.2911 F120.00
G01 X13.2218 Y-23.2866 F120.00
G01 X13.2240 Y-23.2819 F120.00
G01 X13.2439 Y-23.2143 F120.00
G01 X13.2447 Y-23.2089 F120.00
G01 X13.2445 Y-21.6503 F120.00
G01 X13.2310 Y-21.5926 F120.00
G01 X13.2290 Y-21.5873 F120.00
G01 X13.2259 Y-21.5832 F120.00
G01 X13.1772 Y-21.5309 F120.00
G01 X13.1734 Y-21.5281 F120.00
G01 X13.1685 Y-21.5260 F120.00
G01 X13.0998 Y-21.5085 F120.00
G01 X13.0935 Y-21.5080 F120.00
G01 X13.0884 Y-21.5090 F120.00
G01 X13.0216 Y-21.5313 F120.00
G01 X13.0173 Y-21.5334 F120.00
G01 X13.0137 Y-21.5363 F120.00
G01 X12.9667 Y-21.5948 F120.00
G01 X12.9357 Y-21.6692 F120.00
G01 X12.5692 Y-21.3027 F120.00
G01 X12.5858 Y-21.1919 F120.00
G01 X12.5912 Y-21.0820 F120.00
G01 X12.5858 Y-20.9721 F120.00
G01 X12.5692 Y-20.8613 F120.00
G01 X12.9357 Y-20.4948 F120.00
G01 X12.9663 Y-20.5685 F120.00
G01 X13.0024 Y-20.6187 F120.00
G01 X13.0055 Y-20.6215 F120.00
G01 X13.0090 Y-20.6237 F120.00
G01 X13.0755 Y-20.6539 F120.00
G01 X13.0801 Y-20.6548 F120.00
G01 X13.0843 Y-20.6547 F120.00
G01 X13.1541 Y-20.6447 F120.00
G01 X13.1601 Y-20.6429 F120.00
G01 X13.1648 Y-20.6398 F120.00
G01 X13.2181 Y-20.5936 F120.00
G01 X13.2215 Y-20.5897 F120.00
G01 X13.2238 Y-20.5849 F120.00
G01 X13.2439 Y-20.5168 F120.00
G01 X13.2447 Y-20.5114 F120.00
G01 X13.2447 Y-19.7496 F120.00
G01 X13.2440 Y-19.7451 F120.00
G01 X13.2266 Y-19.6817 F120.00
G01 X13.2244 Y-19.6766 F120.00
G01 X13.2206 Y-19.6719 F120.00
G01 X13.1683 Y-19.6232 F120.00
G01 X13.1638 Y-19.6205 F120.00
G01 X13.1593 Y-19.6190 F120.00
G01 X13.0899 Y-19.6065 F120.00
G01 X13.0865 Y-19.6062 F120.00
G01 X13.0187 Y-19.6133 F120.00
G01 X12.1203 Y-19.6133 F120.00
G01 X12.0902 Y-19.6165 F120.00
G01 X12.0871 Y-19.6173 F120.00
G01 X12.0839 Y-19.6187 F120.00
G01 X12.0224 Y-19.6522 F120.00
G01 X12.0184 Y-19.6551 F120.00
G01 X11.6907 Y-19.9828 F120.00
G01 X11.5799 Y-19.9662 F120.00
G01 X11.4700 Y-19.9608 F120.00
G01 X11.3601 Y-19.9662 F120.00
G01 X11.2493 Y-19.9828 F120.00
G01 X10.9223 Y-19.6558 F120.00
G01 X10.8974 Y-19.6359 F120.00
G01 X10.8927 Y-19.6339 F120.00
G01 X10.8256 Y-19.6141 F120.00
G01 X10.8222 Y-19.6134 F120.00
G01 X10.7253 Y-19.6133 F120.00
G01 X10.6694 Y-19.6073 F120.00
G01 X10.5399 Y-19.5590 F120.00
G01 X10.4296 Y-19.4764 F120.00
G01 X10.3470 Y-19.3661 F120.00
G01 X10.2987 Y-19.2366 F120.00
G01 X10.2927 Y-19.1807 F120.00
G01 X10.2927 Y-17.6487 F120.00
G01 X10.2923 Y-17.6376 F120.00
G01 X10.2911 Y-17.6326 F120.00
G01 X10.2664 Y-17.5666 F120.00
G01 X10.2636 Y-17.5616 F120.00
G01 X10.2595 Y-17.5575 F120.00
G01 X10.2035 Y-17.5156 F120.00
G01 X10.1980 Y-17.5126 F120.00
G01 X10.1924 Y-17.5115 F120.00
G01 X10.1211 Y-17.5064 F120.00
G01 X10.1164 Y-17.5070 F120.00
G01 X10.1114 Y-17.5088 F120.00
G01 X10.0496 Y-17.5425 F120.00
G01 X10.0449 Y-17.5461 F120.00
G01 X7.9589 Y-19.6321 F120.00
G01 X7.9361 Y-19.6628 F120.00
G01 X7.9335 Y-19.6677 F120.00
G01 X7.9181 Y-19.7400 F120.00
G01 X7.9179 Y-19.7450 F120.00
G01 X7.9240 Y-19.8222 F120.00
G01 X7.9044 Y-20.0701 F120.00
G01 X7.8464 Y-20.3118 F120.00
G01 X7.7513 Y-20.5414 F120.00
G01 X7.6214 Y-20.7534 F120.00
G01 X7.4600 Y-20.9424 F120.00
G01 X7.2709 Y-21.1039 F120.00
G01 X7.0590 Y-21.2338 F120.00
G01 X6.8293 Y-21.3289 F120.00
G01 X6.5876 Y-21.3869 F120.00
G01 X6.3398 Y-21.4064 F120.00
G01 X6.0919 Y-21.3869 F120.00
G01 X5.8502 Y-21.3289 F120.00
G01 X5.6206 Y-21.2338 F120.00
G01 X5.4086 Y-21.1039 F120.00
G01 X5.2196 Y-20.9424 F120.00
G01 X5.0581 Y-20.7534 F120.00
G01 X4.9282 Y-20.5414 F120.00
G01 X4.8331 Y-20.3118 F120.00
G01 X4.7751 Y-20.0701 F120.00
G01 X4.7556 Y-19.8222 F120.00
G01 X4.7751 Y-19.5744 F120.00
G01 X4.8331 Y-19.3327 F120.00
G01 X4.9282 Y-19.1030 F120.00
G01 X5.0581 Y-18.8911 F120.00
G01 X5.2196 Y-18.7020 F120.00
G01 X5.4086 Y-18.5406 F120.00
G01 X5.6206 Y-18.4107 F120.00
G01 X5.8502 Y-18.3156 F120.00
G01 X6.0919 Y-18.2576 F120.00
G01 X6.3398 Y-18.2380 F120.00
G01 X6.4990 Y-18.2506 F120.00
G01 X6.5392 Y-18.2480 F120.00
G01 X6.5427 Y-18.2472 F120.00
G01 X6.5464 Y-18.2456 F120.00
G01 X6.6078 Y-18.2120 F120.00
G01 X6.6111 Y-18.2098 F120.00
G01 X9.9691 Y-14.8519 F120.00
G01 X9.9810 Y-14.8385 F120.00
G01 X9.9986 Y-14.8158 F120.00
G01 X10.0422 Y-14.7783 F120.00
G01 X10.0497 Y-14.7713 F120.00
G01 X10.0899 Y-14.7311 F120.00
G01 X10.1139 Y-14.7153 F120.00
G01 X10.1272 Y-14.7053 F120.00
G01 X10.1497 Y-14.6861 F120.00
G01 X10.2000 Y-14.6581 F120.00
G01 X10.2085 Y-14.6530 F120.00
G01 X10.2275 Y-14.6405 F120.00
G01 X10.2308 Y-14.6378 F120.00
G01 X10.2673 Y-14.6008 F120.00
G01 X10.2706 Y-14.5962 F120.00
G01 X10.2721 Y-14.5924 F120.00
G01 X10.2921 Y-14.5243 F120.00
G01 X10.2927 Y-14.5193 F120.00
G01 X10.2927 Y-14.3473 F120.00
G01 X10.2987 Y-14.2914 F120.00
G01 X10.3054 Y-14.2734 F120.00
G01 X10.3107 Y-14.2554 F120.00
G01 X10.3113 Y-14.2504 F120.00
G01 X10.3061 Y-14.1781 F120.00
G01 X10.3051 Y-14.1737 F120.00
G01 X10.2987 Y-14.1566 F120.00
G01 X10.2927 Y-14.1007 F120.00
G01 X10.2927 Y-11.8073 F120.00
G01 X10.2987 Y-11.7514 F120.00
G01 X10.3054 Y-11.7334 F120.00
G01 X10.3107 Y-11.7154 F120.00
G01 X10.3113 Y-11.7104 F120.00
G01 X10.3061 Y-11.6381 F120.00
G01 X10.3051 Y-11.6337 F120.00
G01 X10.2987 Y-11.6166 F120.00
G01 X10.2927 Y-11.5607 F120.00
G01 X10.2927 Y-9.5355 F120.00
G01 X10.2923 Y-9.5314 F120.00
G01 X10.2815 Y-9.4797 F120.00
G01 X10.2800 Y-9.4764 F120.00
G01 X10.2777 Y-9.4730 F120.00
G01 X10.2330 Y-9.4192 F120.00
G01 X10.2284 Y-9.4150 F120.00
G01 X10.2232 Y-9.4126 F120.00
G01 X10.1561 Y-9.3913 F120.00
G01 X10.1514 Y-9.3905 F120.00
G01 X10.1467 Y-9.3907 F120.00
G01 X10.0771 Y-9.4094 F120.00
G01 X10.0734 Y-9.4108 F120.00
G01 X9.8632 Y-9.5395 F120.00
G01 X9.6335 Y-9.6346 F120.00
G01 X9.3918 Y-9.6927 F120.00
G01 X9.1440 Y-9.7122 F120.00
G01 X8.8962 Y-9.6927 F120.00
G01 X8.6545 Y-9.6346 F120.00
G01 X8.4248 Y-9.5395 F120.00
G01 X8.2128 Y-9.4096 F120.00
G01 X8.0238 Y-9.2482 F120.00
G01 X7.8624 Y-9.0592 F120.00
G01 X7.7325 Y-8.8472 F120.00
G01 X7.6374 Y-8.6175 F120.00
G01 X7.5793 Y-8.3758 F120.00
G01 X7.5598 Y-8.1280 F120.00
G01 X7.5793 Y-7.8802 F120.00
G01 X7.6374 Y-7.6385 F120.00
G01 X7.7325 Y-7.4088 F120.00
G01 X7.8624 Y-7.1968 F120.00
G01 X8.0238 Y-7.0078 F120.00
G01 X8.2128 Y-6.8464 F120.00
G01 X8.4248 Y-6.7165 F120.00
G01 X8.6545 Y-6.6214 F120.00
G01 X8.8962 Y-6.5633 F120.00
G01 X9.1440 Y-6.5438 F120.00
G01 X9.3918 Y-6.5633 F120.00
G01 X9.6335 Y-6.6214 F120.00
G01 X9.8632 Y-6.7165 F120.00
G01 X10.0752 Y-6.8464 F120.00
G01 X10.0918 Y-6.8605 F120.00
G01 X10.1079 Y-6.8723 F120.00
G01 X10.1122 Y-6.8741 F120.00
G01 X10.1813 Y-6.8943 F120.00
G01 X10.1853 Y-6.8947 F120.00
G01 X10.5600 Y-6.8947 F120.00
G01 X10.5639 Y-6.8942 F120.00
G01 X10.6160 Y-6.8829 F120.00
G01 X10.6205 Y-6.8813 F120.00
G01 X10.6245 Y-6.8787 F120.00
G01 X10.6777 Y-6.8325 F120.00
G01 X10.6815 Y-6.8282 F120.00
G01 X10.6841 Y-6.8226 F120.00
G01 X10.7040 Y-6.7550 F120.00
G01 X10.7047 Y-6.7496 F120.00
G01 X10.7047 Y-6.6404 F120.00
G01 X10.6992 Y-6.6025 F120.00
G01 X10.6980 Y-6.5982 F120.00
G01 X10.6960 Y-6.5941 F120.00
G01 X10.6560 Y-6.5332 F120.00
G01 X10.5638 Y-6.4542 F120.00
G01 X10.4024 Y-6.2652 F120.00
G01 X10.2725 Y-6.0532 F120.00
G01 X10.1774 Y-5.8235 F120.00
G01 X10.1193 Y-5.5818 F120.00
G01 X10.0998 Y-5.3340 F120.00
G01 X10.1193 Y-5.0862 F120.00
G01 X10.1774 Y-4.8445 F120.00
G01 X10.2725 Y-4.6148 F120.00
G01 X10.4024 Y-4.4028 F120.00
G01 X10.5638 Y-4.2138 F120.00
G01 X10.7528 Y-4.0524 F120.00
G01 X10.9648 Y-3.9225 F120.00
G01 X11.1945 Y-3.8274 F120.00
G01 X11.4362 Y-3.7693 F120.00
G01 X11.6840 Y-3.7498 F120.00
G01 X11.9318 Y-3.7693 F120.00
G01 X12.1735 Y-3.8274 F120.00
G01 X12.4032 Y-3.9225 F120.00
G01 X12.6152 Y-4.0524 F120.00
G01 X12.8042 Y-4.2138 F120.00
G01 X12.8774 Y-4.2996 F120.00
G01 X12.8916 Y-4.3139 F120.00
G01 X12.8948 Y-4.3164 F120.00
G01 X12.9611 Y-4.3469 F120.00
G01 X12.9671 Y-4.3486 F120.00
G01 X12.9728 Y-4.3486 F120.00
G01 X13.0426 Y-4.3386 F120.00
G01 X13.0466 Y-4.3375 F120.00
G01 X13.0504 Y-4.3356 F120.00
G01 X13.1057 Y-4.2879 F120.00
G01 X13.1098 Y-4.2831 F120.00
G01 X13.1121 Y-4.2779 F120.00
G01 X13.1319 Y-4.2108 F120.00
G01 X13.1326 Y-4.2064 F120.00
G01 X13.1327 Y-2.9423 F120.00
G01 X13.1387 Y-2.8864 F120.00
G01 X13.1870 Y-2.7569 F120.00
G01 X13.2696 Y-2.6466 F120.00
G01 X13.3799 Y-2.5640 F120.00
G01 X13.5094 Y-2.5157 F120.00
G01 X13.5653 Y-2.5097 F120.00
G01 X15.8587 Y-2.5097 F120.00
G01 X15.9146 Y-2.5157 F120.00
G01 X15.9326 Y-2.5224 F120.00
G01 X15.9506 Y-2.5277 F120.00
G01 X15.9556 Y-2.5282 F120.00
G01 X16.0279 Y-2.5231 F120.00
G01 X16.0323 Y-2.5221 F120.00
G01 X16.0494 Y-2.5157 F120.00
G01 X16.1053 Y-2.5097 F120.00
G01 X18.3987 Y-2.5097 F120.00
G01 X18.4546 Y-2.5157 F120.00
G01 X18.5841 Y-2.5640 F120.00
G01 X18.6944 Y-2.6466 F120.00
G01 X18.7770 Y-2.7569 F120.00
G01 X18.8253 Y-2.8864 F120.00
G01 X18.8313 Y-2.9423 F120.00
G01 X18.8313 Y-5.2357 F120.00
G01 X18.8253 Y-5.2916 F120.00
G01 X18.7770 Y-5.4211 F120.00
G01 X18.6944 Y-5.5314 F120.00
G01 X18.5841 Y-5.6140 F120.00
G01 X18.4546 Y-5.6623 F120.00
G01 X18.3987 Y-5.6683 F120.00
G01 X18.3735 Y-5.6685 F120.00
G01 X18.3174 Y-5.6809 F120.00
G01 X18.3141 Y-5.6825 F120.00
G01 X18.3115 Y-5.6843 F120.00
G01 X18.2583 Y-5.7305 F120.00
G01 X18.2548 Y-5.7343 F120.00
G01 X18.2525 Y-5.7385 F120.00
G01 X18.2321 Y-5.8076 F120.00
G01 X18.2313 Y-5.8130 F120.00
G01 X18.2313 Y-6.4209 F120.00
G01 X18.2419 Y-6.4733 F120.00
G01 X18.2438 Y-6.4786 F120.00
G01 X18.2463 Y-6.4824 F120.00
G01 X18.2923 Y-6.5378 F120.00
G01 X18.2961 Y-6.5407 F120.00
G01 X18.3003 Y-6.5427 F120.00
G01 X18.3675 Y-6.5640 F120.00
G01 X18.3726 Y-6.5650 F120.00
G01 X18.3789 Y-6.5644 F120.00
G01 X18.4473 Y-6.5459 F120.00
G01 X18.4523 Y-6.5437 F120.00
G01 X18.5848 Y-6.4625 F120.00
G01 X18.8145 Y-6.3674 F120.00
G01 X19.0562 Y-6.3093 F120.00
G01 X19.3040 Y-6.2898 F120.00
G01 X19.5518 Y-6.3093 F120.00
G01 X19.7935 Y-6.3674 F120.00
G01 X20.0232 Y-6.4625 F120.00
G01 X20.2352 Y-6.5924 F120.00
G01 X20.4242 Y-6.7538 F120.00
G01 X20.5017 Y-6.8446 F120.00
G01 X20.5309 Y-6.8701 F120.00
G01 X20.5333 Y-6.8719 F120.00
G01 X20.5365 Y-6.8735 F120.00
G01 X20.6055 Y-6.8939 F120.00
G01 X20.6099 Y-6.8946 F120.00
G01 X20.7571 Y-6.8947 F120.00
G01 X20.7746 Y-6.8936 F120.00
G01 X20.8031 Y-6.8900 F120.00
G01 X20.8605 Y-6.8943 F120.00
G01 X20.8707 Y-6.8947 F120.00
G01 X20.9276 Y-6.8947 F120.00
G01 X20.9557 Y-6.9005 F120.00
G01 X20.9722 Y-6.9028 F120.00
G01 X21.0017 Y-6.9051 F120.00
G01 X21.0564 Y-6.9207 F120.00
G01 X21.0663 Y-6.9232 F120.00
G01 X21.1227 Y-6.9348 F120.00
G01 X21.1499 Y-6.9464 F120.00
G01 X21.1655 Y-6.9520 F120.00
G01 X21.1931 Y-6.9599 F120.00
G01 X21.2436 Y-6.9862 F120.00
G01 X21.2528 Y-6.9906 F120.00
G01 X21.3057 Y-7.0133 F120.00
G01 X21.3300 Y-7.0302 F120.00
G01 X21.3442 Y-7.0388 F120.00
G01 X21.3697 Y-7.0521 F120.00
G01 X21.4138 Y-7.0880 F120.00
G01 X21.4219 Y-7.0942 F120.00
G01 X21.4692 Y-7.1271 F120.00
G01 X21.5306 Y-7.1916 F120.00
G01 X25.5341 Y-11.1951 F120.00
G01 X25.5475 Y-11.2070 F120.00
G01 X25.5702 Y-11.2245 F120.00
G01 X25.6077 Y-11.2682 F120.00
G01 X25.6147 Y-11.2757 F120.00
G01 X25.6549 Y-11.3160 F120.00
G01 X25.6707 Y-11.3399 F120.00
G01 X25.6807 Y-11.3532 F120.00
G01 X25.6999 Y-11.3757 F120.00
G01 X25.7279 Y-11.4260 F120.00
G01 X25.7332 Y-11.4348 F120.00
G01 X25.7645 Y-11.4822 F120.00
G01 X25.7755 Y-11.5097 F120.00
G01 X25.7826 Y-11.5247 F120.00
G01 X25.7966 Y-11.5498 F120.00
G01 X25.8136 Y-11.6041 F120.00
G01 X25.8170 Y-11.6137 F120.00
G01 X25.8384 Y-11.6672 F120.00
G01 X25.8434 Y-11.6955 F120.00
G01 X25.8474 Y-11.7116 F120.00
G01 X25.8562 Y-11.7399 F120.00
G01 X25.8620 Y-11.7971 F120.00
G01 X25.8635 Y-11.8073 F120.00
G01 X25.8735 Y-11.8633 F120.00
G01 X25.8725 Y-11.9051 F120.00
G01 X25.8739 Y-11.9278 F120.00
G01 X25.8744 Y-11.9313 F120.00
G01 X25.8758 Y-11.9353 F120.00
G01 X25.9055 Y-11.9991 F120.00
G01 X25.9081 Y-12.0031 F120.00
G01 X25.9119 Y-12.0067 F120.00
G01 X25.9727 Y-12.0453 F120.00
G01 X25.9785 Y-12.0477 F120.00
G01 X25.9836 Y-12.0483 F120.00
G01 X26.0541 Y-12.0478 F120.00
G01 X26.0593 Y-12.0470 F120.00
G01 X26.0636 Y-12.0451 F120.00
G01 X26.1236 Y-12.0061 F120.00
G01 X26.1263 Y-12.0040 F120.00
G01 X26.2718 Y-11.8338 F120.00
G01 X26.4608 Y-11.6724 F120.00
G01 X26.6728 Y-11.5425 F120.00
G01 X26.9025 Y-11.4474 F120.00
G01 X27.1442 Y-11.3893 F120.00
G01 X27.3920 Y-11.3698 F120.00
G01 X27.6398 Y-11.3893 F120.00
G01 X27.8815 Y-11.4474 F120.00
G01 X28.1112 Y-11.5425 F120.00
G01 X28.3232 Y-11.6724 F120.00
G01 X28.5122 Y-11.8338 F120.00
G01 X28.6736 Y-12.0228 F120.00
G01 X28.8035 Y-12.2348 F120.00
G01 X28.8986 Y-12.4645 F120.00
G01 X28.9567 Y-12.7062 F120.00
G01 X28.9762 Y-12.9540 F120.00
G01 X28.9567 Y-13.2018 F120.00
G01 X28.8986 Y-13.4435 F120.00
G01 X28.8035 Y-13.6732 F120.00
G01 X28.6736 Y-13.8852 F120.00
G01 X28.5122 Y-14.0742 F120.00
G01 X28.3232 Y-14.2356 F120.00
G01 X28.1112 Y-14.3655 F120.00
G01 X27.8815 Y-14.4606 F120.00
G01 X27.7601 Y-14.4898 F120.00
G01 X27.7347 Y-14.4986 F120.00
G01 X27.7292 Y-14.5020 F120.00
G01 X27.6763 Y-14.5479 F120.00
G01 X27.6734 Y-14.5509 F120.00
G01 X27.6714 Y-14.5540 F120.00
G01 X27.6699 Y-14.5578 F120.00
G01 X27.6501 Y-14.6250 F120.00
G01 X27.6493 Y-14.6299 F120.00
G01 X27.6493 Y-14.9151 F120.00
G01 X27.6504 Y-14.9326 F120.00
G01 X27.6540 Y-14.9611 F120.00
G01 X27.6497 Y-15.0185 F120.00
G01 X27.6493 Y-15.0287 F120.00
G01 X27.6493 Y-15.0856 F120.00
G01 X27.6434 Y-15.1145 F120.00
G01 X27.6411 Y-15.1310 F120.00
G01 X27.6389 Y-15.1597 F120.00
G01 X27.6233 Y-15.2143 F120.00
G01 X27.6208 Y-15.2243 F120.00
G01 X27.6092 Y-15.2807 F120.00
G01 X27.5976 Y-15.3079 F120.00
G01 X27.5920 Y-15.3235 F120.00
G01 X27.5841 Y-15.3512 F120.00
G01 X27.5575 Y-15.4022 F120.00
G01 X27.5531 Y-15.4114 F120.00
G01 X27.5307 Y-15.4637 F120.00
G01 X27.5138 Y-15.4880 F120.00
G01 X27.5052 Y-15.5022 F120.00
G01 X27.4919 Y-15.5277 F120.00
G01 X27.4560 Y-15.5718 F120.00
G01 X27.4498 Y-15.5799 F120.00
G01 X27.4169 Y-15.6272 F120.00
G01 X27.3524 Y-15.6886 F120.00
G01 X26.6750 Y-16.3659 F120.00
G01 X26.6574 Y-16.3879 F120.00
G01 X26.6545 Y-16.3928 F120.00
G01 X26.6341 Y-16.4619 F120.00
G01 X26.6333 Y-16.4668 F120.00
G01 X26.6333 Y-23.0427 F120.00
G01 X26.6344 Y-23.0606 F120.00
G01 X26.6380 Y-23.0891 F120.00
G01 X26.6337 Y-23.1465 F120.00
G01 X26.6333 Y-23.1567 F120.00
G01 X26.6333 Y-23.2136 F120.00
G01 X26.6274 Y-23.2425 F120.00
G01 X26.6251 Y-23.2590 F120.00
G01 X26.6229 Y-23.2877 F120.00
G01 X26.6073 Y-23.3423 F120.00
G01 X26.6048 Y-23.3523 F120.00
G01 X26.5932 Y-23.4087 F120.00
G01 X26.5816 Y-23.4359 F120.00
G01 X26.5760 Y-23.4515 F120.00
G01 X26.5681 Y-23.4792 F120.00
G01 X26.5415 Y-23.5302 F120.00
G01 X26.5371 Y-23.5394 F120.00
G01 X26.5147 Y-23.5917 F120.00
G01 X26.4978 Y-23.6160 F120.00
G01 X26.4892 Y-23.6302 F120.00
G01 X26.4759 Y-23.6557 F120.00
G01 X26.4400 Y-23.6998 F120.00
G01 X26.4338 Y-23.7079 F120.00
G01 X26.4053 Y-23.7489 F120.00
G01 X26.4012 Y-23.7552 F120.00
G01 X26.3999 Y-23.7587 F120.00
G01 X26.3801 Y-23.8258 F120.00
G01 X26.3793 Y-23.8317 F120.00
G01 X26.3793 Y-39.9377 F120.00
G01 X26.3823 Y-39.9668 F120.00
G01 X26.3836 Y-39.9718 F120.00
G01 X26.4182 Y-40.0356 F120.00
G01 X26.4208 Y-40.0392 F120.00
G01 X26.8008 Y-40.4193 F120.00
G01 X26.7842 Y-40.5301 F120.00
G01 X26.7788 Y-40.6400 F120.00
G01 X26.7842 Y-40.7499 F120.00
G01 X26.8008 Y-40.8607 F120.00
G01 X26.4210 Y-41.2405 F120.00
G01 X26.4034 Y-41.2624 F120.00
G01 X26.4007 Y-41.2669 F120.00
G01 X26.3798 Y-41.3378 F120.00
G01 X26.3793 Y-41.3423 F120.00
G01 X26.3793 Y-42.7317 F120.00
G01 X26.3823 Y-42.7608 F120.00
G01 X26.3836 Y-42.7658 F120.00
G01 X26.4182 Y-42.8296 F120.00
G01 X26.4208 Y-42.8332 F120.00
G01 X26.8008 Y-43.2133 F120.00
G01 X26.7842 Y-43.3241 F120.00
G01 X26.7788 Y-43.4340 F120.00
G01 X26.7842 Y-43.5439 F120.00
G01 X26.8008 Y-43.6547 F120.00
G01 X26.4210 Y-44.0345 F120.00
G01 X26.4034 Y-44.0564 F120.00
G01 X26.4005 Y-44.0614 F120.00
G01 X26.3801 Y-44.1304 F120.00
G01 X26.3793 Y-44.1353 F120.00
G01 X26.3793 Y-54.9176 F120.00
G01 X26.3798 Y-54.9219 F120.00
G01 X26.3910 Y-54.9736 F120.00
G01 X26.3930 Y-54.9790 F120.00
G01 X26.3956 Y-54.9828 F120.00
G01 X26.4415 Y-55.0357 F120.00
G01 X26.4462 Y-55.0398 F120.00
G01 X26.4514 Y-55.0421 F120.00
G01 X26.5205 Y-55.0623 F120.00
G01 X26.5240 Y-55.0627 F120.00
G01 X26.5467 Y-55.0627 F120.00
G01 X26.6026 Y-55.0687 F120.00
G01 X26.7321 Y-55.1170 F120.00
G01 X26.8424 Y-55.1996 F120.00
G01 X26.9250 Y-55.3099 F120.00
G01 X26.9733 Y-55.4394 F120.00
G01 X26.9793 Y-55.4953 F120.00
G01 X26.9793 Y-57.7887 F120.00
G01 X26.9733 Y-57.8446 F120.00
G01 X26.9250 Y-57.9741 F120.00
G01 X26.8424 Y-58.0844 F120.00
G01 X26.7321 Y-58.1670 F120.00
G01 X26.6026 Y-58.2153 F120.00
G01 X26.5467 Y-58.2213 F120.00
G01 X24.2533 Y-58.2213 F120.00
G01 X24.1974 Y-58.2153 F120.00
G01 X24.1794 Y-58.2086 F120.00
G01 X24.1614 Y-58.2033 F120.00
G01 X24.1564 Y-58.2027 F120.00
G01 X24.0841 Y-58.2079 F120.00
G01 X24.0797 Y-58.2089 F120.00
G01 X24.0626 Y-58.2153 F120.00
G01 X24.0067 Y-58.2213 F120.00
G01 X21.7133 Y-58.2213 F120.00
G01 X21.6574 Y-58.2153 F120.00
G01 X21.6394 Y-58.2086 F120.00
G01 X21.6214 Y-58.2033 F120.00
G01 X21.6164 Y-58.2027 F120.00
G01 X21.5441 Y-58.2079 F120.00
G01 X21.5397 Y-58.2089 F120.00
G01 X21.5226 Y-58.2153 F120.00
G01 X21.4667 Y-58.2213 F120.00
G01 X19.1733 Y-58.2213 F120.00
G01 X19.1174 Y-58.2153 F120.00
G01 X19.0994 Y-58.2086 F120.00
G01 X19.0814 Y-58.2033 F120.00
G01 X19.0764 Y-58.2027 F120.00
G01 X19.0041 Y-58.2079 F120.00
G01 X18.9997 Y-58.2089 F120.00
G01 X18.9826 Y-58.2153 F120.00
G01 X18.9267 Y-58.2213 F120.00
G01 X16.6333 Y-58.2213 F120.00
G01 X16.5774 Y-58.2153 F120.00
G01 X16.5594 Y-58.2086 F120.00
G01 X16.5414 Y-58.2033 F120.00
G01 X16.5364 Y-58.2027 F120.00
G01 X16.4641 Y-58.2079 F120.00
G01 X16.4597 Y-58.2089 F120.00
G01 X16.4426 Y-58.2153 F120.00
G01 X16.3867 Y-58.2213 F120.00
G01 X14.0933 Y-58.2213 F120.00
G01 X14.0374 Y-58.2153 F120.00
G01 X14.0191 Y-58.2085 F120.00
G01 X14.0011 Y-58.2032 F120.00
G01 X13.9956 Y-58.2025 F120.00
G01 X13.9234 Y-58.2076 F120.00
G01 X13.9190 Y-58.2086 F120.00
G01 X13.9025 Y-58.2148 F120.00
G01 X13.8467 Y-58.2208 F120.00
G01 X13.3212 Y-58.2208 F120.00
G01 X13.3212 Y-57.7632 F120.00
G01 X13.8010 Y-57.7632 F120.00
G01 X13.8052 Y-57.7626 F120.00
G01 X13.8091 Y-57.7612 F120.00
G01 X13.8126 Y-57.7590 F120.00
G01 X13.8154 Y-57.7566 F120.00
G01 X13.8179 Y-57.7533 F120.00
G01 X13.8196 Y-57.7501 F120.00
G01 X13.8208 Y-57.7461 F120.00
G01 X13.8212 Y-57.7421 F120.00
G01 X13.8212 Y-55.5419 F120.00
G01 X13.8208 Y-55.5379 F120.00
G01 X13.8198 Y-55.5344 F120.00
G01 X13.8182 Y-55.5311 F120.00
G01 X13.8161 Y-55.5282 F120.00
G01 X13.8138 Y-55.5259 F120.00
G01 X13.8109 Y-55.5238 F120.00
G01 X13.8076 Y-55.5222 F120.00
G01 X13.8041 Y-55.5212 F120.00
G01 X13.8005 Y-55.5208 F120.00
G01 X13.3212 Y-55.5208 F120.00
G01 X13.3212 Y-55.0632 F120.00
G01 X13.8467 Y-55.0632 F120.00
G01 X13.9025 Y-55.0692 F120.00
G01 X13.9195 Y-55.0755 F120.00
G01 X13.9374 Y-55.0808 F120.00
G01 X13.9414 Y-55.0815 F120.00
G01 X14.0142 Y-55.0765 F120.00
G01 X14.0196 Y-55.0754 F120.00
G01 X14.0374 Y-55.0687 F120.00
G01 X14.0933 Y-55.0627 F120.00
G01 X14.1185 Y-55.0625 F120.00
G01 X14.1741 Y-55.0503 F120.00
G01 X14.1774 Y-55.0488 F120.00
G01 X14.1808 Y-55.0464 F120.00
G01 X14.2337 Y-55.0005 F120.00
G01 X14.2369 Y-54.9971 F120.00
G01 X14.2388 Y-54.9939 F120.00
G01 X14.2401 Y-54.9906 F120.00
G01 X14.2599 Y-54.9234 F120.00
G01 X14.2607 Y-54.9180 F120.00
G01 X14.2607 Y-53.8057 F120.00
G01 X14.2577 Y-53.7771 F120.00
G01 X14.2567 Y-53.7726 F120.00
G01 X14.2553 Y-53.7693 F120.00
G01 X14.2218 Y-53.7079 F120.00
G01 X14.2182 Y-53.7032 F120.00
G01 X10.9566 Y-50.4419 F120.00
G01 X10.8938 Y-50.4071 F120.00
G01 X10.8885 Y-50.4051 F120.00
G01 X10.8824 Y-50.4046 F120.00
G01 X10.8120 Y-50.4091 F120.00
G01 X10.8064 Y-50.4104 F120.00
G01 X10.8018 Y-50.4128 F120.00
G01 X10.7451 Y-50.4547 F120.00
G01 X10.7407 Y-50.4591 F120.00
G01 X10.7379 Y-50.4641 F120.00
G01 X10.7122 Y-50.5318 F120.00
G01 X10.7117 Y-50.5352 F120.00
G01 X10.7082 Y-50.5796 F120.00
G01 X10.6502 Y-50.8212 F120.00
G01 X10.6097 Y-50.9190 F120.00
G01 X10.2432 Y-50.5525 F120.00
G01 X10.2598 Y-50.4418 F120.00
G01 X10.2652 Y-50.3309 F120.00
G01 X10.2598 Y-50.2220 F120.00
G01 X10.2438 Y-50.1141 F120.00
G01 X10.2166 Y-50.0055 F120.00
G01 X10.1799 Y-49.9028 F120.00
G01 X10.1333 Y-49.8042 F120.00
G01 X10.0762 Y-49.7090 F120.00
G01 X10.0101 Y-49.6198 F120.00
G01 X9.9368 Y-49.5391 F120.00
G01 X9.8557 Y-49.4655 F120.00
G01 X9.7669 Y-49.3996 F120.00
G01 X9.6717 Y-49.3426 F120.00
G01 X9.5722 Y-49.2957 F120.00
G01 X9.4695 Y-49.2589 F120.00
G01 X9.3637 Y-49.2324 F120.00
G01 X9.2539 Y-49.2161 F120.00
G01 X9.1440 Y-49.2107 F120.00
G01 X9.0341 Y-49.2161 F120.00
G01 X8.9233 Y-49.2327 F120.00
G01 X8.5568 Y-48.8662 F120.00
G01 X8.6546 Y-48.8257 F120.00
G01 X8.8963 Y-48.7677 F120.00
G01 X8.9438 Y-48.7637 F120.00
G01 X9.0138 Y-48.7372 F120.00
G01 X9.0172 Y-48.7348 F120.00
G01 X9.0201 Y-48.7318 F120.00
G01 X9.0624 Y-48.6754 F120.00
G01 X9.0651 Y-48.6704 F120.00
G01 X9.0665 Y-48.6643 F120.00
G01 X9.0715 Y-48.5945 F120.00
G01 X9.0714 Y-48.5904 F120.00
G01 X9.0706 Y-48.5868 F120.00
G01 X9.0690 Y-48.5830 F120.00
G01 X9.0354 Y-48.5215 F120.00
G01 X9.0322 Y-48.5171 F120.00
G01 X8.5019 Y-47.9869 F120.00
G01 X8.4885 Y-47.9750 F120.00
G01 X8.4658 Y-47.9575 F120.00
G01 X8.4283 Y-47.9138 F120.00
G01 X8.4213 Y-47.9063 F120.00
G01 X8.3811 Y-47.8661 F120.00
G01 X8.3648 Y-47.8414 F120.00
G01 X8.3548 Y-47.8281 F120.00
G01 X8.3361 Y-47.8063 F120.00
G01 X8.3081 Y-47.7560 F120.00
G01 X8.3028 Y-47.7472 F120.00
G01 X8.2715 Y-47.6998 F120.00
G01 X8.2609 Y-47.6731 F120.00
G01 X8.2537 Y-47.6581 F120.00
G01 X8.2394 Y-47.6322 F120.00
G01 X8.2222 Y-47.5772 F120.00
G01 X8.2187 Y-47.5676 F120.00
G01 X8.1976 Y-47.5148 F120.00
G01 X8.1924 Y-47.4857 F120.00
G01 X8.1884 Y-47.4696 F120.00
G01 X8.1798 Y-47.4421 F120.00
G01 X8.1740 Y-47.3856 F120.00
G01 X8.1726 Y-47.3754 F120.00
G01 X8.1625 Y-47.3187 F120.00
G01 X8.1647 Y-47.2298 F120.00
G01 X8.1647 Y-46.6393 F120.00
G01 X8.1592 Y-46.6004 F120.00
G01 X8.1584 Y-46.5970 F120.00
G01 X8.1560 Y-46.5920 F120.00
G01 X8.1160 Y-46.5310 F120.00
G01 X8.0238 Y-46.4520 F120.00
G01 X7.8624 Y-46.2630 F120.00
G01 X7.7325 Y-46.0511 F120.00
G01 X7.6374 Y-45.8214 F120.00
G01 X7.5793 Y-45.5797 F120.00
G01 X7.5598 Y-45.3319 F120.00
G01 X7.5793 Y-45.0840 F120.00
G01 X7.6374 Y-44.8423 F120.00
G01 X7.7325 Y-44.6127 F120.00
G01 X7.8624 Y-44.4007 F120.00
G01 X8.0238 Y-44.2117 F120.00
G01 X8.1142 Y-44.1345 F120.00
G01 X8.1404 Y-44.1046 F120.00
G01 X8.1424 Y-44.1016 F120.00
G01 X8.1440 Y-44.0979 F120.00
G01 X8.1644 Y-44.0279 F120.00
G01 X8.1647 Y-44.0245 F120.00
G01 X8.1647 Y-41.9474 F120.00
G01 X8.1592 Y-41.9085 F120.00
G01 X8.1577 Y-41.9032 F120.00
G01 X8.1560 Y-41.9001 F120.00
G01 X8.1172 Y-41.8407 F120.00
G01 X8.1138 Y-41.8371 F120.00
G01 X8.0238 Y-41.7602 F120.00
G01 X7.8624 Y-41.5712 F120.00
G01 X7.7325 Y-41.3592 F120.00
G01 X7.6374 Y-41.1295 F120.00
G01 X7.5793 Y-40.8878 F120.00
G01 X7.5598 Y-40.6400 F120.00
G01 X7.5793 Y-40.3922 F120.00
G01 X7.6374 Y-40.1505 F120.00
G01 X7.7325 Y-39.9208 F120.00
G01 X7.8624 Y-39.7088 F120.00
G01 X8.0238 Y-39.5198 F120.00
G01 X8.1731 Y-39.3923 F120.00
G01 X8.1756 Y-39.3895 F120.00
G01 X8.2091 Y-39.3440 F120.00
G01 X8.2112 Y-39.3403 F120.00
G01 X8.2161 Y-39.3289 F120.00
G01 X8.2217 Y-39.3133 F120.00
G01 X8.2299 Y-39.2849 F120.00
G01 X8.2565 Y-39.2338 F120.00
G01 X8.2609 Y-39.2246 F120.00
G01 X8.2833 Y-39.1723 F120.00
G01 X8.2997 Y-39.1487 F120.00
G01 X8.3084 Y-39.1345 F120.00
G01 X8.3221 Y-39.1083 F120.00
G01 X8.3585 Y-39.0637 F120.00
G01 X8.3646 Y-39.0555 F120.00
G01 X8.3971 Y-39.0088 F120.00
G01 X8.4616 Y-38.9474 F120.00
G01 X10.0351 Y-37.3739 F120.00
G01 X10.0470 Y-37.3605 F120.00
G01 X10.0646 Y-37.3378 F120.00
G01 X10.1082 Y-37.3003 F120.00
G01 X10.1157 Y-37.2933 F120.00
G01 X10.1559 Y-37.2531 F120.00
G01 X10.1799 Y-37.2373 F120.00
G01 X10.1932 Y-37.2273 F120.00
G01 X10.2157 Y-37.2081 F120.00
G01 X10.2657 Y-37.1803 F120.00
G01 X10.2745 Y-37.1750 F120.00
G01 X10.2943 Y-37.1619 F120.00
G01 X10.3329 Y-37.1232 F120.00
G01 X10.3361 Y-37.1191 F120.00
G01 X10.3380 Y-37.1148 F120.00
G01 X10.3583 Y-37.0453 F120.00
G01 X10.3587 Y-37.0413 F120.00
G01 X10.3587 Y-36.9927 F120.00
G01 X10.3579 Y-36.9879 F120.00
G01 X10.3386 Y-36.9215 F120.00
G01 X10.3363 Y-36.9163 F120.00
G01 X10.3323 Y-36.9116 F120.00
G01 X10.2798 Y-36.8654 F120.00
G01 X10.2750 Y-36.8622 F120.00
G01 X10.2695 Y-36.8605 F120.00
G01 X10.1994 Y-36.8499 F120.00
G01 X10.1962 Y-36.8497 F120.00
G01 X10.1926 Y-36.8501 F120.00
G01 X10.1881 Y-36.8515 F120.00
G01 X10.1221 Y-36.8813 F120.00
G01 X10.1192 Y-36.8833 F120.00
G01 X10.0749 Y-36.9212 F120.00
G01 X9.8630 Y-37.0511 F120.00
G01 X9.6334 Y-37.1462 F120.00
G01 X9.3917 Y-37.2042 F120.00
G01 X9.1440 Y-37.2237 F120.00
G01 X8.8963 Y-37.2042 F120.00
G01 X8.6546 Y-37.1462 F120.00
G01 X8.5568 Y-37.1057 F120.00
G01 X8.9233 Y-36.7392 F120.00
G01 X9.0351 Y-36.7559 F120.00
G01 X9.1440 Y-36.7612 F120.00
G01 X9.2549 Y-36.7557 F120.00
G01 X9.3627 Y-36.7397 F120.00
G01 X9.4695 Y-36.7129 F120.00
G01 X9.5731 Y-36.6759 F120.00
G01 X9.6734 Y-36.6283 F120.00
G01 X9.7669 Y-36.5722 F120.00
G01 X9.8545 Y-36.5073 F120.00
G01 X9.9368 Y-36.4328 F120.00
G01 X10.0107 Y-36.3513 F120.00
G01 X10.0757 Y-36.2637 F120.00
G01 X10.1323 Y-36.1694 F120.00
G01 X10.1362 Y-36.1615 F120.00
G01 X10.8168 Y-36.1615 F120.00
G01 X10.8168 Y-36.5770 F120.00
G01 X10.8173 Y-36.5806 F120.00
G01 X10.8184 Y-36.5841 F120.00
G01 X10.8201 Y-36.5873 F120.00
G01 X10.8223 Y-36.5902 F120.00
G01 X10.8250 Y-36.5927 F120.00
G01 X10.8280 Y-36.5947 F120.00
G01 X10.8313 Y-36.5961 F120.00
G01 X10.8349 Y-36.5970 F120.00
G01 X13.0381 Y-36.5972 F120.00
G01 X13.0442 Y-36.5963 F120.00
G01 X13.0498 Y-36.5936 F120.00
G01 X13.0534 Y-36.5906 F120.00
G01 X13.0564 Y-36.5864 F120.00
G01 X13.0584 Y-36.5817 F120.00
G01 X13.0592 Y-36.5765 F120.00
G01 X13.0592 Y-36.0972 F120.00
G01 X13.5729 Y-36.0972 F120.00
G01 X13.6009 Y-36.0942 F120.00
G01 X13.6059 Y-36.0929 F120.00
G01 X13.6713 Y-36.0572 F120.00
G01 X13.6743 Y-36.0547 F120.00
G01 X14.7262 Y-35.0028 F120.00
G01 X14.7446 Y-34.9801 F120.00
G01 X14.7471 Y-34.9761 F120.00
G01 X14.7679 Y-34.9061 F120.00
G01 X14.7687 Y-34.9003 F120.00
G01 X14.7687 Y-33.0007 F120.00
G01 X14.7683 Y-32.9896 F120.00
G01 X14.7671 Y-32.9846 F120.00
G01 X14.7426 Y-32.9190 F120.00
G01 X14.7396 Y-32.9136 F120.00
G01 X14.7355 Y-32.9095 F120.00
G01 X14.6795 Y-32.8676 F120.00
G01 X14.6745 Y-32.8648 F120.00
G01 X14.6684 Y-32.8635 F120.00
G01 X14.5986 Y-32.8585 F120.00
G01 X14.5929 Y-32.8588 F120.00
G01 X14.5870 Y-32.8610 F120.00
G01 X14.5239 Y-32.8955 F120.00
G01 X14.5209 Y-32.8981 F120.00
G01 X13.8409 Y-33.5781 F120.00
G01 X13.8290 Y-33.5915 F120.00
G01 X13.8115 Y-33.6142 F120.00
G01 X13.7678 Y-33.6517 F120.00
G01 X13.7603 Y-33.6587 F120.00
G01 X13.7201 Y-33.6989 F120.00
G01 X13.6954 Y-33.7152 F120.00
G01 X13.6821 Y-33.7252 F120.00
G01 X13.6603 Y-33.7439 F120.00
G01 X13.6103 Y-33.7717 F120.00
G01 X13.6015 Y-33.7770 F120.00
G01 X13.5817 Y-33.7901 F120.00
G01 X13.5431 Y-33.8288 F120.00
G01 X13.5405 Y-33.8320 F120.00
G01 X13.5379 Y-33.8376 F120.00
G01 X13.5181 Y-33.9048 F120.00
G01 X13.5174 Y-33.9082 F120.00
G01 X13.5173 Y-34.0827 F120.00
G01 X13.5113 Y-34.1386 F120.00
G01 X13.5045 Y-34.1569 F120.00
G01 X13.4992 Y-34.1749 F120.00
G01 X13.4985 Y-34.1798 F120.00
G01 X13.5036 Y-34.2526 F120.00
G01 X13.5046 Y-34.2570 F120.00
G01 X13.5108 Y-34.2735 F120.00
G01 X13.5168 Y-34.3293 F120.00
G01 X13.5168 Y-34.8548 F120.00
G01 X13.0592 Y-34.8548 F120.00
G01 X13.0592 Y-34.3755 F120.00
G01 X13.0588 Y-34.3719 F120.00
G01 X13.0578 Y-34.3684 F120.00
G01 X13.0562 Y-34.3651 F120.00
G01 X13.0544 Y-34.3626 F120.00
G01 X13.0518 Y-34.3599 F120.00
G01 X13.0489 Y-34.3578 F120.00
G01 X13.0456 Y-34.3562 F120.00
G01 X13.0421 Y-34.3552 F120.00
G01 X13.0381 Y-34.3548 F120.00
G01 X10.8364 Y-34.3549 F120.00
G01 X10.8323 Y-34.3556 F120.00
G01 X10.8289 Y-34.3568 F120.00
G01 X10.8258 Y-34.3587 F120.00
G01 X10.8226 Y-34.3614 F120.00
G01 X10.8204 Y-34.3642 F120.00
G01 X10.8184 Y-34.3679 F120.00
G01 X10.8173 Y-34.3714 F120.00
G01 X10.8168 Y-34.3755 F120.00
G01 X10.8168 Y-35.1185 F120.00
G01 X10.1362 Y-35.1185 F120.00
G01 X10.1323 Y-35.1106 F120.00
G01 X10.0757 Y-35.0163 F120.00
G01 X10.0107 Y-34.9287 F120.00
G01 X9.9368 Y-34.8472 F120.00
G01 X9.8545 Y-34.7727 F120.00
G01 X9.7669 Y-34.7078 F120.00
G01 X9.6734 Y-34.6517 F120.00
G01 X9.5731 Y-34.6041 F120.00
G01 X9.4695 Y-34.5671 F120.00
G01 X9.3627 Y-34.5403 F120.00
G01 X9.2549 Y-34.5243 F120.00
G01 X9.1440 Y-34.5188 F120.00
G01 X9.0351 Y-34.5241 F120.00
G01 X8.9233 Y-34.5408 F120.00
G01 X8.5568 Y-34.1743 F120.00
G01 X8.6546 Y-34.1338 F120.00
G01 X8.8963 Y-34.0758 F120.00
G01 X9.1440 Y-34.0563 F120.00
G01 X9.3917 Y-34.0758 F120.00
G01 X9.6334 Y-34.1338 F120.00
G01 X9.8630 Y-34.2289 F120.00
G01 X10.0749 Y-34.3588 F120.00
G01 X10.1257 Y-34.4019 F120.00
G01 X10.1771 Y-34.4286 F120.00
G01 X10.1804 Y-34.4299 F120.00
G01 X10.1839 Y-34.4307 F120.00
G01 X10.1875 Y-34.4309 F120.00
G01 X10.2574 Y-34.4284 F120.00
G01 X10.2630 Y-34.4274 F120.00
G01 X10.2686 Y-34.4247 F120.00
G01 X10.3261 Y-34.3848 F120.00
G01 X10.3289 Y-34.3825 F120.00
G01 X10.3310 Y-34.3801 F120.00
G01 X10.3335 Y-34.3756 F120.00
G01 X10.3610 Y-34.3091 F120.00
G01 X10.3618 Y-34.3052 F120.00
G01 X10.3652 Y-34.2735 F120.00
G01 X10.3717 Y-34.2561 F120.00
G01 X10.3769 Y-34.2381 F120.00
G01 X10.3775 Y-34.2331 F120.00
G01 X10.3724 Y-34.1609 F120.00
G01 X10.3714 Y-34.1564 F120.00
G01 X10.3647 Y-34.1386 F120.00
G01 X10.3587 Y-34.0827 F120.00
G01 X10.3587 Y-32.0161 F120.00
G01 X10.3583 Y-32.0061 F120.00
G01 X10.3572 Y-32.0010 F120.00
G01 X10.3326 Y-31.9350 F120.00
G01 X10.3299 Y-31.9300 F120.00
G01 X10.3255 Y-31.9255 F120.00
G01 X10.2691 Y-31.8833 F120.00
G01 X10.2650 Y-31.8810 F120.00
G01 X10.2604 Y-31.8797 F120.00
G01 X10.1886 Y-31.8745 F120.00
G01 X10.1824 Y-31.8750 F120.00
G01 X10.1770 Y-31.8770 F120.00
G01 X10.1156 Y-31.9105 F120.00
G01 X10.1109 Y-31.9141 F120.00
G01 X6.6098 Y-35.4152 F120.00
G01 X6.5914 Y-35.4379 F120.00
G01 X6.5887 Y-35.4423 F120.00
G01 X6.5677 Y-35.5138 F120.00
G01 X6.5673 Y-35.5177 F120.00
G01 X6.5674 Y-50.1825 F120.00
G01 X6.5703 Y-50.2100 F120.00
G01 X6.5718 Y-50.2155 F120.00
G01 X6.6062 Y-50.2787 F120.00
G01 X6.6095 Y-50.2831 F120.00
G01 X7.4687 Y-51.1424 F120.00
G01 X7.4721 Y-51.1450 F120.00
G01 X7.5207 Y-51.1750 F120.00
G01 X7.5264 Y-51.1775 F120.00
G01 X7.5310 Y-51.1782 F120.00
G01 X7.6014 Y-51.1807 F120.00
G01 X7.6056 Y-51.1803 F120.00
G01 X7.6097 Y-51.1791 F120.00
G01 X7.6726 Y-51.1420 F120.00
G01 X7.6774 Y-51.1381 F120.00
G01 X7.6807 Y-51.1334 F120.00
G01 X7.7122 Y-51.0704 F120.00
G01 X7.7136 Y-51.0664 F120.00
G01 X7.7142 Y-51.0622 F120.00
G01 X7.7066 Y-50.9895 F120.00
G01 X7.7060 Y-50.9861 F120.00
G01 X7.6378 Y-50.8212 F120.00
G01 X7.5798 Y-50.5796 F120.00
G01 X7.5603 Y-50.3319 F120.00
G01 X7.5798 Y-50.0841 F120.00
G01 X7.6378 Y-49.8425 F120.00
G01 X7.6783 Y-49.7447 F120.00
G01 X8.0448 Y-50.1112 F120.00
G01 X8.0282 Y-50.2220 F120.00
G01 X8.0228 Y-50.3328 F120.00
G01 X8.0282 Y-50.4418 F120.00
G01 X8.0442 Y-50.5496 F120.00
G01 X8.0711 Y-50.6573 F120.00
G01 X8.1081 Y-50.7609 F120.00
G01 X8.1557 Y-50.8612 F120.00
G01 X8.2118 Y-50.9548 F120.00
G01 X8.2767 Y-51.0424 F120.00
G01 X8.3512 Y-51.1247 F120.00
G01 X8.4335 Y-51.1992 F120.00
G01 X8.5211 Y-51.2641 F120.00
G01 X8.6146 Y-51.3202 F120.00
G01 X8.7149 Y-51.3677 F120.00
G01 X8.8185 Y-51.4048 F120.00
G01 X8.9262 Y-51.4317 F120.00
G01 X9.0341 Y-51.4477 F120.00
G01 X9.1430 Y-51.4530 F120.00
G01 X9.2539 Y-51.4477 F120.00
G01 X9.3647 Y-51.4311 F120.00
G01 X9.7312 Y-51.7975 F120.00
G01 X9.6334 Y-51.8380 F120.00
G01 X9.3917 Y-51.8960 F120.00
G01 X9.1440 Y-51.9155 F120.00
G01 X8.8963 Y-51.8960 F120.00
G01 X8.6546 Y-51.8380 F120.00
G01 X8.4906 Y-51.7702 F120.00
G01 X8.4306 Y-51.7602 F120.00
G01 X8.4243 Y-51.7603 F120.00
G01 X8.4203 Y-51.7613 F120.00
G01 X8.3548 Y-51.7858 F120.00
G01 X8.3493 Y-51.7888 F120.00
G01 X8.3453 Y-51.7928 F120.00
G01 X8.3033 Y-51.8489 F120.00
G01 X8.3006 Y-51.8539 F120.00
G01 X8.2992 Y-51.8600 F120.00
G01 X8.2942 Y-51.9298 F120.00
G01 X8.2946 Y-51.9355 F120.00
G01 X8.2967 Y-51.9413 F120.00
G01 X8.3303 Y-52.0028 F120.00
G01 X8.3325 Y-52.0060 F120.00
G01 X10.8021 Y-54.4757 F120.00
G01 X10.8155 Y-54.4876 F120.00
G01 X10.8382 Y-54.5052 F120.00
G01 X10.8757 Y-54.5489 F120.00
G01 X10.8827 Y-54.5563 F120.00
G01 X10.9229 Y-54.5966 F120.00
G01 X10.9387 Y-54.6205 F120.00
G01 X10.9487 Y-54.6338 F120.00
G01 X10.9679 Y-54.6563 F120.00
G01 X10.9959 Y-54.7066 F120.00
G01 X11.0012 Y-54.7154 F120.00
G01 X11.0325 Y-54.7629 F120.00
G01 X11.0435 Y-54.7903 F120.00
G01 X11.0506 Y-54.8053 F120.00
G01 X11.0646 Y-54.8304 F120.00
G01 X11.0818 Y-54.8854 F120.00
G01 X11.0853 Y-54.8950 F120.00
G01 X11.1068 Y-54.9488 F120.00
G01 X11.1085 Y-54.9548 F120.00
G01 X11.1102 Y-54.9585 F120.00
G01 X11.1156 Y-54.9758 F120.00
G01 X11.1168 Y-54.9787 F120.00
G01 X11.1196 Y-54.9828 F120.00
G01 X11.1654 Y-55.0357 F120.00
G01 X11.1680 Y-55.0383 F120.00
G01 X11.1711 Y-55.0403 F120.00
G01 X11.1749 Y-55.0420 F120.00
G01 X11.2444 Y-55.0623 F120.00
G01 X11.2484 Y-55.0627 F120.00
G01 X11.3067 Y-55.0627 F120.00
G01 X11.3626 Y-55.0687 F120.00
G01 X11.3809 Y-55.0755 F120.00
G01 X11.3989 Y-55.0808 F120.00
G01 X11.4039 Y-55.0815 F120.00
G01 X11.4766 Y-55.0764 F120.00
G01 X11.4810 Y-55.0754 F120.00
G01 X11.4975 Y-55.0692 F120.00
G01 X11.5533 Y-55.0632 F120.00
G01 X12.0788 Y-55.0632 F120.00
G01 X12.0788 Y-55.5208 F120.00
G01 X11.5990 Y-55.5208 F120.00
G01 X11.5948 Y-55.5214 F120.00
G01 X11.5909 Y-55.5228 F120.00
G01 X11.5874 Y-55.5250 F120.00
G01 X11.5846 Y-55.5274 F120.00
G01 X11.5821 Y-55.5307 F120.00
G01 X11.5804 Y-55.5339 F120.00
G01 X11.5792 Y-55.5379 F120.00
G01 X11.5788 Y-55.5419 F120.00
G01 X11.5788 Y-57.7421 F120.00
G01 X11.5792 Y-57.7461 F120.00
G01 X11.5802 Y-57.7496 F120.00
G01 X11.5818 Y-57.7529 F120.00
G01 X11.5839 Y-57.7558 F120.00
G01 X11.5862 Y-57.7581 F120.00
G01 X11.5891 Y-57.7602 F120.00
G01 X11.5924 Y-57.7618 F120.00
G01 X11.5959 Y-57.7628 F120.00
G01 X11.5995 Y-57.7632 F120.00
G01 X12.0788 Y-57.7632 F120.00
G01 X12.0788 Y-58.2208 F120.00
G01 X11.5533 Y-58.2208 F120.00
G01 X11.4975 Y-58.2148 F120.00
G01 X11.4801 Y-58.2083 F120.00
G01 X11.4621 Y-58.2031 F120.00
G01 X11.4571 Y-58.2025 F120.00
G01 X11.3849 Y-58.2076 F120.00
G01 X11.3804 Y-58.2086 F120.00
G01 X11.3626 Y-58.2153 F120.00
G01 X11.3067 Y-58.2213 F120.00
G01 X9.0133 Y-58.2213 F120.00
G01 X8.9574 Y-58.2153 F120.00
G01 X8.9394 Y-58.2086 F120.00
G01 X8.9214 Y-58.2033 F120.00
G01 X8.9164 Y-58.2027 F120.00
G01 X8.8441 Y-58.2079 F120.00
G01 X8.8397 Y-58.2089 F120.00
G01 X8.8226 Y-58.2153 F120.00
G01 X8.7667 Y-58.2213 F120.00
G01 X6.4733 Y-58.2213 F120.00
G01 X6.4174 Y-58.2153 F120.00
G01 X6.3994 Y-58.2086 F120.00
G01 X6.3814 Y-58.2033 F120.00
G01 X6.3764 Y-58.2027 F120.00
G01 X6.3041 Y-58.2079 F120.00
G01 X6.2997 Y-58.2089 F120.00
G01 X6.2826 Y-58.2153 F120.00
G01 X6.2267 Y-58.2213 F120.00
G01 X3.9333 Y-58.2213 F120.00
G01 X3.8774 Y-58.2153 F120.00
G01 X3.7479 Y-58.1670 F120.00
G01 X3.6376 Y-58.0844 F120.00
G01 X3.5550 Y-57.9741 F120.00
G01 X3.5067 Y-57.8446 F120.00
G01 X3.5007 Y-57.7887 F120.00
G01 X3.5007 Y-56.5072 F120.00
G01 X3.4977 Y-56.4786 F120.00
G01 X3.4964 Y-56.4736 F120.00
G01 X3.4613 Y-56.4091 F120.00
G01 X3.4582 Y-56.4052 F120.00
G01 X1.3899 Y-54.3369 F120.00
G01 X1.3765 Y-54.3250 F120.00
G01 X1.3538 Y-54.3075 F120.00
G01 X1.3163 Y-54.2638 F120.00
G01 X1.3093 Y-54.2563 F120.00
G01 X1.2691 Y-54.2161 F120.00
G01 X1.2528 Y-54.1914 F120.00
G01 X1.2428 Y-54.1781 F120.00
G01 X1.2241 Y-54.1563 F120.00
G01 X1.1961 Y-54.1060 F120.00
G01 X1.1908 Y-54.0972 F120.00
G01 X1.1595 Y-54.0498 F120.00
G01 X1.1489 Y-54.0231 F120.00
G01 X1.1417 Y-54.0081 F120.00
G01 X1.1274 Y-53.9822 F120.00
G01 X1.1102 Y-53.9272 F120.00
G01 X1.1067 Y-53.9176 F120.00
G01 X1.0856 Y-53.8648 F120.00
G01 X1.0804 Y-53.8357 F120.00
G01 X1.0764 Y-53.8196 F120.00
G01 X1.0678 Y-53.7921 F120.00
G01 X1.0620 Y-53.7356 F120.00
G01 X1.0606 Y-53.7254 F120.00
G01 X1.0505 Y-53.6687 F120.00
G00 Z2.0000
M05
G00 Z2.0000
G00 Z15.00
G00 X0.0 Y0.0


