(G-CODE GENERATED BY FLATCAM v8.994 - www.flatcam.org - Version Date: 2020/11/7)

(Name: Active_Electrode-F_Cu.gbr_iso_combined_cnc)
(Type: G-code from Geometry)
(Units: MM)

(Created on Friday, 08 March 2024 at 16:43)

(This preprocessor is used with a motion controller loaded with GRBL firmware.)
(It is configured to be compatible with almost any version of GRBL firmware.)

(TOOL DIAMETER: 0.0238 mm)
(Feedrate_XY: 120.0 mm/min)
(Feedrate_Z: 60.0 mm/min)
(Feedrate rapids 1500.0 mm/min)

(Z_Cut: -0.09 mm)
(Z_Move: 2.0 mm)
(Z Start: None mm)
(Z End: 15.0 mm)
(X,Y End: 0.0000, 0.0000 mm)
(Steps per circle: 64)
(Steps per circle: 64)
(Preprocessor Geometry: GRBL_11_no_M6)

(X range:   -0.0119 ...   30.2379  mm)
(Y range:  -59.7019 ...    0.0119  mm)

(Spindle Speed: 0.0 RPM)
G21
G90
G17
G94


G01 F120.00

M5             
G00 Z15.0000
G00 X0.0000 Y0.0000                
T2
(MSG, Change to Tool Dia = 0.0238)
M0
G00 Z15.0000
        
M03
G01 F120.00
G00 X5.5840 Y-5.3340
G01 F60.00
G01 Z-0.0900
G01 F120.00
G01 X5.5893 Y-5.4418 F120.00
G01 X5.6051 Y-5.5485 F120.00
G01 X5.6083 Y-5.5612 F120.00
G01 X5.2109 Y-5.9586 F120.00
G01 X5.1576 Y-5.8300 F120.00
G01 X5.0988 Y-5.5851 F120.00
G01 X5.0791 Y-5.3340 F120.00
G01 X5.0988 Y-5.0829 F120.00
G01 X5.1576 Y-4.8380 F120.00
G01 X5.2109 Y-4.7094 F120.00
G01 X5.6083 Y-5.1068 F120.00
G01 X5.6051 Y-5.1195 F120.00
G01 X5.5893 Y-5.2262 F120.00
G01 X5.5840 Y-5.3340 F120.00
G00 Z2.0000
G00 X6.4568 Y-6.4097
G01 F60.00
G01 Z-0.0900
G01 F120.00
G01 X6.4695 Y-6.4129 F120.00
G01 X6.5762 Y-6.4287 F120.00
G01 X6.6840 Y-6.4340 F120.00
G01 X6.7918 Y-6.4287 F120.00
G01 X6.8985 Y-6.4129 F120.00
G01 X6.9112 Y-6.4097 F120.00
G01 X7.3086 Y-6.8071 F120.00
G01 X7.1800 Y-6.8604 F120.00
G01 X6.9351 Y-6.9192 F120.00
G01 X6.6840 Y-6.9389 F120.00
G01 X6.4329 Y-6.9192 F120.00
G01 X6.1880 Y-6.8604 F120.00
G01 X6.0594 Y-6.8071 F120.00
G01 X6.4568 Y-6.4097 F120.00
G00 Z2.0000
G00 X7.7597 Y-5.5612
G01 F60.00
G01 Z-0.0900
G01 F120.00
G01 X7.7629 Y-5.5485 F120.00
G01 X7.7787 Y-5.4418 F120.00
G01 X7.7840 Y-5.3340 F120.00
G01 X7.7787 Y-5.2262 F120.00
G01 X7.7629 Y-5.1195 F120.00
G01 X7.7597 Y-5.1068 F120.00
G01 X8.1571 Y-4.7094 F120.00
G01 X8.2104 Y-4.8380 F120.00
G01 X8.2692 Y-5.0829 F120.00
G01 X8.2889 Y-5.3340 F120.00
G01 X8.2692 Y-5.5851 F120.00
G01 X8.2104 Y-5.8300 F120.00
G01 X8.1571 Y-5.9586 F120.00
G01 X7.7597 Y-5.5612 F120.00
G00 Z2.0000
G00 X6.4694 Y-4.2551
G01 F60.00
G01 Z-0.0900
G01 F120.00
G01 X6.4568 Y-4.2583 F120.00
G01 X6.0594 Y-3.8609 F120.00
G01 X6.1880 Y-3.8076 F120.00
G01 X6.4329 Y-3.7488 F120.00
G01 X6.6840 Y-3.7291 F120.00
G01 X6.9351 Y-3.7488 F120.00
G01 X7.1800 Y-3.8076 F120.00
G01 X7.3086 Y-3.8609 F120.00
G01 X6.9112 Y-4.2583 F120.00
G01 X6.8985 Y-4.2551 F120.00
G01 X6.7918 Y-4.2393 F120.00
G01 X6.6840 Y-4.2340 F120.00
G01 X6.5762 Y-4.2393 F120.00
G01 X6.4694 Y-4.2551 F120.00
G00 Z2.0000
G00 X3.9294 Y-7.0491
G01 F60.00
G01 Z-0.0900
G01 F120.00
G01 X3.9168 Y-7.0523 F120.00
G01 X3.5194 Y-6.6549 F120.00
G01 X3.6480 Y-6.6016 F120.00
G01 X3.8929 Y-6.5428 F120.00
G01 X4.1440 Y-6.5231 F120.00
G01 X4.3951 Y-6.5428 F120.00
G01 X4.6400 Y-6.6016 F120.00
G01 X4.7686 Y-6.6549 F120.00
G01 X4.3712 Y-7.0523 F120.00
G01 X4.3585 Y-7.0491 F120.00
G01 X4.2518 Y-7.0333 F120.00
G01 X4.1440 Y-7.0280 F120.00
G01 X4.0362 Y-7.0333 F120.00
G01 X3.9294 Y-7.0491 F120.00
G00 Z2.0000
G00 X3.0440 Y-8.1280
G01 F60.00
G01 Z-0.0900
G01 F120.00
G01 X3.0493 Y-8.2358 F120.00
G01 X3.0651 Y-8.3425 F120.00
G01 X3.0683 Y-8.3552 F120.00
G01 X2.6709 Y-8.7526 F120.00
G01 X2.6176 Y-8.6240 F120.00
G01 X2.5588 Y-8.3791 F120.00
G01 X2.5391 Y-8.1280 F120.00
G01 X2.5588 Y-7.8769 F120.00
G01 X2.6176 Y-7.6320 F120.00
G01 X2.6709 Y-7.5034 F120.00
G01 X3.0683 Y-7.9008 F120.00
G01 X3.0651 Y-7.9135 F120.00
G01 X3.0493 Y-8.0202 F120.00
G01 X3.0440 Y-8.1280 F120.00
G00 Z2.0000
G00 X3.9168 Y-9.2037
G01 F60.00
G01 Z-0.0900
G01 F120.00
G01 X3.9295 Y-9.2069 F120.00
G01 X4.0362 Y-9.2227 F120.00
G01 X4.1440 Y-9.2280 F120.00
G01 X4.2518 Y-9.2227 F120.00
G01 X4.3585 Y-9.2069 F120.00
G01 X4.3712 Y-9.2037 F120.00
G01 X4.7686 Y-9.6011 F120.00
G01 X4.6400 Y-9.6544 F120.00
G01 X4.3951 Y-9.7132 F120.00
G01 X4.1440 Y-9.7329 F120.00
G01 X3.8929 Y-9.7132 F120.00
G01 X3.6480 Y-9.6544 F120.00
G01 X3.5194 Y-9.6011 F120.00
G01 X3.9168 Y-9.2037 F120.00
G00 Z2.0000
G00 X5.2197 Y-8.3552
G01 F60.00
G01 Z-0.0900
G01 F120.00
G01 X5.2229 Y-8.3425 F120.00
G01 X5.2387 Y-8.2358 F120.00
G01 X5.2440 Y-8.1280 F120.00
G01 X5.2387 Y-8.0202 F120.00
G01 X5.2229 Y-7.9135 F120.00
G01 X5.2197 Y-7.9008 F120.00
G01 X5.6171 Y-7.5034 F120.00
G01 X5.6704 Y-7.6320 F120.00
G01 X5.7292 Y-7.8769 F120.00
G01 X5.7489 Y-8.1280 F120.00
G01 X5.7292 Y-8.3791 F120.00
G01 X5.6704 Y-8.6240 F120.00
G01 X5.6171 Y-8.7526 F120.00
G01 X5.2197 Y-8.3552 F120.00
G00 Z2.0000
G00 X11.1599 Y-7.0046
G01 F60.00
G01 Z-0.0900
G01 F120.00
G01 X11.1599 Y-6.3278 F120.00
G01 X11.1533 Y-6.3246 F120.00
G01 X11.0588 Y-6.2678 F120.00
G01 X10.9711 Y-6.2027 F120.00
G01 X10.8886 Y-6.1279 F120.00
G01 X10.8153 Y-6.0469 F120.00
G01 X10.7496 Y-5.9584 F120.00
G01 X10.6929 Y-5.8638 F120.00
G01 X10.6457 Y-5.7641 F120.00
G01 X10.6086 Y-5.6602 F120.00
G01 X10.5818 Y-5.5532 F120.00
G01 X10.5656 Y-5.4442 F120.00
G01 X10.5602 Y-5.3351 F120.00
G01 X10.5657 Y-5.2228 F120.00
G01 X10.5818 Y-5.1148 F120.00
G01 X10.6086 Y-5.0078 F120.00
G01 X10.6457 Y-4.9039 F120.00
G01 X10.6929 Y-4.8042 F120.00
G01 X10.7496 Y-4.7096 F120.00
G01 X10.8153 Y-4.6211 F120.00
G01 X10.8894 Y-4.5394 F120.00
G01 X10.9711 Y-4.4653 F120.00
G01 X11.0596 Y-4.3996 F120.00
G01 X11.1542 Y-4.3429 F120.00
G01 X11.2539 Y-4.2957 F120.00
G01 X11.3578 Y-4.2586 F120.00
G01 X11.4648 Y-4.2318 F120.00
G01 X11.5738 Y-4.2156 F120.00
G01 X11.6840 Y-4.2102 F120.00
G01 X11.7942 Y-4.2156 F120.00
G01 X11.9032 Y-4.2318 F120.00
G01 X12.0102 Y-4.2586 F120.00
G01 X12.1151 Y-4.2962 F120.00
G01 X12.2138 Y-4.3429 F120.00
G01 X12.3084 Y-4.3996 F120.00
G01 X12.3978 Y-4.4660 F120.00
G01 X12.4786 Y-4.5394 F120.00
G01 X12.5527 Y-4.6211 F120.00
G01 X12.6184 Y-4.7096 F120.00
G01 X12.6746 Y-4.8033 F120.00
G01 X12.7223 Y-4.9039 F120.00
G01 X12.7597 Y-5.0088 F120.00
G01 X12.7862 Y-5.1148 F120.00
G01 X12.8023 Y-5.2233 F120.00
G01 X12.8078 Y-5.3351 F120.00
G01 X12.8024 Y-5.4442 F120.00
G01 X12.7862 Y-5.5532 F120.00
G01 X12.7594 Y-5.6602 F120.00
G01 X12.7227 Y-5.7630 F120.00
G01 X12.6751 Y-5.8638 F120.00
G01 X12.6184 Y-5.9584 F120.00
G01 X12.5534 Y-6.0461 F120.00
G01 X12.4786 Y-6.1286 F120.00
G01 X12.3969 Y-6.2027 F120.00
G01 X12.3092 Y-6.2678 F120.00
G01 X12.2147 Y-6.3246 F120.00
G01 X12.2081 Y-6.3278 F120.00
G01 X12.2081 Y-6.8021 F120.00
G01 X12.3021 Y-6.8357 F120.00
G01 X12.4008 Y-6.8824 F120.00
G01 X12.4964 Y-6.9396 F120.00
G01 X12.5858 Y-7.0060 F120.00
G01 X12.6666 Y-7.0794 F120.00
G01 X12.7400 Y-7.1602 F120.00
G01 X12.8064 Y-7.2496 F120.00
G01 X12.8636 Y-7.3452 F120.00
G01 X12.9103 Y-7.4439 F120.00
G01 X12.9471 Y-7.5467 F120.00
G01 X12.9743 Y-7.6553 F120.00
G01 X12.9905 Y-7.7649 F120.00
G01 X12.9958 Y-7.8740 F120.00
G01 X12.9905 Y-7.9831 F120.00
G01 X12.9742 Y-8.0932 F120.00
G01 X12.9471 Y-8.2013 F120.00
G01 X12.9103 Y-8.3041 F120.00
G01 X12.8631 Y-8.4038 F120.00
G01 X12.8064 Y-8.4984 F120.00
G01 X12.7407 Y-8.5869 F120.00
G01 X12.6666 Y-8.6686 F120.00
G01 X12.5849 Y-8.7427 F120.00
G01 X12.4964 Y-8.8084 F120.00
G01 X12.4027 Y-8.8646 F120.00
G01 X12.3961 Y-8.8678 F120.00
G01 X12.3961 Y-9.2902 F120.00
G01 X12.9726 Y-9.2902 F120.00
G01 X12.9766 Y-9.2907 F120.00
G01 X12.9800 Y-9.2916 F120.00
G01 X12.9837 Y-9.2933 F120.00
G01 X12.9871 Y-9.2956 F120.00
G01 X12.9900 Y-9.2985 F120.00
G01 X12.9921 Y-9.3013 F120.00
G01 X12.9938 Y-9.3044 F120.00
G01 X12.9951 Y-9.3082 F120.00
G01 X12.9958 Y-9.3139 F120.00
G01 X12.9958 Y-11.5141 F120.00
G01 X12.9955 Y-11.5175 F120.00
G01 X12.9948 Y-11.5209 F120.00
G01 X12.9935 Y-11.5242 F120.00
G01 X12.9918 Y-11.5272 F120.00
G01 X12.9896 Y-11.5300 F120.00
G01 X12.9871 Y-11.5324 F120.00
G01 X12.9842 Y-11.5344 F120.00
G01 X12.9811 Y-11.5360 F120.00
G01 X12.9766 Y-11.5373 F120.00
G01 X12.9721 Y-11.5378 F120.00
G01 X10.7719 Y-11.5378 F120.00
G01 X10.7662 Y-11.5371 F120.00
G01 X10.7608 Y-11.5350 F120.00
G01 X10.7560 Y-11.5316 F120.00
G01 X10.7522 Y-11.5272 F120.00
G01 X10.7505 Y-11.5242 F120.00
G01 X10.7492 Y-11.5209 F120.00
G01 X10.7485 Y-11.5175 F120.00
G01 X10.7482 Y-11.5141 F120.00
G01 X10.7482 Y-9.3139 F120.00
G01 X10.7491 Y-9.3077 F120.00
G01 X10.7505 Y-9.3038 F120.00
G01 X10.7522 Y-9.3008 F120.00
G01 X10.7544 Y-9.2980 F120.00
G01 X10.7574 Y-9.2952 F120.00
G01 X10.7608 Y-9.2930 F120.00
G01 X10.7640 Y-9.2916 F120.00
G01 X10.7674 Y-9.2907 F120.00
G01 X10.7714 Y-9.2902 F120.00
G01 X11.3479 Y-9.2902 F120.00
G01 X11.3479 Y-8.8678 F120.00
G01 X11.3413 Y-8.8646 F120.00
G01 X11.2468 Y-8.8078 F120.00
G01 X11.1591 Y-8.7427 F120.00
G01 X11.0774 Y-8.6686 F120.00
G01 X11.0033 Y-8.5869 F120.00
G01 X10.9382 Y-8.4992 F120.00
G01 X10.8814 Y-8.4047 F120.00
G01 X10.8782 Y-8.3981 F120.00
G01 X10.2335 Y-8.3981 F120.00
G01 X10.2192 Y-8.4548 F120.00
G01 X10.1820 Y-8.5586 F120.00
G01 X10.1351 Y-8.6578 F120.00
G01 X10.0787 Y-8.7519 F120.00
G01 X10.0120 Y-8.8418 F120.00
G01 X9.9386 Y-8.9226 F120.00
G01 X9.8574 Y-8.9963 F120.00
G01 X9.7674 Y-9.0630 F120.00
G01 X9.6738 Y-9.1191 F120.00
G01 X9.5741 Y-9.1663 F120.00
G01 X9.4702 Y-9.2034 F120.00
G01 X9.3643 Y-9.2300 F120.00
G01 X9.2531 Y-9.2465 F120.00
G01 X9.1440 Y-9.2518 F120.00
G01 X9.0338 Y-9.2464 F120.00
G01 X8.9248 Y-9.2302 F120.00
G01 X8.8188 Y-9.2037 F120.00
G01 X8.7129 Y-9.1658 F120.00
G01 X8.6142 Y-9.1191 F120.00
G01 X8.5206 Y-9.0630 F120.00
G01 X8.4302 Y-8.9960 F120.00
G01 X8.3494 Y-8.9226 F120.00
G01 X8.2753 Y-8.8409 F120.00
G01 X8.2096 Y-8.7524 F120.00
G01 X8.1534 Y-8.6587 F120.00
G01 X8.1057 Y-8.5581 F120.00
G01 X8.0686 Y-8.4542 F120.00
G01 X8.0418 Y-8.3472 F120.00
G01 X8.0256 Y-8.2382 F120.00
G01 X8.0202 Y-8.1280 F120.00
G01 X8.0256 Y-8.0178 F120.00
G01 X8.0418 Y-7.9088 F120.00
G01 X8.0686 Y-7.8018 F120.00
G01 X8.1053 Y-7.6990 F120.00
G01 X8.1534 Y-7.5973 F120.00
G01 X8.2096 Y-7.5036 F120.00
G01 X8.2760 Y-7.4142 F120.00
G01 X8.3494 Y-7.3334 F120.00
G01 X8.4311 Y-7.2593 F120.00
G01 X8.5196 Y-7.1936 F120.00
G01 X8.6148 Y-7.1366 F120.00
G01 X8.7139 Y-7.0897 F120.00
G01 X8.8167 Y-7.0529 F120.00
G01 X8.9248 Y-7.0258 F120.00
G01 X9.0338 Y-7.0096 F120.00
G01 X9.1429 Y-7.0042 F120.00
G01 X9.2542 Y-7.0096 F120.00
G01 X9.3632 Y-7.0258 F120.00
G01 X9.4702 Y-7.0526 F120.00
G01 X9.5741 Y-7.0897 F120.00
G01 X9.6728 Y-7.1364 F120.00
G01 X9.7684 Y-7.1936 F120.00
G01 X9.8561 Y-7.2586 F120.00
G01 X9.9382 Y-7.3329 F120.00
G01 X9.9537 Y-7.3499 F120.00
G01 X10.8782 Y-7.3499 F120.00
G01 X10.8814 Y-7.3433 F120.00
G01 X10.9376 Y-7.2496 F120.00
G01 X11.0033 Y-7.1611 F120.00
G01 X11.0774 Y-7.0794 F120.00
G01 X11.1599 Y-7.0046 F120.00
G00 Z2.0000
G00 X12.9721 Y-11.8302
G01 F60.00
G01 Z-0.0900
G01 F120.00
G01 X12.9766 Y-11.8307 F120.00
G01 X12.9811 Y-11.8320 F120.00
G01 X12.9852 Y-11.8342 F120.00
G01 X12.9888 Y-11.8372 F120.00
G01 X12.9918 Y-11.8408 F120.00
G01 X12.9940 Y-11.8449 F120.00
G01 X12.9953 Y-11.8494 F120.00
G01 X12.9958 Y-11.8539 F120.00
G01 X12.9958 Y-14.0541 F120.00
G01 X12.9952 Y-14.0592 F120.00
G01 X12.9940 Y-14.0631 F120.00
G01 X12.9921 Y-14.0667 F120.00
G01 X12.9896 Y-14.0700 F120.00
G01 X12.9871 Y-14.0724 F120.00
G01 X12.9837 Y-14.0747 F120.00
G01 X12.9806 Y-14.0762 F120.00
G01 X12.9766 Y-14.0773 F120.00
G01 X12.9726 Y-14.0778 F120.00
G01 X12.3961 Y-14.0778 F120.00
G01 X12.3961 Y-14.3702 F120.00
G01 X12.9726 Y-14.3702 F120.00
G01 X12.9766 Y-14.3707 F120.00
G01 X12.9800 Y-14.3716 F120.00
G01 X12.9832 Y-14.3730 F120.00
G01 X12.9866 Y-14.3752 F120.00
G01 X12.9896 Y-14.3780 F120.00
G01 X12.9918 Y-14.3808 F120.00
G01 X12.9938 Y-14.3844 F120.00
G01 X12.9949 Y-14.3877 F120.00
G01 X12.9958 Y-14.3939 F120.00
G01 X12.9958 Y-16.5941 F120.00
G01 X12.9955 Y-16.5981 F120.00
G01 X12.9944 Y-16.6020 F120.00
G01 X12.9927 Y-16.6057 F120.00
G01 X12.9904 Y-16.6091 F120.00
G01 X12.9866 Y-16.6128 F120.00
G01 X12.9822 Y-16.6155 F120.00
G01 X12.9772 Y-16.6172 F120.00
G01 X12.9721 Y-16.6178 F120.00
G01 X10.7719 Y-16.6178 F120.00
G01 X10.7679 Y-16.6175 F120.00
G01 X10.7640 Y-16.6164 F120.00
G01 X10.7603 Y-16.6147 F120.00
G01 X10.7569 Y-16.6124 F120.00
G01 X10.7544 Y-16.6100 F120.00
G01 X10.7519 Y-16.6067 F120.00
G01 X10.7500 Y-16.6031 F120.00
G01 X10.7488 Y-16.5992 F120.00
G01 X10.7482 Y-16.5952 F120.00
G01 X10.7482 Y-16.1989 F120.00
G01 X7.4224 Y-19.5247 F120.00
G01 X7.4420 Y-19.6030 F120.00
G01 X7.4580 Y-19.7110 F120.00
G01 X7.4636 Y-19.8222 F120.00
G01 X7.4580 Y-19.9335 F120.00
G01 X7.4420 Y-20.0415 F120.00
G01 X7.4152 Y-20.1485 F120.00
G01 X7.3776 Y-20.2533 F120.00
G01 X7.3309 Y-20.3520 F120.00
G01 X7.2742 Y-20.4466 F120.00
G01 X7.2078 Y-20.5360 F120.00
G01 X7.1344 Y-20.6169 F120.00
G01 X7.0531 Y-20.6906 F120.00
G01 X6.9641 Y-20.7566 F120.00
G01 X6.8705 Y-20.8128 F120.00
G01 X6.7688 Y-20.8609 F120.00
G01 X6.6660 Y-20.8976 F120.00
G01 X6.5590 Y-20.9244 F120.00
G01 X6.4499 Y-20.9406 F120.00
G01 X6.3398 Y-20.9460 F120.00
G01 X6.2296 Y-20.9406 F120.00
G01 X6.1205 Y-20.9244 F120.00
G01 X6.0135 Y-20.8976 F120.00
G01 X5.9107 Y-20.8609 F120.00
G01 X5.8091 Y-20.8128 F120.00
G01 X5.7154 Y-20.7566 F120.00
G01 X5.6268 Y-20.6909 F120.00
G01 X5.5451 Y-20.6169 F120.00
G01 X5.4711 Y-20.5352 F120.00
G01 X5.4054 Y-20.4466 F120.00
G01 X5.3487 Y-20.3520 F120.00
G01 X5.3015 Y-20.2523 F120.00
G01 X5.2644 Y-20.1485 F120.00
G01 X5.2376 Y-20.0415 F120.00
G01 X5.2214 Y-19.9324 F120.00
G01 X5.2160 Y-19.8222 F120.00
G01 X5.2214 Y-19.7121 F120.00
G01 X5.2376 Y-19.6030 F120.00
G01 X5.2644 Y-19.4960 F120.00
G01 X5.3015 Y-19.3922 F120.00
G01 X5.3487 Y-19.2925 F120.00
G01 X5.4054 Y-19.1979 F120.00
G01 X5.4718 Y-19.1085 F120.00
G01 X5.5451 Y-19.0276 F120.00
G01 X5.6260 Y-18.9542 F120.00
G01 X5.7154 Y-18.8878 F120.00
G01 X5.8100 Y-18.8311 F120.00
G01 X5.9087 Y-18.7844 F120.00
G01 X6.0141 Y-18.7467 F120.00
G01 X6.1205 Y-18.7200 F120.00
G01 X6.2285 Y-18.7040 F120.00
G01 X6.3404 Y-18.6984 F120.00
G01 X6.4499 Y-18.7038 F120.00
G01 X6.5584 Y-18.7199 F120.00
G01 X6.6654 Y-18.7467 F120.00
G01 X6.7044 Y-18.7605 F120.00
G01 X10.3419 Y-15.1230 F120.00
G01 X10.3795 Y-15.0889 F120.00
G01 X10.4209 Y-15.0583 F120.00
G01 X10.4650 Y-15.0318 F120.00
G01 X10.5120 Y-15.0096 F120.00
G01 X10.5599 Y-14.9925 F120.00
G01 X10.6103 Y-14.9799 F120.00
G01 X10.6612 Y-14.9724 F120.00
G01 X10.7114 Y-14.9700 F120.00
G01 X10.7482 Y-14.9699 F120.00
G01 X10.7482 Y-14.3934 F120.00
G01 X10.7488 Y-14.3888 F120.00
G01 X10.7502 Y-14.3844 F120.00
G01 X10.7525 Y-14.3803 F120.00
G01 X10.7556 Y-14.3768 F120.00
G01 X10.7593 Y-14.3739 F120.00
G01 X10.7629 Y-14.3720 F120.00
G01 X10.7674 Y-14.3707 F120.00
G01 X10.7719 Y-14.3702 F120.00
G01 X11.3479 Y-14.3702 F120.00
G01 X11.3479 Y-14.0778 F120.00
G01 X10.7714 Y-14.0778 F120.00
G01 X10.7674 Y-14.0773 F120.00
G01 X10.7640 Y-14.0764 F120.00
G01 X10.7603 Y-14.0747 F120.00
G01 X10.7569 Y-14.0724 F120.00
G01 X10.7540 Y-14.0695 F120.00
G01 X10.7519 Y-14.0667 F120.00
G01 X10.7500 Y-14.0631 F120.00
G01 X10.7488 Y-14.0592 F120.00
G01 X10.7482 Y-14.0541 F120.00
G01 X10.7482 Y-11.8539 F120.00
G01 X10.7485 Y-11.8499 F120.00
G01 X10.7496 Y-11.8460 F120.00
G01 X10.7513 Y-11.8423 F120.00
G01 X10.7536 Y-11.8389 F120.00
G01 X10.7574 Y-11.8352 F120.00
G01 X10.7618 Y-11.8325 F120.00
G01 X10.7668 Y-11.8308 F120.00
G01 X10.7719 Y-11.8302 F120.00
G01 X12.9721 Y-11.8302 F120.00
G00 Z2.0000
G00 X18.6882 Y-9.3139
G01 F60.00
G01 Z-0.0900
G01 F120.00
G01 X18.6887 Y-9.3094 F120.00
G01 X18.6900 Y-9.3049 F120.00
G01 X18.6922 Y-9.3008 F120.00
G01 X18.6952 Y-9.2972 F120.00
G01 X18.6988 Y-9.2942 F120.00
G01 X18.7029 Y-9.2920 F120.00
G01 X18.7074 Y-9.2907 F120.00
G01 X18.7119 Y-9.2902 F120.00
G01 X20.9121 Y-9.2902 F120.00
G01 X20.9166 Y-9.2907 F120.00
G01 X20.9211 Y-9.2920 F120.00
G01 X20.9252 Y-9.2942 F120.00
G01 X20.9288 Y-9.2972 F120.00
G01 X20.9318 Y-9.3008 F120.00
G01 X20.9340 Y-9.3049 F120.00
G01 X20.9353 Y-9.3094 F120.00
G01 X20.9358 Y-9.3139 F120.00
G01 X20.9358 Y-11.5141 F120.00
G01 X20.9352 Y-11.5192 F120.00
G01 X20.9342 Y-11.5226 F120.00
G01 X20.9324 Y-11.5262 F120.00
G01 X20.9300 Y-11.5295 F120.00
G01 X20.9271 Y-11.5324 F120.00
G01 X20.9237 Y-11.5347 F120.00
G01 X20.9206 Y-11.5362 F120.00
G01 X20.9166 Y-11.5373 F120.00
G01 X20.9126 Y-11.5378 F120.00
G01 X20.3361 Y-11.5378 F120.00
G01 X20.3361 Y-11.8302 F120.00
G01 X20.9121 Y-11.8302 F120.00
G01 X20.9166 Y-11.8307 F120.00
G01 X20.9211 Y-11.8320 F120.00
G01 X20.9252 Y-11.8342 F120.00
G01 X20.9288 Y-11.8372 F120.00
G01 X20.9318 Y-11.8408 F120.00
G01 X20.9340 Y-11.8449 F120.00
G01 X20.9353 Y-11.8494 F120.00
G01 X20.9358 Y-11.8539 F120.00
G01 X20.9358 Y-12.4299 F120.00
G01 X21.3982 Y-12.4299 F120.00
G01 X21.4014 Y-12.4233 F120.00
G01 X21.4576 Y-12.3296 F120.00
G01 X21.5233 Y-12.2411 F120.00
G01 X21.5974 Y-12.1594 F120.00
G01 X21.6799 Y-12.0846 F120.00
G01 X21.7676 Y-12.0196 F120.00
G01 X21.8613 Y-11.9634 F120.00
G01 X21.9609 Y-11.9162 F120.00
G01 X22.0658 Y-11.8786 F120.00
G01 X22.1728 Y-11.8518 F120.00
G01 X22.2818 Y-11.8356 F120.00
G01 X22.3920 Y-11.8302 F120.00
G01 X22.5022 Y-11.8356 F120.00
G01 X22.6112 Y-11.8518 F120.00
G01 X22.7182 Y-11.8786 F120.00
G01 X22.8221 Y-11.9157 F120.00
G01 X22.9218 Y-11.9629 F120.00
G01 X23.0164 Y-12.0196 F120.00
G01 X23.1049 Y-12.0853 F120.00
G01 X23.1874 Y-12.1601 F120.00
G01 X23.2614 Y-12.2419 F120.00
G01 X23.3264 Y-12.3296 F120.00
G01 X23.3826 Y-12.4233 F120.00
G01 X23.4303 Y-12.5239 F120.00
G01 X23.4674 Y-12.6278 F120.00
G01 X23.4942 Y-12.7348 F120.00
G01 X23.5104 Y-12.8438 F120.00
G01 X23.5158 Y-12.9540 F120.00
G01 X23.5103 Y-13.0652 F120.00
G01 X23.4942 Y-13.1732 F120.00
G01 X23.4677 Y-13.2792 F120.00
G01 X23.4307 Y-13.3830 F120.00
G01 X23.3831 Y-13.4838 F120.00
G01 X23.3264 Y-13.5784 F120.00
G01 X23.2607 Y-13.6669 F120.00
G01 X23.1866 Y-13.7486 F120.00
G01 X23.1049 Y-13.8227 F120.00
G01 X23.0154 Y-13.8890 F120.00
G01 X22.9208 Y-13.9456 F120.00
G01 X22.8221 Y-13.9923 F120.00
G01 X22.7193 Y-14.0291 F120.00
G01 X22.6112 Y-14.0562 F120.00
G01 X22.5022 Y-14.0724 F120.00
G01 X22.3920 Y-14.0778 F120.00
G01 X22.2813 Y-14.0723 F120.00
G01 X22.1717 Y-14.0560 F120.00
G01 X22.0658 Y-14.0294 F120.00
G01 X21.9630 Y-13.9927 F120.00
G01 X21.8622 Y-13.9451 F120.00
G01 X21.7676 Y-13.8884 F120.00
G01 X21.6782 Y-13.8220 F120.00
G01 X21.5974 Y-13.7486 F120.00
G01 X21.5240 Y-13.6678 F120.00
G01 X21.4576 Y-13.5784 F120.00
G01 X21.4014 Y-13.4847 F120.00
G01 X21.3982 Y-13.4781 F120.00
G01 X20.9358 Y-13.4781 F120.00
G01 X20.9358 Y-14.0546 F120.00
G01 X20.9355 Y-14.0581 F120.00
G01 X20.9344 Y-14.0620 F120.00
G01 X20.9330 Y-14.0652 F120.00
G01 X20.9308 Y-14.0686 F120.00
G01 X20.9284 Y-14.0712 F120.00
G01 X20.9252 Y-14.0738 F120.00
G01 X20.9222 Y-14.0755 F120.00
G01 X20.9183 Y-14.0769 F120.00
G01 X20.9121 Y-14.0778 F120.00
G01 X18.7119 Y-14.0778 F120.00
G01 X18.7074 Y-14.0773 F120.00
G01 X18.7029 Y-14.0760 F120.00
G01 X18.6988 Y-14.0738 F120.00
G01 X18.6952 Y-14.0708 F120.00
G01 X18.6922 Y-14.0672 F120.00
G01 X18.6900 Y-14.0631 F120.00
G01 X18.6887 Y-14.0586 F120.00
G01 X18.6882 Y-14.0541 F120.00
G01 X18.6882 Y-11.8539 F120.00
G01 X18.6888 Y-11.8488 F120.00
G01 X18.6898 Y-11.8454 F120.00
G01 X18.6916 Y-11.8418 F120.00
G01 X18.6940 Y-11.8385 F120.00
G01 X18.6969 Y-11.8356 F120.00
G01 X18.7003 Y-11.8333 F120.00
G01 X18.7034 Y-11.8318 F120.00
G01 X18.7074 Y-11.8307 F120.00
G01 X18.7114 Y-11.8302 F120.00
G01 X19.2879 Y-11.8302 F120.00
G01 X19.2879 Y-11.5378 F120.00
G01 X18.7114 Y-11.5378 F120.00
G01 X18.7074 Y-11.5373 F120.00
G01 X18.7040 Y-11.5364 F120.00
G01 X18.7008 Y-11.5350 F120.00
G01 X18.6974 Y-11.5328 F120.00
G01 X18.6948 Y-11.5304 F120.00
G01 X18.6922 Y-11.5272 F120.00
G01 X18.6905 Y-11.5242 F120.00
G01 X18.6891 Y-11.5203 F120.00
G01 X18.6882 Y-11.5141 F120.00
G01 X18.6882 Y-9.3139 F120.00
G00 Z2.0000
G00 X20.2978 Y-7.3499
G01 F60.00
G01 Z-0.0900
G01 F120.00
G01 X20.8281 Y-7.3499 F120.00
G01 X20.8805 Y-7.3526 F120.00
G01 X20.9302 Y-7.3600 F120.00
G01 X20.9791 Y-7.3722 F120.00
G01 X21.0285 Y-7.3898 F120.00
G01 X21.0750 Y-7.4118 F120.00
G01 X21.1182 Y-7.4377 F120.00
G01 X21.1613 Y-7.4696 F120.00
G01 X21.1985 Y-7.5034 F120.00
G01 X25.2630 Y-11.5679 F120.00
G01 X25.2971 Y-11.6055 F120.00
G01 X25.3277 Y-11.6469 F120.00
G01 X25.3542 Y-11.6910 F120.00
G01 X25.3757 Y-11.7365 F120.00
G01 X25.3938 Y-11.7869 F120.00
G01 X25.4060 Y-11.8358 F120.00
G01 X25.4136 Y-11.8872 F120.00
G01 X25.4161 Y-11.9379 F120.00
G01 X25.4161 Y-13.9701 F120.00
G01 X25.4135 Y-14.0214 F120.00
G01 X25.4062 Y-14.0712 F120.00
G01 X25.3935 Y-14.1221 F120.00
G01 X25.3762 Y-14.1705 F120.00
G01 X25.3536 Y-14.2180 F120.00
G01 X25.3277 Y-14.2611 F120.00
G01 X25.2978 Y-14.3016 F120.00
G01 X25.2633 Y-14.3398 F120.00
G01 X24.4001 Y-15.2031 F120.00
G01 X24.4001 Y-22.3521 F120.00
G01 X24.3975 Y-22.4034 F120.00
G01 X24.3901 Y-22.4537 F120.00
G01 X24.3771 Y-22.5052 F120.00
G01 X24.3602 Y-22.5525 F120.00
G01 X24.3387 Y-22.5981 F120.00
G01 X24.3117 Y-22.6431 F120.00
G01 X24.2804 Y-22.6853 F120.00
G01 X24.2466 Y-22.7225 F120.00
G01 X23.4241 Y-23.5451 F120.00
G01 X23.4241 Y-39.6462 F120.00
G01 X23.4307 Y-39.6494 F120.00
G01 X23.5244 Y-39.7056 F120.00
G01 X23.6138 Y-39.7720 F120.00
G01 X23.6946 Y-39.8454 F120.00
G01 X23.7680 Y-39.9262 F120.00
G01 X23.8350 Y-40.0166 F120.00
G01 X23.8911 Y-40.1102 F120.00
G01 X23.9378 Y-40.2089 F120.00
G01 X23.9754 Y-40.3138 F120.00
G01 X24.0022 Y-40.4208 F120.00
G01 X24.0183 Y-40.5288 F120.00
G01 X24.0238 Y-40.6400 F120.00
G01 X24.0183 Y-40.7512 F120.00
G01 X24.0022 Y-40.8592 F120.00
G01 X23.9754 Y-40.9662 F120.00
G01 X23.9378 Y-41.0711 F120.00
G01 X23.8911 Y-41.1698 F120.00
G01 X23.8350 Y-41.2634 F120.00
G01 X23.7680 Y-41.3538 F120.00
G01 X23.6946 Y-41.4346 F120.00
G01 X23.6138 Y-41.5080 F120.00
G01 X23.5244 Y-41.5744 F120.00
G01 X23.4307 Y-41.6306 F120.00
G01 X23.4241 Y-41.6338 F120.00
G01 X23.4241 Y-42.4402 F120.00
G01 X23.4307 Y-42.4434 F120.00
G01 X23.5244 Y-42.4996 F120.00
G01 X23.6138 Y-42.5660 F120.00
G01 X23.6946 Y-42.6394 F120.00
G01 X23.7680 Y-42.7202 F120.00
G01 X23.8350 Y-42.8106 F120.00
G01 X23.8911 Y-42.9042 F120.00
G01 X23.9378 Y-43.0029 F120.00
G01 X23.9754 Y-43.1078 F120.00
G01 X24.0022 Y-43.2148 F120.00
G01 X24.0183 Y-43.3228 F120.00
G01 X24.0238 Y-43.4340 F120.00
G01 X24.0183 Y-43.5452 F120.00
G01 X24.0022 Y-43.6532 F120.00
G01 X23.9754 Y-43.7602 F120.00
G01 X23.9378 Y-43.8651 F120.00
G01 X23.8911 Y-43.9638 F120.00
G01 X23.8350 Y-44.0574 F120.00
G01 X23.7680 Y-44.1478 F120.00
G01 X23.6946 Y-44.2286 F120.00
G01 X23.6138 Y-44.3020 F120.00
G01 X23.5244 Y-44.3684 F120.00
G01 X23.4307 Y-44.4246 F120.00
G01 X23.4241 Y-44.4278 F120.00
G01 X23.4241 Y-55.5182 F120.00
G01 X23.9606 Y-55.5182 F120.00
G01 X23.9646 Y-55.5187 F120.00
G01 X23.9680 Y-55.5196 F120.00
G01 X23.9717 Y-55.5213 F120.00
G01 X23.9751 Y-55.5236 F120.00
G01 X23.9780 Y-55.5265 F120.00
G01 X23.9801 Y-55.5293 F120.00
G01 X23.9818 Y-55.5324 F120.00
G01 X23.9831 Y-55.5362 F120.00
G01 X23.9838 Y-55.5419 F120.00
G01 X23.9838 Y-57.7421 F120.00
G01 X23.9833 Y-57.7466 F120.00
G01 X23.9820 Y-57.7511 F120.00
G01 X23.9798 Y-57.7552 F120.00
G01 X23.9772 Y-57.7584 F120.00
G01 X23.9737 Y-57.7615 F120.00
G01 X23.9702 Y-57.7635 F120.00
G01 X23.9658 Y-57.7651 F120.00
G01 X23.9618 Y-57.7657 F120.00
G01 X21.7599 Y-57.7658 F120.00
G01 X21.7554 Y-57.7653 F120.00
G01 X21.7514 Y-57.7642 F120.00
G01 X21.7478 Y-57.7624 F120.00
G01 X21.7440 Y-57.7596 F120.00
G01 X21.7412 Y-57.7566 F120.00
G01 X21.7387 Y-57.7527 F120.00
G01 X21.7371 Y-57.7483 F120.00
G01 X21.7363 Y-57.7443 F120.00
G01 X21.7362 Y-55.5419 F120.00
G01 X21.7371 Y-55.5357 F120.00
G01 X21.7382 Y-55.5324 F120.00
G01 X21.7402 Y-55.5288 F120.00
G01 X21.7428 Y-55.5256 F120.00
G01 X21.7454 Y-55.5232 F120.00
G01 X21.7483 Y-55.5213 F120.00
G01 X21.7520 Y-55.5196 F120.00
G01 X21.7559 Y-55.5185 F120.00
G01 X21.7594 Y-55.5182 F120.00
G01 X22.3759 Y-55.5182 F120.00
G01 X22.3759 Y-44.4278 F120.00
G01 X22.3693 Y-44.4246 F120.00
G01 X22.2756 Y-44.3684 F120.00
G01 X22.1862 Y-44.3020 F120.00
G01 X22.1054 Y-44.2286 F120.00
G01 X22.0320 Y-44.1478 F120.00
G01 X21.9650 Y-44.0574 F120.00
G01 X21.9089 Y-43.9638 F120.00
G01 X21.8622 Y-43.8651 F120.00
G01 X21.8246 Y-43.7602 F120.00
G01 X21.7976 Y-43.6522 F120.00
G01 X21.7816 Y-43.5442 F120.00
G01 X21.7762 Y-43.4346 F120.00
G01 X21.7817 Y-43.3228 F120.00
G01 X21.7978 Y-43.2148 F120.00
G01 X21.8246 Y-43.1078 F120.00
G01 X21.8622 Y-43.0029 F120.00
G01 X21.9089 Y-42.9042 F120.00
G01 X21.9650 Y-42.8106 F120.00
G01 X22.0320 Y-42.7202 F120.00
G01 X22.1054 Y-42.6394 F120.00
G01 X22.1862 Y-42.5660 F120.00
G01 X22.2756 Y-42.4996 F120.00
G01 X22.3693 Y-42.4434 F120.00
G01 X22.3759 Y-42.4402 F120.00
G01 X22.3759 Y-41.6338 F120.00
G01 X22.3693 Y-41.6306 F120.00
G01 X22.2756 Y-41.5744 F120.00
G01 X22.1862 Y-41.5080 F120.00
G01 X22.1054 Y-41.4346 F120.00
G01 X22.0320 Y-41.3538 F120.00
G01 X21.9656 Y-41.2644 F120.00
G01 X21.9089 Y-41.1698 F120.00
G01 X21.8613 Y-41.0690 F120.00
G01 X21.8246 Y-40.9662 F120.00
G01 X21.7980 Y-40.8603 F120.00
G01 X21.7817 Y-40.7507 F120.00
G01 X21.7762 Y-40.6400 F120.00
G01 X21.7816 Y-40.5298 F120.00
G01 X21.7978 Y-40.4208 F120.00
G01 X21.8248 Y-40.3132 F120.00
G01 X21.8617 Y-40.2099 F120.00
G01 X21.9092 Y-40.1097 F120.00
G01 X21.9659 Y-40.0152 F120.00
G01 X22.0309 Y-39.9275 F120.00
G01 X22.0582 Y-39.8973 F120.00
G01 X20.7009 Y-38.5401 F120.00
G01 X20.6818 Y-38.5401 F120.00
G01 X20.6818 Y-39.1166 F120.00
G01 X20.6815 Y-39.1201 F120.00
G01 X20.6804 Y-39.1240 F120.00
G01 X20.6787 Y-39.1277 F120.00
G01 X20.6768 Y-39.1306 F120.00
G01 X20.6744 Y-39.1332 F120.00
G01 X20.6712 Y-39.1358 F120.00
G01 X20.6676 Y-39.1378 F120.00
G01 X20.6638 Y-39.1391 F120.00
G01 X20.6581 Y-39.1398 F120.00
G01 X18.4579 Y-39.1398 F120.00
G01 X18.4534 Y-39.1393 F120.00
G01 X18.4489 Y-39.1380 F120.00
G01 X18.4453 Y-39.1361 F120.00
G01 X18.4416 Y-39.1332 F120.00
G01 X18.4385 Y-39.1297 F120.00
G01 X18.4365 Y-39.1262 F120.00
G01 X18.4349 Y-39.1218 F120.00
G01 X18.4343 Y-39.1178 F120.00
G01 X18.4342 Y-36.9159 F120.00
G01 X18.4347 Y-36.9114 F120.00
G01 X18.4358 Y-36.9074 F120.00
G01 X18.4379 Y-36.9033 F120.00
G01 X18.4404 Y-36.9000 F120.00
G01 X18.4434 Y-36.8972 F120.00
G01 X18.4473 Y-36.8947 F120.00
G01 X18.4511 Y-36.8932 F120.00
G01 X18.4557 Y-36.8923 F120.00
G01 X20.6581 Y-36.8922 F120.00
G01 X20.6632 Y-36.8928 F120.00
G01 X20.6682 Y-36.8945 F120.00
G01 X20.6712 Y-36.8962 F120.00
G01 X20.6740 Y-36.8984 F120.00
G01 X20.6781 Y-36.9033 F120.00
G01 X20.6808 Y-36.9091 F120.00
G01 X20.6818 Y-36.9154 F120.00
G01 X20.6818 Y-37.4919 F120.00
G01 X20.9186 Y-37.4920 F120.00
G01 X20.9694 Y-37.4945 F120.00
G01 X21.0197 Y-37.5019 F120.00
G01 X21.0701 Y-37.5145 F120.00
G01 X21.1185 Y-37.5318 F120.00
G01 X21.1650 Y-37.5538 F120.00
G01 X21.2100 Y-37.5809 F120.00
G01 X21.2505 Y-37.6109 F120.00
G01 X21.2885 Y-37.6454 F120.00
G01 X22.3759 Y-38.7328 F120.00
G01 X22.3759 Y-23.3279 F120.00
G01 X22.3784 Y-23.2772 F120.00
G01 X22.3863 Y-23.2247 F120.00
G01 X22.3985 Y-23.1759 F120.00
G01 X22.4158 Y-23.1275 F120.00
G01 X22.4378 Y-23.0810 F120.00
G01 X22.4637 Y-23.0378 F120.00
G01 X22.4953 Y-22.9951 F120.00
G01 X22.5294 Y-22.9575 F120.00
G01 X23.3519 Y-22.1349 F120.00
G01 X23.3519 Y-14.9859 F120.00
G01 X23.3545 Y-14.9346 F120.00
G01 X23.3620 Y-14.8838 F120.00
G01 X23.3749 Y-14.8328 F120.00
G01 X23.3918 Y-14.7855 F120.00
G01 X23.4133 Y-14.7399 F120.00
G01 X23.4403 Y-14.6949 F120.00
G01 X23.4716 Y-14.6527 F120.00
G01 X23.5054 Y-14.6155 F120.00
G01 X24.3679 Y-13.7529 F120.00
G01 X24.3679 Y-12.1551 F120.00
G01 X20.6109 Y-8.3981 F120.00
G01 X20.2978 Y-8.3981 F120.00
G01 X20.2946 Y-8.4047 F120.00
G01 X20.2384 Y-8.4984 F120.00
G01 X20.1720 Y-8.5878 F120.00
G01 X20.0986 Y-8.6686 F120.00
G01 X20.0178 Y-8.7420 F120.00
G01 X19.9274 Y-8.8090 F120.00
G01 X19.8338 Y-8.8651 F120.00
G01 X19.7351 Y-8.9118 F120.00
G01 X19.6302 Y-8.9494 F120.00
G01 X19.5232 Y-8.9762 F120.00
G01 X19.4152 Y-8.9923 F120.00
G01 X19.3040 Y-8.9978 F120.00
G01 X19.1928 Y-8.9923 F120.00
G01 X19.0848 Y-8.9762 F120.00
G01 X18.9788 Y-8.9497 F120.00
G01 X18.8739 Y-8.9123 F120.00
G01 X18.7733 Y-8.8646 F120.00
G01 X18.6796 Y-8.8084 F120.00
G01 X18.5919 Y-8.7434 F120.00
G01 X18.5094 Y-8.6686 F120.00
G01 X18.4346 Y-8.5861 F120.00
G01 X18.3696 Y-8.4984 F120.00
G01 X18.3129 Y-8.4038 F120.00
G01 X18.2657 Y-8.3041 F120.00
G01 X18.2286 Y-8.2002 F120.00
G01 X18.2018 Y-8.0932 F120.00
G01 X18.1856 Y-7.9842 F120.00
G01 X18.1802 Y-7.8740 F120.00
G01 X18.1856 Y-7.7638 F120.00
G01 X18.2018 Y-7.6548 F120.00
G01 X18.2286 Y-7.5478 F120.00
G01 X18.2657 Y-7.4439 F120.00
G01 X18.3129 Y-7.3442 F120.00
G01 X18.3696 Y-7.2496 F120.00
G01 X18.4353 Y-7.1611 F120.00
G01 X18.5094 Y-7.0794 F120.00
G01 X18.5911 Y-7.0053 F120.00
G01 X18.6796 Y-6.9396 F120.00
G01 X18.7742 Y-6.8829 F120.00
G01 X18.8739 Y-6.8357 F120.00
G01 X18.9778 Y-6.7986 F120.00
G01 X19.0848 Y-6.7718 F120.00
G01 X19.1938 Y-6.7556 F120.00
G01 X19.3040 Y-6.7502 F120.00
G01 X19.4142 Y-6.7556 F120.00
G01 X19.5232 Y-6.7718 F120.00
G01 X19.6302 Y-6.7986 F120.00
G01 X19.7341 Y-6.8357 F120.00
G01 X19.8338 Y-6.8829 F120.00
G01 X19.9284 Y-6.9396 F120.00
G01 X20.0169 Y-7.0053 F120.00
G01 X20.0986 Y-7.0794 F120.00
G01 X20.1727 Y-7.1611 F120.00
G01 X20.2384 Y-7.2496 F120.00
G01 X20.2946 Y-7.3433 F120.00
G01 X20.2978 Y-7.3499 F120.00
G00 Z2.0000
G00 X16.1282 Y-2.9889
G01 F60.00
G01 Z-0.0900
G01 F120.00
G01 X16.1287 Y-2.9844 F120.00
G01 X16.1300 Y-2.9799 F120.00
G01 X16.1322 Y-2.9758 F120.00
G01 X16.1352 Y-2.9722 F120.00
G01 X16.1388 Y-2.9692 F120.00
G01 X16.1429 Y-2.9670 F120.00
G01 X16.1474 Y-2.9657 F120.00
G01 X16.1519 Y-2.9652 F120.00
G01 X18.3521 Y-2.9652 F120.00
G01 X18.3566 Y-2.9657 F120.00
G01 X18.3606 Y-2.9668 F120.00
G01 X18.3642 Y-2.9686 F120.00
G01 X18.3675 Y-2.9710 F120.00
G01 X18.3704 Y-2.9739 F120.00
G01 X18.3727 Y-2.9773 F120.00
G01 X18.3744 Y-2.9810 F120.00
G01 X18.3755 Y-2.9855 F120.00
G01 X18.3758 Y-2.9889 F120.00
G01 X18.3758 Y-5.1891 F120.00
G01 X18.3749 Y-5.1953 F120.00
G01 X18.3735 Y-5.1992 F120.00
G01 X18.3718 Y-5.2022 F120.00
G01 X18.3692 Y-5.2054 F120.00
G01 X18.3666 Y-5.2078 F120.00
G01 X18.3637 Y-5.2097 F120.00
G01 X18.3600 Y-5.2114 F120.00
G01 X18.3561 Y-5.2125 F120.00
G01 X18.3526 Y-5.2128 F120.00
G01 X17.7761 Y-5.2128 F120.00
G01 X17.7761 Y-14.0769 F120.00
G01 X18.6691 Y-14.9699 F120.00
G01 X18.6882 Y-14.9699 F120.00
G01 X18.6882 Y-14.3934 F120.00
G01 X18.6885 Y-14.3899 F120.00
G01 X18.6896 Y-14.3860 F120.00
G01 X18.6910 Y-14.3828 F120.00
G01 X18.6932 Y-14.3794 F120.00
G01 X18.6956 Y-14.3768 F120.00
G01 X18.6988 Y-14.3742 F120.00
G01 X18.7018 Y-14.3725 F120.00
G01 X18.7057 Y-14.3711 F120.00
G01 X18.7119 Y-14.3702 F120.00
G01 X20.9121 Y-14.3702 F120.00
G01 X20.9172 Y-14.3708 F120.00
G01 X20.9216 Y-14.3722 F120.00
G01 X20.9271 Y-14.3756 F120.00
G01 X20.9296 Y-14.3780 F120.00
G01 X20.9318 Y-14.3808 F120.00
G01 X20.9346 Y-14.3865 F120.00
G01 X20.9355 Y-14.3899 F120.00
G01 X20.9358 Y-14.3934 F120.00
G01 X20.9358 Y-14.9699 F120.00
G01 X21.1726 Y-14.9700 F120.00
G01 X21.2234 Y-14.9725 F120.00
G01 X21.2737 Y-14.9799 F120.00
G01 X21.3241 Y-14.9925 F120.00
G01 X21.3725 Y-15.0098 F120.00
G01 X21.4190 Y-15.0318 F120.00
G01 X21.4640 Y-15.0589 F120.00
G01 X21.5045 Y-15.0889 F120.00
G01 X21.5425 Y-15.1234 F120.00
G01 X22.4686 Y-16.0495 F120.00
G01 X22.5031 Y-16.0875 F120.00
G01 X22.5337 Y-16.1289 F120.00
G01 X22.5607 Y-16.1739 F120.00
G01 X22.5822 Y-16.2195 F120.00
G01 X22.5995 Y-16.2679 F120.00
G01 X22.6122 Y-16.3188 F120.00
G01 X22.6195 Y-16.3686 F120.00
G01 X22.6220 Y-16.4194 F120.00
G01 X22.6221 Y-21.3361 F120.00
G01 X22.6194 Y-21.3885 F120.00
G01 X22.6120 Y-21.4382 F120.00
G01 X22.5995 Y-21.4881 F120.00
G01 X22.5822 Y-21.5365 F120.00
G01 X22.5607 Y-21.5821 F120.00
G01 X22.5331 Y-21.6280 F120.00
G01 X22.5031 Y-21.6685 F120.00
G01 X22.4690 Y-21.7061 F120.00
G01 X17.7961 Y-26.3791 F120.00
G01 X17.7961 Y-37.5221 F120.00
G01 X17.7934 Y-37.5745 F120.00
G01 X17.7860 Y-37.6242 F120.00
G01 X17.7738 Y-37.6731 F120.00
G01 X17.7562 Y-37.7225 F120.00
G01 X17.7339 Y-37.7695 F120.00
G01 X17.7077 Y-37.8131 F120.00
G01 X17.6778 Y-37.8536 F120.00
G01 X17.6426 Y-37.8925 F120.00
G01 X14.6085 Y-40.9266 F120.00
G01 X14.5696 Y-40.9618 F120.00
G01 X14.5291 Y-40.9917 F120.00
G01 X14.4855 Y-41.0179 F120.00
G01 X14.4385 Y-41.0402 F120.00
G01 X14.3891 Y-41.0578 F120.00
G01 X14.3402 Y-41.0700 F120.00
G01 X14.2905 Y-41.0774 F120.00
G01 X14.2391 Y-41.0800 F120.00
G01 X13.0618 Y-41.0801 F120.00
G01 X13.0618 Y-41.6566 F120.00
G01 X13.0613 Y-41.6606 F120.00
G01 X13.0602 Y-41.6646 F120.00
G01 X13.0584 Y-41.6682 F120.00
G01 X13.0560 Y-41.6715 F120.00
G01 X13.0531 Y-41.6744 F120.00
G01 X13.0497 Y-41.6767 F120.00
G01 X13.0460 Y-41.6784 F120.00
G01 X13.0421 Y-41.6795 F120.00
G01 X13.0381 Y-41.6798 F120.00
G01 X10.8379 Y-41.6798 F120.00
G01 X10.8345 Y-41.6795 F120.00
G01 X10.8305 Y-41.6786 F120.00
G01 X10.8263 Y-41.6767 F120.00
G01 X10.8229 Y-41.6744 F120.00
G01 X10.8200 Y-41.6715 F120.00
G01 X10.8176 Y-41.6682 F120.00
G01 X10.8158 Y-41.6646 F120.00
G01 X10.8147 Y-41.6606 F120.00
G01 X10.8142 Y-41.6561 F120.00
G01 X10.8142 Y-39.4559 F120.00
G01 X10.8149 Y-39.4502 F120.00
G01 X10.8167 Y-39.4453 F120.00
G01 X10.8196 Y-39.4409 F120.00
G01 X10.8238 Y-39.4369 F120.00
G01 X10.8273 Y-39.4347 F120.00
G01 X10.8305 Y-39.4334 F120.00
G01 X10.8339 Y-39.4325 F120.00
G01 X10.8379 Y-39.4322 F120.00
G01 X13.0381 Y-39.4322 F120.00
G01 X13.0421 Y-39.4325 F120.00
G01 X13.0460 Y-39.4336 F120.00
G01 X13.0497 Y-39.4353 F120.00
G01 X13.0531 Y-39.4376 F120.00
G01 X13.0560 Y-39.4405 F120.00
G01 X13.0584 Y-39.4438 F120.00
G01 X13.0602 Y-39.4474 F120.00
G01 X13.0613 Y-39.4514 F120.00
G01 X13.0618 Y-39.4554 F120.00
G01 X13.0618 Y-40.0319 F120.00
G01 X14.0209 Y-40.0319 F120.00
G01 X16.7479 Y-37.3049 F120.00
G01 X16.7479 Y-26.1619 F120.00
G01 X16.7505 Y-26.1106 F120.00
G01 X16.7578 Y-26.0608 F120.00
G01 X16.7705 Y-26.0099 F120.00
G01 X16.7878 Y-25.9615 F120.00
G01 X16.8104 Y-25.9140 F120.00
G01 X16.8363 Y-25.8709 F120.00
G01 X16.8662 Y-25.8304 F120.00
G01 X16.9014 Y-25.7915 F120.00
G01 X21.5739 Y-21.1189 F120.00
G01 X21.5739 Y-16.6371 F120.00
G01 X20.9549 Y-16.0181 F120.00
G01 X20.9358 Y-16.0181 F120.00
G01 X20.9358 Y-16.5946 F120.00
G01 X20.9355 Y-16.5981 F120.00
G01 X20.9344 Y-16.6020 F120.00
G01 X20.9327 Y-16.6057 F120.00
G01 X20.9308 Y-16.6086 F120.00
G01 X20.9284 Y-16.6112 F120.00
G01 X20.9252 Y-16.6138 F120.00
G01 X20.9222 Y-16.6155 F120.00
G01 X20.9183 Y-16.6169 F120.00
G01 X20.9121 Y-16.6178 F120.00
G01 X18.7119 Y-16.6178 F120.00
G01 X18.7068 Y-16.6172 F120.00
G01 X18.7024 Y-16.6158 F120.00
G01 X18.6969 Y-16.6124 F120.00
G01 X18.6944 Y-16.6100 F120.00
G01 X18.6922 Y-16.6072 F120.00
G01 X18.6894 Y-16.6015 F120.00
G01 X18.6885 Y-16.5981 F120.00
G01 X18.6882 Y-16.5946 F120.00
G01 X18.6882 Y-16.0181 F120.00
G01 X18.4514 Y-16.0180 F120.00
G01 X18.4006 Y-16.0155 F120.00
G01 X18.3498 Y-16.0080 F120.00
G01 X18.2988 Y-15.9951 F120.00
G01 X18.2515 Y-15.9782 F120.00
G01 X18.2059 Y-15.9567 F120.00
G01 X18.1609 Y-15.9297 F120.00
G01 X18.1195 Y-15.8991 F120.00
G01 X18.0815 Y-15.8646 F120.00
G01 X16.8810 Y-14.6641 F120.00
G01 X16.8462 Y-14.6256 F120.00
G01 X16.8163 Y-14.5851 F120.00
G01 X16.7904 Y-14.5420 F120.00
G01 X16.7678 Y-14.4945 F120.00
G01 X16.7505 Y-14.4461 F120.00
G01 X16.7378 Y-14.3952 F120.00
G01 X16.7305 Y-14.3454 F120.00
G01 X16.7279 Y-14.2941 F120.00
G01 X16.7279 Y-5.2128 F120.00
G01 X16.1514 Y-5.2128 F120.00
G01 X16.1479 Y-5.2125 F120.00
G01 X16.1440 Y-5.2114 F120.00
G01 X16.1408 Y-5.2100 F120.00
G01 X16.1374 Y-5.2078 F120.00
G01 X16.1348 Y-5.2054 F120.00
G01 X16.1322 Y-5.2022 F120.00
G01 X16.1305 Y-5.1992 F120.00
G01 X16.1291 Y-5.1953 F120.00
G01 X16.1282 Y-5.1891 F120.00
G01 X16.1282 Y-2.9889 F120.00
G00 Z2.0000
G00 X15.8121 Y-2.9652
G01 F60.00
G01 Z-0.0900
G01 F120.00
G01 X15.8166 Y-2.9657 F120.00
G01 X15.8211 Y-2.9670 F120.00
G01 X15.8252 Y-2.9692 F120.00
G01 X15.8288 Y-2.9722 F120.00
G01 X15.8318 Y-2.9758 F120.00
G01 X15.8340 Y-2.9799 F120.00
G01 X15.8353 Y-2.9844 F120.00
G01 X15.8358 Y-2.9889 F120.00
G01 X15.8358 Y-5.1891 F120.00
G01 X15.8351 Y-5.1948 F120.00
G01 X15.8338 Y-5.1986 F120.00
G01 X15.8318 Y-5.2022 F120.00
G01 X15.8296 Y-5.2050 F120.00
G01 X15.8266 Y-5.2078 F120.00
G01 X15.8232 Y-5.2100 F120.00
G01 X15.8200 Y-5.2114 F120.00
G01 X15.8161 Y-5.2125 F120.00
G01 X15.8126 Y-5.2128 F120.00
G01 X15.2361 Y-5.2128 F120.00
G01 X15.2361 Y-16.5541 F120.00
G01 X15.2336 Y-16.6048 F120.00
G01 X15.2257 Y-16.6573 F120.00
G01 X15.2135 Y-16.7061 F120.00
G01 X15.1962 Y-16.7545 F120.00
G01 X15.1736 Y-16.8020 F120.00
G01 X15.1477 Y-16.8451 F120.00
G01 X15.1178 Y-16.8856 F120.00
G01 X15.0826 Y-16.9245 F120.00
G01 X14.7481 Y-17.2591 F120.00
G01 X14.7481 Y-31.8101 F120.00
G01 X14.7455 Y-31.8614 F120.00
G01 X14.7382 Y-31.9112 F120.00
G01 X14.7251 Y-31.9632 F120.00
G01 X14.7082 Y-32.0105 F120.00
G01 X14.6862 Y-32.0570 F120.00
G01 X14.6591 Y-32.1020 F120.00
G01 X14.6291 Y-32.1425 F120.00
G01 X14.5953 Y-32.1798 F120.00
G01 X13.4678 Y-33.3073 F120.00
G01 X13.4305 Y-33.3411 F120.00
G01 X13.3891 Y-33.3717 F120.00
G01 X13.3450 Y-33.3982 F120.00
G01 X13.2980 Y-33.4204 F120.00
G01 X13.2501 Y-33.4375 F120.00
G01 X13.1997 Y-33.4501 F120.00
G01 X13.1488 Y-33.4576 F120.00
G01 X13.0986 Y-33.4600 F120.00
G01 X13.0618 Y-33.4601 F120.00
G01 X13.0618 Y-34.0366 F120.00
G01 X13.0608 Y-34.0429 F120.00
G01 X13.0581 Y-34.0487 F120.00
G01 X13.0544 Y-34.0532 F120.00
G01 X13.0492 Y-34.0570 F120.00
G01 X13.0438 Y-34.0591 F120.00
G01 X13.0381 Y-34.0598 F120.00
G01 X10.8379 Y-34.0598 F120.00
G01 X10.8345 Y-34.0595 F120.00
G01 X10.8305 Y-34.0586 F120.00
G01 X10.8263 Y-34.0567 F120.00
G01 X10.8229 Y-34.0544 F120.00
G01 X10.8200 Y-34.0515 F120.00
G01 X10.8176 Y-34.0482 F120.00
G01 X10.8158 Y-34.0446 F120.00
G01 X10.8147 Y-34.0406 F120.00
G01 X10.8142 Y-34.0361 F120.00
G01 X10.8142 Y-31.8359 F120.00
G01 X10.8148 Y-31.8308 F120.00
G01 X10.8165 Y-31.8258 F120.00
G01 X10.8189 Y-31.8218 F120.00
G01 X10.8225 Y-31.8180 F120.00
G01 X10.8258 Y-31.8156 F120.00
G01 X10.8294 Y-31.8138 F120.00
G01 X10.8334 Y-31.8127 F120.00
G01 X10.8379 Y-31.8122 F120.00
G01 X13.0381 Y-31.8122 F120.00
G01 X13.0421 Y-31.8125 F120.00
G01 X13.0460 Y-31.8136 F120.00
G01 X13.0497 Y-31.8153 F120.00
G01 X13.0531 Y-31.8176 F120.00
G01 X13.0556 Y-31.8200 F120.00
G01 X13.0581 Y-31.8233 F120.00
G01 X13.0600 Y-31.8269 F120.00
G01 X13.0612 Y-31.8308 F120.00
G01 X13.0618 Y-31.8348 F120.00
G01 X13.0618 Y-32.2311 F120.00
G01 X13.6999 Y-31.5929 F120.00
G01 X13.6999 Y-18.3072 F120.00
G01 X13.6018 Y-18.4053 F120.00
G01 X13.5645 Y-18.4391 F120.00
G01 X13.5240 Y-18.4691 F120.00
G01 X13.4781 Y-18.4967 F120.00
G01 X13.4325 Y-18.5182 F120.00
G01 X13.3852 Y-18.5351 F120.00
G01 X13.3342 Y-18.5480 F120.00
G01 X13.2823 Y-18.5556 F120.00
G01 X13.2321 Y-18.5581 F120.00
G01 X12.9958 Y-18.5581 F120.00
G01 X12.9958 Y-19.1346 F120.00
G01 X12.9953 Y-19.1386 F120.00
G01 X12.9944 Y-19.1420 F120.00
G01 X12.9930 Y-19.1452 F120.00
G01 X12.9908 Y-19.1486 F120.00
G01 X12.9884 Y-19.1512 F120.00
G01 X12.9852 Y-19.1538 F120.00
G01 X12.9822 Y-19.1555 F120.00
G01 X12.9783 Y-19.1569 F120.00
G01 X12.9721 Y-19.1578 F120.00
G01 X10.7719 Y-19.1578 F120.00
G01 X10.7668 Y-19.1572 F120.00
G01 X10.7618 Y-19.1555 F120.00
G01 X10.7565 Y-19.1520 F120.00
G01 X10.7540 Y-19.1495 F120.00
G01 X10.7519 Y-19.1467 F120.00
G01 X10.7492 Y-19.1409 F120.00
G01 X10.7485 Y-19.1375 F120.00
G01 X10.7482 Y-19.1341 F120.00
G01 X10.7482 Y-16.9339 F120.00
G01 X10.7485 Y-16.9305 F120.00
G01 X10.7494 Y-16.9265 F120.00
G01 X10.7510 Y-16.9228 F120.00
G01 X10.7532 Y-16.9194 F120.00
G01 X10.7565 Y-16.9160 F120.00
G01 X10.7598 Y-16.9136 F120.00
G01 X10.7634 Y-16.9118 F120.00
G01 X10.7674 Y-16.9107 F120.00
G01 X10.7719 Y-16.9102 F120.00
G01 X12.9721 Y-16.9102 F120.00
G01 X12.9778 Y-16.9109 F120.00
G01 X12.9811 Y-16.9120 F120.00
G01 X12.9847 Y-16.9139 F120.00
G01 X12.9875 Y-16.9160 F120.00
G01 X12.9904 Y-16.9189 F120.00
G01 X12.9927 Y-16.9223 F120.00
G01 X12.9942 Y-16.9254 F120.00
G01 X12.9953 Y-16.9294 F120.00
G01 X12.9958 Y-16.9334 F120.00
G01 X12.9958 Y-17.5099 F120.00
G01 X13.0149 Y-17.5099 F120.00
G01 X14.1879 Y-16.3369 F120.00
G01 X14.1879 Y-5.2128 F120.00
G01 X13.6114 Y-5.2128 F120.00
G01 X13.6074 Y-5.2123 F120.00
G01 X13.6040 Y-5.2114 F120.00
G01 X13.6003 Y-5.2097 F120.00
G01 X13.5974 Y-5.2078 F120.00
G01 X13.5948 Y-5.2054 F120.00
G01 X13.5922 Y-5.2022 F120.00
G01 X13.5905 Y-5.1992 F120.00
G01 X13.5891 Y-5.1953 F120.00
G01 X13.5882 Y-5.1891 F120.00
G01 X13.5884 Y-2.9861 F120.00
G01 X13.5892 Y-2.9821 F120.00
G01 X13.5910 Y-2.9778 F120.00
G01 X13.5932 Y-2.9744 F120.00
G01 X13.5960 Y-2.9714 F120.00
G01 X13.5993 Y-2.9689 F120.00
G01 X13.6034 Y-2.9668 F120.00
G01 X13.6074 Y-2.9657 F120.00
G01 X13.6119 Y-2.9652 F120.00
G01 X15.8121 Y-2.9652 F120.00
G00 Z2.0000
G00 X30.1021 Y0.0238
G01 F60.00
G01 Z-0.0900
G01 F120.00
G01 X30.1082 Y0.0230 F120.00
G01 X30.1763 Y0.0030 F120.00
G01 X30.1817 Y0.0005 F120.00
G01 X30.1858 Y-0.0028 F120.00
G01 X30.2328 Y-0.0570 F120.00
G01 X30.2358 Y-0.0613 F120.00
G01 X30.2380 Y-0.0674 F120.00
G01 X30.2493 Y-0.1190 F120.00
G01 X30.2498 Y-0.1239 F120.00
G01 X30.2498 Y-59.5661 F120.00
G01 X30.2489 Y-59.5726 F120.00
G01 X30.2291 Y-59.6398 F120.00
G01 X30.2276 Y-59.6436 F120.00
G01 X30.2255 Y-59.6471 F120.00
G01 X30.2223 Y-59.6506 F120.00
G01 X30.1690 Y-59.6968 F120.00
G01 X30.1652 Y-59.6995 F120.00
G01 X30.1620 Y-59.7010 F120.00
G01 X30.1586 Y-59.7020 F120.00
G01 X30.1070 Y-59.7133 F120.00
G01 X30.1021 Y-59.7138 F120.00
G01 X0.1239 Y-59.7138 F120.00
G01 X0.1174 Y-59.7129 F120.00
G01 X0.0502 Y-59.6931 F120.00
G01 X0.0464 Y-59.6916 F120.00
G01 X0.0429 Y-59.6895 F120.00
G01 X0.0394 Y-59.6863 F120.00
G01 X-0.0068 Y-59.6330 F120.00
G01 X-0.0095 Y-59.6292 F120.00
G01 X-0.0110 Y-59.6260 F120.00
G01 X-0.0120 Y-59.6226 F120.00
G01 X-0.0233 Y-59.5710 F120.00
G01 X-0.0238 Y-59.5661 F120.00
G01 X-0.0238 Y-0.1239 F120.00
G01 X-0.0229 Y-0.1174 F120.00
G01 X-0.0031 Y-0.0502 F120.00
G01 X-0.0016 Y-0.0464 F120.00
G01 X0.0005 Y-0.0429 F120.00
G01 X0.0037 Y-0.0394 F120.00
G01 X0.0570 Y0.0068 F120.00
G01 X0.0608 Y0.0095 F120.00
G01 X0.0640 Y0.0110 F120.00
G01 X0.0674 Y0.0120 F120.00
G01 X0.1190 Y0.0233 F120.00
G01 X0.1239 Y0.0238 F120.00
G01 X30.1021 Y0.0238 F120.00
G00 Z2.0000
G00 X26.3187 Y-13.2862
G01 F60.00
G01 Z-0.0900
G01 F120.00
G01 X26.3163 Y-13.2792 F120.00
G01 X26.2898 Y-13.1732 F120.00
G01 X26.2736 Y-13.0642 F120.00
G01 X26.2682 Y-12.9540 F120.00
G01 X26.2736 Y-12.8438 F120.00
G01 X26.2898 Y-12.7348 F120.00
G01 X26.3166 Y-12.6278 F120.00
G01 X26.3537 Y-12.5239 F120.00
G01 X26.4009 Y-12.4242 F120.00
G01 X26.4576 Y-12.3296 F120.00
G01 X26.5233 Y-12.2411 F120.00
G01 X26.5974 Y-12.1594 F120.00
G01 X26.6791 Y-12.0853 F120.00
G01 X26.7676 Y-12.0196 F120.00
G01 X26.8622 Y-11.9629 F120.00
G01 X26.9619 Y-11.9157 F120.00
G01 X27.0658 Y-11.8786 F120.00
G01 X27.1728 Y-11.8518 F120.00
G01 X27.2818 Y-11.8356 F120.00
G01 X27.3920 Y-11.8302 F120.00
G01 X27.5022 Y-11.8356 F120.00
G01 X27.6112 Y-11.8518 F120.00
G01 X27.7182 Y-11.8786 F120.00
G01 X27.8221 Y-11.9157 F120.00
G01 X27.9218 Y-11.9629 F120.00
G01 X28.0164 Y-12.0196 F120.00
G01 X28.1049 Y-12.0853 F120.00
G01 X28.1866 Y-12.1594 F120.00
G01 X28.2607 Y-12.2411 F120.00
G01 X28.3264 Y-12.3296 F120.00
G01 X28.3831 Y-12.4242 F120.00
G01 X28.4303 Y-12.5239 F120.00
G01 X28.4674 Y-12.6278 F120.00
G01 X28.4942 Y-12.7348 F120.00
G01 X28.5104 Y-12.8438 F120.00
G01 X28.5158 Y-12.9540 F120.00
G01 X28.5103 Y-13.0652 F120.00
G01 X28.4942 Y-13.1732 F120.00
G01 X28.4677 Y-13.2792 F120.00
G01 X28.4307 Y-13.3830 F120.00
G01 X28.3831 Y-13.4838 F120.00
G01 X28.3267 Y-13.5779 F120.00
G01 X28.2600 Y-13.6678 F120.00
G01 X28.1866 Y-13.7486 F120.00
G01 X28.1049 Y-13.8227 F120.00
G01 X28.0164 Y-13.8884 F120.00
G01 X27.9227 Y-13.9446 F120.00
G01 X27.8221 Y-13.9923 F120.00
G01 X27.7172 Y-14.0297 F120.00
G01 X27.6112 Y-14.0562 F120.00
G01 X27.5022 Y-14.0724 F120.00
G01 X27.3909 Y-14.0778 F120.00
G01 X27.2818 Y-14.0724 F120.00
G01 X27.1941 Y-14.0594 F120.00
G01 X27.1940 Y-14.9866 F120.00
G01 X27.1915 Y-15.0374 F120.00
G01 X27.1840 Y-15.0882 F120.00
G01 X27.1715 Y-15.1381 F120.00
G01 X27.1537 Y-15.1875 F120.00
G01 X27.1322 Y-15.2330 F120.00
G01 X27.1057 Y-15.2771 F120.00
G01 X27.0751 Y-15.3185 F120.00
G01 X27.0410 Y-15.3561 F120.00
G01 X26.1781 Y-16.2191 F120.00
G01 X26.1780 Y-23.1146 F120.00
G01 X26.1754 Y-23.1665 F120.00
G01 X26.1680 Y-23.2162 F120.00
G01 X26.1558 Y-23.2651 F120.00
G01 X26.1382 Y-23.3145 F120.00
G01 X26.1162 Y-23.3610 F120.00
G01 X26.0897 Y-23.4051 F120.00
G01 X26.0587 Y-23.4469 F120.00
G01 X26.0250 Y-23.4841 F120.00
G01 X25.9241 Y-23.5851 F120.00
G01 X25.9241 Y-55.5182 F120.00
G01 X26.5006 Y-55.5182 F120.00
G01 X26.5041 Y-55.5185 F120.00
G01 X26.5080 Y-55.5196 F120.00
G01 X26.5112 Y-55.5210 F120.00
G01 X26.5146 Y-55.5232 F120.00
G01 X26.5172 Y-55.5256 F120.00
G01 X26.5198 Y-55.5288 F120.00
G01 X26.5215 Y-55.5318 F120.00
G01 X26.5229 Y-55.5357 F120.00
G01 X26.5238 Y-55.5419 F120.00
G01 X26.5237 Y-57.7443 F120.00
G01 X26.5229 Y-57.7483 F120.00
G01 X26.5213 Y-57.7527 F120.00
G01 X26.5191 Y-57.7562 F120.00
G01 X26.5160 Y-57.7596 F120.00
G01 X26.5127 Y-57.7621 F120.00
G01 X26.5086 Y-57.7642 F120.00
G01 X26.5046 Y-57.7653 F120.00
G01 X26.5001 Y-57.7658 F120.00
G01 X24.2988 Y-57.7658 F120.00
G01 X24.2942 Y-57.7651 F120.00
G01 X24.2898 Y-57.7635 F120.00
G01 X24.2858 Y-57.7611 F120.00
G01 X24.2828 Y-57.7584 F120.00
G01 X24.2799 Y-57.7547 F120.00
G01 X24.2780 Y-57.7511 F120.00
G01 X24.2767 Y-57.7466 F120.00
G01 X24.2762 Y-57.7421 F120.00
G01 X24.2762 Y-55.5419 F120.00
G01 X24.2769 Y-55.5362 F120.00
G01 X24.2780 Y-55.5329 F120.00
G01 X24.2799 Y-55.5293 F120.00
G01 X24.2824 Y-55.5260 F120.00
G01 X24.2849 Y-55.5236 F120.00
G01 X24.2878 Y-55.5216 F120.00
G01 X24.2914 Y-55.5198 F120.00
G01 X24.2954 Y-55.5187 F120.00
G01 X24.2994 Y-55.5182 F120.00
G01 X24.8759 Y-55.5182 F120.00
G01 X24.8759 Y-23.3679 F120.00
G01 X24.8786 Y-23.3155 F120.00
G01 X24.8860 Y-23.2658 F120.00
G01 X24.8982 Y-23.2169 F120.00
G01 X24.9158 Y-23.1675 F120.00
G01 X24.9378 Y-23.1210 F120.00
G01 X24.9643 Y-23.0769 F120.00
G01 X24.9953 Y-23.0351 F120.00
G01 X25.0290 Y-22.9979 F120.00
G01 X25.1299 Y-22.8969 F120.00
G01 X25.1300 Y-16.0009 F120.00
G01 X25.1325 Y-15.9506 F120.00
G01 X25.1400 Y-15.8998 F120.00
G01 X25.1525 Y-15.8499 F120.00
G01 X25.1694 Y-15.8025 F120.00
G01 X25.1924 Y-15.7540 F120.00
G01 X25.2183 Y-15.7109 F120.00
G01 X25.2489 Y-15.6695 F120.00
G01 X25.2834 Y-15.6315 F120.00
G01 X26.1459 Y-14.7689 F120.00
G01 X26.1459 Y-13.6759 F120.00
G01 X26.1485 Y-13.6241 F120.00
G01 X26.1560 Y-13.5738 F120.00
G01 X26.1685 Y-13.5239 F120.00
G01 X26.1858 Y-13.4755 F120.00
G01 X26.2076 Y-13.4295 F120.00
G01 X26.2343 Y-13.3849 F120.00
G01 X26.2645 Y-13.3440 F120.00
G01 X26.2990 Y-13.3059 F120.00
G01 X26.3187 Y-13.2862 F120.00
G00 Z2.0000
G00 X18.4342 Y-26.7559
G01 F60.00
G01 Z-0.0900
G01 F120.00
G01 X18.4347 Y-26.7514 F120.00
G01 X18.4360 Y-26.7469 F120.00
G01 X18.4382 Y-26.7428 F120.00
G01 X18.4412 Y-26.7392 F120.00
G01 X18.4448 Y-26.7362 F120.00
G01 X18.4489 Y-26.7340 F120.00
G01 X18.4534 Y-26.7327 F120.00
G01 X18.4579 Y-26.7322 F120.00
G01 X20.6581 Y-26.7322 F120.00
G01 X20.6626 Y-26.7327 F120.00
G01 X20.6671 Y-26.7340 F120.00
G01 X20.6712 Y-26.7362 F120.00
G01 X20.6748 Y-26.7392 F120.00
G01 X20.6778 Y-26.7428 F120.00
G01 X20.6800 Y-26.7469 F120.00
G01 X20.6813 Y-26.7514 F120.00
G01 X20.6818 Y-26.7559 F120.00
G01 X20.6818 Y-28.9561 F120.00
G01 X20.6813 Y-28.9606 F120.00
G01 X20.6800 Y-28.9651 F120.00
G01 X20.6778 Y-28.9692 F120.00
G01 X20.6748 Y-28.9728 F120.00
G01 X20.6712 Y-28.9758 F120.00
G01 X20.6671 Y-28.9780 F120.00
G01 X20.6626 Y-28.9793 F120.00
G01 X20.6581 Y-28.9798 F120.00
G01 X18.4579 Y-28.9798 F120.00
G01 X18.4534 Y-28.9793 F120.00
G01 X18.4489 Y-28.9780 F120.00
G01 X18.4448 Y-28.9758 F120.00
G01 X18.4412 Y-28.9728 F120.00
G01 X18.4382 Y-28.9692 F120.00
G01 X18.4360 Y-28.9651 F120.00
G01 X18.4347 Y-28.9606 F120.00
G01 X18.4342 Y-28.9561 F120.00
G01 X18.4342 Y-26.7559 F120.00
G00 Z2.0000
G00 X18.4342 Y-29.2959
G01 F60.00
G01 Z-0.0900
G01 F120.00
G01 X18.4347 Y-29.2914 F120.00
G01 X18.4360 Y-29.2869 F120.00
G01 X18.4382 Y-29.2828 F120.00
G01 X18.4412 Y-29.2792 F120.00
G01 X18.4448 Y-29.2762 F120.00
G01 X18.4489 Y-29.2740 F120.00
G01 X18.4534 Y-29.2727 F120.00
G01 X18.4579 Y-29.2722 F120.00
G01 X20.6581 Y-29.2722 F120.00
G01 X20.6626 Y-29.2727 F120.00
G01 X20.6671 Y-29.2740 F120.00
G01 X20.6712 Y-29.2762 F120.00
G01 X20.6748 Y-29.2792 F120.00
G01 X20.6778 Y-29.2828 F120.00
G01 X20.6800 Y-29.2869 F120.00
G01 X20.6813 Y-29.2914 F120.00
G01 X20.6818 Y-29.2959 F120.00
G01 X20.6818 Y-31.4961 F120.00
G01 X20.6813 Y-31.5006 F120.00
G01 X20.6800 Y-31.5051 F120.00
G01 X20.6778 Y-31.5092 F120.00
G01 X20.6748 Y-31.5128 F120.00
G01 X20.6712 Y-31.5158 F120.00
G01 X20.6671 Y-31.5180 F120.00
G01 X20.6626 Y-31.5193 F120.00
G01 X20.6581 Y-31.5198 F120.00
G01 X18.4579 Y-31.5198 F120.00
G01 X18.4534 Y-31.5193 F120.00
G01 X18.4489 Y-31.5180 F120.00
G01 X18.4448 Y-31.5158 F120.00
G01 X18.4412 Y-31.5128 F120.00
G01 X18.4382 Y-31.5092 F120.00
G01 X18.4360 Y-31.5051 F120.00
G01 X18.4347 Y-31.5006 F120.00
G01 X18.4342 Y-31.4961 F120.00
G01 X18.4342 Y-29.2959 F120.00
G00 Z2.0000
G00 X18.4342 Y-31.8359
G01 F60.00
G01 Z-0.0900
G01 F120.00
G01 X18.4347 Y-31.8314 F120.00
G01 X18.4360 Y-31.8269 F120.00
G01 X18.4382 Y-31.8228 F120.00
G01 X18.4412 Y-31.8192 F120.00
G01 X18.4448 Y-31.8162 F120.00
G01 X18.4489 Y-31.8140 F120.00
G01 X18.4534 Y-31.8127 F120.00
G01 X18.4579 Y-31.8122 F120.00
G01 X20.6581 Y-31.8122 F120.00
G01 X20.6626 Y-31.8127 F120.00
G01 X20.6671 Y-31.8140 F120.00
G01 X20.6712 Y-31.8162 F120.00
G01 X20.6748 Y-31.8192 F120.00
G01 X20.6778 Y-31.8228 F120.00
G01 X20.6800 Y-31.8269 F120.00
G01 X20.6813 Y-31.8314 F120.00
G01 X20.6818 Y-31.8359 F120.00
G01 X20.6818 Y-34.0361 F120.00
G01 X20.6813 Y-34.0406 F120.00
G01 X20.6800 Y-34.0451 F120.00
G01 X20.6778 Y-34.0492 F120.00
G01 X20.6748 Y-34.0528 F120.00
G01 X20.6712 Y-34.0558 F120.00
G01 X20.6671 Y-34.0580 F120.00
G01 X20.6626 Y-34.0593 F120.00
G01 X20.6581 Y-34.0598 F120.00
G01 X18.4579 Y-34.0598 F120.00
G01 X18.4534 Y-34.0593 F120.00
G01 X18.4489 Y-34.0580 F120.00
G01 X18.4448 Y-34.0558 F120.00
G01 X18.4412 Y-34.0528 F120.00
G01 X18.4382 Y-34.0492 F120.00
G01 X18.4360 Y-34.0451 F120.00
G01 X18.4347 Y-34.0406 F120.00
G01 X18.4342 Y-34.0361 F120.00
G01 X18.4342 Y-31.8359 F120.00
G00 Z2.0000
G00 X18.4342 Y-34.3759
G01 F60.00
G01 Z-0.0900
G01 F120.00
G01 X18.4347 Y-34.3714 F120.00
G01 X18.4360 Y-34.3669 F120.00
G01 X18.4382 Y-34.3628 F120.00
G01 X18.4412 Y-34.3592 F120.00
G01 X18.4448 Y-34.3562 F120.00
G01 X18.4489 Y-34.3540 F120.00
G01 X18.4534 Y-34.3527 F120.00
G01 X18.4579 Y-34.3522 F120.00
G01 X20.6581 Y-34.3522 F120.00
G01 X20.6626 Y-34.3527 F120.00
G01 X20.6671 Y-34.3540 F120.00
G01 X20.6712 Y-34.3562 F120.00
G01 X20.6748 Y-34.3592 F120.00
G01 X20.6778 Y-34.3628 F120.00
G01 X20.6800 Y-34.3669 F120.00
G01 X20.6813 Y-34.3714 F120.00
G01 X20.6818 Y-34.3759 F120.00
G01 X20.6818 Y-36.5761 F120.00
G01 X20.6813 Y-36.5806 F120.00
G01 X20.6800 Y-36.5851 F120.00
G01 X20.6778 Y-36.5892 F120.00
G01 X20.6748 Y-36.5928 F120.00
G01 X20.6712 Y-36.5958 F120.00
G01 X20.6671 Y-36.5980 F120.00
G01 X20.6626 Y-36.5993 F120.00
G01 X20.6581 Y-36.5998 F120.00
G01 X18.4579 Y-36.5998 F120.00
G01 X18.4534 Y-36.5993 F120.00
G01 X18.4489 Y-36.5980 F120.00
G01 X18.4448 Y-36.5958 F120.00
G01 X18.4412 Y-36.5928 F120.00
G01 X18.4382 Y-36.5892 F120.00
G01 X18.4360 Y-36.5851 F120.00
G01 X18.4347 Y-36.5806 F120.00
G01 X18.4342 Y-36.5761 F120.00
G01 X18.4342 Y-34.3759 F120.00
G00 Z2.0000
G00 X18.4342 Y-39.4559
G01 F60.00
G01 Z-0.0900
G01 F120.00
G01 X18.4347 Y-39.4514 F120.00
G01 X18.4360 Y-39.4469 F120.00
G01 X18.4382 Y-39.4428 F120.00
G01 X18.4412 Y-39.4392 F120.00
G01 X18.4448 Y-39.4362 F120.00
G01 X18.4489 Y-39.4340 F120.00
G01 X18.4534 Y-39.4327 F120.00
G01 X18.4579 Y-39.4322 F120.00
G01 X20.6581 Y-39.4322 F120.00
G01 X20.6626 Y-39.4327 F120.00
G01 X20.6671 Y-39.4340 F120.00
G01 X20.6712 Y-39.4362 F120.00
G01 X20.6748 Y-39.4392 F120.00
G01 X20.6778 Y-39.4428 F120.00
G01 X20.6800 Y-39.4469 F120.00
G01 X20.6813 Y-39.4514 F120.00
G01 X20.6818 Y-39.4559 F120.00
G01 X20.6818 Y-41.6561 F120.00
G01 X20.6813 Y-41.6606 F120.00
G01 X20.6800 Y-41.6651 F120.00
G01 X20.6778 Y-41.6692 F120.00
G01 X20.6748 Y-41.6728 F120.00
G01 X20.6712 Y-41.6758 F120.00
G01 X20.6671 Y-41.6780 F120.00
G01 X20.6626 Y-41.6793 F120.00
G01 X20.6581 Y-41.6798 F120.00
G01 X18.4579 Y-41.6798 F120.00
G01 X18.4534 Y-41.6793 F120.00
G01 X18.4489 Y-41.6780 F120.00
G01 X18.4448 Y-41.6758 F120.00
G01 X18.4412 Y-41.6728 F120.00
G01 X18.4382 Y-41.6692 F120.00
G01 X18.4360 Y-41.6651 F120.00
G01 X18.4347 Y-41.6606 F120.00
G01 X18.4342 Y-41.6561 F120.00
G01 X18.4342 Y-39.4559 F120.00
G00 Z2.0000
G00 X18.4342 Y-41.9959
G01 F60.00
G01 Z-0.0900
G01 F120.00
G01 X18.4347 Y-41.9914 F120.00
G01 X18.4360 Y-41.9869 F120.00
G01 X18.4382 Y-41.9828 F120.00
G01 X18.4412 Y-41.9792 F120.00
G01 X18.4448 Y-41.9762 F120.00
G01 X18.4489 Y-41.9740 F120.00
G01 X18.4534 Y-41.9727 F120.00
G01 X18.4579 Y-41.9722 F120.00
G01 X20.6581 Y-41.9722 F120.00
G01 X20.6626 Y-41.9727 F120.00
G01 X20.6671 Y-41.9740 F120.00
G01 X20.6712 Y-41.9762 F120.00
G01 X20.6748 Y-41.9792 F120.00
G01 X20.6778 Y-41.9828 F120.00
G01 X20.6800 Y-41.9869 F120.00
G01 X20.6813 Y-41.9914 F120.00
G01 X20.6818 Y-41.9959 F120.00
G01 X20.6818 Y-44.1961 F120.00
G01 X20.6813 Y-44.2006 F120.00
G01 X20.6800 Y-44.2051 F120.00
G01 X20.6778 Y-44.2092 F120.00
G01 X20.6748 Y-44.2128 F120.00
G01 X20.6712 Y-44.2158 F120.00
G01 X20.6671 Y-44.2180 F120.00
G01 X20.6626 Y-44.2193 F120.00
G01 X20.6581 Y-44.2198 F120.00
G01 X18.4579 Y-44.2198 F120.00
G01 X18.4534 Y-44.2193 F120.00
G01 X18.4489 Y-44.2180 F120.00
G01 X18.4448 Y-44.2158 F120.00
G01 X18.4412 Y-44.2128 F120.00
G01 X18.4382 Y-44.2092 F120.00
G01 X18.4360 Y-44.2051 F120.00
G01 X18.4347 Y-44.2006 F120.00
G01 X18.4342 Y-44.1961 F120.00
G01 X18.4342 Y-41.9959 F120.00
G00 Z2.0000
G00 X18.4342 Y-44.5359
G01 F60.00
G01 Z-0.0900
G01 F120.00
G01 X18.4347 Y-44.5314 F120.00
G01 X18.4360 Y-44.5269 F120.00
G01 X18.4382 Y-44.5228 F120.00
G01 X18.4412 Y-44.5192 F120.00
G01 X18.4448 Y-44.5162 F120.00
G01 X18.4489 Y-44.5140 F120.00
G01 X18.4534 Y-44.5127 F120.00
G01 X18.4579 Y-44.5122 F120.00
G01 X20.6581 Y-44.5122 F120.00
G01 X20.6626 Y-44.5127 F120.00
G01 X20.6671 Y-44.5140 F120.00
G01 X20.6712 Y-44.5162 F120.00
G01 X20.6748 Y-44.5192 F120.00
G01 X20.6778 Y-44.5228 F120.00
G01 X20.6800 Y-44.5269 F120.00
G01 X20.6813 Y-44.5314 F120.00
G01 X20.6818 Y-44.5359 F120.00
G01 X20.6818 Y-46.7361 F120.00
G01 X20.6813 Y-46.7406 F120.00
G01 X20.6800 Y-46.7451 F120.00
G01 X20.6778 Y-46.7492 F120.00
G01 X20.6748 Y-46.7528 F120.00
G01 X20.6712 Y-46.7558 F120.00
G01 X20.6671 Y-46.7580 F120.00
G01 X20.6626 Y-46.7593 F120.00
G01 X20.6581 Y-46.7598 F120.00
G01 X18.4579 Y-46.7598 F120.00
G01 X18.4534 Y-46.7593 F120.00
G01 X18.4489 Y-46.7580 F120.00
G01 X18.4448 Y-46.7558 F120.00
G01 X18.4412 Y-46.7528 F120.00
G01 X18.4382 Y-46.7492 F120.00
G01 X18.4360 Y-46.7451 F120.00
G01 X18.4347 Y-46.7406 F120.00
G01 X18.4342 Y-46.7361 F120.00
G01 X18.4342 Y-44.5359 F120.00
G00 Z2.0000
G00 X10.8142 Y-44.5359
G01 F60.00
G01 Z-0.0900
G01 F120.00
G01 X10.8147 Y-44.5314 F120.00
G01 X10.8160 Y-44.5269 F120.00
G01 X10.8182 Y-44.5228 F120.00
G01 X10.8212 Y-44.5192 F120.00
G01 X10.8248 Y-44.5162 F120.00
G01 X10.8289 Y-44.5140 F120.00
G01 X10.8334 Y-44.5127 F120.00
G01 X10.8379 Y-44.5122 F120.00
G01 X13.0381 Y-44.5122 F120.00
G01 X13.0421 Y-44.5125 F120.00
G01 X13.0460 Y-44.5136 F120.00
G01 X13.0497 Y-44.5153 F120.00
G01 X13.0531 Y-44.5176 F120.00
G01 X13.0568 Y-44.5214 F120.00
G01 X13.0595 Y-44.5258 F120.00
G01 X13.0612 Y-44.5308 F120.00
G01 X13.0618 Y-44.5359 F120.00
G01 X13.0618 Y-45.3407 F120.00
G01 X18.1506 Y-50.4295 F120.00
G01 X18.1851 Y-50.4675 F120.00
G01 X18.2163 Y-50.5098 F120.00
G01 X18.2422 Y-50.5530 F120.00
G01 X18.2637 Y-50.5985 F120.00
G01 X18.2815 Y-50.6479 F120.00
G01 X18.2942 Y-50.6988 F120.00
G01 X18.3015 Y-50.7486 F120.00
G01 X18.3040 Y-50.7994 F120.00
G01 X18.3041 Y-55.5182 F120.00
G01 X18.8806 Y-55.5182 F120.00
G01 X18.8841 Y-55.5185 F120.00
G01 X18.8880 Y-55.5196 F120.00
G01 X18.8917 Y-55.5213 F120.00
G01 X18.8951 Y-55.5236 F120.00
G01 X18.8980 Y-55.5265 F120.00
G01 X18.9001 Y-55.5293 F120.00
G01 X18.9018 Y-55.5324 F120.00
G01 X18.9031 Y-55.5362 F120.00
G01 X18.9038 Y-55.5419 F120.00
G01 X18.9038 Y-57.7421 F120.00
G01 X18.9029 Y-57.7483 F120.00
G01 X18.9007 Y-57.7537 F120.00
G01 X18.8972 Y-57.7584 F120.00
G01 X18.8922 Y-57.7624 F120.00
G01 X18.8863 Y-57.7649 F120.00
G01 X18.8801 Y-57.7658 F120.00
G01 X16.6799 Y-57.7658 F120.00
G01 X16.6759 Y-57.7655 F120.00
G01 X16.6720 Y-57.7644 F120.00
G01 X16.6688 Y-57.7630 F120.00
G01 X16.6654 Y-57.7608 F120.00
G01 X16.6624 Y-57.7580 F120.00
G01 X16.6599 Y-57.7547 F120.00
G01 X16.6580 Y-57.7511 F120.00
G01 X16.6569 Y-57.7478 F120.00
G01 X16.6562 Y-57.7421 F120.00
G01 X16.6562 Y-55.5419 F120.00
G01 X16.6571 Y-55.5357 F120.00
G01 X16.6585 Y-55.5318 F120.00
G01 X16.6602 Y-55.5288 F120.00
G01 X16.6624 Y-55.5260 F120.00
G01 X16.6654 Y-55.5232 F120.00
G01 X16.6688 Y-55.5210 F120.00
G01 X16.6720 Y-55.5196 F120.00
G01 X16.6754 Y-55.5187 F120.00
G01 X16.6794 Y-55.5182 F120.00
G01 X17.2559 Y-55.5182 F120.00
G01 X17.2559 Y-51.0171 F120.00
G01 X12.9987 Y-46.7598 F120.00
G01 X10.8379 Y-46.7598 F120.00
G01 X10.8334 Y-46.7593 F120.00
G01 X10.8289 Y-46.7580 F120.00
G01 X10.8248 Y-46.7558 F120.00
G01 X10.8212 Y-46.7528 F120.00
G01 X10.8182 Y-46.7492 F120.00
G01 X10.8160 Y-46.7451 F120.00
G01 X10.8147 Y-46.7406 F120.00
G01 X10.8142 Y-46.7361 F120.00
G01 X10.8142 Y-44.5359 F120.00
G00 Z2.0000
G00 X10.8142 Y-41.9959
G01 F60.00
G01 Z-0.0900
G01 F120.00
G01 X10.8147 Y-41.9914 F120.00
G01 X10.8160 Y-41.9869 F120.00
G01 X10.8182 Y-41.9828 F120.00
G01 X10.8212 Y-41.9792 F120.00
G01 X10.8248 Y-41.9762 F120.00
G01 X10.8289 Y-41.9740 F120.00
G01 X10.8334 Y-41.9727 F120.00
G01 X10.8379 Y-41.9722 F120.00
G01 X13.0381 Y-41.9722 F120.00
G01 X13.0421 Y-41.9725 F120.00
G01 X13.0460 Y-41.9736 F120.00
G01 X13.0497 Y-41.9753 F120.00
G01 X13.0531 Y-41.9776 F120.00
G01 X13.0564 Y-41.9809 F120.00
G01 X13.0593 Y-41.9853 F120.00
G01 X13.0611 Y-41.9902 F120.00
G01 X13.0618 Y-41.9954 F120.00
G01 X13.0618 Y-42.6080 F120.00
G01 X13.0731 Y-42.6121 F120.00
G01 X13.1185 Y-42.6336 F120.00
G01 X13.1627 Y-42.6599 F120.00
G01 X13.2045 Y-42.6909 F120.00
G01 X13.2425 Y-42.7254 F120.00
G01 X20.6906 Y-50.1735 F120.00
G01 X20.7251 Y-50.2115 F120.00
G01 X20.7557 Y-50.2529 F120.00
G01 X20.7827 Y-50.2979 F120.00
G01 X20.8042 Y-50.3435 F120.00
G01 X20.8215 Y-50.3919 F120.00
G01 X20.8342 Y-50.4428 F120.00
G01 X20.8415 Y-50.4926 F120.00
G01 X20.8440 Y-50.5434 F120.00
G01 X20.8441 Y-55.5182 F120.00
G01 X21.4206 Y-55.5182 F120.00
G01 X21.4241 Y-55.5185 F120.00
G01 X21.4280 Y-55.5196 F120.00
G01 X21.4317 Y-55.5213 F120.00
G01 X21.4351 Y-55.5236 F120.00
G01 X21.4380 Y-55.5265 F120.00
G01 X21.4401 Y-55.5293 F120.00
G01 X21.4418 Y-55.5324 F120.00
G01 X21.4431 Y-55.5362 F120.00
G01 X21.4438 Y-55.5419 F120.00
G01 X21.4438 Y-57.7421 F120.00
G01 X21.4431 Y-57.7478 F120.00
G01 X21.4410 Y-57.7532 F120.00
G01 X21.4376 Y-57.7580 F120.00
G01 X21.4332 Y-57.7618 F120.00
G01 X21.4302 Y-57.7635 F120.00
G01 X21.4269 Y-57.7648 F120.00
G01 X21.4235 Y-57.7655 F120.00
G01 X21.4201 Y-57.7658 F120.00
G01 X19.2199 Y-57.7658 F120.00
G01 X19.2159 Y-57.7655 F120.00
G01 X19.2120 Y-57.7644 F120.00
G01 X19.2083 Y-57.7627 F120.00
G01 X19.2049 Y-57.7604 F120.00
G01 X19.2020 Y-57.7575 F120.00
G01 X19.1996 Y-57.7542 F120.00
G01 X19.1980 Y-57.7511 F120.00
G01 X19.1968 Y-57.7472 F120.00
G01 X19.1962 Y-57.7421 F120.00
G01 X19.1962 Y-55.5419 F120.00
G01 X19.1971 Y-55.5357 F120.00
G01 X19.1985 Y-55.5318 F120.00
G01 X19.2002 Y-55.5288 F120.00
G01 X19.2024 Y-55.5260 F120.00
G01 X19.2054 Y-55.5232 F120.00
G01 X19.2088 Y-55.5210 F120.00
G01 X19.2120 Y-55.5196 F120.00
G01 X19.2154 Y-55.5187 F120.00
G01 X19.2194 Y-55.5182 F120.00
G01 X19.7959 Y-55.5182 F120.00
G01 X19.7959 Y-50.7611 F120.00
G01 X13.0618 Y-44.0269 F120.00
G01 X13.0616 Y-44.1989 F120.00
G01 X13.0608 Y-44.2029 F120.00
G01 X13.0593 Y-44.2067 F120.00
G01 X13.0571 Y-44.2102 F120.00
G01 X13.0544 Y-44.2132 F120.00
G01 X13.0512 Y-44.2158 F120.00
G01 X13.0476 Y-44.2178 F120.00
G01 X13.0438 Y-44.2191 F120.00
G01 X13.0398 Y-44.2197 F120.00
G01 X10.8379 Y-44.2198 F120.00
G01 X10.8334 Y-44.2193 F120.00
G01 X10.8289 Y-44.2180 F120.00
G01 X10.8248 Y-44.2158 F120.00
G01 X10.8212 Y-44.2128 F120.00
G01 X10.8182 Y-44.2092 F120.00
G01 X10.8160 Y-44.2051 F120.00
G01 X10.8147 Y-44.2006 F120.00
G01 X10.8142 Y-44.1961 F120.00
G01 X10.8142 Y-41.9959 F120.00
G00 Z2.0000
G00 X8.6201 Y-39.6461
G01 F60.00
G01 Z-0.0900
G01 F120.00
G01 X8.6225 Y-39.5986 F120.00
G01 X8.6300 Y-39.5478 F120.00
G01 X8.6425 Y-39.4979 F120.00
G01 X8.6594 Y-39.4505 F120.00
G01 X8.6824 Y-39.4020 F120.00
G01 X8.7083 Y-39.3589 F120.00
G01 X8.7396 Y-39.3167 F120.00
G01 X8.7734 Y-39.2795 F120.00
G01 X10.4075 Y-37.6454 F120.00
G01 X10.4455 Y-37.6109 F120.00
G01 X10.4869 Y-37.5803 F120.00
G01 X10.5310 Y-37.5538 F120.00
G01 X10.5780 Y-37.5316 F120.00
G01 X10.6259 Y-37.5145 F120.00
G01 X10.6763 Y-37.5019 F120.00
G01 X10.7272 Y-37.4944 F120.00
G01 X10.7774 Y-37.4920 F120.00
G01 X10.8142 Y-37.4919 F120.00
G01 X10.8142 Y-36.9154 F120.00
G01 X10.8151 Y-36.9097 F120.00
G01 X10.8173 Y-36.9043 F120.00
G01 X10.8208 Y-36.8996 F120.00
G01 X10.8248 Y-36.8962 F120.00
G01 X10.8278 Y-36.8945 F120.00
G01 X10.8311 Y-36.8932 F120.00
G01 X10.8345 Y-36.8925 F120.00
G01 X10.8379 Y-36.8922 F120.00
G01 X13.0381 Y-36.8922 F120.00
G01 X13.0421 Y-36.8925 F120.00
G01 X13.0460 Y-36.8936 F120.00
G01 X13.0492 Y-36.8950 F120.00
G01 X13.0526 Y-36.8972 F120.00
G01 X13.0556 Y-36.9000 F120.00
G01 X13.0581 Y-36.9033 F120.00
G01 X13.0600 Y-36.9069 F120.00
G01 X13.0612 Y-36.9108 F120.00
G01 X13.0618 Y-36.9148 F120.00
G01 X13.0618 Y-37.3111 F120.00
G01 X15.2239 Y-35.1489 F120.00
G01 X15.2239 Y-24.6379 F120.00
G01 X15.2264 Y-24.5872 F120.00
G01 X15.2340 Y-24.5358 F120.00
G01 X15.2465 Y-24.4859 F120.00
G01 X15.2638 Y-24.4375 F120.00
G01 X15.2861 Y-24.3905 F120.00
G01 X15.3123 Y-24.3469 F120.00
G01 X15.3429 Y-24.3055 F120.00
G01 X15.3770 Y-24.2679 F120.00
G01 X15.4367 Y-24.2082 F120.00
G01 X15.4343 Y-24.2012 F120.00
G01 X15.4076 Y-24.0942 F120.00
G01 X15.3916 Y-23.9862 F120.00
G01 X15.3862 Y-23.8749 F120.00
G01 X15.3916 Y-23.7658 F120.00
G01 X15.4078 Y-23.6568 F120.00
G01 X15.4346 Y-23.5498 F120.00
G01 X15.4720 Y-23.4454 F120.00
G01 X15.5189 Y-23.3462 F120.00
G01 X15.5756 Y-23.2516 F120.00
G01 X15.6413 Y-23.1631 F120.00
G01 X15.7146 Y-23.0821 F120.00
G01 X15.7971 Y-23.0073 F120.00
G01 X15.8848 Y-22.9422 F120.00
G01 X15.9793 Y-22.8854 F120.00
G01 X15.9859 Y-22.8822 F120.00
G01 X15.9859 Y-22.0948 F120.00
G01 X15.9397 Y-22.0728 F120.00
G01 X15.8452 Y-22.0161 F120.00
G01 X15.7571 Y-21.9507 F120.00
G01 X15.6749 Y-21.8762 F120.00
G01 X15.6013 Y-21.7949 F120.00
G01 X15.5356 Y-21.7064 F120.00
G01 X15.4789 Y-21.6118 F120.00
G01 X15.4320 Y-21.5126 F120.00
G01 X15.3946 Y-21.4082 F120.00
G01 X15.3680 Y-21.3023 F120.00
G01 X15.3515 Y-21.1911 F120.00
G01 X15.3462 Y-21.0820 F120.00
G01 X15.3516 Y-20.9718 F120.00
G01 X15.3678 Y-20.8628 F120.00
G01 X15.3946 Y-20.7558 F120.00
G01 X15.4317 Y-20.6519 F120.00
G01 X15.4789 Y-20.5522 F120.00
G01 X15.5356 Y-20.4576 F120.00
G01 X15.6020 Y-20.3682 F120.00
G01 X15.6754 Y-20.2874 F120.00
G01 X15.7562 Y-20.2140 F120.00
G01 X15.8448 Y-20.1482 F120.00
G01 X15.9402 Y-20.0909 F120.00
G01 X16.0399 Y-20.0437 F120.00
G01 X16.1438 Y-20.0066 F120.00
G01 X16.2518 Y-19.9796 F120.00
G01 X16.3598 Y-19.9636 F120.00
G01 X16.4689 Y-19.9582 F120.00
G01 X16.5791 Y-19.9635 F120.00
G01 X16.6892 Y-19.9798 F120.00
G01 X16.7962 Y-20.0066 F120.00
G01 X16.9001 Y-20.0437 F120.00
G01 X16.9988 Y-20.0904 F120.00
G01 X17.0087 Y-20.0962 F120.00
G01 X18.6882 Y-18.4167 F120.00
G01 X18.6882 Y-16.9339 F120.00
G01 X18.6889 Y-16.9282 F120.00
G01 X18.6910 Y-16.9228 F120.00
G01 X18.6940 Y-16.9185 F120.00
G01 X18.6983 Y-16.9145 F120.00
G01 X18.7013 Y-16.9127 F120.00
G01 X18.7045 Y-16.9114 F120.00
G01 X18.7079 Y-16.9105 F120.00
G01 X18.7119 Y-16.9102 F120.00
G01 X20.9121 Y-16.9102 F120.00
G01 X20.9178 Y-16.9109 F120.00
G01 X20.9232 Y-16.9130 F120.00
G01 X20.9284 Y-16.9168 F120.00
G01 X20.9324 Y-16.9218 F120.00
G01 X20.9349 Y-16.9277 F120.00
G01 X20.9358 Y-16.9339 F120.00
G01 X20.9358 Y-19.1341 F120.00
G01 X20.9349 Y-19.1403 F120.00
G01 X20.9327 Y-19.1457 F120.00
G01 X20.9292 Y-19.1504 F120.00
G01 X20.9242 Y-19.1544 F120.00
G01 X20.9183 Y-19.1569 F120.00
G01 X20.9121 Y-19.1578 F120.00
G01 X19.4293 Y-19.1578 F120.00
G01 X17.5897 Y-20.9974 F120.00
G01 X17.5938 Y-21.0820 F120.00
G01 X17.5885 Y-21.1911 F120.00
G01 X17.5722 Y-21.3012 F120.00
G01 X17.5454 Y-21.4082 F120.00
G01 X17.5087 Y-21.5110 F120.00
G01 X17.4611 Y-21.6118 F120.00
G01 X17.4038 Y-21.7072 F120.00
G01 X17.3387 Y-21.7949 F120.00
G01 X17.2651 Y-21.8762 F120.00
G01 X17.1825 Y-21.9511 F120.00
G01 X17.0944 Y-22.0164 F120.00
G01 X17.0341 Y-22.0526 F120.00
G01 X17.0341 Y-22.8822 F120.00
G01 X17.0407 Y-22.8854 F120.00
G01 X17.1352 Y-22.9422 F120.00
G01 X17.2229 Y-23.0073 F120.00
G01 X17.3054 Y-23.0821 F120.00
G01 X17.3787 Y-23.1631 F120.00
G01 X17.4444 Y-23.2516 F120.00
G01 X17.5011 Y-23.3462 F120.00
G01 X17.5483 Y-23.4459 F120.00
G01 X17.5854 Y-23.5498 F120.00
G01 X17.6122 Y-23.6568 F120.00
G01 X17.6284 Y-23.7658 F120.00
G01 X17.6338 Y-23.8749 F120.00
G01 X17.6283 Y-23.9872 F120.00
G01 X17.6122 Y-24.0952 F120.00
G01 X17.5852 Y-24.2028 F120.00
G01 X17.5483 Y-24.3061 F120.00
G01 X17.5011 Y-24.4058 F120.00
G01 X17.4444 Y-24.5004 F120.00
G01 X17.3787 Y-24.5889 F120.00
G01 X17.3046 Y-24.6706 F120.00
G01 X17.2229 Y-24.7447 F120.00
G01 X17.1344 Y-24.8104 F120.00
G01 X17.0407 Y-24.8666 F120.00
G01 X16.9401 Y-24.9143 F120.00
G01 X16.8362 Y-24.9514 F120.00
G01 X16.7292 Y-24.9782 F120.00
G01 X16.6212 Y-24.9943 F120.00
G01 X16.5100 Y-24.9998 F120.00
G01 X16.4009 Y-24.9945 F120.00
G01 X16.2913 Y-24.9783 F120.00
G01 X16.2721 Y-24.9736 F120.00
G01 X16.2721 Y-35.3661 F120.00
G01 X16.2695 Y-35.4174 F120.00
G01 X16.2617 Y-35.4693 F120.00
G01 X16.2495 Y-35.5181 F120.00
G01 X16.2326 Y-35.5655 F120.00
G01 X16.2107 Y-35.6121 F120.00
G01 X16.1831 Y-35.6580 F120.00
G01 X16.1531 Y-35.6985 F120.00
G01 X16.1186 Y-35.7365 F120.00
G01 X13.4681 Y-38.3870 F120.00
G01 X13.4305 Y-38.4211 F120.00
G01 X13.3891 Y-38.4517 F120.00
G01 X13.3450 Y-38.4782 F120.00
G01 X13.2980 Y-38.5004 F120.00
G01 X13.2501 Y-38.5175 F120.00
G01 X13.1997 Y-38.5301 F120.00
G01 X13.1488 Y-38.5376 F120.00
G01 X13.0986 Y-38.5400 F120.00
G01 X13.0618 Y-38.5401 F120.00
G01 X13.0618 Y-39.1166 F120.00
G01 X13.0609 Y-39.1223 F120.00
G01 X13.0587 Y-39.1277 F120.00
G01 X13.0552 Y-39.1324 F120.00
G01 X13.0507 Y-39.1361 F120.00
G01 X13.0449 Y-39.1388 F120.00
G01 X13.0415 Y-39.1395 F120.00
G01 X13.0381 Y-39.1398 F120.00
G01 X10.8379 Y-39.1398 F120.00
G01 X10.8339 Y-39.1395 F120.00
G01 X10.8300 Y-39.1384 F120.00
G01 X10.8268 Y-39.1370 F120.00
G01 X10.8234 Y-39.1348 F120.00
G01 X10.8204 Y-39.1320 F120.00
G01 X10.8179 Y-39.1287 F120.00
G01 X10.8160 Y-39.1251 F120.00
G01 X10.8148 Y-39.1212 F120.00
G01 X10.8142 Y-39.1172 F120.00
G01 X10.8142 Y-38.7209 F120.00
G01 X9.8035 Y-39.7316 F120.00
G01 X9.8569 Y-39.7713 F120.00
G01 X9.9382 Y-39.8449 F120.00
G01 X10.0123 Y-39.9266 F120.00
G01 X10.0784 Y-40.0156 F120.00
G01 X10.1354 Y-40.1108 F120.00
G01 X10.1827 Y-40.2110 F120.00
G01 X10.2194 Y-40.3138 F120.00
G01 X10.2460 Y-40.4197 F120.00
G01 X10.2624 Y-40.5298 F120.00
G01 X10.2678 Y-40.6406 F120.00
G01 X10.2624 Y-40.7502 F120.00
G01 X10.2464 Y-40.8582 F120.00
G01 X10.2194 Y-40.9662 F120.00
G01 X10.1818 Y-41.0711 F120.00
G01 X10.1351 Y-41.1698 F120.00
G01 X10.0790 Y-41.2634 F120.00
G01 X10.0120 Y-41.3538 F120.00
G01 X9.9386 Y-41.4346 F120.00
G01 X9.8578 Y-41.5080 F120.00
G01 X9.7684 Y-41.5744 F120.00
G01 X9.6747 Y-41.6306 F120.00
G01 X9.6681 Y-41.6338 F120.00
G01 X9.6681 Y-44.3380 F120.00
G01 X9.6747 Y-44.3413 F120.00
G01 X9.7684 Y-44.3975 F120.00
G01 X9.8578 Y-44.4639 F120.00
G01 X9.9386 Y-44.5372 F120.00
G01 X10.0120 Y-44.6181 F120.00
G01 X10.0790 Y-44.7084 F120.00
G01 X10.1351 Y-44.8021 F120.00
G01 X10.1818 Y-44.9008 F120.00
G01 X10.2194 Y-45.0056 F120.00
G01 X10.2462 Y-45.1126 F120.00
G01 X10.2623 Y-45.2206 F120.00
G01 X10.2678 Y-45.3324 F120.00
G01 X10.2624 Y-45.4420 F120.00
G01 X10.2464 Y-45.5500 F120.00
G01 X10.2194 Y-45.6581 F120.00
G01 X10.1818 Y-45.7629 F120.00
G01 X10.1351 Y-45.8616 F120.00
G01 X10.0790 Y-45.9553 F120.00
G01 X10.0120 Y-46.0456 F120.00
G01 X9.9386 Y-46.1265 F120.00
G01 X9.8578 Y-46.1999 F120.00
G01 X9.7684 Y-46.2663 F120.00
G01 X9.6747 Y-46.3224 F120.00
G01 X9.6681 Y-46.3257 F120.00
G01 X9.6681 Y-47.0269 F120.00
G01 X15.6106 Y-52.9695 F120.00
G01 X15.6451 Y-53.0075 F120.00
G01 X15.6761 Y-53.0493 F120.00
G01 X15.7022 Y-53.0930 F120.00
G01 X15.7237 Y-53.1385 F120.00
G01 X15.7415 Y-53.1879 F120.00
G01 X15.7542 Y-53.2388 F120.00
G01 X15.7615 Y-53.2886 F120.00
G01 X15.7640 Y-53.3394 F120.00
G01 X15.7641 Y-55.5182 F120.00
G01 X16.3406 Y-55.5182 F120.00
G01 X16.3446 Y-55.5187 F120.00
G01 X16.3486 Y-55.5198 F120.00
G01 X16.3522 Y-55.5216 F120.00
G01 X16.3555 Y-55.5240 F120.00
G01 X16.3584 Y-55.5269 F120.00
G01 X16.3607 Y-55.5303 F120.00
G01 X16.3624 Y-55.5340 F120.00
G01 X16.3635 Y-55.5385 F120.00
G01 X16.3638 Y-55.5419 F120.00
G01 X16.3638 Y-57.7421 F120.00
G01 X16.3635 Y-57.7455 F120.00
G01 X16.3628 Y-57.7489 F120.00
G01 X16.3615 Y-57.7522 F120.00
G01 X16.3598 Y-57.7552 F120.00
G01 X16.3576 Y-57.7580 F120.00
G01 X16.3551 Y-57.7604 F120.00
G01 X16.3522 Y-57.7624 F120.00
G01 X16.3491 Y-57.7640 F120.00
G01 X16.3446 Y-57.7653 F120.00
G01 X16.3401 Y-57.7658 F120.00
G01 X14.1399 Y-57.7658 F120.00
G01 X14.1342 Y-57.7651 F120.00
G01 X14.1293 Y-57.7633 F120.00
G01 X14.1245 Y-57.7600 F120.00
G01 X14.1209 Y-57.7562 F120.00
G01 X14.1190 Y-57.7532 F120.00
G01 X14.1174 Y-57.7495 F120.00
G01 X14.1165 Y-57.7461 F120.00
G01 X14.1162 Y-57.7421 F120.00
G01 X14.1162 Y-55.5419 F120.00
G01 X14.1165 Y-55.5385 F120.00
G01 X14.1174 Y-55.5345 F120.00
G01 X14.1190 Y-55.5308 F120.00
G01 X14.1212 Y-55.5274 F120.00
G01 X14.1245 Y-55.5240 F120.00
G01 X14.1278 Y-55.5216 F120.00
G01 X14.1314 Y-55.5198 F120.00
G01 X14.1354 Y-55.5187 F120.00
G01 X14.1394 Y-55.5182 F120.00
G01 X14.7159 Y-55.5182 F120.00
G01 X14.7159 Y-53.5571 F120.00
G01 X8.7734 Y-47.6145 F120.00
G01 X8.7389 Y-47.5765 F120.00
G01 X8.7083 Y-47.5351 F120.00
G01 X8.6818 Y-47.4910 F120.00
G01 X8.6598 Y-47.4445 F120.00
G01 X8.6425 Y-47.3961 F120.00
G01 X8.6300 Y-47.3462 F120.00
G01 X8.6225 Y-47.2954 F120.00
G01 X8.6200 Y-47.2446 F120.00
G01 X8.6199 Y-46.3257 F120.00
G01 X8.6133 Y-46.3224 F120.00
G01 X8.5196 Y-46.2663 F120.00
G01 X8.4302 Y-46.1999 F120.00
G01 X8.3494 Y-46.1265 F120.00
G01 X8.2760 Y-46.0456 F120.00
G01 X8.2090 Y-45.9553 F120.00
G01 X8.1529 Y-45.8616 F120.00
G01 X8.1062 Y-45.7629 F120.00
G01 X8.0686 Y-45.6581 F120.00
G01 X8.0418 Y-45.5511 F120.00
G01 X8.0257 Y-45.4431 F120.00
G01 X8.0202 Y-45.3319 F120.00
G01 X8.0257 Y-45.2206 F120.00
G01 X8.0418 Y-45.1126 F120.00
G01 X8.0686 Y-45.0056 F120.00
G01 X8.1062 Y-44.9008 F120.00
G01 X8.1529 Y-44.8021 F120.00
G01 X8.2090 Y-44.7084 F120.00
G01 X8.2760 Y-44.6181 F120.00
G01 X8.3494 Y-44.5372 F120.00
G01 X8.4302 Y-44.4639 F120.00
G01 X8.5196 Y-44.3975 F120.00
G01 X8.6133 Y-44.3413 F120.00
G01 X8.6199 Y-44.3380 F120.00
G01 X8.6199 Y-41.6338 F120.00
G01 X8.6133 Y-41.6306 F120.00
G01 X8.5188 Y-41.5738 F120.00
G01 X8.4311 Y-41.5087 F120.00
G01 X8.3494 Y-41.4346 F120.00
G01 X8.2746 Y-41.3521 F120.00
G01 X8.2096 Y-41.2644 F120.00
G01 X8.1529 Y-41.1698 F120.00
G01 X8.1053 Y-41.0690 F120.00
G01 X8.0686 Y-40.9662 F120.00
G01 X8.0418 Y-40.8592 F120.00
G01 X8.0256 Y-40.7502 F120.00
G01 X8.0202 Y-40.6411 F120.00
G01 X8.0256 Y-40.5298 F120.00
G01 X8.0420 Y-40.4197 F120.00
G01 X8.0686 Y-40.3138 F120.00
G01 X8.1053 Y-40.2110 F120.00
G01 X8.1529 Y-40.1102 F120.00
G01 X8.2096 Y-40.0156 F120.00
G01 X8.2760 Y-39.9262 F120.00
G01 X8.3494 Y-39.8454 F120.00
G01 X8.4302 Y-39.7720 F120.00
G01 X8.5196 Y-39.7056 F120.00
G01 X8.6133 Y-39.6494 F120.00
G01 X8.6201 Y-39.6461 F120.00
G00 Z2.0000
G00 X8.0440 Y-35.6400
G01 F60.00
G01 Z-0.0900
G01 F120.00
G01 X8.0493 Y-35.7478 F120.00
G01 X8.0651 Y-35.8545 F120.00
G01 X8.0683 Y-35.8672 F120.00
G01 X7.6709 Y-36.2646 F120.00
G01 X7.6176 Y-36.1360 F120.00
G01 X7.5588 Y-35.8911 F120.00
G01 X7.5391 Y-35.6400 F120.00
G01 X7.5588 Y-35.3889 F120.00
G01 X7.6176 Y-35.1440 F120.00
G01 X7.6709 Y-35.0154 F120.00
G01 X8.0683 Y-35.4128 F120.00
G01 X8.0651 Y-35.4255 F120.00
G01 X8.0493 Y-35.5322 F120.00
G01 X8.0440 Y-35.6400 F120.00
G00 Z2.0000
G00 X10.8142 Y-29.2959
G01 F60.00
G01 Z-0.0900
G01 F120.00
G01 X10.8147 Y-29.2914 F120.00
G01 X10.8160 Y-29.2869 F120.00
G01 X10.8182 Y-29.2828 F120.00
G01 X10.8212 Y-29.2792 F120.00
G01 X10.8248 Y-29.2762 F120.00
G01 X10.8289 Y-29.2740 F120.00
G01 X10.8334 Y-29.2727 F120.00
G01 X10.8379 Y-29.2722 F120.00
G01 X13.0381 Y-29.2722 F120.00
G01 X13.0426 Y-29.2727 F120.00
G01 X13.0471 Y-29.2740 F120.00
G01 X13.0512 Y-29.2762 F120.00
G01 X13.0548 Y-29.2792 F120.00
G01 X13.0578 Y-29.2828 F120.00
G01 X13.0600 Y-29.2869 F120.00
G01 X13.0613 Y-29.2914 F120.00
G01 X13.0618 Y-29.2959 F120.00
G01 X13.0618 Y-31.4961 F120.00
G01 X13.0615 Y-31.5001 F120.00
G01 X13.0604 Y-31.5040 F120.00
G01 X13.0590 Y-31.5072 F120.00
G01 X13.0568 Y-31.5106 F120.00
G01 X13.0531 Y-31.5144 F120.00
G01 X13.0487 Y-31.5173 F120.00
G01 X13.0438 Y-31.5191 F120.00
G01 X13.0381 Y-31.5198 F120.00
G01 X10.8379 Y-31.5198 F120.00
G01 X10.8328 Y-31.5192 F120.00
G01 X10.8294 Y-31.5182 F120.00
G01 X10.8258 Y-31.5164 F120.00
G01 X10.8225 Y-31.5140 F120.00
G01 X10.8196 Y-31.5111 F120.00
G01 X10.8173 Y-31.5077 F120.00
G01 X10.8158 Y-31.5046 F120.00
G01 X10.8147 Y-31.5006 F120.00
G01 X10.8142 Y-31.4966 F120.00
G01 X10.8142 Y-30.9201 F120.00
G01 X10.4611 Y-30.9201 F120.00
G01 X6.1121 Y-35.2691 F120.00
G01 X6.1121 Y-50.4295 F120.00
G01 X10.5306 Y-54.8481 F120.00
G01 X10.5644 Y-54.8853 F120.00
G01 X10.5957 Y-54.9275 F120.00
G01 X10.6227 Y-54.9726 F120.00
G01 X10.6442 Y-55.0181 F120.00
G01 X10.6611 Y-55.0654 F120.00
G01 X10.6740 Y-55.1164 F120.00
G01 X10.6815 Y-55.1672 F120.00
G01 X10.6840 Y-55.2180 F120.00
G01 X10.6841 Y-55.5182 F120.00
G01 X11.2606 Y-55.5182 F120.00
G01 X11.2652 Y-55.5188 F120.00
G01 X11.2691 Y-55.5200 F120.00
G01 X11.2727 Y-55.5219 F120.00
G01 X11.2760 Y-55.5244 F120.00
G01 X11.2791 Y-55.5278 F120.00
G01 X11.2813 Y-55.5313 F120.00
G01 X11.2828 Y-55.5351 F120.00
G01 X11.2836 Y-55.5391 F120.00
G01 X11.2838 Y-57.7421 F120.00
G01 X11.2833 Y-57.7466 F120.00
G01 X11.2820 Y-57.7511 F120.00
G01 X11.2798 Y-57.7552 F120.00
G01 X11.2768 Y-57.7588 F120.00
G01 X11.2732 Y-57.7618 F120.00
G01 X11.2691 Y-57.7640 F120.00
G01 X11.2646 Y-57.7653 F120.00
G01 X11.2601 Y-57.7658 F120.00
G01 X9.0582 Y-57.7657 F120.00
G01 X9.0542 Y-57.7651 F120.00
G01 X9.0498 Y-57.7635 F120.00
G01 X9.0463 Y-57.7615 F120.00
G01 X9.0428 Y-57.7584 F120.00
G01 X9.0399 Y-57.7547 F120.00
G01 X9.0380 Y-57.7511 F120.00
G01 X9.0367 Y-57.7466 F120.00
G01 X9.0362 Y-57.7421 F120.00
G01 X9.0362 Y-55.5419 F120.00
G01 X9.0369 Y-55.5362 F120.00
G01 X9.0380 Y-55.5329 F120.00
G01 X9.0399 Y-55.5293 F120.00
G01 X9.0424 Y-55.5260 F120.00
G01 X9.0449 Y-55.5236 F120.00
G01 X9.0478 Y-55.5216 F120.00
G01 X9.0514 Y-55.5198 F120.00
G01 X9.0554 Y-55.5187 F120.00
G01 X9.0594 Y-55.5182 F120.00
G01 X9.6359 Y-55.5182 F120.00
G01 X9.6359 Y-55.4357 F120.00
G01 X5.2170 Y-51.0168 F120.00
G01 X5.1829 Y-50.9791 F120.00
G01 X5.1529 Y-50.9387 F120.00
G01 X5.1258 Y-50.8936 F120.00
G01 X5.1038 Y-50.8472 F120.00
G01 X5.0869 Y-50.7998 F120.00
G01 X5.0739 Y-50.7483 F120.00
G01 X5.0665 Y-50.6980 F120.00
G01 X5.0639 Y-50.6467 F120.00
G01 X5.0639 Y-35.0519 F120.00
G01 X5.0664 Y-35.0012 F120.00
G01 X5.0740 Y-34.9498 F120.00
G01 X5.0862 Y-34.9009 F120.00
G01 X5.1043 Y-34.8505 F120.00
G01 X5.1258 Y-34.8050 F120.00
G01 X5.1523 Y-34.7609 F120.00
G01 X5.1829 Y-34.7195 F120.00
G01 X5.2170 Y-34.6819 F120.00
G01 X9.8735 Y-30.0254 F120.00
G01 X9.9107 Y-29.9916 F120.00
G01 X9.9538 Y-29.9597 F120.00
G01 X9.9970 Y-29.9338 F120.00
G01 X10.0435 Y-29.9118 F120.00
G01 X10.0929 Y-29.8942 F120.00
G01 X10.1418 Y-29.8820 F120.00
G01 X10.1921 Y-29.8745 F120.00
G01 X10.2439 Y-29.8719 F120.00
G01 X10.8142 Y-29.8719 F120.00
G01 X10.8142 Y-29.2959 F120.00
G00 Z2.0000
G00 X10.8142 Y-26.7559
G01 F60.00
G01 Z-0.0900
G01 F120.00
G01 X10.8147 Y-26.7514 F120.00
G01 X10.8160 Y-26.7469 F120.00
G01 X10.8182 Y-26.7428 F120.00
G01 X10.8212 Y-26.7392 F120.00
G01 X10.8248 Y-26.7362 F120.00
G01 X10.8289 Y-26.7340 F120.00
G01 X10.8334 Y-26.7327 F120.00
G01 X10.8379 Y-26.7322 F120.00
G01 X13.0381 Y-26.7322 F120.00
G01 X13.0426 Y-26.7327 F120.00
G01 X13.0471 Y-26.7340 F120.00
G01 X13.0512 Y-26.7362 F120.00
G01 X13.0548 Y-26.7392 F120.00
G01 X13.0578 Y-26.7428 F120.00
G01 X13.0600 Y-26.7469 F120.00
G01 X13.0613 Y-26.7514 F120.00
G01 X13.0618 Y-26.7559 F120.00
G01 X13.0618 Y-28.9561 F120.00
G01 X13.0613 Y-28.9606 F120.00
G01 X13.0602 Y-28.9646 F120.00
G01 X13.0581 Y-28.9687 F120.00
G01 X13.0556 Y-28.9720 F120.00
G01 X13.0517 Y-28.9755 F120.00
G01 X13.0476 Y-28.9778 F120.00
G01 X13.0432 Y-28.9792 F120.00
G01 X13.0381 Y-28.9798 F120.00
G01 X10.8379 Y-28.9798 F120.00
G01 X10.8334 Y-28.9793 F120.00
G01 X10.8294 Y-28.9782 F120.00
G01 X10.8258 Y-28.9764 F120.00
G01 X10.8225 Y-28.9740 F120.00
G01 X10.8196 Y-28.9711 F120.00
G01 X10.8173 Y-28.9677 F120.00
G01 X10.8158 Y-28.9646 F120.00
G01 X10.8147 Y-28.9606 F120.00
G01 X10.8142 Y-28.9566 F120.00
G01 X10.8142 Y-28.3801 F120.00
G01 X9.9531 Y-28.3801 F120.00
G01 X4.3341 Y-33.9991 F120.00
G01 X4.3341 Y-51.0909 F120.00
G01 X7.9906 Y-54.7475 F120.00
G01 X8.0247 Y-54.7851 F120.00
G01 X8.0557 Y-54.8269 F120.00
G01 X8.0827 Y-54.8719 F120.00
G01 X8.1042 Y-54.9175 F120.00
G01 X8.1211 Y-54.9648 F120.00
G01 X8.1341 Y-55.0163 F120.00
G01 X8.1415 Y-55.0666 F120.00
G01 X8.1440 Y-55.1174 F120.00
G01 X8.1441 Y-55.5182 F120.00
G01 X8.7206 Y-55.5182 F120.00
G01 X8.7252 Y-55.5188 F120.00
G01 X8.7291 Y-55.5200 F120.00
G01 X8.7327 Y-55.5219 F120.00
G01 X8.7360 Y-55.5244 F120.00
G01 X8.7391 Y-55.5278 F120.00
G01 X8.7413 Y-55.5313 F120.00
G01 X8.7429 Y-55.5357 F120.00
G01 X8.7437 Y-55.5397 F120.00
G01 X8.7438 Y-57.7421 F120.00
G01 X8.7433 Y-57.7466 F120.00
G01 X8.7420 Y-57.7511 F120.00
G01 X8.7398 Y-57.7552 F120.00
G01 X8.7368 Y-57.7588 F120.00
G01 X8.7332 Y-57.7618 F120.00
G01 X8.7291 Y-57.7640 F120.00
G01 X8.7246 Y-57.7653 F120.00
G01 X8.7201 Y-57.7658 F120.00
G01 X6.5199 Y-57.7658 F120.00
G01 X6.5165 Y-57.7655 F120.00
G01 X6.5125 Y-57.7646 F120.00
G01 X6.5088 Y-57.7630 F120.00
G01 X6.5054 Y-57.7608 F120.00
G01 X6.5020 Y-57.7575 F120.00
G01 X6.4996 Y-57.7542 F120.00
G01 X6.4978 Y-57.7506 F120.00
G01 X6.4967 Y-57.7466 F120.00
G01 X6.4962 Y-57.7421 F120.00
G01 X6.4962 Y-55.5419 F120.00
G01 X6.4969 Y-55.5362 F120.00
G01 X6.4982 Y-55.5324 F120.00
G01 X6.4999 Y-55.5293 F120.00
G01 X6.5024 Y-55.5260 F120.00
G01 X6.5049 Y-55.5236 F120.00
G01 X6.5083 Y-55.5213 F120.00
G01 X6.5114 Y-55.5198 F120.00
G01 X6.5154 Y-55.5187 F120.00
G01 X6.5194 Y-55.5182 F120.00
G01 X7.0959 Y-55.5182 F120.00
G01 X7.0959 Y-55.3351 F120.00
G01 X3.4390 Y-51.6781 F120.00
G01 X3.4049 Y-51.6405 F120.00
G01 X3.3749 Y-51.6000 F120.00
G01 X3.3473 Y-51.5541 F120.00
G01 X3.3258 Y-51.5085 F120.00
G01 X3.3085 Y-51.4601 F120.00
G01 X3.2960 Y-51.4102 F120.00
G01 X3.2885 Y-51.3599 F120.00
G01 X3.2859 Y-51.3081 F120.00
G01 X3.2859 Y-33.7819 F120.00
G01 X3.2886 Y-33.7295 F120.00
G01 X3.2960 Y-33.6798 F120.00
G01 X3.3085 Y-33.6299 F120.00
G01 X3.3258 Y-33.5815 F120.00
G01 X3.3473 Y-33.5359 F120.00
G01 X3.3749 Y-33.4900 F120.00
G01 X3.4049 Y-33.4495 F120.00
G01 X3.4390 Y-33.4119 F120.00
G01 X9.3662 Y-27.4847 F120.00
G01 X9.4035 Y-27.4509 F120.00
G01 X9.4449 Y-27.4203 F120.00
G01 X9.4890 Y-27.3938 F120.00
G01 X9.5345 Y-27.3723 F120.00
G01 X9.5849 Y-27.3542 F120.00
G01 X9.6338 Y-27.3420 F120.00
G01 X9.6846 Y-27.3345 F120.00
G01 X9.7359 Y-27.3319 F120.00
G01 X10.8142 Y-27.3319 F120.00
G01 X10.8142 Y-26.7559 F120.00
G00 Z2.0000
G00 X11.2828 Y-24.9517
G01 F60.00
G01 Z-0.0900
G01 F120.00
G01 X11.2955 Y-24.9549 F120.00
G01 X11.4022 Y-24.9707 F120.00
G01 X11.5100 Y-24.9760 F120.00
G01 X11.6178 Y-24.9707 F120.00
G01 X11.7245 Y-24.9549 F120.00
G01 X11.7372 Y-24.9517 F120.00
G01 X12.1346 Y-25.3491 F120.00
G01 X12.0060 Y-25.4024 F120.00
G01 X11.7611 Y-25.4612 F120.00
G01 X11.5100 Y-25.4809 F120.00
G01 X11.2589 Y-25.4612 F120.00
G01 X11.0140 Y-25.4024 F120.00
G01 X10.8854 Y-25.3491 F120.00
G01 X11.2828 Y-24.9517 F120.00
G00 Z2.0000
G00 X10.4100 Y-23.8760
G01 F60.00
G01 Z-0.0900
G01 F120.00
G01 X10.4153 Y-23.9838 F120.00
G01 X10.4311 Y-24.0905 F120.00
G01 X10.4343 Y-24.1032 F120.00
G01 X10.0369 Y-24.5006 F120.00
G01 X9.9836 Y-24.3720 F120.00
G01 X9.9248 Y-24.1271 F120.00
G01 X9.9051 Y-23.8760 F120.00
G01 X9.9248 Y-23.6249 F120.00
G01 X9.9836 Y-23.3800 F120.00
G01 X10.0369 Y-23.2514 F120.00
G01 X10.4343 Y-23.6488 F120.00
G01 X10.4311 Y-23.6615 F120.00
G01 X10.4153 Y-23.7682 F120.00
G01 X10.4100 Y-23.8760 F120.00
G00 Z2.0000
G00 X11.2428 Y-22.1577
G01 F60.00
G01 Z-0.0900
G01 F120.00
G01 X11.2555 Y-22.1609 F120.00
G01 X11.3622 Y-22.1767 F120.00
G01 X11.4700 Y-22.1820 F120.00
G01 X11.5778 Y-22.1767 F120.00
G01 X11.6845 Y-22.1609 F120.00
G01 X11.6972 Y-22.1577 F120.00
G01 X12.0385 Y-22.4990 F120.00
G01 X11.7372 Y-22.8003 F120.00
G01 X11.7245 Y-22.7971 F120.00
G01 X11.6178 Y-22.7813 F120.00
G01 X11.5100 Y-22.7760 F120.00
G01 X11.4022 Y-22.7813 F120.00
G01 X11.2955 Y-22.7971 F120.00
G01 X11.2828 Y-22.8003 F120.00
G01 X10.9415 Y-22.4590 F120.00
G01 X11.2428 Y-22.1577 F120.00
G00 Z2.0000
G00 X10.3700 Y-21.0820
G01 F60.00
G01 Z-0.0900
G01 F120.00
G01 X10.3753 Y-21.1898 F120.00
G01 X10.3911 Y-21.2965 F120.00
G01 X10.3943 Y-21.3092 F120.00
G01 X9.9969 Y-21.7066 F120.00
G01 X9.9436 Y-21.5780 F120.00
G01 X9.8848 Y-21.3331 F120.00
G01 X9.8651 Y-21.0820 F120.00
G01 X9.8848 Y-20.8309 F120.00
G01 X9.9436 Y-20.5860 F120.00
G01 X9.9969 Y-20.4574 F120.00
G01 X10.3943 Y-20.8548 F120.00
G01 X10.3911 Y-20.8675 F120.00
G01 X10.3753 Y-20.9742 F120.00
G01 X10.3700 Y-21.0820 F120.00
G00 Z2.0000
G00 X1.7309 Y-23.6900
G01 F60.00
G01 Z-0.0900
G01 F120.00
G01 X1.7285 Y-23.6829 F120.00
G01 X1.7020 Y-23.5770 F120.00
G01 X1.6858 Y-23.4679 F120.00
G01 X1.6804 Y-23.3578 F120.00
G01 X1.6858 Y-23.2476 F120.00
G01 X1.7020 Y-23.1385 F120.00
G01 X1.7288 Y-23.0315 F120.00
G01 X1.7660 Y-22.9277 F120.00
G01 X1.8131 Y-22.8280 F120.00
G01 X1.8698 Y-22.7334 F120.00
G01 X1.9355 Y-22.6448 F120.00
G01 X2.0096 Y-22.5631 F120.00
G01 X2.0913 Y-22.4891 F120.00
G01 X2.1799 Y-22.4234 F120.00
G01 X2.2745 Y-22.3667 F120.00
G01 X2.3742 Y-22.3195 F120.00
G01 X2.4780 Y-22.2824 F120.00
G01 X2.5850 Y-22.2556 F120.00
G01 X2.6941 Y-22.2394 F120.00
G01 X2.8042 Y-22.2340 F120.00
G01 X2.9144 Y-22.2394 F120.00
G01 X3.0235 Y-22.2556 F120.00
G01 X3.1305 Y-22.2824 F120.00
G01 X3.2343 Y-22.3195 F120.00
G01 X3.3340 Y-22.3667 F120.00
G01 X3.4286 Y-22.4234 F120.00
G01 X3.5172 Y-22.4891 F120.00
G01 X3.5989 Y-22.5631 F120.00
G01 X3.6729 Y-22.6448 F120.00
G01 X3.7386 Y-22.7334 F120.00
G01 X3.7953 Y-22.8280 F120.00
G01 X3.8425 Y-22.9277 F120.00
G01 X3.8796 Y-23.0315 F120.00
G01 X3.9066 Y-23.1396 F120.00
G01 X3.9226 Y-23.2476 F120.00
G01 X3.9280 Y-23.3567 F120.00
G01 X3.9226 Y-23.4679 F120.00
G01 X3.9062 Y-23.5781 F120.00
G01 X3.8796 Y-23.6840 F120.00
G01 X3.8429 Y-23.7868 F120.00
G01 X3.7953 Y-23.8875 F120.00
G01 X3.7380 Y-23.9830 F120.00
G01 X3.6729 Y-24.0707 F120.00
G01 X3.5993 Y-24.1520 F120.00
G01 X3.5163 Y-24.2272 F120.00
G01 X3.4286 Y-24.2922 F120.00
G01 X3.3349 Y-24.3483 F120.00
G01 X3.2343 Y-24.3960 F120.00
G01 X3.1299 Y-24.4333 F120.00
G01 X3.0235 Y-24.4600 F120.00
G01 X2.9155 Y-24.4760 F120.00
G01 X2.8048 Y-24.4816 F120.00
G01 X2.6935 Y-24.4761 F120.00
G01 X2.5856 Y-24.4601 F120.00
G01 X2.5561 Y-24.4528 F120.00
G01 X2.5561 Y-53.3769 F120.00
G01 X4.6973 Y-55.5182 F120.00
G01 X6.1801 Y-55.5182 F120.00
G01 X6.1852 Y-55.5188 F120.00
G01 X6.1902 Y-55.5205 F120.00
G01 X6.1946 Y-55.5232 F120.00
G01 X6.1984 Y-55.5269 F120.00
G01 X6.2007 Y-55.5303 F120.00
G01 X6.2024 Y-55.5340 F120.00
G01 X6.2035 Y-55.5379 F120.00
G01 X6.2038 Y-55.5419 F120.00
G01 X6.2038 Y-57.7421 F120.00
G01 X6.2033 Y-57.7466 F120.00
G01 X6.2022 Y-57.7506 F120.00
G01 X6.2001 Y-57.7547 F120.00
G01 X6.1976 Y-57.7580 F120.00
G01 X6.1946 Y-57.7608 F120.00
G01 X6.1907 Y-57.7633 F120.00
G01 X6.1869 Y-57.7648 F120.00
G01 X6.1829 Y-57.7656 F120.00
G01 X3.9799 Y-57.7658 F120.00
G01 X3.9754 Y-57.7653 F120.00
G01 X3.9714 Y-57.7642 F120.00
G01 X3.9678 Y-57.7624 F120.00
G01 X3.9645 Y-57.7600 F120.00
G01 X3.9609 Y-57.7562 F120.00
G01 X3.9585 Y-57.7522 F120.00
G01 X3.9568 Y-57.7472 F120.00
G01 X3.9562 Y-57.7421 F120.00
G01 X3.9562 Y-56.2593 F120.00
G01 X1.6610 Y-53.9641 F120.00
G01 X1.6269 Y-53.9265 F120.00
G01 X1.5969 Y-53.8860 F120.00
G01 X1.5693 Y-53.8401 F120.00
G01 X1.5478 Y-53.7945 F120.00
G01 X1.5305 Y-53.7461 F120.00
G01 X1.5180 Y-53.6962 F120.00
G01 X1.5105 Y-53.6459 F120.00
G01 X1.5079 Y-53.5941 F120.00
G01 X1.5079 Y-24.1299 F120.00
G01 X1.5105 Y-24.0786 F120.00
G01 X1.5183 Y-24.0267 F120.00
G01 X1.5305 Y-23.9779 F120.00
G01 X1.5474 Y-23.9305 F120.00
G01 X1.5696 Y-23.8835 F120.00
G01 X1.5963 Y-23.8389 F120.00
G01 X1.6269 Y-23.7975 F120.00
G01 X1.6610 Y-23.7599 F120.00
G01 X1.7309 Y-23.6900 F120.00
G00 Z2.0000
G00 X1.0292 Y-53.6704
G01 F60.00
G01 Z-0.0900
G01 F120.00
G01 X1.0315 Y-53.5797 F120.00
G01 X1.0315 Y-24.2014 F120.00
G01 X1.0305 Y-24.1857 F120.00
G01 X1.0267 Y-24.1555 F120.00
G01 X1.0311 Y-24.0966 F120.00
G01 X1.0315 Y-24.0872 F120.00
G01 X1.0315 Y-24.0283 F120.00
G01 X1.0376 Y-23.9985 F120.00
G01 X1.0398 Y-23.9830 F120.00
G01 X1.0421 Y-23.9526 F120.00
G01 X1.0584 Y-23.8958 F120.00
G01 X1.0606 Y-23.8867 F120.00
G01 X1.0725 Y-23.8289 F120.00
G01 X1.0845 Y-23.8009 F120.00
G01 X1.0897 Y-23.7862 F120.00
G01 X1.0981 Y-23.7570 F120.00
G01 X1.1254 Y-23.7046 F120.00
G01 X1.1295 Y-23.6961 F120.00
G01 X1.1527 Y-23.6420 F120.00
G01 X1.1701 Y-23.6170 F120.00
G01 X1.1782 Y-23.6036 F120.00
G01 X1.1958 Y-23.5704 F120.00
G01 X1.2101 Y-23.5020 F120.00
G01 X1.1988 Y-23.3578 F120.00
G01 X1.2185 Y-23.1066 F120.00
G01 X1.2774 Y-22.8617 F120.00
G01 X1.3738 Y-22.6289 F120.00
G01 X1.5054 Y-22.4141 F120.00
G01 X1.6690 Y-22.2225 F120.00
G01 X1.8606 Y-22.0589 F120.00
G01 X2.0754 Y-21.9273 F120.00
G01 X2.3081 Y-21.8309 F120.00
G01 X2.5531 Y-21.7721 F120.00
G01 X2.8042 Y-21.7523 F120.00
G01 X3.0554 Y-21.7721 F120.00
G01 X3.3003 Y-21.8309 F120.00
G01 X3.5331 Y-21.9273 F120.00
G01 X3.7479 Y-22.0589 F120.00
G01 X3.9395 Y-22.2225 F120.00
G01 X4.1031 Y-22.4141 F120.00
G01 X4.2347 Y-22.6289 F120.00
G01 X4.3311 Y-22.8617 F120.00
G01 X4.3899 Y-23.1066 F120.00
G01 X4.4097 Y-23.3578 F120.00
G01 X4.3899 Y-23.6089 F120.00
G01 X4.3311 Y-23.8539 F120.00
G01 X4.2347 Y-24.0866 F120.00
G01 X4.1031 Y-24.3014 F120.00
G01 X3.9395 Y-24.4930 F120.00
G01 X3.7479 Y-24.6566 F120.00
G01 X3.5331 Y-24.7882 F120.00
G01 X3.3003 Y-24.8846 F120.00
G01 X3.1276 Y-24.9261 F120.00
G01 X3.1050 Y-24.9339 F120.00
G01 X3.0522 Y-24.9797 F120.00
G01 X3.0325 Y-25.0467 F120.00
G01 X3.0325 Y-32.8451 F120.00
G01 X3.0328 Y-32.8541 F120.00
G01 X3.0572 Y-32.9195 F120.00
G01 X3.1132 Y-32.9614 F120.00
G01 X3.1829 Y-32.9664 F120.00
G01 X3.2442 Y-32.9328 F120.00
G01 X8.9781 Y-27.1990 F120.00
G01 X8.9885 Y-27.1872 F120.00
G01 X9.0071 Y-27.1631 F120.00
G01 X9.0519 Y-27.1247 F120.00
G01 X9.0588 Y-27.1183 F120.00
G01 X9.1005 Y-27.0766 F120.00
G01 X9.1259 Y-27.0599 F120.00
G01 X9.1384 Y-27.0504 F120.00
G01 X9.1615 Y-27.0306 F120.00
G01 X9.2131 Y-27.0019 F120.00
G01 X9.2212 Y-26.9970 F120.00
G01 X9.2704 Y-26.9646 F120.00
G01 X9.2987 Y-26.9533 F120.00
G01 X9.3128 Y-26.9466 F120.00
G01 X9.3394 Y-26.9318 F120.00
G01 X9.3957 Y-26.9142 F120.00
G01 X9.4045 Y-26.9110 F120.00
G01 X9.4593 Y-26.8891 F120.00
G01 X9.4894 Y-26.8838 F120.00
G01 X9.5045 Y-26.8800 F120.00
G01 X9.5336 Y-26.8709 F120.00
G01 X9.5922 Y-26.8650 F120.00
G01 X9.6015 Y-26.8637 F120.00
G01 X9.6596 Y-26.8532 F120.00
G01 X9.7503 Y-26.8555 F120.00
G01 X10.2135 Y-26.8555 F120.00
G01 X10.2650 Y-26.8443 F120.00
G01 X10.3178 Y-26.7985 F120.00
G01 X10.3375 Y-26.7315 F120.00
G01 X10.3375 Y-26.7081 F120.00
G01 X10.3439 Y-26.6485 F120.00
G01 X10.3942 Y-26.5137 F120.00
G01 X10.4805 Y-26.3985 F120.00
G01 X10.5957 Y-26.3122 F120.00
G01 X10.7305 Y-26.2619 F120.00
G01 X10.7901 Y-26.2555 F120.00
G01 X13.0892 Y-26.2557 F120.00
G01 X13.0909 Y-26.2548 F120.00
G01 X13.1510 Y-26.2450 F120.00
G01 X13.2038 Y-26.1993 F120.00
G01 X13.2235 Y-26.1322 F120.00
G01 X13.2235 Y-24.5437 F120.00
G01 X13.2104 Y-24.4882 F120.00
G01 X13.1628 Y-24.4370 F120.00
G01 X13.0951 Y-24.4197 F120.00
G01 X13.0288 Y-24.4418 F120.00
G01 X12.9822 Y-24.4996 F120.00
G01 X12.5857 Y-24.1032 F120.00
G01 X12.5889 Y-24.0905 F120.00
G01 X12.6047 Y-23.9838 F120.00
G01 X12.6100 Y-23.8760 F120.00
G01 X12.6047 Y-23.7682 F120.00
G01 X12.5889 Y-23.6615 F120.00
G01 X12.5857 Y-23.6488 F120.00
G01 X12.9823 Y-23.2522 F120.00
G01 X13.0183 Y-23.3021 F120.00
G01 X13.0819 Y-23.3311 F120.00
G01 X13.1510 Y-23.3212 F120.00
G01 X13.2038 Y-23.2754 F120.00
G01 X13.2235 Y-23.2084 F120.00
G01 X13.2235 Y-21.6531 F120.00
G01 X13.2104 Y-21.5976 F120.00
G01 X13.1628 Y-21.5464 F120.00
G01 X13.0951 Y-21.5291 F120.00
G01 X13.0288 Y-21.5512 F120.00
G01 X12.9849 Y-21.6056 F120.00
G01 X12.9431 Y-21.7066 F120.00
G01 X12.5457 Y-21.3092 F120.00
G01 X12.5489 Y-21.2965 F120.00
G01 X12.5647 Y-21.1898 F120.00
G01 X12.5700 Y-21.0820 F120.00
G01 X12.5647 Y-20.9742 F120.00
G01 X12.5489 Y-20.8675 F120.00
G01 X12.5457 Y-20.8548 F120.00
G01 X12.9431 Y-20.4574 F120.00
G01 X12.9849 Y-20.5584 F120.00
G01 X13.0184 Y-20.6047 F120.00
G01 X13.0819 Y-20.6337 F120.00
G01 X13.1509 Y-20.6237 F120.00
G01 X13.2038 Y-20.5780 F120.00
G01 X13.2235 Y-20.5109 F120.00
G01 X13.2235 Y-19.7507 F120.00
G01 X13.2061 Y-19.6874 F120.00
G01 X13.1550 Y-19.6398 F120.00
G01 X13.0862 Y-19.6274 F120.00
G01 X13.0199 Y-19.6345 F120.00
G01 X12.1204 Y-19.6345 F120.00
G01 X12.0940 Y-19.6373 F120.00
G01 X12.0327 Y-19.6708 F120.00
G01 X11.6972 Y-20.0063 F120.00
G01 X11.6845 Y-20.0031 F120.00
G01 X11.5778 Y-19.9873 F120.00
G01 X11.4700 Y-19.9820 F120.00
G01 X11.3622 Y-19.9873 F120.00
G01 X11.2555 Y-20.0031 F120.00
G01 X11.2428 Y-20.0063 F120.00
G01 X10.9074 Y-19.6709 F120.00
G01 X10.8867 Y-19.6542 F120.00
G01 X10.8197 Y-19.6345 F120.00
G01 X10.7241 Y-19.6345 F120.00
G01 X10.6645 Y-19.6281 F120.00
G01 X10.5297 Y-19.5778 F120.00
G01 X10.4145 Y-19.4915 F120.00
G01 X10.3282 Y-19.3763 F120.00
G01 X10.2779 Y-19.2415 F120.00
G01 X10.2715 Y-19.1819 F120.00
G01 X10.2715 Y-17.6489 F120.00
G01 X10.2712 Y-17.6399 F120.00
G01 X10.2468 Y-17.5745 F120.00
G01 X10.1909 Y-17.5326 F120.00
G01 X10.1211 Y-17.5276 F120.00
G01 X10.0598 Y-17.5612 F120.00
G01 X7.9749 Y-19.6460 F120.00
G01 X7.9534 Y-19.6750 F120.00
G01 X7.9390 Y-19.7434 F120.00
G01 X7.9452 Y-19.8222 F120.00
G01 X7.9255 Y-20.0734 F120.00
G01 X7.8666 Y-20.3183 F120.00
G01 X7.7702 Y-20.5511 F120.00
G01 X7.6386 Y-20.7659 F120.00
G01 X7.4750 Y-20.9575 F120.00
G01 X7.2834 Y-21.1211 F120.00
G01 X7.0686 Y-21.2527 F120.00
G01 X6.8359 Y-21.3491 F120.00
G01 X6.5909 Y-21.4079 F120.00
G01 X6.3398 Y-21.4277 F120.00
G01 X6.0886 Y-21.4079 F120.00
G01 X5.8437 Y-21.3491 F120.00
G01 X5.6109 Y-21.2527 F120.00
G01 X5.3961 Y-21.1211 F120.00
G01 X5.2045 Y-20.9575 F120.00
G01 X5.0409 Y-20.7659 F120.00
G01 X4.9093 Y-20.5511 F120.00
G01 X4.8129 Y-20.3183 F120.00
G01 X4.7541 Y-20.0734 F120.00
G01 X4.7343 Y-19.8222 F120.00
G01 X4.7541 Y-19.5711 F120.00
G01 X4.8129 Y-19.3261 F120.00
G01 X4.9093 Y-19.0934 F120.00
G01 X5.0409 Y-18.8786 F120.00
G01 X5.2045 Y-18.6870 F120.00
G01 X5.3961 Y-18.5234 F120.00
G01 X5.6109 Y-18.3918 F120.00
G01 X5.8437 Y-18.2954 F120.00
G01 X6.0886 Y-18.2365 F120.00
G01 X6.3398 Y-18.2168 F120.00
G01 X6.5002 Y-18.2294 F120.00
G01 X6.5363 Y-18.2270 F120.00
G01 X6.5976 Y-18.1935 F120.00
G01 X9.9541 Y-14.8370 F120.00
G01 X9.9645 Y-14.8252 F120.00
G01 X9.9831 Y-14.8011 F120.00
G01 X10.0279 Y-14.7627 F120.00
G01 X10.0348 Y-14.7563 F120.00
G01 X10.0765 Y-14.7146 F120.00
G01 X10.1019 Y-14.6979 F120.00
G01 X10.1144 Y-14.6884 F120.00
G01 X10.1375 Y-14.6686 F120.00
G01 X10.1891 Y-14.6400 F120.00
G01 X10.1971 Y-14.6351 F120.00
G01 X10.2158 Y-14.6228 F120.00
G01 X10.2518 Y-14.5863 F120.00
G01 X10.2715 Y-14.5193 F120.00
G01 X10.2715 Y-14.3461 F120.00
G01 X10.2779 Y-14.2865 F120.00
G01 X10.2851 Y-14.2673 F120.00
G01 X10.2900 Y-14.2504 F120.00
G01 X10.2851 Y-14.1807 F120.00
G01 X10.2779 Y-14.1615 F120.00
G01 X10.2715 Y-14.1019 F120.00
G01 X10.2715 Y-11.8061 F120.00
G01 X10.2779 Y-11.7465 F120.00
G01 X10.2851 Y-11.7273 F120.00
G01 X10.2900 Y-11.7104 F120.00
G01 X10.2851 Y-11.6407 F120.00
G01 X10.2779 Y-11.6215 F120.00
G01 X10.2715 Y-11.5619 F120.00
G01 X10.2715 Y-9.5357 F120.00
G01 X10.2614 Y-9.4865 F120.00
G01 X10.2168 Y-9.4327 F120.00
G01 X10.1502 Y-9.4116 F120.00
G01 X10.0827 Y-9.4299 F120.00
G01 X9.8729 Y-9.5585 F120.00
G01 X9.6401 Y-9.6549 F120.00
G01 X9.3951 Y-9.7137 F120.00
G01 X9.1440 Y-9.7334 F120.00
G01 X8.8929 Y-9.7137 F120.00
G01 X8.6479 Y-9.6549 F120.00
G01 X8.4151 Y-9.5585 F120.00
G01 X8.2003 Y-9.4268 F120.00
G01 X8.0088 Y-9.2632 F120.00
G01 X7.8452 Y-9.0717 F120.00
G01 X7.7135 Y-8.8569 F120.00
G01 X7.6171 Y-8.6241 F120.00
G01 X7.5583 Y-8.3791 F120.00
G01 X7.5386 Y-8.1280 F120.00
G01 X7.5583 Y-7.8769 F120.00
G01 X7.6171 Y-7.6319 F120.00
G01 X7.7135 Y-7.3991 F120.00
G01 X7.8452 Y-7.1843 F120.00
G01 X8.0088 Y-6.9928 F120.00
G01 X8.2003 Y-6.8292 F120.00
G01 X8.4151 Y-6.6975 F120.00
G01 X8.6479 Y-6.6011 F120.00
G01 X8.8928 Y-6.5423 F120.00
G01 X9.1440 Y-6.5226 F120.00
G01 X9.3952 Y-6.5423 F120.00
G01 X9.6401 Y-6.6011 F120.00
G01 X9.8729 Y-6.6975 F120.00
G01 X10.0877 Y-6.8292 F120.00
G01 X10.1048 Y-6.8438 F120.00
G01 X10.1183 Y-6.8538 F120.00
G01 X10.1853 Y-6.8735 F120.00
G01 X10.5595 Y-6.8735 F120.00
G01 X10.6110 Y-6.8623 F120.00
G01 X10.6638 Y-6.8165 F120.00
G01 X10.6835 Y-6.7495 F120.00
G01 X10.6835 Y-6.6415 F120.00
G01 X10.6782 Y-6.6057 F120.00
G01 X10.6400 Y-6.5472 F120.00
G01 X10.5488 Y-6.4692 F120.00
G01 X10.3852 Y-6.2777 F120.00
G01 X10.2535 Y-6.0629 F120.00
G01 X10.1571 Y-5.8301 F120.00
G01 X10.0983 Y-5.5851 F120.00
G01 X10.0786 Y-5.3340 F120.00
G01 X10.0983 Y-5.0829 F120.00
G01 X10.1571 Y-4.8379 F120.00
G01 X10.2535 Y-4.6051 F120.00
G01 X10.3852 Y-4.3903 F120.00
G01 X10.5488 Y-4.1988 F120.00
G01 X10.7403 Y-4.0352 F120.00
G01 X10.9551 Y-3.9035 F120.00
G01 X11.1879 Y-3.8071 F120.00
G01 X11.4328 Y-3.7483 F120.00
G01 X11.6840 Y-3.7286 F120.00
G01 X11.9352 Y-3.7483 F120.00
G01 X12.1801 Y-3.8071 F120.00
G01 X12.4129 Y-3.9035 F120.00
G01 X12.6277 Y-4.0352 F120.00
G01 X12.8192 Y-4.1988 F120.00
G01 X12.8932 Y-4.2853 F120.00
G01 X12.9063 Y-4.2986 F120.00
G01 X12.9699 Y-4.3276 F120.00
G01 X13.0390 Y-4.3177 F120.00
G01 X13.0918 Y-4.2719 F120.00
G01 X13.1115 Y-4.2049 F120.00
G01 X13.1115 Y-2.9411 F120.00
G01 X13.1179 Y-2.8815 F120.00
G01 X13.1682 Y-2.7467 F120.00
G01 X13.2545 Y-2.6315 F120.00
G01 X13.3697 Y-2.5452 F120.00
G01 X13.5045 Y-2.4949 F120.00
G01 X13.5641 Y-2.4885 F120.00
G01 X15.8599 Y-2.4885 F120.00
G01 X15.9195 Y-2.4949 F120.00
G01 X15.9387 Y-2.5021 F120.00
G01 X15.9556 Y-2.5070 F120.00
G01 X16.0253 Y-2.5021 F120.00
G01 X16.0445 Y-2.4949 F120.00
G01 X16.1041 Y-2.4885 F120.00
G01 X18.3999 Y-2.4885 F120.00
G01 X18.4595 Y-2.4949 F120.00
G01 X18.5943 Y-2.5452 F120.00
G01 X18.7095 Y-2.6315 F120.00
G01 X18.7958 Y-2.7467 F120.00
G01 X18.8461 Y-2.8815 F120.00
G01 X18.8525 Y-2.9411 F120.00
G01 X18.8525 Y-5.2369 F120.00
G01 X18.8461 Y-5.2965 F120.00
G01 X18.7958 Y-5.4313 F120.00
G01 X18.7095 Y-5.5465 F120.00
G01 X18.5943 Y-5.6328 F120.00
G01 X18.4595 Y-5.6831 F120.00
G01 X18.3999 Y-5.6895 F120.00
G01 X18.3765 Y-5.6895 F120.00
G01 X18.3250 Y-5.7007 F120.00
G01 X18.2722 Y-5.7465 F120.00
G01 X18.2525 Y-5.8135 F120.00
G01 X18.2525 Y-6.4198 F120.00
G01 X18.2626 Y-6.4689 F120.00
G01 X18.3072 Y-6.5227 F120.00
G01 X18.3738 Y-6.5438 F120.00
G01 X18.4413 Y-6.5256 F120.00
G01 X18.5751 Y-6.4435 F120.00
G01 X18.8079 Y-6.3471 F120.00
G01 X19.0528 Y-6.2883 F120.00
G01 X19.3040 Y-6.2686 F120.00
G01 X19.5552 Y-6.2883 F120.00
G01 X19.8001 Y-6.3471 F120.00
G01 X20.0329 Y-6.4435 F120.00
G01 X20.2477 Y-6.5752 F120.00
G01 X20.4392 Y-6.7388 F120.00
G01 X20.5172 Y-6.8300 F120.00
G01 X20.5444 Y-6.8538 F120.00
G01 X20.6115 Y-6.8735 F120.00
G01 X20.7567 Y-6.8735 F120.00
G01 X20.7724 Y-6.8725 F120.00
G01 X20.8025 Y-6.8687 F120.00
G01 X20.8614 Y-6.8731 F120.00
G01 X20.8708 Y-6.8735 F120.00
G01 X20.9297 Y-6.8735 F120.00
G01 X20.9595 Y-6.8796 F120.00
G01 X20.9750 Y-6.8818 F120.00
G01 X21.0054 Y-6.8841 F120.00
G01 X21.0621 Y-6.9003 F120.00
G01 X21.0712 Y-6.9026 F120.00
G01 X21.1291 Y-6.9145 F120.00
G01 X21.1571 Y-6.9265 F120.00
G01 X21.1718 Y-6.9317 F120.00
G01 X21.2011 Y-6.9401 F120.00
G01 X21.2533 Y-6.9674 F120.00
G01 X21.2618 Y-6.9714 F120.00
G01 X21.3160 Y-6.9947 F120.00
G01 X21.3411 Y-7.0121 F120.00
G01 X21.3544 Y-7.0202 F120.00
G01 X21.3814 Y-7.0343 F120.00
G01 X21.4271 Y-7.0715 F120.00
G01 X21.4346 Y-7.0772 F120.00
G01 X21.4831 Y-7.1109 F120.00
G01 X21.5456 Y-7.1767 F120.00
G01 X25.5490 Y-11.1801 F120.00
G01 X25.5608 Y-11.1905 F120.00
G01 X25.5849 Y-11.2091 F120.00
G01 X25.6233 Y-11.2539 F120.00
G01 X25.6297 Y-11.2608 F120.00
G01 X25.6714 Y-11.3025 F120.00
G01 X25.6881 Y-11.3279 F120.00
G01 X25.6976 Y-11.3404 F120.00
G01 X25.7174 Y-11.3635 F120.00
G01 X25.7461 Y-11.4151 F120.00
G01 X25.7510 Y-11.4232 F120.00
G01 X25.7834 Y-11.4724 F120.00
G01 X25.7947 Y-11.5007 F120.00
G01 X25.8014 Y-11.5148 F120.00
G01 X25.8162 Y-11.5414 F120.00
G01 X25.8338 Y-11.5976 F120.00
G01 X25.8370 Y-11.6065 F120.00
G01 X25.8589 Y-11.6613 F120.00
G01 X25.8642 Y-11.6913 F120.00
G01 X25.8680 Y-11.7065 F120.00
G01 X25.8771 Y-11.7356 F120.00
G01 X25.8831 Y-11.7943 F120.00
G01 X25.8844 Y-11.8036 F120.00
G01 X25.8948 Y-11.8616 F120.00
G01 X25.8937 Y-11.9047 F120.00
G01 X25.8950 Y-11.9264 F120.00
G01 X25.9245 Y-11.9897 F120.00
G01 X25.9835 Y-12.0271 F120.00
G01 X26.0534 Y-12.0266 F120.00
G01 X26.1119 Y-11.9884 F120.00
G01 X26.2568 Y-11.8188 F120.00
G01 X26.4483 Y-11.6552 F120.00
G01 X26.6631 Y-11.5235 F120.00
G01 X26.8959 Y-11.4271 F120.00
G01 X27.1408 Y-11.3683 F120.00
G01 X27.3920 Y-11.3486 F120.00
G01 X27.6432 Y-11.3683 F120.00
G01 X27.8881 Y-11.4271 F120.00
G01 X28.1209 Y-11.5235 F120.00
G01 X28.3357 Y-11.6552 F120.00
G01 X28.5272 Y-11.8188 F120.00
G01 X28.6908 Y-12.0103 F120.00
G01 X28.8225 Y-12.2251 F120.00
G01 X28.9189 Y-12.4579 F120.00
G01 X28.9777 Y-12.7028 F120.00
G01 X28.9974 Y-12.9540 F120.00
G01 X28.9777 Y-13.2052 F120.00
G01 X28.9189 Y-13.4501 F120.00
G01 X28.8225 Y-13.6829 F120.00
G01 X28.6908 Y-13.8977 F120.00
G01 X28.5272 Y-14.0892 F120.00
G01 X28.3357 Y-14.2528 F120.00
G01 X28.1209 Y-14.3845 F120.00
G01 X27.8881 Y-14.4809 F120.00
G01 X27.7656 Y-14.5103 F120.00
G01 X27.7430 Y-14.5181 F120.00
G01 X27.6902 Y-14.5638 F120.00
G01 X27.6705 Y-14.6309 F120.00
G01 X27.6705 Y-14.9147 F120.00
G01 X27.6715 Y-14.9303 F120.00
G01 X27.6753 Y-14.9605 F120.00
G01 X27.6709 Y-15.0194 F120.00
G01 X27.6705 Y-15.0288 F120.00
G01 X27.6705 Y-15.0877 F120.00
G01 X27.6644 Y-15.1176 F120.00
G01 X27.6622 Y-15.1331 F120.00
G01 X27.6599 Y-15.1634 F120.00
G01 X27.6437 Y-15.2201 F120.00
G01 X27.6414 Y-15.2292 F120.00
G01 X27.6295 Y-15.2871 F120.00
G01 X27.6175 Y-15.3151 F120.00
G01 X27.6123 Y-15.3298 F120.00
G01 X27.6039 Y-15.3591 F120.00
G01 X27.5766 Y-15.4114 F120.00
G01 X27.5725 Y-15.4199 F120.00
G01 X27.5493 Y-15.4740 F120.00
G01 X27.5319 Y-15.4991 F120.00
G01 X27.5238 Y-15.5124 F120.00
G01 X27.5097 Y-15.5394 F120.00
G01 X27.4725 Y-15.5851 F120.00
G01 X27.4668 Y-15.5926 F120.00
G01 X27.4331 Y-15.6411 F120.00
G01 X27.3673 Y-15.7036 F120.00
G01 X26.6908 Y-16.3801 F120.00
G01 X26.6742 Y-16.4007 F120.00
G01 X26.6545 Y-16.4678 F120.00
G01 X26.6545 Y-23.0426 F120.00
G01 X26.6555 Y-23.0583 F120.00
G01 X26.6593 Y-23.0885 F120.00
G01 X26.6549 Y-23.1474 F120.00
G01 X26.6545 Y-23.1568 F120.00
G01 X26.6545 Y-23.2157 F120.00
G01 X26.6484 Y-23.2456 F120.00
G01 X26.6462 Y-23.2611 F120.00
G01 X26.6439 Y-23.2914 F120.00
G01 X26.6277 Y-23.3481 F120.00
G01 X26.6254 Y-23.3572 F120.00
G01 X26.6135 Y-23.4151 F120.00
G01 X26.6015 Y-23.4431 F120.00
G01 X26.5963 Y-23.4578 F120.00
G01 X26.5879 Y-23.4871 F120.00
G01 X26.5606 Y-23.5394 F120.00
G01 X26.5565 Y-23.5479 F120.00
G01 X26.5333 Y-23.6020 F120.00
G01 X26.5159 Y-23.6271 F120.00
G01 X26.5078 Y-23.6404 F120.00
G01 X26.4937 Y-23.6674 F120.00
G01 X26.4564 Y-23.7132 F120.00
G01 X26.4507 Y-23.7207 F120.00
G01 X26.4202 Y-23.7647 F120.00
G01 X26.4005 Y-23.8318 F120.00
G01 X26.4005 Y-39.9376 F120.00
G01 X26.4033 Y-39.9640 F120.00
G01 X26.4368 Y-40.0253 F120.00
G01 X26.8243 Y-40.4128 F120.00
G01 X26.8211 Y-40.4255 F120.00
G01 X26.8053 Y-40.5322 F120.00
G01 X26.8000 Y-40.6400 F120.00
G01 X26.8053 Y-40.7478 F120.00
G01 X26.8211 Y-40.8545 F120.00
G01 X26.8243 Y-40.8672 F120.00
