(G-CODE GENERATED BY FLATCAM v8.994 - www.flatcam.org - Version Date: 2020/11/7)

(Name: Active_Electrode-F_Cu.gbr_iso_combined_1_cnc)
(Type: G-code from Geometry)
(Units: MM)

(Created on Thursday, 07 March 2024 at 23:18)

(This preprocessor is used with a motion controller loaded with GRBL firmware.)
(It is configured to be compatible with almost any version of GRBL firmware.)

(TOOL DIAMETER: 0.0238 mm)
(Feedrate_XY: 120.0 mm/min)
(Feedrate_Z: 60.0 mm/min)
(Feedrate rapids 1500.0 mm/min)

(Z_Cut: -0.09 mm)
(Z_Move: 2.0 mm)
(Z Start: None mm)
(Z End: 15.0 mm)
(X,Y End: 0.0000, 0.0000 mm)
(Steps per circle: 64)
(Steps per circle: 64)
(Preprocessor Geometry: GRBL_11_no_M6)

(X range:   -0.0119 ...   59.7019  mm)
(Y range:  -30.2379 ...    0.0119  mm)

(Spindle Speed: 0.0 RPM)
G21
G90
G17
G94


G01 F120.00

M5             
G00 Z15.0000
G00 X0.0000 Y0.0000                
T2
(MSG, Change to Tool Dia = 0.0238)
M0
G00 Z15.0000
        
M03
G01 F120.00
G00 X-0.0119 Y-0.1240
G01 F60.00
G01 Z-0.0900
G01 F120.00
G01 X-0.0119 Y-30.1020 F120.00
G01 X-0.0116 Y-30.1045 F120.00
G01 X-0.0004 Y-30.1560 F120.00
G01 X0.0008 Y-30.1594 F120.00
G01 X0.0480 Y-30.2141 F120.00
G01 X0.0517 Y-30.2170 F120.00
G01 X0.1206 Y-30.2374 F120.00
G01 X0.1240 Y-30.2379 F120.00
G01 X59.5660 Y-30.2379 F120.00
G01 X59.5685 Y-30.2376 F120.00
G01 X59.6200 Y-30.2264 F120.00
G01 X59.6234 Y-30.2252 F120.00
G01 X59.6781 Y-30.1780 F120.00
G01 X59.6810 Y-30.1743 F120.00
G01 X59.7014 Y-30.1054 F120.00
G01 X59.7019 Y-30.1020 F120.00
G01 X59.7019 Y-0.1240 F120.00
G01 X59.7016 Y-0.1215 F120.00
G01 X59.6904 Y-0.0700 F120.00
G01 X59.6892 Y-0.0666 F120.00
G01 X59.6420 Y-0.0119 F120.00
G01 X59.6383 Y-0.0090 F120.00
G01 X59.5694 Y0.0114 F120.00
G01 X59.5660 Y0.0119 F120.00
G01 X0.1240 Y0.0119 F120.00
G01 X0.1215 Y0.0116 F120.00
G01 X0.0700 Y0.0004 F120.00
G01 X0.0669 Y-0.0007 F120.00
G01 X0.0647 Y-0.0022 F120.00
G01 X0.0112 Y-0.0486 F120.00
G01 X0.0094 Y-0.0509 F120.00
G01 X0.0083 Y-0.0536 F120.00
G01 X-0.0114 Y-0.1206 F120.00
G01 X-0.0119 Y-0.1240 F120.00
G00 Z2.0000
G00 X7.3618 Y-9.9357
G01 F60.00
G01 Z-0.0900
G01 F120.00
G01 X7.3493 Y-9.9417 F120.00
G01 X7.2563 Y-9.9975 F120.00
G01 X7.1686 Y-10.0625 F120.00
G01 X7.0878 Y-10.1358 F120.00
G01 X7.0145 Y-10.2166 F120.00
G01 X6.9495 Y-10.3043 F120.00
G01 X6.8934 Y-10.3979 F120.00
G01 X6.8467 Y-10.4965 F120.00
G01 X6.8100 Y-10.5992 F120.00
G01 X6.7835 Y-10.7051 F120.00
G01 X6.7675 Y-10.8130 F120.00
G01 X6.7621 Y-10.9220 F120.00
G01 X6.7675 Y-11.0310 F120.00
G01 X6.7835 Y-11.1389 F120.00
G01 X6.8100 Y-11.2448 F120.00
G01 X6.8467 Y-11.3475 F120.00
G01 X6.8934 Y-11.4461 F120.00
G01 X6.9495 Y-11.5397 F120.00
G01 X7.0145 Y-11.6274 F120.00
G01 X7.0878 Y-11.7082 F120.00
G01 X7.1686 Y-11.7815 F120.00
G01 X7.2563 Y-11.8465 F120.00
G01 X7.3499 Y-11.9026 F120.00
G01 X7.4485 Y-11.9493 F120.00
G01 X7.5512 Y-11.9860 F120.00
G01 X7.6571 Y-12.0125 F120.00
G01 X7.7650 Y-12.0285 F120.00
G01 X7.8740 Y-12.0339 F120.00
G01 X7.9830 Y-12.0285 F120.00
G01 X8.0909 Y-12.0125 F120.00
G01 X8.1968 Y-11.9860 F120.00
G01 X8.2995 Y-11.9493 F120.00
G01 X8.3981 Y-11.9026 F120.00
G01 X8.4917 Y-11.8465 F120.00
G01 X8.5789 Y-11.7819 F120.00
G01 X8.6602 Y-11.7082 F120.00
G01 X8.7339 Y-11.6269 F120.00
G01 X8.7985 Y-11.5397 F120.00
G01 X8.8543 Y-11.4467 F120.00
G01 X8.9013 Y-11.3475 F120.00
G01 X8.9382 Y-11.2442 F120.00
G01 X8.9645 Y-11.1389 F120.00
G01 X8.9805 Y-11.0316 F120.00
G01 X8.9859 Y-10.9220 F120.00
G01 X8.9805 Y-10.8124 F120.00
G01 X8.9645 Y-10.7051 F120.00
G01 X8.9380 Y-10.5992 F120.00
G01 X8.9010 Y-10.4960 F120.00
G01 X8.8546 Y-10.3979 F120.00
G01 X8.7988 Y-10.3048 F120.00
G01 X8.7331 Y-10.2162 F120.00
G01 X8.6602 Y-10.1358 F120.00
G01 X8.5798 Y-10.0629 F120.00
G01 X8.4917 Y-9.9975 F120.00
G01 X8.3987 Y-9.9417 F120.00
G01 X8.3862 Y-9.9357 F120.00
G01 X8.3862 Y-9.6101 F120.00
G01 X12.1501 Y-5.8462 F120.00
G01 X13.7579 Y-5.8462 F120.00
G01 X14.6239 Y-6.7121 F120.00
G01 X14.6607 Y-6.7455 F120.00
G01 X14.7015 Y-6.7758 F120.00
G01 X14.7451 Y-6.8019 F120.00
G01 X14.7900 Y-6.8232 F120.00
G01 X14.8368 Y-6.8399 F120.00
G01 X14.8861 Y-6.8523 F120.00
G01 X14.9358 Y-6.8597 F120.00
G01 X14.9860 Y-6.8622 F120.00
G01 X22.1399 Y-6.8622 F120.00
G01 X22.9659 Y-7.6881 F120.00
G01 X23.0029 Y-7.7217 F120.00
G01 X23.0440 Y-7.7521 F120.00
G01 X23.0866 Y-7.7777 F120.00
G01 X23.1320 Y-7.7992 F120.00
G01 X23.1793 Y-7.8161 F120.00
G01 X23.2275 Y-7.8282 F120.00
G01 X23.2781 Y-7.8357 F120.00
G01 X23.3280 Y-7.8382 F120.00
G01 X38.7616 Y-7.8382 F120.00
G01 X37.6539 Y-8.9459 F120.00
G01 X37.6201 Y-8.9831 F120.00
G01 X37.5905 Y-9.0230 F120.00
G01 X37.5643 Y-9.0666 F120.00
G01 X37.5428 Y-9.1120 F120.00
G01 X37.5259 Y-9.1593 F120.00
G01 X37.5136 Y-9.2084 F120.00
G01 X37.5063 Y-9.2578 F120.00
G01 X37.5039 Y-9.3077 F120.00
G01 X37.5038 Y-9.5561 F120.00
G01 X36.9160 Y-9.5561 F120.00
G01 X36.9128 Y-9.5565 F120.00
G01 X36.9096 Y-9.5579 F120.00
G01 X36.9072 Y-9.5600 F120.00
G01 X36.9052 Y-9.5629 F120.00
G01 X36.9044 Y-9.5654 F120.00
G01 X36.9041 Y-9.5680 F120.00
G01 X36.9042 Y-11.7692 F120.00
G01 X36.9054 Y-11.7734 F120.00
G01 X36.9080 Y-11.7768 F120.00
G01 X36.9117 Y-11.7791 F120.00
G01 X36.9160 Y-11.7799 F120.00
G01 X39.1169 Y-11.7799 F120.00
G01 X39.1211 Y-11.7788 F120.00
G01 X39.1248 Y-11.7760 F120.00
G01 X39.1271 Y-11.7723 F120.00
G01 X39.1279 Y-11.7680 F120.00
G01 X39.1279 Y-9.5680 F120.00
G01 X39.1275 Y-9.5651 F120.00
G01 X39.1261 Y-9.5616 F120.00
G01 X39.1235 Y-9.5588 F120.00
G01 X39.1200 Y-9.5568 F120.00
G01 X39.1163 Y-9.5561 F120.00
G01 X38.5282 Y-9.5561 F120.00
G01 X38.5282 Y-9.5201 F120.00
G01 X39.8969 Y-8.1514 F120.00
G01 X39.9348 Y-8.1857 F120.00
G01 X40.0220 Y-8.2503 F120.00
G01 X40.1156 Y-8.3065 F120.00
G01 X40.2145 Y-8.3533 F120.00
G01 X40.3170 Y-8.3899 F120.00
G01 X40.4231 Y-8.4165 F120.00
G01 X40.5310 Y-8.4325 F120.00
G01 X40.6400 Y-8.4379 F120.00
G01 X40.7493 Y-8.4325 F120.00
G01 X40.8575 Y-8.4164 F120.00
G01 X40.9628 Y-8.3900 F120.00
G01 X41.0650 Y-8.3535 F120.00
G01 X41.1641 Y-8.3066 F120.00
G01 X41.2577 Y-8.2505 F120.00
G01 X41.3458 Y-8.1851 F120.00
G01 X41.4262 Y-8.1122 F120.00
G01 X41.4991 Y-8.0318 F120.00
G01 X41.5645 Y-7.9437 F120.00
G01 X41.6203 Y-7.8507 F120.00
G01 X41.6263 Y-7.8382 F120.00
G01 X42.4477 Y-7.8382 F120.00
G01 X42.4537 Y-7.8507 F120.00
G01 X42.5095 Y-7.9437 F120.00
G01 X42.5749 Y-8.0318 F120.00
G01 X42.6478 Y-8.1122 F120.00
G01 X42.7282 Y-8.1851 F120.00
G01 X42.8168 Y-8.2508 F120.00
G01 X42.9099 Y-8.3066 F120.00
G01 X43.0080 Y-8.3530 F120.00
G01 X43.1112 Y-8.3900 F120.00
G01 X43.2171 Y-8.4165 F120.00
G01 X43.3244 Y-8.4325 F120.00
G01 X43.4343 Y-8.4379 F120.00
G01 X43.5430 Y-8.4325 F120.00
G01 X43.6503 Y-8.4166 F120.00
G01 X43.7568 Y-8.3900 F120.00
G01 X43.8600 Y-8.3530 F120.00
G01 X43.9581 Y-8.3066 F120.00
G01 X44.0512 Y-8.2508 F120.00
G01 X44.1398 Y-8.1851 F120.00
G01 X44.2202 Y-8.1122 F120.00
G01 X44.2931 Y-8.0318 F120.00
G01 X44.3585 Y-7.9437 F120.00
G01 X44.4143 Y-7.8507 F120.00
G01 X44.4203 Y-7.8382 F120.00
G01 X55.5301 Y-7.8382 F120.00
G01 X55.5301 Y-8.4663 F120.00
G01 X55.5308 Y-8.4700 F120.00
G01 X55.5326 Y-8.4733 F120.00
G01 X55.5354 Y-8.4759 F120.00
G01 X55.5388 Y-8.4775 F120.00
G01 X55.5420 Y-8.4779 F120.00
G01 X57.7432 Y-8.4778 F120.00
G01 X57.7474 Y-8.4766 F120.00
G01 X57.7508 Y-8.4740 F120.00
G01 X57.7531 Y-8.4703 F120.00
G01 X57.7539 Y-8.4660 F120.00
G01 X57.7539 Y-6.2651 F120.00
G01 X57.7526 Y-6.2606 F120.00
G01 X57.7500 Y-6.2572 F120.00
G01 X57.7463 Y-6.2549 F120.00
G01 X57.7420 Y-6.2541 F120.00
G01 X55.5420 Y-6.2541 F120.00
G01 X55.5391 Y-6.2545 F120.00
G01 X55.5356 Y-6.2559 F120.00
G01 X55.5328 Y-6.2585 F120.00
G01 X55.5308 Y-6.2620 F120.00
G01 X55.5301 Y-6.2657 F120.00
G01 X55.5301 Y-6.8138 F120.00
G01 X44.4203 Y-6.8138 F120.00
G01 X44.4143 Y-6.8013 F120.00
G01 X44.3585 Y-6.7083 F120.00
G01 X44.2931 Y-6.6202 F120.00
G01 X44.2202 Y-6.5398 F120.00
G01 X44.1398 Y-6.4669 F120.00
G01 X44.0512 Y-6.4012 F120.00
G01 X43.9581 Y-6.3454 F120.00
G01 X43.8600 Y-6.2990 F120.00
G01 X43.7568 Y-6.2620 F120.00
G01 X43.6509 Y-6.2355 F120.00
G01 X43.5436 Y-6.2195 F120.00
G01 X43.4340 Y-6.2141 F120.00
G01 X43.3244 Y-6.2195 F120.00
G01 X43.2171 Y-6.2355 F120.00
G01 X43.1112 Y-6.2620 F120.00
G01 X43.0080 Y-6.2990 F120.00
G01 X42.9099 Y-6.3454 F120.00
G01 X42.8168 Y-6.4012 F120.00
G01 X42.7282 Y-6.4669 F120.00
G01 X42.6478 Y-6.5398 F120.00
G01 X42.5749 Y-6.6202 F120.00
G01 X42.5095 Y-6.7083 F120.00
G01 X42.4537 Y-6.8013 F120.00
G01 X42.4477 Y-6.8138 F120.00
G01 X41.6263 Y-6.8138 F120.00
G01 X41.6203 Y-6.8013 F120.00
G01 X41.5645 Y-6.7083 F120.00
G01 X41.4991 Y-6.6202 F120.00
G01 X41.4262 Y-6.5398 F120.00
G01 X41.3458 Y-6.4669 F120.00
G01 X41.2572 Y-6.4012 F120.00
G01 X41.1641 Y-6.3454 F120.00
G01 X41.0660 Y-6.2990 F120.00
G01 X40.9628 Y-6.2620 F120.00
G01 X40.8569 Y-6.2355 F120.00
G01 X40.7496 Y-6.2195 F120.00
G01 X40.6400 Y-6.2141 F120.00
G01 X40.5304 Y-6.2195 F120.00
G01 X40.4231 Y-6.2355 F120.00
G01 X40.3172 Y-6.2620 F120.00
G01 X40.2140 Y-6.2990 F120.00
G01 X40.1159 Y-6.3454 F120.00
G01 X40.0228 Y-6.4012 F120.00
G01 X39.9342 Y-6.4669 F120.00
G01 X39.8538 Y-6.5398 F120.00
G01 X39.7809 Y-6.6202 F120.00
G01 X39.7155 Y-6.7083 F120.00
G01 X39.6597 Y-6.8013 F120.00
G01 X39.6537 Y-6.8138 F120.00
G01 X23.5401 Y-6.8138 F120.00
G01 X22.7141 Y-5.9879 F120.00
G01 X22.6773 Y-5.9545 F120.00
G01 X22.6365 Y-5.9242 F120.00
G01 X22.5929 Y-5.8981 F120.00
G01 X22.5480 Y-5.8768 F120.00
G01 X22.5012 Y-5.8601 F120.00
G01 X22.4516 Y-5.8476 F120.00
G01 X22.4022 Y-5.8403 F120.00
G01 X22.3520 Y-5.8378 F120.00
G01 X15.1981 Y-5.8378 F120.00
G01 X14.3317 Y-4.9715 F120.00
G01 X14.2944 Y-4.9377 F120.00
G01 X14.2545 Y-4.9082 F120.00
G01 X14.2119 Y-4.8826 F120.00
G01 X14.1660 Y-4.8608 F120.00
G01 X14.1187 Y-4.8439 F120.00
G01 X14.0699 Y-4.8317 F120.00
G01 X14.0208 Y-4.8244 F120.00
G01 X13.9700 Y-4.8218 F120.00
G01 X11.9380 Y-4.8218 F120.00
G01 X11.8881 Y-4.8243 F120.00
G01 X11.8381 Y-4.8317 F120.00
G01 X11.7899 Y-4.8437 F120.00
G01 X11.7415 Y-4.8611 F120.00
G01 X11.6966 Y-4.8823 F120.00
G01 X11.6535 Y-4.9082 F120.00
G01 X11.6131 Y-4.9381 F120.00
G01 X11.5761 Y-4.9717 F120.00
G01 X7.5119 Y-9.0359 F120.00
G01 X7.4785 Y-9.0727 F120.00
G01 X7.4479 Y-9.1140 F120.00
G01 X7.4223 Y-9.1566 F120.00
G01 X7.4008 Y-9.2020 F120.00
G01 X7.3837 Y-9.2499 F120.00
G01 X7.3717 Y-9.2981 F120.00
G01 X7.3643 Y-9.3475 F120.00
G01 X7.3618 Y-9.3980 F120.00
G01 X7.3618 Y-9.9357 F120.00
G00 Z2.0000
G00 X9.3140 Y-11.5259
G01 F60.00
G01 Z-0.0900
G01 F120.00
G01 X11.5140 Y-11.5259 F120.00
G01 X11.5172 Y-11.5255 F120.00
G01 X11.5206 Y-11.5239 F120.00
G01 X11.5234 Y-11.5213 F120.00
G01 X11.5252 Y-11.5180 F120.00
G01 X11.5259 Y-11.5143 F120.00
G01 X11.5259 Y-10.9262 F120.00
G01 X11.8421 Y-10.9262 F120.00
G01 X11.8421 Y-11.5143 F120.00
G01 X11.8429 Y-11.5183 F120.00
G01 X11.8448 Y-11.5215 F120.00
G01 X11.8476 Y-11.5241 F120.00
G01 X11.8514 Y-11.5256 F120.00
G01 X11.8540 Y-11.5259 F120.00
G01 X14.0540 Y-11.5259 F120.00
G01 X14.0586 Y-11.5250 F120.00
G01 X14.0624 Y-11.5224 F120.00
G01 X14.0650 Y-11.5186 F120.00
G01 X14.0659 Y-11.5140 F120.00
G01 X14.0659 Y-9.3140 F120.00
G01 X14.0655 Y-9.3108 F120.00
G01 X14.0639 Y-9.3074 F120.00
G01 X14.0613 Y-9.3046 F120.00
G01 X14.0580 Y-9.3028 F120.00
G01 X14.0543 Y-9.3021 F120.00
G01 X13.4662 Y-9.3021 F120.00
G01 X13.4662 Y-8.8203 F120.00
G01 X13.4787 Y-8.8143 F120.00
G01 X13.5717 Y-8.7585 F120.00
G01 X13.6598 Y-8.6931 F120.00
G01 X13.7402 Y-8.6202 F120.00
G01 X13.8131 Y-8.5398 F120.00
G01 X13.8785 Y-8.4517 F120.00
G01 X13.9346 Y-8.3581 F120.00
G01 X13.9815 Y-8.2590 F120.00
G01 X14.0180 Y-8.1568 F120.00
G01 X14.0444 Y-8.0515 F120.00
G01 X14.0605 Y-7.9433 F120.00
G01 X14.0659 Y-7.8340 F120.00
G01 X14.0605 Y-7.7250 F120.00
G01 X14.0445 Y-7.6171 F120.00
G01 X14.0178 Y-7.5107 F120.00
G01 X13.9813 Y-7.4085 F120.00
G01 X13.9349 Y-7.3104 F120.00
G01 X13.8788 Y-7.2168 F120.00
G01 X13.8135 Y-7.1286 F120.00
G01 X13.7402 Y-7.0478 F120.00
G01 X13.6594 Y-6.9745 F120.00
G01 X13.5717 Y-6.9095 F120.00
G01 X13.4781 Y-6.8534 F120.00
G01 X13.3790 Y-6.8065 F120.00
G01 X13.2762 Y-6.7698 F120.00
G01 X13.1709 Y-6.7435 F120.00
G01 X13.0636 Y-6.7275 F120.00
G01 X12.9540 Y-6.7221 F120.00
G01 X12.8450 Y-6.7275 F120.00
G01 X12.7371 Y-6.7435 F120.00
G01 X12.6312 Y-6.7700 F120.00
G01 X12.5285 Y-6.8067 F120.00
G01 X12.4293 Y-6.8537 F120.00
G01 X12.3363 Y-6.9095 F120.00
G01 X12.2491 Y-6.9741 F120.00
G01 X12.1682 Y-7.0474 F120.00
G01 X12.0945 Y-7.1286 F120.00
G01 X12.0295 Y-7.2163 F120.00
G01 X11.9734 Y-7.3099 F120.00
G01 X11.9267 Y-7.4085 F120.00
G01 X11.8900 Y-7.5112 F120.00
G01 X11.8635 Y-7.6171 F120.00
G01 X11.8475 Y-7.7250 F120.00
G01 X11.8421 Y-7.8340 F120.00
G01 X11.8475 Y-7.9430 F120.00
G01 X11.8635 Y-8.0509 F120.00
G01 X11.8900 Y-8.1568 F120.00
G01 X11.9270 Y-8.2600 F120.00
G01 X11.9737 Y-8.3587 F120.00
G01 X12.0295 Y-8.4517 F120.00
G01 X12.0941 Y-8.5389 F120.00
G01 X12.1678 Y-8.6202 F120.00
G01 X12.2486 Y-8.6935 F120.00
G01 X12.3363 Y-8.7585 F120.00
G01 X12.4293 Y-8.8143 F120.00
G01 X12.4418 Y-8.8203 F120.00
G01 X12.4418 Y-9.3021 F120.00
G01 X11.8540 Y-9.3021 F120.00
G01 X11.8494 Y-9.3030 F120.00
G01 X11.8456 Y-9.3056 F120.00
G01 X11.8430 Y-9.3094 F120.00
G01 X11.8421 Y-9.3140 F120.00
G01 X11.8421 Y-9.9018 F120.00
G01 X11.5259 Y-9.9018 F120.00
G01 X11.5259 Y-9.3137 F120.00
G01 X11.5251 Y-9.3097 F120.00
G01 X11.5232 Y-9.3065 F120.00
G01 X11.5204 Y-9.3039 F120.00
G01 X11.5166 Y-9.3024 F120.00
G01 X11.5140 Y-9.3021 F120.00
G01 X9.3140 Y-9.3021 F120.00
G01 X9.3094 Y-9.3030 F120.00
G01 X9.3056 Y-9.3056 F120.00
G01 X9.3030 Y-9.3094 F120.00
G01 X9.3021 Y-9.3140 F120.00
G01 X9.3021 Y-11.5140 F120.00
G01 X9.3030 Y-11.5186 F120.00
G01 X9.3056 Y-11.5224 F120.00
G01 X9.3094 Y-11.5250 F120.00
G01 X9.3140 Y-11.5259 F120.00
G00 Z2.0000
G00 X11.8421 Y-17.2540
G01 F60.00
G01 Z-0.0900
G01 F120.00
G01 X11.8421 Y-19.4540 F120.00
G01 X11.8424 Y-19.4566 F120.00
G01 X11.8432 Y-19.4591 F120.00
G01 X11.8446 Y-19.4613 F120.00
G01 X11.8465 Y-19.4632 F120.00
G01 X11.8500 Y-19.4652 F120.00
G01 X11.8540 Y-19.4659 F120.00
G01 X14.0540 Y-19.4659 F120.00
G01 X14.0566 Y-19.4656 F120.00
G01 X14.0604 Y-19.4641 F120.00
G01 X14.0632 Y-19.4615 F120.00
G01 X14.0652 Y-19.4580 F120.00
G01 X14.0659 Y-19.4543 F120.00
G01 X14.0659 Y-18.8662 F120.00
G01 X14.3821 Y-18.8662 F120.00
G01 X14.3821 Y-19.4540 F120.00
G01 X14.3829 Y-19.4583 F120.00
G01 X14.3854 Y-19.4622 F120.00
G01 X14.3892 Y-19.4649 F120.00
G01 X14.3914 Y-19.4656 F120.00
G01 X14.3940 Y-19.4659 F120.00
G01 X14.9818 Y-19.4659 F120.00
G01 X14.9819 Y-19.5143 F120.00
G01 X14.9843 Y-19.5639 F120.00
G01 X14.9916 Y-19.6133 F120.00
G01 X15.0039 Y-19.6627 F120.00
G01 X15.0206 Y-19.7094 F120.00
G01 X15.0423 Y-19.7554 F120.00
G01 X15.0682 Y-19.7985 F120.00
G01 X15.0981 Y-19.8389 F120.00
G01 X15.1317 Y-19.8759 F120.00
G01 X18.7743 Y-23.5186 F120.00
G01 X18.7581 Y-23.5637 F120.00
G01 X18.7318 Y-23.6690 F120.00
G01 X18.7157 Y-23.7775 F120.00
G01 X18.7103 Y-23.8862 F120.00
G01 X18.7156 Y-23.9946 F120.00
G01 X18.7318 Y-24.1034 F120.00
G01 X18.7582 Y-24.2090 F120.00
G01 X18.7948 Y-24.3112 F120.00
G01 X18.8416 Y-24.4104 F120.00
G01 X18.8977 Y-24.5040 F120.00
G01 X18.9624 Y-24.5912 F120.00
G01 X19.0364 Y-24.6729 F120.00
G01 X19.1169 Y-24.7457 F120.00
G01 X19.2045 Y-24.8107 F120.00
G01 X19.2981 Y-24.8668 F120.00
G01 X19.3973 Y-24.9137 F120.00
G01 X19.5000 Y-24.9504 F120.00
G01 X19.6053 Y-24.9768 F120.00
G01 X19.7127 Y-24.9927 F120.00
G01 X19.8222 Y-24.9981 F120.00
G01 X19.9306 Y-24.9928 F120.00
G01 X20.0392 Y-24.9768 F120.00
G01 X20.1450 Y-24.9503 F120.00
G01 X20.2477 Y-24.9135 F120.00
G01 X20.3464 Y-24.8668 F120.00
G01 X20.4400 Y-24.8107 F120.00
G01 X20.5276 Y-24.7457 F120.00
G01 X20.6085 Y-24.6725 F120.00
G01 X20.6817 Y-24.5916 F120.00
G01 X20.7467 Y-24.5040 F120.00
G01 X20.8026 Y-24.4109 F120.00
G01 X20.8497 Y-24.3112 F120.00
G01 X20.8863 Y-24.2090 F120.00
G01 X20.9128 Y-24.1032 F120.00
G01 X20.9288 Y-23.9952 F120.00
G01 X20.9341 Y-23.8862 F120.00
G01 X20.9288 Y-23.7772 F120.00
G01 X20.9128 Y-23.6693 F120.00
G01 X20.8863 Y-23.5635 F120.00
G01 X20.8497 Y-23.4613 F120.00
G01 X20.8026 Y-23.3616 F120.00
G01 X20.7467 Y-23.2685 F120.00
G01 X20.6816 Y-23.1806 F120.00
G01 X20.6085 Y-23.1000 F120.00
G01 X20.5281 Y-23.0271 F120.00
G01 X20.4400 Y-22.9617 F120.00
G01 X20.3464 Y-22.9056 F120.00
G01 X20.2483 Y-22.8592 F120.00
G01 X20.1450 Y-22.8222 F120.00
G01 X20.0392 Y-22.7957 F120.00
G01 X19.9318 Y-22.7798 F120.00
G01 X19.8222 Y-22.7743 F120.00
G01 X19.7127 Y-22.7798 F120.00
G01 X19.6053 Y-22.7957 F120.00
G01 X19.5211 Y-22.8168 F120.00
G01 X16.1702 Y-19.4659 F120.00
G01 X16.5943 Y-19.4659 F120.00
G01 X16.5980 Y-19.4652 F120.00
G01 X16.6015 Y-19.4632 F120.00
G01 X16.6042 Y-19.4601 F120.00
G01 X16.6057 Y-19.4563 F120.00
G01 X16.6059 Y-17.2540 F120.00
G01 X16.6056 Y-17.2514 F120.00
G01 X16.6048 Y-17.2489 F120.00
G01 X16.6034 Y-17.2467 F120.00
G01 X16.6015 Y-17.2448 F120.00
G01 X16.5980 Y-17.2428 F120.00
G01 X16.5940 Y-17.2421 F120.00
G01 X14.3940 Y-17.2421 F120.00
G01 X14.3908 Y-17.2425 F120.00
G01 X14.3874 Y-17.2441 F120.00
G01 X14.3846 Y-17.2467 F120.00
G01 X14.3828 Y-17.2500 F120.00
G01 X14.3821 Y-17.2537 F120.00
G01 X14.3821 Y-17.8418 F120.00
G01 X14.0659 Y-17.8418 F120.00
G01 X14.0659 Y-17.2537 F120.00
G01 X14.0652 Y-17.2500 F120.00
G01 X14.0632 Y-17.2465 F120.00
G01 X14.0601 Y-17.2438 F120.00
G01 X14.0566 Y-17.2424 F120.00
G01 X14.0540 Y-17.2421 F120.00
G01 X11.8540 Y-17.2421 F120.00
G01 X11.8494 Y-17.2430 F120.00
G01 X11.8456 Y-17.2456 F120.00
G01 X11.8430 Y-17.2494 F120.00
G01 X11.8421 Y-17.2540 F120.00
G00 Z2.0000
G00 X6.3203 Y-19.0542
G01 F60.00
G01 Z-0.0900
G01 F120.00
G01 X7.0106 Y-19.0542 F120.00
G01 X7.0149 Y-19.0598 F120.00
G01 X7.0878 Y-19.1402 F120.00
G01 X7.1686 Y-19.2135 F120.00
G01 X7.2563 Y-19.2785 F120.00
G01 X7.3493 Y-19.3343 F120.00
G01 X7.3618 Y-19.3403 F120.00
G01 X7.3618 Y-20.2775 F120.00
G01 X7.3416 Y-20.2960 F120.00
G01 X7.2683 Y-20.3768 F120.00
G01 X7.2035 Y-20.4643 F120.00
G01 X7.1473 Y-20.5581 F120.00
G01 X7.1007 Y-20.6565 F120.00
G01 X7.0640 Y-20.7592 F120.00
G01 X7.0375 Y-20.8651 F120.00
G01 X7.0214 Y-20.9733 F120.00
G01 X7.0161 Y-21.0820 F120.00
G01 X7.0215 Y-21.1910 F120.00
G01 X7.0375 Y-21.2989 F120.00
G01 X7.0638 Y-21.4042 F120.00
G01 X7.1010 Y-21.5080 F120.00
G01 X7.1474 Y-21.6061 F120.00
G01 X7.2037 Y-21.7000 F120.00
G01 X7.2685 Y-21.7874 F120.00
G01 X7.3414 Y-21.8678 F120.00
G01 X7.4231 Y-21.9419 F120.00
G01 X7.5103 Y-22.0065 F120.00
G01 X7.6039 Y-22.0626 F120.00
G01 X7.7025 Y-22.1093 F120.00
G01 X7.8047 Y-22.1458 F120.00
G01 X7.9117 Y-22.1726 F120.00
G01 X8.0190 Y-22.1885 F120.00
G01 X8.1280 Y-22.1939 F120.00
G01 X8.2370 Y-22.1885 F120.00
G01 X8.3443 Y-22.1726 F120.00
G01 X8.4513 Y-22.1458 F120.00
G01 X8.5535 Y-22.1093 F120.00
G01 X8.6521 Y-22.0626 F120.00
G01 X8.7457 Y-22.0065 F120.00
G01 X8.8329 Y-21.9419 F120.00
G01 X8.9146 Y-21.8678 F120.00
G01 X8.9875 Y-21.7874 F120.00
G01 X9.0522 Y-21.7002 F120.00
G01 X9.1089 Y-21.6056 F120.00
G01 X9.1553 Y-21.5075 F120.00
G01 X9.1920 Y-21.4048 F120.00
G01 X9.2185 Y-21.2989 F120.00
G01 X9.2345 Y-21.1916 F120.00
G01 X9.2399 Y-21.0817 F120.00
G01 X9.2345 Y-20.9730 F120.00
G01 X9.2185 Y-20.8651 F120.00
G01 X9.1920 Y-20.7592 F120.00
G01 X9.1555 Y-20.6570 F120.00
G01 X9.1083 Y-20.5573 F120.00
G01 X9.0525 Y-20.4643 F120.00
G01 X8.9877 Y-20.3768 F120.00
G01 X8.9142 Y-20.2958 F120.00
G01 X8.8338 Y-20.2229 F120.00
G01 X8.7455 Y-20.1573 F120.00
G01 X8.6521 Y-20.1014 F120.00
G01 X8.5538 Y-20.0549 F120.00
G01 X8.4508 Y-20.0180 F120.00
G01 X8.3862 Y-20.0018 F120.00
G01 X8.3862 Y-19.3403 F120.00
G01 X8.3987 Y-19.3343 F120.00
G01 X8.4922 Y-19.2782 F120.00
G01 X8.5794 Y-19.2135 F120.00
G01 X8.6602 Y-19.1402 F120.00
G01 X8.7335 Y-19.0594 F120.00
G01 X8.7982 Y-18.9722 F120.00
G01 X8.8543 Y-18.8787 F120.00
G01 X8.8603 Y-18.8662 F120.00
G01 X9.3021 Y-18.8662 F120.00
G01 X9.3021 Y-19.4543 F120.00
G01 X9.3028 Y-19.4580 F120.00
G01 X9.3046 Y-19.4613 F120.00
G01 X9.3074 Y-19.4639 F120.00
G01 X9.3108 Y-19.4655 F120.00
G01 X9.3140 Y-19.4659 F120.00
G01 X11.5140 Y-19.4659 F120.00
G01 X11.5175 Y-19.4654 F120.00
G01 X11.5206 Y-19.4639 F120.00
G01 X11.5228 Y-19.4620 F120.00
G01 X11.5245 Y-19.4596 F120.00
G01 X11.5255 Y-19.4569 F120.00
G01 X11.5259 Y-19.4540 F120.00
G01 X11.5259 Y-17.2540 F120.00
G01 X11.5252 Y-17.2500 F120.00
G01 X11.5236 Y-17.2469 F120.00
G01 X11.5209 Y-17.2443 F120.00
G01 X11.5175 Y-17.2426 F120.00
G01 X11.5140 Y-17.2421 F120.00
G01 X9.3140 Y-17.2421 F120.00
G01 X9.3108 Y-17.2425 F120.00
G01 X9.3074 Y-17.2441 F120.00
G01 X9.3046 Y-17.2467 F120.00
G01 X9.3028 Y-17.2500 F120.00
G01 X9.3021 Y-17.2537 F120.00
G01 X9.3021 Y-17.8418 F120.00
G01 X8.8603 Y-17.8418 F120.00
G01 X8.8543 Y-17.8293 F120.00
G01 X8.7985 Y-17.7363 F120.00
G01 X8.7335 Y-17.6486 F120.00
G01 X8.6602 Y-17.5678 F120.00
G01 X8.5794 Y-17.4945 F120.00
G01 X8.4917 Y-17.4295 F120.00
G01 X8.3981 Y-17.3734 F120.00
G01 X8.2995 Y-17.3267 F120.00
G01 X8.1973 Y-17.2902 F120.00
G01 X8.0909 Y-17.2635 F120.00
G01 X7.9824 Y-17.2474 F120.00
G01 X7.8740 Y-17.2421 F120.00
G01 X7.7656 Y-17.2474 F120.00
G01 X7.6574 Y-17.2634 F120.00
G01 X7.5507 Y-17.2902 F120.00
G01 X7.4485 Y-17.3267 F120.00
G01 X7.3504 Y-17.3731 F120.00
G01 X7.2563 Y-17.4295 F120.00
G01 X7.1682 Y-17.4949 F120.00
G01 X7.0878 Y-17.5678 F120.00
G01 X7.0149 Y-17.6482 F120.00
G01 X6.9495 Y-17.7363 F120.00
G01 X6.8931 Y-17.8304 F120.00
G01 X6.8467 Y-17.9285 F120.00
G01 X6.8105 Y-18.0298 F120.00
G01 X6.3203 Y-18.0298 F120.00
G01 X6.3143 Y-18.0173 F120.00
G01 X6.2582 Y-17.9238 F120.00
G01 X6.1935 Y-17.8366 F120.00
G01 X6.1202 Y-17.7558 F120.00
G01 X6.0389 Y-17.6821 F120.00
G01 X5.9517 Y-17.6175 F120.00
G01 X5.8581 Y-17.5614 F120.00
G01 X5.7590 Y-17.5145 F120.00
G01 X5.6568 Y-17.4780 F120.00
G01 X5.5509 Y-17.4515 F120.00
G01 X5.4430 Y-17.4355 F120.00
G01 X5.3346 Y-17.4301 F120.00
G01 X5.2250 Y-17.4355 F120.00
G01 X5.1165 Y-17.4516 F120.00
G01 X5.0112 Y-17.4780 F120.00
G01 X4.9090 Y-17.5145 F120.00
G01 X4.8099 Y-17.5614 F120.00
G01 X4.7163 Y-17.6175 F120.00
G01 X4.6282 Y-17.6829 F120.00
G01 X4.5478 Y-17.7558 F120.00
G01 X4.4749 Y-17.8362 F120.00
G01 X4.4095 Y-17.9243 F120.00
G01 X4.3534 Y-18.0179 F120.00
G01 X4.3067 Y-18.1165 F120.00
G01 X4.2700 Y-18.2192 F120.00
G01 X4.2435 Y-18.3251 F120.00
G01 X4.2275 Y-18.4330 F120.00
G01 X4.2221 Y-18.5420 F120.00
G01 X4.2275 Y-18.6510 F120.00
G01 X4.2435 Y-18.7589 F120.00
G01 X4.2700 Y-18.8648 F120.00
G01 X4.3067 Y-18.9675 F120.00
G01 X4.3534 Y-19.0661 F120.00
G01 X4.4095 Y-19.1597 F120.00
G01 X4.4745 Y-19.2474 F120.00
G01 X4.5478 Y-19.3282 F120.00
G01 X4.6286 Y-19.4015 F120.00
G01 X4.7163 Y-19.4665 F120.00
G01 X4.8099 Y-19.5226 F120.00
G01 X4.9085 Y-19.5693 F120.00
G01 X5.0112 Y-19.6060 F120.00
G01 X5.1171 Y-19.6325 F120.00
G01 X5.2250 Y-19.6485 F120.00
G01 X5.3340 Y-19.6539 F120.00
G01 X5.4430 Y-19.6485 F120.00
G01 X5.5509 Y-19.6325 F120.00
G01 X5.6568 Y-19.6060 F120.00
G01 X5.7595 Y-19.5693 F120.00
G01 X5.8581 Y-19.5226 F120.00
G01 X5.9517 Y-19.4665 F120.00
G01 X6.0394 Y-19.4015 F120.00
G01 X6.1202 Y-19.3282 F120.00
G01 X6.1935 Y-19.2474 F120.00
G01 X6.2585 Y-19.1597 F120.00
G01 X6.3143 Y-19.0667 F120.00
G01 X6.3203 Y-19.0542 F120.00
G00 Z2.0000
G00 X5.5575 Y-22.4531
G01 F60.00
G01 Z-0.0900
G01 F120.00
G01 X5.9376 Y-22.0731 F120.00
G01 X5.8263 Y-22.0270 F120.00
G01 X5.5832 Y-21.9686 F120.00
G01 X5.3340 Y-21.9490 F120.00
G01 X5.0848 Y-21.9686 F120.00
G01 X4.8417 Y-22.0270 F120.00
G01 X4.7304 Y-22.0731 F120.00
G01 X5.1105 Y-22.4531 F120.00
G01 X5.1177 Y-22.4514 F120.00
G01 X5.2250 Y-22.4355 F120.00
G01 X5.3340 Y-22.4301 F120.00
G01 X5.4430 Y-22.4355 F120.00
G01 X5.5503 Y-22.4514 F120.00
G01 X5.5575 Y-22.4531 F120.00
G00 Z2.0000
G00 X6.4229 Y-23.7655
G01 F60.00
G01 Z-0.0900
G01 F120.00
G01 X6.8029 Y-24.1456 F120.00
G01 X6.8490 Y-24.0343 F120.00
G01 X6.9074 Y-23.7912 F120.00
G01 X6.9270 Y-23.5420 F120.00
G01 X6.9074 Y-23.2928 F120.00
G01 X6.8490 Y-23.0497 F120.00
G01 X6.8029 Y-22.9384 F120.00
G01 X6.4229 Y-23.3185 F120.00
G01 X6.4246 Y-23.3257 F120.00
G01 X6.4405 Y-23.4330 F120.00
G01 X6.4459 Y-23.5420 F120.00
G01 X6.4405 Y-23.6510 F120.00
G01 X6.4246 Y-23.7583 F120.00
G01 X6.4229 Y-23.7655 F120.00
G00 Z2.0000
G00 X5.1105 Y-24.6309
G01 F60.00
G01 Z-0.0900
G01 F120.00
G01 X4.7304 Y-25.0109 F120.00
G01 X4.8417 Y-25.0570 F120.00
G01 X5.0848 Y-25.1154 F120.00
G01 X5.3340 Y-25.1350 F120.00
G01 X5.5832 Y-25.1154 F120.00
G01 X5.8263 Y-25.0570 F120.00
G01 X5.9376 Y-25.0109 F120.00
G01 X5.5575 Y-24.6309 F120.00
G01 X5.5503 Y-24.6326 F120.00
G01 X5.4430 Y-24.6485 F120.00
G01 X5.3340 Y-24.6539 F120.00
G01 X5.2250 Y-24.6485 F120.00
G01 X5.1177 Y-24.6326 F120.00
G01 X5.1105 Y-24.6309 F120.00
G00 Z2.0000
G00 X3.7410 Y-23.5420
G01 F60.00
G01 Z-0.0900
G01 F120.00
G01 X3.7606 Y-23.7912 F120.00
G01 X3.8190 Y-24.0343 F120.00
G01 X3.8651 Y-24.1456 F120.00
G01 X4.2451 Y-23.7655 F120.00
G01 X4.2434 Y-23.7583 F120.00
G01 X4.2275 Y-23.6510 F120.00
G01 X4.2221 Y-23.5420 F120.00
G01 X4.2275 Y-23.4330 F120.00
G01 X4.2434 Y-23.3257 F120.00
G01 X4.2451 Y-23.3185 F120.00
G01 X3.8651 Y-22.9384 F120.00
G01 X3.8190 Y-23.0497 F120.00
G01 X3.7606 Y-23.2928 F120.00
G01 X3.7410 Y-23.5420 F120.00
G00 Z2.0000
G00 X6.5350 Y-26.0820
G01 F60.00
G01 Z-0.0900
G01 F120.00
G01 X6.5546 Y-26.3312 F120.00
G01 X6.6130 Y-26.5743 F120.00
G01 X6.6591 Y-26.6856 F120.00
G01 X7.0391 Y-26.3055 F120.00
G01 X7.0374 Y-26.2983 F120.00
G01 X7.0215 Y-26.1910 F120.00
G01 X7.0161 Y-26.0820 F120.00
G01 X7.0215 Y-25.9730 F120.00
G01 X7.0374 Y-25.8657 F120.00
G01 X7.0391 Y-25.8585 F120.00
G01 X6.6591 Y-25.4784 F120.00
G01 X6.6130 Y-25.5897 F120.00
G01 X6.5546 Y-25.8328 F120.00
G01 X6.5350 Y-26.0820 F120.00
G00 Z2.0000
G00 X7.9045 Y-27.1709
G01 F60.00
G01 Z-0.0900
G01 F120.00
G01 X7.5244 Y-27.5509 F120.00
G01 X7.6357 Y-27.5970 F120.00
G01 X7.8788 Y-27.6554 F120.00
G01 X8.1280 Y-27.6750 F120.00
G01 X8.3772 Y-27.6554 F120.00
G01 X8.6203 Y-27.5970 F120.00
G01 X8.7316 Y-27.5509 F120.00
G01 X8.3515 Y-27.1709 F120.00
G01 X8.3443 Y-27.1726 F120.00
G01 X8.2370 Y-27.1885 F120.00
G01 X8.1280 Y-27.1939 F120.00
G01 X8.0190 Y-27.1885 F120.00
G01 X7.9117 Y-27.1726 F120.00
G01 X7.9045 Y-27.1709 F120.00
G00 Z2.0000
G00 X9.2169 Y-26.3055
G01 F60.00
G01 Z-0.0900
G01 F120.00
G01 X9.5969 Y-26.6856 F120.00
G01 X9.6430 Y-26.5743 F120.00
G01 X9.7014 Y-26.3312 F120.00
G01 X9.7210 Y-26.0820 F120.00
G01 X9.7014 Y-25.8328 F120.00
G01 X9.6430 Y-25.5897 F120.00
G01 X9.5969 Y-25.4784 F120.00
G01 X9.2169 Y-25.8585 F120.00
G01 X9.2186 Y-25.8657 F120.00
G01 X9.2345 Y-25.9730 F120.00
G01 X9.2399 Y-26.0820 F120.00
G01 X9.2345 Y-26.1910 F120.00
G01 X9.2186 Y-26.2983 F120.00
G01 X9.2169 Y-26.3055 F120.00
G00 Z2.0000
G00 X8.3515 Y-24.9931
G01 F60.00
G01 Z-0.0900
G01 F120.00
G01 X8.7316 Y-24.6131 F120.00
G01 X8.6203 Y-24.5670 F120.00
G01 X8.3772 Y-24.5086 F120.00
G01 X8.1280 Y-24.4890 F120.00
G01 X7.8788 Y-24.5086 F120.00
G01 X7.6357 Y-24.5670 F120.00
G01 X7.5244 Y-24.6131 F120.00
G01 X7.9045 Y-24.9931 F120.00
G01 X7.9117 Y-24.9914 F120.00
G01 X8.0190 Y-24.9755 F120.00
G01 X8.1280 Y-24.9701 F120.00
G01 X8.2370 Y-24.9755 F120.00
G01 X8.3443 Y-24.9914 F120.00
G01 X8.3515 Y-24.9931 F120.00
G00 Z2.0000
G00 X2.5004 Y-16.6612
G01 F60.00
G01 Z-0.0900
G01 F120.00
G01 X2.5066 Y-16.7187 F120.00
G01 X2.5558 Y-16.8506 F120.00
G01 X2.6400 Y-16.9630 F120.00
G01 X2.7524 Y-17.0472 F120.00
G01 X2.8843 Y-17.0964 F120.00
G01 X2.9418 Y-17.1026 F120.00
G01 X4.2054 Y-17.1026 F120.00
G01 X4.2082 Y-17.1031 F120.00
G01 X4.2753 Y-17.1228 F120.00
G01 X4.2782 Y-17.1241 F120.00
G01 X4.2809 Y-17.1264 F120.00
G01 X4.3279 Y-17.1809 F120.00
G01 X4.3294 Y-17.1853 F120.00
G01 X4.3394 Y-17.2545 F120.00
G01 X4.3394 Y-17.2577 F120.00
G01 X4.3384 Y-17.2611 F120.00
G01 X4.3086 Y-17.3261 F120.00
G01 X4.2934 Y-17.3416 F120.00
G01 X4.2072 Y-17.4152 F120.00
G01 X4.0448 Y-17.6054 F120.00
G01 X3.9142 Y-17.8186 F120.00
G01 X3.8185 Y-18.0496 F120.00
G01 X3.7601 Y-18.2927 F120.00
G01 X3.7405 Y-18.5420 F120.00
G01 X3.7601 Y-18.7913 F120.00
G01 X3.8185 Y-19.0344 F120.00
G01 X3.9142 Y-19.2654 F120.00
G01 X4.0448 Y-19.4786 F120.00
G01 X4.2072 Y-19.6688 F120.00
G01 X4.3974 Y-19.8312 F120.00
G01 X4.6106 Y-19.9618 F120.00
G01 X4.8416 Y-20.0575 F120.00
G01 X5.0847 Y-20.1159 F120.00
G01 X5.3340 Y-20.1355 F120.00
G01 X5.5833 Y-20.1159 F120.00
G01 X5.8264 Y-20.0575 F120.00
G01 X6.0574 Y-19.9618 F120.00
G01 X6.2706 Y-19.8312 F120.00
G01 X6.4608 Y-19.6688 F120.00
G01 X6.5393 Y-19.5770 F120.00
G01 X6.6012 Y-19.5368 F120.00
G01 X6.6039 Y-19.5360 F120.00
G01 X6.6409 Y-19.5306 F120.00
G01 X6.7495 Y-19.5306 F120.00
G01 X6.7526 Y-19.5310 F120.00
G01 X6.8199 Y-19.5508 F120.00
G01 X6.8231 Y-19.5523 F120.00
G01 X6.8255 Y-19.5544 F120.00
G01 X6.8715 Y-19.6074 F120.00
G01 X6.8729 Y-19.6097 F120.00
G01 X6.8739 Y-19.6122 F120.00
G01 X6.8854 Y-19.6662 F120.00
G01 X6.8852 Y-20.0429 F120.00
G01 X6.8652 Y-20.1111 F120.00
G01 X6.8642 Y-20.1136 F120.00
G01 X6.8530 Y-20.1287 F120.00
G01 X6.8388 Y-20.1454 F120.00
G01 X6.7082 Y-20.3586 F120.00
G01 X6.6125 Y-20.5896 F120.00
G01 X6.5541 Y-20.8327 F120.00
G01 X6.5345 Y-21.0820 F120.00
G01 X6.5541 Y-21.3313 F120.00
G01 X6.6125 Y-21.5744 F120.00
G01 X6.7082 Y-21.8054 F120.00
G01 X6.8388 Y-22.0186 F120.00
G01 X7.0012 Y-22.2088 F120.00
G01 X7.1914 Y-22.3712 F120.00
G01 X7.4046 Y-22.5018 F120.00
G01 X7.6356 Y-22.5975 F120.00
G01 X7.8787 Y-22.6559 F120.00
G01 X8.1280 Y-22.6755 F120.00
G01 X8.3773 Y-22.6559 F120.00
G01 X8.6204 Y-22.5975 F120.00
G01 X8.8514 Y-22.5018 F120.00
G01 X9.0646 Y-22.3712 F120.00
G01 X9.2548 Y-22.2088 F120.00
G01 X9.4172 Y-22.0186 F120.00
G01 X9.5478 Y-21.8054 F120.00
G01 X9.6435 Y-21.5744 F120.00
G01 X9.7019 Y-21.3313 F120.00
G01 X9.7215 Y-21.0820 F120.00
G01 X9.7019 Y-20.8327 F120.00
G01 X9.6435 Y-20.5896 F120.00
G01 X9.5478 Y-20.3586 F120.00
G01 X9.4193 Y-20.1488 F120.00
G01 X9.4184 Y-20.1464 F120.00
G01 X9.4000 Y-20.0784 F120.00
G01 X9.3997 Y-20.0754 F120.00
G01 X9.4002 Y-20.0725 F120.00
G01 X9.4214 Y-20.0056 F120.00
G01 X9.4228 Y-20.0027 F120.00
G01 X9.4251 Y-20.0001 F120.00
G01 X9.4789 Y-19.9555 F120.00
G01 X9.4824 Y-19.9534 F120.00
G01 X9.5356 Y-19.9426 F120.00
G01 X11.5612 Y-19.9426 F120.00
G01 X11.6187 Y-19.9364 F120.00
G01 X11.6368 Y-19.9297 F120.00
G01 X11.6392 Y-19.9291 F120.00
G01 X11.7104 Y-19.9241 F120.00
G01 X11.7134 Y-19.9245 F120.00
G01 X11.7310 Y-19.9296 F120.00
G01 X11.7493 Y-19.9364 F120.00
G01 X11.8068 Y-19.9426 F120.00
G01 X14.1012 Y-19.9426 F120.00
G01 X14.1587 Y-19.9364 F120.00
G01 X14.1768 Y-19.9297 F120.00
G01 X14.1792 Y-19.9291 F120.00
G01 X14.2504 Y-19.9241 F120.00
G01 X14.2534 Y-19.9245 F120.00
G01 X14.2710 Y-19.9296 F120.00
G01 X14.2893 Y-19.9364 F120.00
G01 X14.3468 Y-19.9426 F120.00
G01 X14.5193 Y-19.9426 F120.00
G01 X14.5221 Y-19.9429 F120.00
G01 X14.5919 Y-19.9636 F120.00
G01 X14.5947 Y-19.9657 F120.00
G01 X14.6312 Y-20.0018 F120.00
G01 X14.6450 Y-20.0223 F120.00
G01 X14.6503 Y-20.0310 F120.00
G01 X14.6784 Y-20.0817 F120.00
G01 X14.6979 Y-20.1044 F120.00
G01 X14.7077 Y-20.1174 F120.00
G01 X14.7239 Y-20.1420 F120.00
G01 X14.7647 Y-20.1828 F120.00
G01 X14.7714 Y-20.1900 F120.00
G01 X14.8094 Y-20.2342 F120.00
G01 X14.8327 Y-20.2523 F120.00
G01 X14.8454 Y-20.2635 F120.00
G01 X18.2026 Y-23.6208 F120.00
G01 X18.2374 Y-23.6840 F120.00
G01 X18.2387 Y-23.6881 F120.00
G01 X18.2413 Y-23.7264 F120.00
G01 X18.2287 Y-23.8862 F120.00
G01 X18.2483 Y-24.1355 F120.00
G01 X18.3067 Y-24.3787 F120.00
G01 X18.4024 Y-24.6097 F120.00
G01 X18.5330 Y-24.8229 F120.00
G01 X18.6954 Y-25.0130 F120.00
G01 X18.8856 Y-25.1754 F120.00
G01 X19.0988 Y-25.3061 F120.00
G01 X19.3298 Y-25.4018 F120.00
G01 X19.5730 Y-25.4601 F120.00
G01 X19.8222 Y-25.4797 F120.00
G01 X20.0715 Y-25.4601 F120.00
G01 X20.3147 Y-25.4018 F120.00
G01 X20.5457 Y-25.3061 F120.00
G01 X20.7589 Y-25.1754 F120.00
G01 X20.9490 Y-25.0130 F120.00
G01 X21.1114 Y-24.8229 F120.00
G01 X21.2421 Y-24.6097 F120.00
G01 X21.3378 Y-24.3787 F120.00
G01 X21.3961 Y-24.1355 F120.00
G01 X21.4157 Y-23.8862 F120.00
G01 X21.3961 Y-23.6370 F120.00
G01 X21.3378 Y-23.3938 F120.00
G01 X21.2421 Y-23.1628 F120.00
G01 X21.1114 Y-22.9496 F120.00
G01 X20.9490 Y-22.7594 F120.00
G01 X20.7589 Y-22.5971 F120.00
G01 X20.5457 Y-22.4664 F120.00
G01 X20.3147 Y-22.3707 F120.00
G01 X20.0715 Y-22.3123 F120.00
G01 X19.8222 Y-22.2927 F120.00
G01 X19.7421 Y-22.2988 F120.00
G01 X19.6709 Y-22.2838 F120.00
G01 X19.6679 Y-22.2822 F120.00
G01 X19.6384 Y-22.2602 F120.00
G01 X17.5527 Y-20.1746 F120.00
G01 X17.5507 Y-20.1719 F120.00
G01 X17.5172 Y-20.1106 F120.00
G01 X17.5162 Y-20.1081 F120.00
G01 X17.5157 Y-20.1052 F120.00
G01 X17.5207 Y-20.0343 F120.00
G01 X17.5214 Y-20.0311 F120.00
G01 X17.5231 Y-20.0280 F120.00
G01 X17.5649 Y-19.9721 F120.00
G01 X17.5672 Y-19.9698 F120.00
G01 X17.5700 Y-19.9682 F120.00
G01 X17.6358 Y-19.9437 F120.00
G01 X17.6386 Y-19.9430 F120.00
G01 X17.6488 Y-19.9426 F120.00
G01 X19.1812 Y-19.9426 F120.00
G01 X19.2387 Y-19.9364 F120.00
G01 X19.3706 Y-19.8872 F120.00
G01 X19.4830 Y-19.8030 F120.00
G01 X19.5672 Y-19.6906 F120.00
G01 X19.6164 Y-19.5587 F120.00
G01 X19.6226 Y-19.5012 F120.00
G01 X19.6227 Y-19.4049 F120.00
G01 X19.6428 Y-19.3359 F120.00
G01 X19.6439 Y-19.3333 F120.00
G01 X19.6624 Y-19.3102 F120.00
G01 X19.9931 Y-18.9795 F120.00
G01 X19.9914 Y-18.9723 F120.00
G01 X19.9755 Y-18.8650 F120.00
G01 X19.9701 Y-18.7560 F120.00
G01 X19.9755 Y-18.6470 F120.00
G01 X19.9914 Y-18.5397 F120.00
G01 X19.9931 Y-18.5325 F120.00
G01 X19.6620 Y-18.2014 F120.00
G01 X19.6604 Y-18.1991 F120.00
G01 X19.6269 Y-18.1377 F120.00
G01 X19.6256 Y-18.1342 F120.00
G01 X19.6226 Y-18.1057 F120.00
G01 X19.6226 Y-17.2068 F120.00
G01 X19.6155 Y-17.1396 F120.00
G01 X19.6281 Y-17.0686 F120.00
G01 X19.6289 Y-17.0661 F120.00
G01 X19.6303 Y-17.0638 F120.00
G01 X19.6787 Y-17.0117 F120.00
G01 X19.6811 Y-17.0098 F120.00
G01 X19.6842 Y-17.0084 F120.00
G01 X19.7475 Y-16.9910 F120.00
G01 X19.7501 Y-16.9906 F120.00
G01 X20.5112 Y-16.9906 F120.00
G01 X20.5143 Y-16.9911 F120.00
G01 X20.5819 Y-17.0109 F120.00
G01 X20.5845 Y-17.0123 F120.00
G01 X20.5868 Y-17.0142 F120.00
G01 X20.6327 Y-17.0672 F120.00
G01 X20.6345 Y-17.0699 F120.00
G01 X20.6355 Y-17.0733 F120.00
G01 X20.6454 Y-17.1425 F120.00
G01 X20.6455 Y-17.1454 F120.00
G01 X20.6448 Y-17.1483 F120.00
G01 X20.6153 Y-17.2129 F120.00
G01 X20.6141 Y-17.2149 F120.00
G01 X20.6123 Y-17.2168 F120.00
G01 X20.5640 Y-17.2515 F120.00
G01 X20.4784 Y-17.2871 F120.00
G01 X20.8585 Y-17.6671 F120.00
G01 X20.8657 Y-17.6654 F120.00
G01 X20.9730 Y-17.6495 F120.00
G01 X21.0820 Y-17.6441 F120.00
G01 X21.1910 Y-17.6495 F120.00
G01 X21.2983 Y-17.6654 F120.00
G01 X21.3055 Y-17.6671 F120.00
G01 X21.6856 Y-17.2871 F120.00
G01 X21.5998 Y-17.2514 F120.00
G01 X21.5431 Y-17.2059 F120.00
G01 X21.5412 Y-17.2036 F120.00
G01 X21.5400 Y-17.2013 F120.00
G01 X21.5173 Y-17.1324 F120.00
G01 X21.5176 Y-17.1280 F120.00
G01 X21.5349 Y-17.0603 F120.00
G01 X21.5360 Y-17.0575 F120.00
G01 X21.5377 Y-17.0551 F120.00
G01 X21.5895 Y-17.0069 F120.00
G01 X21.5918 Y-17.0052 F120.00
G01 X21.5948 Y-17.0040 F120.00
G01 X21.6515 Y-16.9907 F120.00
G01 X23.2086 Y-16.9906 F120.00
G01 X23.2117 Y-16.9911 F120.00
G01 X23.2790 Y-17.0109 F120.00
G01 X23.2820 Y-17.0123 F120.00
G01 X23.2842 Y-17.0142 F120.00
G01 X23.3301 Y-17.0672 F120.00
G01 X23.3319 Y-17.0699 F120.00
G01 X23.3329 Y-17.0733 F120.00
G01 X23.3430 Y-17.1445 F120.00
G01 X23.3419 Y-17.1491 F120.00
G01 X23.3117 Y-17.2147 F120.00
G01 X23.3090 Y-17.2174 F120.00
G01 X23.2705 Y-17.2451 F120.00
G01 X23.6525 Y-17.6271 F120.00
G01 X23.6597 Y-17.6254 F120.00
G01 X23.7670 Y-17.6095 F120.00
G01 X23.8760 Y-17.6041 F120.00
G01 X23.9850 Y-17.6095 F120.00
G01 X24.0923 Y-17.6254 F120.00
G01 X24.0995 Y-17.6271 F120.00
G01 X24.4818 Y-17.2448 F120.00
G01 X24.4343 Y-17.2065 F120.00
G01 X24.4318 Y-17.2036 F120.00
G01 X24.4305 Y-17.2010 F120.00
G01 X24.4084 Y-17.1347 F120.00
G01 X24.4078 Y-17.1306 F120.00
G01 X24.4082 Y-17.1280 F120.00
G01 X24.4255 Y-17.0603 F120.00
G01 X24.4268 Y-17.0570 F120.00
G01 X24.4289 Y-17.0545 F120.00
G01 X24.4802 Y-17.0067 F120.00
G01 X24.4827 Y-17.0051 F120.00
G01 X24.4854 Y-17.0040 F120.00
G01 X24.5409 Y-16.9909 F120.00
G01 X24.5436 Y-16.9906 F120.00
G01 X26.1323 Y-16.9906 F120.00
G01 X26.1356 Y-16.9911 F120.00
G01 X26.2026 Y-17.0108 F120.00
G01 X26.2053 Y-17.0119 F120.00
G01 X26.2083 Y-17.0144 F120.00
G01 X26.2540 Y-17.0672 F120.00
G01 X26.2556 Y-17.0696 F120.00
G01 X26.2567 Y-17.0728 F120.00
G01 X26.2662 Y-17.1313 F120.00
G01 X26.2672 Y-17.1340 F120.00
G01 X26.2676 Y-17.1366 F120.00
G01 X26.2674 Y-19.4352 F120.00
G01 X26.2736 Y-19.4927 F120.00
G01 X26.3228 Y-19.6246 F120.00
G01 X26.4070 Y-19.7370 F120.00
G01 X26.5194 Y-19.8212 F120.00
G01 X26.6513 Y-19.8704 F120.00
G01 X26.7088 Y-19.8766 F120.00
G01 X26.7335 Y-19.8768 F120.00
G01 X26.8038 Y-19.8975 F120.00
G01 X26.8075 Y-19.9004 F120.00
G01 X26.8533 Y-19.9532 F120.00
G01 X26.8549 Y-19.9557 F120.00
G01 X26.8559 Y-19.9585 F120.00
G01 X26.8674 Y-20.0122 F120.00
G01 X26.8674 Y-20.4757 F120.00
G01 X26.8652 Y-20.5655 F120.00
G01 X26.8754 Y-20.6228 F120.00
G01 X26.8768 Y-20.6325 F120.00
G01 X26.8826 Y-20.6900 F120.00
G01 X26.8915 Y-20.7181 F120.00
G01 X26.8953 Y-20.7339 F120.00
G01 X26.9006 Y-20.7634 F120.00
G01 X26.9222 Y-20.8174 F120.00
G01 X26.9255 Y-20.8267 F120.00
G01 X26.9428 Y-20.8819 F120.00
G01 X26.9571 Y-20.9076 F120.00
G01 X26.9641 Y-20.9223 F120.00
G01 X26.9752 Y-20.9501 F120.00
G01 X27.0070 Y-20.9983 F120.00
G01 X27.0121 Y-21.0068 F120.00
G01 X27.0404 Y-21.0577 F120.00
G01 X27.0599 Y-21.0804 F120.00
G01 X27.0697 Y-21.0934 F120.00
G01 X27.0859 Y-21.1180 F120.00
G01 X27.1267 Y-21.1588 F120.00
G01 X27.1334 Y-21.1660 F120.00
G01 X27.1714 Y-21.2102 F120.00
G01 X27.1947 Y-21.2283 F120.00
G01 X27.2074 Y-21.2395 F120.00
G01 X32.9413 Y-26.9734 F120.00
G01 X32.9433 Y-26.9761 F120.00
G01 X32.9768 Y-27.0374 F120.00
G01 X32.9780 Y-27.0405 F120.00
G01 X32.9783 Y-27.0440 F120.00
G01 X32.9729 Y-27.1160 F120.00
G01 X32.9709 Y-27.1200 F120.00
G01 X32.9291 Y-27.1759 F120.00
G01 X32.9263 Y-27.1786 F120.00
G01 X32.9237 Y-27.1799 F120.00
G01 X32.8577 Y-27.2045 F120.00
G01 X32.8548 Y-27.2051 F120.00
G01 X32.8452 Y-27.2054 F120.00
G01 X25.0453 Y-27.2053 F120.00
G01 X24.9763 Y-27.1852 F120.00
G01 X24.9731 Y-27.1837 F120.00
G01 X24.9707 Y-27.1816 F120.00
G01 X24.9249 Y-27.1288 F120.00
G01 X24.9235 Y-27.1267 F120.00
G01 X24.9146 Y-27.1015 F120.00
G01 X24.8733 Y-26.9293 F120.00
G01 X24.7776 Y-26.6983 F120.00
G01 X24.6469 Y-26.4851 F120.00
G01 X24.4846 Y-26.2950 F120.00
G01 X24.2944 Y-26.1326 F120.00
G01 X24.0812 Y-26.0019 F120.00
G01 X23.8502 Y-25.9062 F120.00
G01 X23.6071 Y-25.8479 F120.00
G01 X23.3578 Y-25.8283 F120.00
G01 X23.1085 Y-25.8479 F120.00
G01 X22.8653 Y-25.9062 F120.00
G01 X22.6343 Y-26.0019 F120.00
G01 X22.4211 Y-26.1326 F120.00
G01 X22.2310 Y-26.2950 F120.00
G01 X22.0686 Y-26.4851 F120.00
G01 X21.9379 Y-26.6983 F120.00
G01 X21.8422 Y-26.9293 F120.00
G01 X21.7839 Y-27.1725 F120.00
G01 X21.7643 Y-27.4218 F120.00
G01 X21.7839 Y-27.6711 F120.00
G01 X21.8422 Y-27.9142 F120.00
G01 X21.9379 Y-28.1452 F120.00
G01 X22.0686 Y-28.3584 F120.00
G01 X22.2310 Y-28.5486 F120.00
G01 X22.4211 Y-28.7109 F120.00
G01 X22.6343 Y-28.8416 F120.00
G01 X22.8653 Y-28.9373 F120.00
G01 X23.1085 Y-28.9957 F120.00
G01 X23.3578 Y-29.0153 F120.00
G01 X23.5011 Y-29.0040 F120.00
G01 X23.5042 Y-29.0042 F120.00
G01 X23.5752 Y-29.0193 F120.00
G01 X23.6097 Y-29.0376 F120.00
G01 X23.6236 Y-29.0460 F120.00
G01 X23.6478 Y-29.0628 F120.00
G01 X23.7009 Y-29.0856 F120.00
G01 X23.7098 Y-29.0898 F120.00
G01 X23.7614 Y-29.1168 F120.00
G01 X23.7897 Y-29.1249 F120.00
G01 X23.8050 Y-29.1303 F120.00
G01 X23.8325 Y-29.1421 F120.00
G01 X23.8891 Y-29.1538 F120.00
G01 X23.8987 Y-29.1561 F120.00
G01 X23.9547 Y-29.1721 F120.00
G01 X23.9846 Y-29.1744 F120.00
G01 X24.0006 Y-29.1767 F120.00
G01 X24.0295 Y-29.1826 F120.00
G01 X24.0872 Y-29.1826 F120.00
G01 X24.0971 Y-29.1830 F120.00
G01 X24.1552 Y-29.1874 F120.00
G01 X24.1844 Y-29.1837 F120.00
G01 X24.2013 Y-29.1826 F120.00
G01 X53.5797 Y-29.1826 F120.00
G01 X53.6694 Y-29.1848 F120.00
G01 X53.7268 Y-29.1746 F120.00
G01 X53.7366 Y-29.1732 F120.00
G01 X53.7940 Y-29.1674 F120.00
G01 X53.8221 Y-29.1585 F120.00
G01 X53.8379 Y-29.1547 F120.00
G01 X53.8674 Y-29.1494 F120.00
G01 X53.9210 Y-29.1279 F120.00
G01 X53.9303 Y-29.1246 F120.00
G01 X53.9859 Y-29.1072 F120.00
G01 X54.0121 Y-29.0926 F120.00
G01 X54.0267 Y-29.0857 F120.00
G01 X54.0541 Y-29.0748 F120.00
G01 X54.1023 Y-29.0430 F120.00
G01 X54.1107 Y-29.0379 F120.00
G01 X54.1617 Y-29.0096 F120.00
G01 X54.1840 Y-28.9904 F120.00
G01 X54.1970 Y-28.9806 F120.00
G01 X54.2220 Y-28.9641 F120.00
G01 X54.2628 Y-28.9233 F120.00
G01 X54.2700 Y-28.9166 F120.00
G01 X54.3142 Y-28.8786 F120.00
G01 X54.3323 Y-28.8553 F120.00
G01 X54.3435 Y-28.8426 F120.00
G01 X56.4117 Y-26.7744 F120.00
G01 X56.4139 Y-26.7727 F120.00
G01 X56.4770 Y-26.7383 F120.00
G01 X56.4799 Y-26.7375 F120.00
G01 X56.5075 Y-26.7346 F120.00
G01 X57.7892 Y-26.7346 F120.00
G01 X57.8467 Y-26.7284 F120.00
G01 X57.9786 Y-26.6792 F120.00
G01 X58.0910 Y-26.5950 F120.00
G01 X58.1752 Y-26.4826 F120.00
G01 X58.2244 Y-26.3507 F120.00
G01 X58.2306 Y-26.2932 F120.00
G01 X58.2306 Y-23.9988 F120.00
G01 X58.2244 Y-23.9413 F120.00
G01 X58.2177 Y-23.9232 F120.00
G01 X58.2171 Y-23.9207 F120.00
G01 X58.2121 Y-23.8496 F120.00
G01 X58.2125 Y-23.8466 F120.00
G01 X58.2176 Y-23.8291 F120.00
G01 X58.2244 Y-23.8107 F120.00
G01 X58.2306 Y-23.7532 F120.00
G01 X58.2306 Y-21.4588 F120.00
G01 X58.2244 Y-21.4013 F120.00
G01 X58.2177 Y-21.3832 F120.00
G01 X58.2171 Y-21.3807 F120.00
G01 X58.2121 Y-21.3096 F120.00
G01 X58.2125 Y-21.3066 F120.00
G01 X58.2176 Y-21.2891 F120.00
G01 X58.2244 Y-21.2707 F120.00
G01 X58.2306 Y-21.2132 F120.00
G01 X58.2306 Y-18.9188 F120.00
G01 X58.2244 Y-18.8613 F120.00
G01 X58.2174 Y-18.8425 F120.00
G01 X58.2169 Y-18.8400 F120.00
G01 X58.2118 Y-18.7689 F120.00
G01 X58.2122 Y-18.7658 F120.00
G01 X58.2173 Y-18.7483 F120.00
G01 X58.2239 Y-18.7306 F120.00
G01 X58.2301 Y-18.6732 F120.00
G01 X58.2301 Y-18.1379 F120.00
G01 X57.7539 Y-18.1379 F120.00
G01 X57.7539 Y-18.6263 F120.00
G01 X57.7531 Y-18.6303 F120.00
G01 X57.7510 Y-18.6338 F120.00
G01 X57.7479 Y-18.6364 F120.00
G01 X57.7440 Y-18.6377 F120.00
G01 X55.5420 Y-18.6379 F120.00
G01 X55.5374 Y-18.6370 F120.00
G01 X55.5336 Y-18.6344 F120.00
G01 X55.5311 Y-18.6308 F120.00
G01 X55.5301 Y-18.6263 F120.00
G01 X55.5301 Y-18.1379 F120.00
G01 X55.0539 Y-18.1379 F120.00
G01 X55.0539 Y-18.6732 F120.00
G01 X55.0601 Y-18.7306 F120.00
G01 X55.0666 Y-18.7481 F120.00
G01 X55.0671 Y-18.7505 F120.00
G01 X55.0722 Y-18.8219 F120.00
G01 X55.0718 Y-18.8247 F120.00
G01 X55.0667 Y-18.8422 F120.00
G01 X55.0596 Y-18.8613 F120.00
G01 X55.0534 Y-18.9188 F120.00
G01 X55.0532 Y-18.9795 F120.00
G01 X55.0332 Y-19.0479 F120.00
G01 X55.0310 Y-19.0521 F120.00
G01 X54.9768 Y-19.0993 F120.00
G01 X54.9744 Y-19.1009 F120.00
G01 X54.9458 Y-19.1104 F120.00
G01 X54.8916 Y-19.1321 F120.00
G01 X54.8823 Y-19.1354 F120.00
G01 X54.8267 Y-19.1528 F120.00
G01 X54.8010 Y-19.1671 F120.00
G01 X54.7864 Y-19.1741 F120.00
G01 X54.7585 Y-19.1852 F120.00
G01 X54.7103 Y-19.2170 F120.00
G01 X54.7018 Y-19.2221 F120.00
G01 X54.6509 Y-19.2504 F120.00
G01 X54.6282 Y-19.2699 F120.00
G01 X54.6153 Y-19.2796 F120.00
G01 X54.5907 Y-19.2959 F120.00
G01 X54.5498 Y-19.3367 F120.00
G01 X54.5426 Y-19.3434 F120.00
G01 X54.4984 Y-19.3814 F120.00
G01 X54.4803 Y-19.4047 F120.00
G01 X54.4691 Y-19.4174 F120.00
G01 X52.0001 Y-21.8863 F120.00
G01 X51.9369 Y-21.9211 F120.00
G01 X51.9336 Y-21.9223 F120.00
G01 X51.9304 Y-21.9225 F120.00
G01 X51.8607 Y-21.9175 F120.00
G01 X51.8572 Y-21.9167 F120.00
G01 X51.8544 Y-21.9152 F120.00
G01 X51.7985 Y-21.8733 F120.00
G01 X51.7962 Y-21.8710 F120.00
G01 X51.7945 Y-21.8679 F120.00
G01 X51.7700 Y-21.8025 F120.00
G01 X51.7694 Y-21.7999 F120.00
G01 X51.7694 Y-21.7964 F120.00
G01 X51.7791 Y-21.7380 F120.00
G01 X51.8469 Y-21.5743 F120.00
G01 X51.9053 Y-21.3312 F120.00
G01 X51.9249 Y-21.0820 F120.00
G01 X51.9053 Y-20.8328 F120.00
G01 X51.8469 Y-20.5897 F120.00
G01 X51.8008 Y-20.4784 F120.00
G01 X51.4208 Y-20.8585 F120.00
G01 X51.4225 Y-20.8657 F120.00
G01 X51.4384 Y-20.9730 F120.00
G01 X51.4437 Y-21.0826 F120.00
G01 X51.4384 Y-21.1910 F120.00
G01 X51.4225 Y-21.2983 F120.00
G01 X51.3959 Y-21.4048 F120.00
G01 X51.3591 Y-21.5075 F120.00
G01 X51.3122 Y-21.6067 F120.00
G01 X51.2564 Y-21.6997 F120.00
G01 X51.1917 Y-21.7869 F120.00
G01 X51.1181 Y-21.8682 F120.00
G01 X51.0368 Y-21.9419 F120.00
G01 X50.9496 Y-22.0065 F120.00
G01 X50.8565 Y-22.0623 F120.00
G01 X50.7574 Y-22.1093 F120.00
G01 X50.6546 Y-22.1460 F120.00
G01 X50.5482 Y-22.1726 F120.00
G01 X50.4408 Y-22.1885 F120.00
G01 X50.3324 Y-22.1939 F120.00
G01 X50.2229 Y-22.1885 F120.00
G01 X50.1155 Y-22.1726 F120.00
G01 X50.1083 Y-22.1709 F120.00
G01 X49.7283 Y-22.5509 F120.00
G01 X49.8396 Y-22.5970 F120.00
G01 X50.0827 Y-22.6554 F120.00
G01 X50.3319 Y-22.6750 F120.00
G01 X50.5811 Y-22.6554 F120.00
G01 X50.8241 Y-22.5970 F120.00
G01 X50.9887 Y-22.5290 F120.00
G01 X51.0607 Y-22.5211 F120.00
G01 X51.0636 Y-22.5213 F120.00
G01 X51.0664 Y-22.5222 F120.00
G01 X51.1291 Y-22.5536 F120.00
G01 X51.1318 Y-22.5554 F120.00
G01 X51.1341 Y-22.5582 F120.00
G01 X51.1705 Y-22.6199 F120.00
G01 X51.1712 Y-22.6224 F120.00
G01 X51.1714 Y-22.6248 F120.00
G01 X51.1689 Y-22.6946 F120.00
G01 X51.1685 Y-22.6972 F120.00
G01 X51.1671 Y-22.7004 F120.00
G01 X51.1356 Y-22.7509 F120.00
G01 X50.2767 Y-23.6098 F120.00
G01 X50.2742 Y-23.6116 F120.00
G01 X50.2118 Y-23.6456 F120.00
G01 X50.2087 Y-23.6465 F120.00
G01 X50.1818 Y-23.6494 F120.00
G01 X35.5155 Y-23.6492 F120.00
G01 X35.4460 Y-23.6287 F120.00
G01 X35.4433 Y-23.6271 F120.00
G01 X35.4217 Y-23.6096 F120.00
G01 X31.9207 Y-20.1086 F120.00
G01 X31.9187 Y-20.1059 F120.00
G01 X31.8852 Y-20.0446 F120.00
G01 X31.8840 Y-20.0415 F120.00
G01 X31.8837 Y-20.0380 F120.00
G01 X31.8889 Y-19.9671 F120.00
G01 X31.8896 Y-19.9646 F120.00
G01 X31.8911 Y-19.9620 F120.00
G01 X31.9329 Y-19.9061 F120.00
G01 X31.9357 Y-19.9034 F120.00
G01 X31.9383 Y-19.9021 F120.00
G01 X32.0041 Y-19.8776 F120.00
G01 X32.0069 Y-19.8770 F120.00
G01 X32.0163 Y-19.8766 F120.00
G01 X34.0832 Y-19.8766 F120.00
G01 X34.1407 Y-19.8704 F120.00
G01 X34.1595 Y-19.8634 F120.00
G01 X34.1620 Y-19.8629 F120.00
G01 X34.2331 Y-19.8578 F120.00
G01 X34.2362 Y-19.8582 F120.00
G01 X34.2537 Y-19.8633 F120.00
G01 X34.2714 Y-19.8699 F120.00
G01 X34.3063 Y-19.8739 F120.00
G01 X34.3719 Y-19.9010 F120.00
G01 X34.3745 Y-19.9025 F120.00
G01 X34.3772 Y-19.9052 F120.00
G01 X34.4170 Y-19.9626 F120.00
G01 X34.4186 Y-19.9658 F120.00
G01 X34.4191 Y-19.9690 F120.00
G01 X34.4216 Y-20.0388 F120.00
G01 X34.4210 Y-20.0431 F120.00
G01 X34.3940 Y-20.0954 F120.00
G01 X34.3512 Y-20.1456 F120.00
G01 X34.2206 Y-20.3588 F120.00
G01 X34.1250 Y-20.5897 F120.00
G01 X34.0666 Y-20.8328 F120.00
G01 X34.0470 Y-21.0820 F120.00
G01 X34.0666 Y-21.3312 F120.00
G01 X34.1250 Y-21.5743 F120.00
G01 X34.1711 Y-21.6856 F120.00
G01 X34.5511 Y-21.3055 F120.00
G01 X34.5494 Y-21.2983 F120.00
G01 X34.5335 Y-21.1910 F120.00
G01 X34.5281 Y-21.0820 F120.00
G01 X34.5335 Y-20.9730 F120.00
G01 X34.5495 Y-20.8651 F120.00
G01 X34.5760 Y-20.7592 F120.00
G01 X34.6127 Y-20.6565 F120.00
G01 X34.6594 Y-20.5579 F120.00
G01 X34.7152 Y-20.4648 F120.00
G01 X34.7809 Y-20.3762 F120.00
G01 X34.8538 Y-20.2958 F120.00
G01 X34.9342 Y-20.2229 F120.00
G01 X35.0223 Y-20.1575 F120.00
G01 X35.1153 Y-20.1017 F120.00
G01 X35.1278 Y-20.0957 F120.00
G01 X35.1278 Y-19.3999 F120.00
G01 X34.3757 Y-19.3999 F120.00
G01 X34.3714 Y-19.3990 F120.00
G01 X34.3678 Y-19.3966 F120.00
G01 X34.3652 Y-19.3931 F120.00
G01 X34.3641 Y-19.3889 F120.00
G01 X34.3643 Y-17.1860 F120.00
G01 X34.3656 Y-17.1821 F120.00
G01 X34.3682 Y-17.1790 F120.00
G01 X34.3717 Y-17.1769 F120.00
G01 X34.3757 Y-17.1761 F120.00
G01 X34.8641 Y-17.1761 F120.00
G01 X34.8641 Y-16.6999 F120.00
G01 X34.3288 Y-16.6999 F120.00
G01 X34.2714 Y-16.7061 F120.00
G01 X34.2539 Y-16.7126 F120.00
G01 X34.2515 Y-16.7131 F120.00
G01 X34.1801 Y-16.7182 F120.00
G01 X34.1773 Y-16.7178 F120.00
G01 X34.1598 Y-16.7127 F120.00
G01 X34.1407 Y-16.7056 F120.00
G01 X34.0832 Y-16.6994 F120.00
G01 X33.9093 Y-16.6993 F120.00
G01 X33.8403 Y-16.6792 F120.00
G01 X33.8371 Y-16.6778 F120.00
G01 X33.7976 Y-16.6388 F120.00
G01 X33.7849 Y-16.6195 F120.00
G01 X33.7797 Y-16.6110 F120.00
G01 X33.7516 Y-16.5603 F120.00
G01 X33.7324 Y-16.5380 F120.00
G01 X33.7226 Y-16.5250 F120.00
G01 X33.7061 Y-16.5000 F120.00
G01 X33.6653 Y-16.4592 F120.00
G01 X33.6586 Y-16.4520 F120.00
G01 X33.6206 Y-16.4078 F120.00
G01 X33.5973 Y-16.3897 F120.00
G01 X33.5846 Y-16.3785 F120.00
G01 X32.9034 Y-15.6971 F120.00
G01 X32.8692 Y-15.6346 F120.00
G01 X32.8680 Y-15.6312 F120.00
G01 X32.8677 Y-15.6280 F120.00
G01 X32.8727 Y-15.5583 F120.00
G01 X32.8735 Y-15.5549 F120.00
G01 X32.8751 Y-15.5520 F120.00
G01 X32.9169 Y-15.4961 F120.00
G01 X32.9192 Y-15.4938 F120.00
G01 X32.9223 Y-15.4921 F120.00
G01 X32.9878 Y-15.4677 F120.00
G01 X32.9906 Y-15.4670 F120.00
G01 X33.0008 Y-15.4666 F120.00
G01 X34.9002 Y-15.4666 F120.00
G01 X34.9036 Y-15.4671 F120.00
G01 X34.9722 Y-15.4874 F120.00
G01 X34.9747 Y-15.4889 F120.00
G01 X34.9963 Y-15.5064 F120.00
G01 X36.0495 Y-16.5599 F120.00
G01 X36.0842 Y-16.6235 F120.00
G01 X36.0850 Y-16.6264 F120.00
G01 X36.0879 Y-16.6536 F120.00
G01 X36.0879 Y-17.1761 F120.00
G01 X36.5760 Y-17.1761 F120.00
G01 X36.5789 Y-17.1765 F120.00
G01 X36.5816 Y-17.1775 F120.00
G01 X36.5840 Y-17.1792 F120.00
G01 X36.5859 Y-17.1814 F120.00
G01 X36.5874 Y-17.1845 F120.00
G01 X36.5879 Y-17.1880 F120.00
G01 X36.5878 Y-19.3897 F120.00
G01 X36.5865 Y-19.3936 F120.00
G01 X36.5838 Y-19.3970 F120.00
G01 X36.5803 Y-19.3991 F120.00
G01 X36.5763 Y-19.3999 F120.00
G01 X36.1522 Y-19.3999 F120.00
G01 X36.1522 Y-20.0957 F120.00
G01 X36.1647 Y-20.1017 F120.00
G01 X36.2577 Y-20.1575 F120.00
G01 X36.3458 Y-20.2229 F120.00
G01 X36.4262 Y-20.2958 F120.00
G01 X36.4991 Y-20.3762 F120.00
G01 X36.5648 Y-20.4648 F120.00
G01 X36.6206 Y-20.5579 F120.00
G01 X36.6673 Y-20.6565 F120.00
G01 X36.7040 Y-20.7592 F120.00
G01 X36.7305 Y-20.8651 F120.00
G01 X36.7465 Y-20.9730 F120.00
G01 X36.7519 Y-21.0820 F120.00
G01 X36.7465 Y-21.1910 F120.00
G01 X36.7306 Y-21.2983 F120.00
G01 X36.7289 Y-21.3055 F120.00
G01 X37.1089 Y-21.6856 F120.00
G01 X37.1550 Y-21.5743 F120.00
G01 X37.2134 Y-21.3312 F120.00
G01 X37.2330 Y-21.0820 F120.00
G01 X37.2134 Y-20.8328 F120.00
G01 X37.1550 Y-20.5897 F120.00
G01 X37.0594 Y-20.3588 F120.00
G01 X36.9288 Y-20.1457 F120.00
G01 X36.8893 Y-20.0992 F120.00
G01 X36.8601 Y-20.0341 F120.00
G01 X36.8592 Y-20.0316 F120.00
G01 X36.8591 Y-20.0275 F120.00
G01 X36.8696 Y-19.9581 F120.00
G01 X36.8706 Y-19.9550 F120.00
G01 X36.8724 Y-19.9523 F120.00
G01 X36.9185 Y-19.8999 F120.00
G01 X36.9212 Y-19.8976 F120.00
G01 X36.9242 Y-19.8963 F120.00
G01 X36.9905 Y-19.8771 F120.00
G01 X36.9932 Y-19.8766 F120.00
G01 X37.0435 Y-19.8768 F120.00
G01 X37.1120 Y-19.8969 F120.00
G01 X37.1144 Y-19.8979 F120.00
G01 X37.1167 Y-19.8997 F120.00
G01 X37.1544 Y-19.9372 F120.00
G01 X37.1671 Y-19.9565 F120.00
G01 X37.1723 Y-19.9650 F120.00
G01 X37.2004 Y-20.0157 F120.00
G01 X37.2199 Y-20.0384 F120.00
G01 X37.2297 Y-20.0514 F120.00
G01 X37.2459 Y-20.0760 F120.00
G01 X37.2867 Y-20.1168 F120.00
G01 X37.2934 Y-20.1240 F120.00
G01 X37.3314 Y-20.1682 F120.00
G01 X37.3547 Y-20.1863 F120.00
G01 X37.3674 Y-20.1975 F120.00
G01 X38.9408 Y-21.7709 F120.00
G01 X39.0027 Y-21.8360 F120.00
G01 X39.0502 Y-21.8690 F120.00
G01 X39.0580 Y-21.8749 F120.00
G01 X39.1032 Y-21.9117 F120.00
G01 X39.1297 Y-21.9256 F120.00
G01 X39.1436 Y-21.9340 F120.00
G01 X39.1678 Y-21.9508 F120.00
G01 X39.2209 Y-21.9736 F120.00
G01 X39.2298 Y-21.9778 F120.00
G01 X39.2814 Y-22.0048 F120.00
G01 X39.3100 Y-22.0130 F120.00
G01 X39.3254 Y-22.0185 F120.00
G01 X39.3364 Y-22.0232 F120.00
G01 X39.3385 Y-22.0245 F120.00
G01 X39.3855 Y-22.0593 F120.00
G01 X39.5132 Y-22.2088 F120.00
G01 X39.7034 Y-22.3712 F120.00
G01 X39.9166 Y-22.5018 F120.00
G01 X40.1476 Y-22.5975 F120.00
G01 X40.3907 Y-22.6559 F120.00
G01 X40.6400 Y-22.6755 F120.00
G01 X40.8893 Y-22.6559 F120.00
G01 X41.1324 Y-22.5975 F120.00
G01 X41.3634 Y-22.5018 F120.00
G01 X41.5766 Y-22.3712 F120.00
G01 X41.7668 Y-22.2088 F120.00
G01 X41.8441 Y-22.1182 F120.00
G01 X41.8462 Y-22.1163 F120.00
G01 X41.9067 Y-22.0770 F120.00
G01 X41.9099 Y-22.0760 F120.00
G01 X41.9475 Y-22.0706 F120.00
G01 X44.0264 Y-22.0708 F120.00
G01 X44.0948 Y-22.0908 F120.00
G01 X44.0991 Y-22.0930 F120.00
G01 X44.1276 Y-22.1180 F120.00
G01 X44.2051 Y-22.2088 F120.00
G01 X44.3952 Y-22.3712 F120.00
G01 X44.6084 Y-22.5018 F120.00
G01 X44.8394 Y-22.5975 F120.00
G01 X45.0826 Y-22.6559 F120.00
G01 X45.3319 Y-22.6755 F120.00
G01 X45.5811 Y-22.6559 F120.00
G01 X45.8243 Y-22.5975 F120.00
G01 X46.0553 Y-22.5018 F120.00
G01 X46.2685 Y-22.3712 F120.00
G01 X46.4586 Y-22.2088 F120.00
G01 X46.5372 Y-22.1170 F120.00
G01 X46.5970 Y-22.0778 F120.00
G01 X46.5999 Y-22.0765 F120.00
G01 X46.6393 Y-22.0706 F120.00
G01 X47.2297 Y-22.0706 F120.00
G01 X47.3194 Y-22.0728 F120.00
G01 X47.3768 Y-22.0626 F120.00
G01 X47.3866 Y-22.0612 F120.00
G01 X47.4440 Y-22.0554 F120.00
G01 X47.4721 Y-22.0465 F120.00
G01 X47.4879 Y-22.0427 F120.00
G01 X47.5174 Y-22.0374 F120.00
G01 X47.5710 Y-22.0159 F120.00
G01 X47.5803 Y-22.0126 F120.00
G01 X47.6359 Y-21.9952 F120.00
G01 X47.6621 Y-21.9806 F120.00
G01 X47.6767 Y-21.9737 F120.00
G01 X47.7041 Y-21.9628 F120.00
G01 X47.7523 Y-21.9310 F120.00
G01 X47.7607 Y-21.9259 F120.00
G01 X47.8117 Y-21.8976 F120.00
G01 X47.8340 Y-21.8784 F120.00
G01 X47.8470 Y-21.8686 F120.00
G01 X47.8720 Y-21.8521 F120.00
G01 X47.9128 Y-21.8113 F120.00
G01 X47.9200 Y-21.8046 F120.00
G01 X47.9642 Y-21.7666 F120.00
G01 X47.9823 Y-21.7433 F120.00
G01 X47.9935 Y-21.7306 F120.00
G01 X48.5236 Y-21.2005 F120.00
G01 X48.5261 Y-21.1987 F120.00
G01 X48.5874 Y-21.1652 F120.00
G01 X48.5898 Y-21.1642 F120.00
G01 X48.5939 Y-21.1638 F120.00
G01 X48.6636 Y-21.1688 F120.00
G01 X48.6671 Y-21.1696 F120.00
G01 X48.6699 Y-21.1711 F120.00
G01 X48.7258 Y-21.2130 F120.00
G01 X48.7278 Y-21.2148 F120.00
G01 X48.7292 Y-21.2170 F120.00
G01 X48.7546 Y-21.2844 F120.00
G01 X48.7585 Y-21.3312 F120.00
G01 X48.8168 Y-21.5743 F120.00
G01 X48.8629 Y-21.6856 F120.00
G01 X49.2430 Y-21.3055 F120.00
G01 X49.2412 Y-21.2983 F120.00
G01 X49.2253 Y-21.1910 F120.00
G01 X49.2200 Y-21.0820 F120.00
G01 X49.2253 Y-20.9730 F120.00
G01 X49.2415 Y-20.8645 F120.00
G01 X49.2678 Y-20.7592 F120.00
G01 X49.3044 Y-20.6570 F120.00
G01 X49.3510 Y-20.5584 F120.00
G01 X49.4074 Y-20.4643 F120.00
G01 X49.4725 Y-20.3764 F120.00
G01 X49.5456 Y-20.2958 F120.00
G01 X49.6260 Y-20.2229 F120.00
G01 X49.7141 Y-20.1575 F120.00
G01 X49.8082 Y-20.1011 F120.00
G01 X49.9064 Y-20.0547 F120.00
G01 X50.0085 Y-20.0182 F120.00
G01 X50.1155 Y-19.9914 F120.00
G01 X50.2229 Y-19.9755 F120.00
G01 X50.3313 Y-19.9701 F120.00
G01 X50.4408 Y-19.9755 F120.00
G01 X50.5482 Y-19.9914 F120.00
G01 X50.5554 Y-19.9931 F120.00
G01 X50.9354 Y-19.6131 F120.00
G01 X50.8241 Y-19.5670 F120.00
G01 X50.5811 Y-19.5086 F120.00
G01 X50.5341 Y-19.5047 F120.00
G01 X50.4674 Y-19.4794 F120.00
G01 X50.4648 Y-19.4780 F120.00
G01 X50.4621 Y-19.4754 F120.00
G01 X50.4205 Y-19.4189 F120.00
G01 X50.4190 Y-19.4160 F120.00
G01 X50.4184 Y-19.4131 F120.00
G01 X50.4139 Y-19.3431 F120.00
G01 X50.4141 Y-19.3396 F120.00
G01 X50.4153 Y-19.3366 F120.00
G01 X50.4492 Y-19.2751 F120.00
G01 X53.7097 Y-16.0144 F120.00
G01 X53.7124 Y-16.0124 F120.00
G01 X53.7756 Y-15.9781 F120.00
G01 X53.7782 Y-15.9775 F120.00
G01 X53.8058 Y-15.9746 F120.00
G01 X54.9178 Y-15.9746 F120.00
G01 X54.9209 Y-15.9751 F120.00
G01 X54.9879 Y-15.9948 F120.00
G01 X54.9916 Y-15.9966 F120.00
G01 X54.9935 Y-15.9984 F120.00
G01 X55.0393 Y-16.0512 F120.00
G01 X55.0408 Y-16.0534 F120.00
G01 X55.0418 Y-16.0559 F120.00
G01 X55.0533 Y-16.1088 F120.00
G01 X55.0534 Y-16.1332 F120.00
G01 X55.0596 Y-16.1907 F120.00
G01 X55.0671 Y-16.2117 F120.00
G01 X55.0722 Y-16.2822 F120.00
G01 X55.0718 Y-16.2862 F120.00
G01 X55.0667 Y-16.3037 F120.00
G01 X55.0601 Y-16.3214 F120.00
G01 X55.0539 Y-16.3788 F120.00
G01 X55.0539 Y-16.9141 F120.00
G01 X55.5301 Y-16.9141 F120.00
G01 X55.5301 Y-16.4257 F120.00
G01 X55.5309 Y-16.4217 F120.00
G01 X55.5330 Y-16.4182 F120.00
G01 X55.5361 Y-16.4156 F120.00
G01 X55.5400 Y-16.4143 F120.00
G01 X57.7420 Y-16.4141 F120.00
G01 X57.7466 Y-16.4150 F120.00
G01 X57.7504 Y-16.4176 F120.00
G01 X57.7529 Y-16.4212 F120.00
G01 X57.7539 Y-16.4257 F120.00
G01 X57.7539 Y-16.9141 F120.00
G01 X58.2301 Y-16.9141 F120.00
G01 X58.2301 Y-16.3788 F120.00
G01 X58.2239 Y-16.3214 F120.00
G01 X58.2174 Y-16.3039 F120.00
G01 X58.2169 Y-16.3015 F120.00
G01 X58.2118 Y-16.2304 F120.00
G01 X58.2122 Y-16.2273 F120.00
G01 X58.2173 Y-16.2098 F120.00
G01 X58.2244 Y-16.1907 F120.00
G01 X58.2306 Y-16.1332 F120.00
G01 X58.2306 Y-13.8388 F120.00
G01 X58.2244 Y-13.7813 F120.00
G01 X58.2177 Y-13.7632 F120.00
G01 X58.2171 Y-13.7607 F120.00
G01 X58.2121 Y-13.6896 F120.00
G01 X58.2125 Y-13.6866 F120.00
G01 X58.2176 Y-13.6691 F120.00
G01 X58.2244 Y-13.6507 F120.00
G01 X58.2306 Y-13.5932 F120.00
G01 X58.2306 Y-11.2988 F120.00
G01 X58.2244 Y-11.2413 F120.00
G01 X58.2177 Y-11.2232 F120.00
G01 X58.2171 Y-11.2207 F120.00
G01 X58.2121 Y-11.1496 F120.00
G01 X58.2125 Y-11.1466 F120.00
G01 X58.2176 Y-11.1291 F120.00
G01 X58.2244 Y-11.1107 F120.00
G01 X58.2306 Y-11.0532 F120.00
G01 X58.2306 Y-8.7588 F120.00
G01 X58.2244 Y-8.7013 F120.00
G01 X58.2177 Y-8.6832 F120.00
G01 X58.2171 Y-8.6807 F120.00
G01 X58.2121 Y-8.6096 F120.00
G01 X58.2125 Y-8.6066 F120.00
G01 X58.2176 Y-8.5891 F120.00
G01 X58.2244 Y-8.5707 F120.00
G01 X58.2306 Y-8.5132 F120.00
G01 X58.2306 Y-6.2188 F120.00
G01 X58.2244 Y-6.1613 F120.00
G01 X58.2177 Y-6.1432 F120.00
G01 X58.2171 Y-6.1407 F120.00
G01 X58.2121 Y-6.0696 F120.00
G01 X58.2125 Y-6.0666 F120.00
G01 X58.2176 Y-6.0491 F120.00
G01 X58.2244 Y-6.0307 F120.00
G01 X58.2306 Y-5.9732 F120.00
G01 X58.2306 Y-3.6788 F120.00
G01 X58.2244 Y-3.6213 F120.00
G01 X58.1752 Y-3.4894 F120.00
G01 X58.0910 Y-3.3770 F120.00
G01 X57.9786 Y-3.2928 F120.00
G01 X57.8467 Y-3.2436 F120.00
G01 X57.7892 Y-3.2374 F120.00
G01 X55.4948 Y-3.2374 F120.00
G01 X55.4373 Y-3.2436 F120.00
G01 X55.3054 Y-3.2928 F120.00
G01 X55.1930 Y-3.3770 F120.00
G01 X55.1088 Y-3.4894 F120.00
G01 X55.0596 Y-3.6213 F120.00
G01 X55.0534 Y-3.6788 F120.00
G01 X55.0532 Y-3.7035 F120.00
G01 X55.0332 Y-3.7719 F120.00
G01 X55.0321 Y-3.7746 F120.00
G01 X55.0296 Y-3.7775 F120.00
G01 X54.9768 Y-3.8233 F120.00
G01 X54.9746 Y-3.8248 F120.00
G01 X54.9715 Y-3.8259 F120.00
G01 X54.9200 Y-3.8371 F120.00
G01 X54.9175 Y-3.8374 F120.00
G01 X44.1358 Y-3.8374 F120.00
G01 X44.1330 Y-3.8369 F120.00
G01 X44.0648 Y-3.8168 F120.00
G01 X44.0621 Y-3.8153 F120.00
G01 X44.0407 Y-3.7980 F120.00
G01 X43.6575 Y-3.4149 F120.00
G01 X43.6503 Y-3.4166 F120.00
G01 X43.5430 Y-3.4325 F120.00
G01 X43.4340 Y-3.4379 F120.00
G01 X43.3250 Y-3.4325 F120.00
G01 X43.2177 Y-3.4166 F120.00
G01 X43.2105 Y-3.4149 F120.00
G01 X42.8271 Y-3.7982 F120.00
G01 X42.8250 Y-3.7996 F120.00
G01 X42.7627 Y-3.8336 F120.00
G01 X42.7596 Y-3.8345 F120.00
G01 X42.7317 Y-3.8374 F120.00
G01 X41.3423 Y-3.8374 F120.00
G01 X41.3398 Y-3.8371 F120.00
G01 X41.2706 Y-3.8167 F120.00
G01 X41.2681 Y-3.8153 F120.00
G01 X41.2467 Y-3.7980 F120.00
G01 X40.8635 Y-3.4149 F120.00
G01 X40.8563 Y-3.4166 F120.00
G01 X40.7490 Y-3.4325 F120.00
G01 X40.6400 Y-3.4379 F120.00
G01 X40.5310 Y-3.4325 F120.00
G01 X40.4237 Y-3.4166 F120.00
G01 X40.4165 Y-3.4149 F120.00
G01 X40.0331 Y-3.7982 F120.00
G01 X40.0310 Y-3.7996 F120.00
G01 X39.9687 Y-3.8336 F120.00
G01 X39.9656 Y-3.8345 F120.00
G01 X39.9377 Y-3.8374 F120.00
G01 X23.8317 Y-3.8374 F120.00
G01 X23.8284 Y-3.8369 F120.00
G01 X23.7594 Y-3.8165 F120.00
G01 X23.7135 Y-3.7847 F120.00
G01 X23.7056 Y-3.7788 F120.00
G01 X23.6608 Y-3.7423 F120.00
G01 X23.6347 Y-3.7286 F120.00
G01 X23.6209 Y-3.7203 F120.00
G01 X23.5962 Y-3.7032 F120.00
G01 X23.5432 Y-3.6804 F120.00
G01 X23.5342 Y-3.6762 F120.00
G01 X23.4826 Y-3.6492 F120.00
G01 X23.4543 Y-3.6411 F120.00
G01 X23.4390 Y-3.6357 F120.00
G01 X23.4115 Y-3.6239 F120.00
G01 X23.3544 Y-3.6121 F120.00
G01 X23.3449 Y-3.6098 F120.00
G01 X23.2893 Y-3.5939 F120.00
G01 X23.2599 Y-3.5916 F120.00
G01 X23.2439 Y-3.5894 F120.00
G01 X23.2145 Y-3.5834 F120.00
G01 X23.1568 Y-3.5834 F120.00
G01 X23.1469 Y-3.5830 F120.00
G01 X23.0888 Y-3.5786 F120.00
G01 X23.0596 Y-3.5823 F120.00
G01 X23.0427 Y-3.5834 F120.00
G01 X16.4672 Y-3.5834 F120.00
G01 X16.4644 Y-3.5829 F120.00
G01 X16.3963 Y-3.5628 F120.00
G01 X16.3935 Y-3.5613 F120.00
G01 X16.3721 Y-3.5440 F120.00
G01 X15.6952 Y-2.8671 F120.00
G01 X15.6333 Y-2.8020 F120.00
G01 X15.5855 Y-2.7687 F120.00
G01 X15.5776 Y-2.7628 F120.00
G01 X15.5328 Y-2.7263 F120.00
G01 X15.5067 Y-2.7126 F120.00
G01 X15.4929 Y-2.7043 F120.00
G01 X15.4682 Y-2.6872 F120.00
G01 X15.4152 Y-2.6644 F120.00
G01 X15.4062 Y-2.6602 F120.00
G01 X15.3546 Y-2.6332 F120.00
G01 X15.3263 Y-2.6251 F120.00
G01 X15.3110 Y-2.6197 F120.00
G01 X15.2835 Y-2.6079 F120.00
G01 X15.2264 Y-2.5961 F120.00
G01 X15.2169 Y-2.5938 F120.00
G01 X15.1613 Y-2.5779 F120.00
G01 X15.1319 Y-2.5756 F120.00
G01 X15.1159 Y-2.5734 F120.00
G01 X15.0865 Y-2.5674 F120.00
G01 X15.0288 Y-2.5674 F120.00
G01 X15.0189 Y-2.5670 F120.00
G01 X14.9608 Y-2.5626 F120.00
G01 X14.9316 Y-2.5663 F120.00
G01 X14.9149 Y-2.5674 F120.00
G01 X14.6303 Y-2.5674 F120.00
G01 X14.6275 Y-2.5669 F120.00
G01 X14.5605 Y-2.5472 F120.00
G01 X14.5566 Y-2.5452 F120.00
G01 X14.5091 Y-2.4908 F120.00
G01 X14.5071 Y-2.4877 F120.00
G01 X14.4988 Y-2.4635 F120.00
G01 X14.4695 Y-2.3416 F120.00
G01 X14.3738 Y-2.1106 F120.00
G01 X14.2432 Y-1.8974 F120.00
G01 X14.0808 Y-1.7072 F120.00
G01 X13.8906 Y-1.5448 F120.00
G01 X13.6774 Y-1.4142 F120.00
G01 X13.4464 Y-1.3185 F120.00
G01 X13.2033 Y-1.2601 F120.00
G01 X12.9540 Y-1.2405 F120.00
G01 X12.7047 Y-1.2601 F120.00
G01 X12.4616 Y-1.3185 F120.00
G01 X12.2306 Y-1.4142 F120.00
G01 X12.0174 Y-1.5448 F120.00
G01 X11.8272 Y-1.7072 F120.00
G01 X11.6648 Y-1.8974 F120.00
G01 X11.5342 Y-2.1106 F120.00
G01 X11.4385 Y-2.3416 F120.00
G01 X11.3801 Y-2.5847 F120.00
G01 X11.3605 Y-2.8340 F120.00
G01 X11.3801 Y-3.0833 F120.00
G01 X11.4385 Y-3.3264 F120.00
G01 X11.5342 Y-3.5574 F120.00
G01 X11.6648 Y-3.7706 F120.00
G01 X11.8272 Y-3.9608 F120.00
G01 X11.9971 Y-4.1060 F120.00
G01 X12.0369 Y-4.1666 F120.00
G01 X12.0380 Y-4.1693 F120.00
G01 X12.0385 Y-4.1722 F120.00
G01 X12.0390 Y-4.2424 F120.00
G01 X12.0386 Y-4.2456 F120.00
G01 X12.0371 Y-4.2488 F120.00
G01 X11.9993 Y-4.3086 F120.00
G01 X11.9975 Y-4.3105 F120.00
G01 X11.9950 Y-4.3122 F120.00
G01 X11.9292 Y-4.3426 F120.00
G01 X11.9049 Y-4.3442 F120.00
G01 X11.8625 Y-4.3432 F120.00
G01 X11.8057 Y-4.3534 F120.00
G01 X11.7959 Y-4.3547 F120.00
G01 X11.7380 Y-4.3606 F120.00
G01 X11.7094 Y-4.3696 F120.00
G01 X11.6936 Y-4.3734 F120.00
G01 X11.6646 Y-4.3786 F120.00
G01 X11.6106 Y-4.4002 F120.00
G01 X11.6013 Y-4.4035 F120.00
G01 X11.5461 Y-4.4208 F120.00
G01 X11.5204 Y-4.4351 F120.00
G01 X11.5057 Y-4.4421 F120.00
G01 X11.4779 Y-4.4532 F120.00
G01 X11.4297 Y-4.4850 F120.00
G01 X11.4212 Y-4.4901 F120.00
G01 X11.3703 Y-4.5184 F120.00
G01 X11.3476 Y-4.5379 F120.00
G01 X11.3346 Y-4.5476 F120.00
G01 X11.3100 Y-4.5639 F120.00
G01 X11.2692 Y-4.6047 F120.00
G01 X11.2620 Y-4.6114 F120.00
G01 X11.2178 Y-4.6494 F120.00
G01 X11.1997 Y-4.6727 F120.00
G01 X11.1885 Y-4.6854 F120.00
G01 X7.1851 Y-8.6888 F120.00
G01 X7.1200 Y-8.7507 F120.00
G01 X7.0867 Y-8.7985 F120.00
G01 X7.0808 Y-8.8064 F120.00
G01 X7.0443 Y-8.8512 F120.00
G01 X7.0306 Y-8.8773 F120.00
G01 X7.0223 Y-8.8911 F120.00
G01 X7.0052 Y-8.9158 F120.00
G01 X6.9822 Y-8.9693 F120.00
G01 X6.9779 Y-8.9782 F120.00
G01 X6.9512 Y-9.0294 F120.00
G01 X6.9431 Y-9.0577 F120.00
G01 X6.9377 Y-9.0730 F120.00
G01 X6.9259 Y-9.1005 F120.00
G01 X6.9141 Y-9.1575 F120.00
G01 X6.9118 Y-9.1671 F120.00
G01 X6.8959 Y-9.2227 F120.00
G01 X6.8936 Y-9.2526 F120.00
G01 X6.8913 Y-9.2686 F120.00
G01 X6.8854 Y-9.2975 F120.00
G01 X6.8854 Y-9.3552 F120.00
G01 X6.8850 Y-9.3651 F120.00
G01 X6.8806 Y-9.4232 F120.00
G01 X6.8843 Y-9.4524 F120.00
G01 X6.8854 Y-9.4691 F120.00
G01 X6.8854 Y-9.6154 F120.00
G01 X6.8849 Y-9.6179 F120.00
G01 X6.8649 Y-9.6860 F120.00
G01 X6.8630 Y-9.6892 F120.00
G01 X6.8382 Y-9.7175 F120.00
G01 X6.7472 Y-9.7952 F120.00
G01 X6.5848 Y-9.9854 F120.00
G01 X6.4542 Y-10.1986 F120.00
G01 X6.3585 Y-10.4296 F120.00
G01 X6.3001 Y-10.6727 F120.00
G01 X6.2805 Y-10.9220 F120.00
G01 X6.3001 Y-11.1713 F120.00
G01 X6.3585 Y-11.4144 F120.00
G01 X6.4542 Y-11.6454 F120.00
G01 X6.5357 Y-11.7785 F120.00
G01 X6.5370 Y-11.7813 F120.00
G01 X6.5553 Y-11.8490 F120.00
G01 X6.5557 Y-11.8526 F120.00
G01 X6.5551 Y-11.8558 F120.00
G01 X6.5340 Y-11.9224 F120.00
G01 X6.5330 Y-11.9248 F120.00
G01 X6.5312 Y-11.9271 F120.00
G01 X6.4765 Y-11.9725 F120.00
G01 X6.4743 Y-11.9740 F120.00
G01 X6.4713 Y-11.9750 F120.00
G01 X6.4204 Y-11.9854 F120.00
G01 X5.8132 Y-11.9854 F120.00
G01 X5.8101 Y-11.9849 F120.00
G01 X5.7420 Y-11.9648 F120.00
G01 X5.7394 Y-11.9634 F120.00
G01 X5.7375 Y-11.9616 F120.00
G01 X5.6917 Y-11.9088 F120.00
G01 X5.6895 Y-11.9050 F120.00
G01 X5.6777 Y-11.8512 F120.00
G01 X5.6776 Y-11.8268 F120.00
G01 X5.6714 Y-11.7693 F120.00
G01 X5.6222 Y-11.6374 F120.00
G01 X5.5380 Y-11.5250 F120.00
G01 X5.4256 Y-11.4408 F120.00
G01 X5.2937 Y-11.3916 F120.00
G01 X5.2362 Y-11.3854 F120.00
G01 X2.9418 Y-11.3854 F120.00
G01 X2.8843 Y-11.3916 F120.00
G01 X2.7524 Y-11.4408 F120.00
G01 X2.6400 Y-11.5250 F120.00
G01 X2.5558 Y-11.6374 F120.00
G01 X2.5066 Y-11.7693 F120.00
G01 X2.5004 Y-11.8268 F120.00
G01 X2.5004 Y-14.1212 F120.00
G01 X2.5066 Y-14.1787 F120.00
G01 X2.5133 Y-14.1968 F120.00
G01 X2.5139 Y-14.1993 F120.00
G01 X2.5189 Y-14.2704 F120.00
G01 X2.5185 Y-14.2734 F120.00
G01 X2.5134 Y-14.2910 F120.00
G01 X2.5066 Y-14.3093 F120.00
G01 X2.5004 Y-14.3668 F120.00
G01 X2.5004 Y-16.6612 F120.00
G00 Z2.0000
G00 X2.9771 Y-14.4140
G01 F60.00
G01 Z-0.0900
G01 F120.00
G01 X2.9771 Y-16.6140 F120.00
G01 X2.9779 Y-16.6183 F120.00
G01 X2.9800 Y-16.6218 F120.00
G01 X2.9834 Y-16.6245 F120.00
G01 X2.9875 Y-16.6258 F120.00
G01 X5.1890 Y-16.6259 F120.00
G01 X5.1922 Y-16.6255 F120.00
G01 X5.1956 Y-16.6239 F120.00
G01 X5.1984 Y-16.6213 F120.00
G01 X5.2002 Y-16.6180 F120.00
G01 X5.2009 Y-16.6143 F120.00
G01 X5.2009 Y-16.0262 F120.00
G01 X16.3419 Y-16.0262 F120.00
G01 X17.5218 Y-17.2061 F120.00
G01 X17.5218 Y-17.2421 F120.00
G01 X16.9337 Y-17.2421 F120.00
G01 X16.9300 Y-17.2428 F120.00
G01 X16.9265 Y-17.2448 F120.00
G01 X16.9239 Y-17.2476 F120.00
G01 X16.9225 Y-17.2511 F120.00
G01 X16.9221 Y-17.2540 F120.00
G01 X16.9221 Y-19.4540 F120.00
G01 X16.9229 Y-19.4583 F120.00
G01 X16.9250 Y-19.4618 F120.00
G01 X16.9281 Y-19.4644 F120.00
G01 X16.9323 Y-19.4658 F120.00
G01 X19.1340 Y-19.4659 F120.00
G01 X19.1375 Y-19.4654 F120.00
G01 X19.1406 Y-19.4639 F120.00
G01 X19.1430 Y-19.4618 F120.00
G01 X19.1449 Y-19.4588 F120.00
G01 X19.1457 Y-19.4563 F120.00
G01 X19.1459 Y-19.4540 F120.00
G01 X19.1459 Y-17.2540 F120.00
G01 X19.1454 Y-17.2505 F120.00
G01 X19.1437 Y-17.2471 F120.00
G01 X19.1411 Y-17.2444 F120.00
G01 X19.1377 Y-17.2427 F120.00
G01 X19.1343 Y-17.2421 F120.00
G01 X18.5462 Y-17.2421 F120.00
G01 X18.5462 Y-16.9940 F120.00
G01 X18.5437 Y-16.9438 F120.00
G01 X18.5362 Y-16.8935 F120.00
G01 X18.5241 Y-16.8453 F120.00
G01 X18.5074 Y-16.7986 F120.00
G01 X18.4854 Y-16.7521 F120.00
G01 X18.4598 Y-16.7095 F120.00
G01 X18.4299 Y-16.6691 F120.00
G01 X18.3961 Y-16.6319 F120.00
G01 X18.2784 Y-16.5142 F120.00
G01 X31.5979 Y-16.5142 F120.00
G01 X32.2598 Y-17.1761 F120.00
G01 X31.8357 Y-17.1761 F120.00
G01 X31.8320 Y-17.1768 F120.00
G01 X31.8285 Y-17.1788 F120.00
G01 X31.8258 Y-17.1819 F120.00
G01 X31.8243 Y-17.1857 F120.00
G01 X31.8241 Y-19.3880 F120.00
G01 X31.8249 Y-19.3923 F120.00
G01 X31.8270 Y-19.3958 F120.00
G01 X31.8289 Y-19.3976 F120.00
G01 X31.8312 Y-19.3989 F120.00
G01 X31.8337 Y-19.3997 F120.00
G01 X31.8360 Y-19.3999 F120.00
G01 X34.0360 Y-19.3999 F120.00
G01 X34.0403 Y-19.3991 F120.00
G01 X34.0438 Y-19.3970 F120.00
G01 X34.0465 Y-19.3936 F120.00
G01 X34.0478 Y-19.3897 F120.00
G01 X34.0479 Y-17.1880 F120.00
G01 X34.0475 Y-17.1851 F120.00
G01 X34.0465 Y-17.1824 F120.00
G01 X34.0446 Y-17.1798 F120.00
G01 X34.0421 Y-17.1778 F120.00
G01 X34.0392 Y-17.1765 F120.00
G01 X34.0360 Y-17.1761 F120.00
G01 X33.4482 Y-17.1761 F120.00
G01 X33.4481 Y-17.1277 F120.00
G01 X33.4457 Y-17.0781 F120.00
G01 X33.4384 Y-17.0287 F120.00
G01 X33.4261 Y-16.9793 F120.00
G01 X33.4094 Y-16.9326 F120.00
G01 X33.3877 Y-16.8866 F120.00
G01 X33.3618 Y-16.8435 F120.00
G01 X33.3319 Y-16.8031 F120.00
G01 X33.2985 Y-16.7663 F120.00
G01 X32.1717 Y-15.6395 F120.00
G01 X32.1349 Y-15.6061 F120.00
G01 X32.0950 Y-15.5765 F120.00
G01 X32.0514 Y-15.5503 F120.00
G01 X32.0060 Y-15.5288 F120.00
G01 X31.9592 Y-15.5121 F120.00
G01 X31.9093 Y-15.4996 F120.00
G01 X31.8602 Y-15.4923 F120.00
G01 X31.8100 Y-15.4898 F120.00
G01 X17.2541 Y-15.4898 F120.00
G01 X16.9161 Y-15.1519 F120.00
G01 X16.8784 Y-15.1177 F120.00
G01 X16.8385 Y-15.0882 F120.00
G01 X16.7959 Y-15.0626 F120.00
G01 X16.7500 Y-15.0408 F120.00
G01 X16.7027 Y-15.0239 F120.00
G01 X16.6545 Y-15.0118 F120.00
G01 X16.6039 Y-15.0043 F120.00
G01 X16.5540 Y-15.0018 F120.00
G01 X5.2009 Y-15.0018 F120.00
G01 X5.2009 Y-14.4137 F120.00
G01 X5.2002 Y-14.4100 F120.00
G01 X5.1984 Y-14.4067 F120.00
G01 X5.1956 Y-14.4041 F120.00
G01 X5.1922 Y-14.4025 F120.00
G01 X5.1890 Y-14.4021 F120.00
G01 X2.9890 Y-14.4021 F120.00
G01 X2.9844 Y-14.4030 F120.00
G01 X2.9806 Y-14.4056 F120.00
G01 X2.9780 Y-14.4094 F120.00
G01 X2.9771 Y-14.4140 F120.00
G00 Z2.0000
G00 X2.9890 Y-14.0859
G01 F60.00
G01 Z-0.0900
G01 F120.00
G01 X5.1890 Y-14.0859 F120.00
G01 X5.1922 Y-14.0855 F120.00
G01 X5.1956 Y-14.0839 F120.00
G01 X5.1984 Y-14.0813 F120.00
G01 X5.2002 Y-14.0780 F120.00
G01 X5.2009 Y-14.0743 F120.00
G01 X5.2009 Y-13.4862 F120.00
G01 X14.2940 Y-13.4862 F120.00
G01 X14.3448 Y-13.4836 F120.00
G01 X14.3939 Y-13.4763 F120.00
G01 X14.4427 Y-13.4641 F120.00
G01 X14.4900 Y-13.4472 F120.00
G01 X14.5359 Y-13.4254 F120.00
G01 X14.5785 Y-13.3998 F120.00
G01 X14.6184 Y-13.3703 F120.00
G01 X14.6559 Y-13.3363 F120.00
G01 X15.8561 Y-12.1361 F120.00
G01 X15.8899 Y-12.0989 F120.00
G01 X15.9198 Y-12.0585 F120.00
G01 X15.9459 Y-12.0149 F120.00
G01 X15.9672 Y-11.9700 F120.00
G01 X15.9839 Y-11.9232 F120.00
G01 X15.9963 Y-11.8739 F120.00
G01 X16.0037 Y-11.8242 F120.00
G01 X16.0061 Y-11.7743 F120.00
G01 X16.0062 Y-11.5259 F120.00
G01 X16.5940 Y-11.5259 F120.00
G01 X16.5975 Y-11.5254 F120.00
G01 X16.6006 Y-11.5239 F120.00
G01 X16.6032 Y-11.5215 F120.00
G01 X16.6049 Y-11.5188 F120.00
G01 X16.6057 Y-11.5163 F120.00
G01 X16.6059 Y-11.5140 F120.00
G01 X16.6059 Y-9.3140 F120.00
G01 X16.6055 Y-9.3108 F120.00
G01 X16.6039 Y-9.3074 F120.00
G01 X16.6013 Y-9.3046 F120.00
G01 X16.5980 Y-9.3028 F120.00
G01 X16.5943 Y-9.3021 F120.00
G01 X16.0062 Y-9.3021 F120.00
G01 X16.0062 Y-9.2661 F120.00
G01 X16.6321 Y-8.6402 F120.00
G01 X21.1239 Y-8.6402 F120.00
G01 X25.7999 Y-13.3161 F120.00
G01 X25.8371 Y-13.3499 F120.00
G01 X25.8780 Y-13.3801 F120.00
G01 X25.9206 Y-13.4057 F120.00
G01 X25.9655 Y-13.4269 F120.00
G01 X26.0133 Y-13.4441 F120.00
G01 X26.0621 Y-13.4563 F120.00
G01 X26.1112 Y-13.4636 F120.00
G01 X26.1620 Y-13.4662 F120.00
G01 X37.3099 Y-13.4662 F120.00
G01 X40.0438 Y-16.2001 F120.00
G01 X40.0438 Y-17.1761 F120.00
G01 X39.4557 Y-17.1761 F120.00
G01 X39.4520 Y-17.1768 F120.00
G01 X39.4485 Y-17.1788 F120.00
G01 X39.4458 Y-17.1819 F120.00
G01 X39.4443 Y-17.1857 F120.00
G01 X39.4441 Y-19.3880 F120.00
G01 X39.4447 Y-19.3917 F120.00
G01 X39.4464 Y-19.3951 F120.00
G01 X39.4485 Y-19.3972 F120.00
G01 X39.4506 Y-19.3986 F120.00
G01 X39.4534 Y-19.3996 F120.00
G01 X39.4560 Y-19.3999 F120.00
G01 X41.6560 Y-19.3999 F120.00
G01 X41.6603 Y-19.3991 F120.00
G01 X41.6638 Y-19.3970 F120.00
G01 X41.6665 Y-19.3936 F120.00
G01 X41.6678 Y-19.3897 F120.00
G01 X41.6677 Y-17.1860 F120.00
G01 X41.6664 Y-17.1821 F120.00
G01 X41.6638 Y-17.1790 F120.00
G01 X41.6603 Y-17.1769 F120.00
G01 X41.6563 Y-17.1761 F120.00
G01 X41.0682 Y-17.1761 F120.00
G01 X41.0681 Y-15.9874 F120.00
G01 X41.0656 Y-15.9372 F120.00
G01 X41.0583 Y-15.8881 F120.00
G01 X41.0463 Y-15.8399 F120.00
G01 X41.0292 Y-15.7920 F120.00
G01 X41.0075 Y-15.7463 F120.00
G01 X40.9818 Y-15.7035 F120.00
G01 X40.9523 Y-15.6636 F120.00
G01 X40.9181 Y-15.6259 F120.00
G01 X37.8841 Y-12.5919 F120.00
G01 X37.8464 Y-12.5577 F120.00
G01 X37.8065 Y-12.5282 F120.00
G01 X37.7637 Y-12.5025 F120.00
G01 X37.7180 Y-12.4808 F120.00
G01 X37.6701 Y-12.4637 F120.00
G01 X37.6219 Y-12.4517 F120.00
G01 X37.5728 Y-12.4444 F120.00
G01 X37.5220 Y-12.4418 F120.00
G01 X26.3741 Y-12.4418 F120.00
G01 X21.6979 Y-7.7657 F120.00
G01 X21.6609 Y-7.7321 F120.00
G01 X21.6210 Y-7.7025 F120.00
G01 X21.5769 Y-7.6761 F120.00
G01 X21.5320 Y-7.6548 F120.00
G01 X21.4847 Y-7.6379 F120.00
G01 X21.4359 Y-7.6257 F120.00
G01 X21.3868 Y-7.6184 F120.00
G01 X21.3360 Y-7.6158 F120.00
G01 X16.4197 Y-7.6159 F120.00
G01 X16.3698 Y-7.6183 F120.00
G01 X16.3207 Y-7.6256 F120.00
G01 X16.2713 Y-7.6379 F120.00
G01 X16.2240 Y-7.6548 F120.00
G01 X16.1791 Y-7.6761 F120.00
G01 X16.1355 Y-7.7022 F120.00
G01 X16.0951 Y-7.7321 F120.00
G01 X16.0579 Y-7.7659 F120.00
G01 X15.1319 Y-8.6919 F120.00
G01 X15.0981 Y-8.7291 F120.00
G01 X15.0683 Y-8.7692 F120.00
G01 X15.0423 Y-8.8126 F120.00
G01 X15.0208 Y-8.8580 F120.00
G01 X15.0039 Y-8.9053 F120.00
G01 X14.9916 Y-8.9544 F120.00
G01 X14.9843 Y-9.0038 F120.00
G01 X14.9819 Y-9.0537 F120.00
G01 X14.9818 Y-9.3021 F120.00
G01 X14.3940 Y-9.3021 F120.00
G01 X14.3905 Y-9.3026 F120.00
G01 X14.3874 Y-9.3041 F120.00
G01 X14.3848 Y-9.3065 F120.00
G01 X14.3831 Y-9.3092 F120.00
G01 X14.3824 Y-9.3114 F120.00
G01 X14.3821 Y-9.3140 F120.00
G01 X14.3821 Y-11.5140 F120.00
G01 X14.3825 Y-11.5172 F120.00
G01 X14.3841 Y-11.5206 F120.00
G01 X14.3867 Y-11.5234 F120.00
G01 X14.3900 Y-11.5252 F120.00
G01 X14.3937 Y-11.5259 F120.00
G01 X14.9818 Y-11.5259 F120.00
G01 X14.9818 Y-11.5619 F120.00
G01 X14.0819 Y-12.4618 F120.00
G01 X5.2009 Y-12.4618 F120.00
G01 X5.2009 Y-11.8737 F120.00
G01 X5.2002 Y-11.8700 F120.00
G01 X5.1984 Y-11.8667 F120.00
G01 X5.1956 Y-11.8641 F120.00
G01 X5.1922 Y-11.8625 F120.00
G01 X5.1890 Y-11.8621 F120.00
G01 X2.9873 Y-11.8622 F120.00
G01 X2.9834 Y-11.8635 F120.00
G01 X2.9800 Y-11.8662 F120.00
G01 X2.9778 Y-11.8700 F120.00
G01 X2.9771 Y-11.8740 F120.00
G01 X2.9771 Y-14.0740 F120.00
G01 X2.9780 Y-14.0786 F120.00
G01 X2.9806 Y-14.0824 F120.00
G01 X2.9844 Y-14.0850 F120.00
G01 X2.9890 Y-14.0859 F120.00
G00 Z2.0000
G00 X16.9340 Y-11.5259
G01 F60.00
G01 Z-0.0900
G01 F120.00
G01 X18.4216 Y-11.5259 F120.00
G01 X20.1112 Y-13.2155 F120.00
G01 X20.1013 Y-13.2321 F120.00
G01 X20.0547 Y-13.3305 F120.00
G01 X20.0180 Y-13.4332 F120.00
G01 X19.9915 Y-13.5391 F120.00
G01 X19.9754 Y-13.6476 F120.00
G01 X19.9701 Y-13.7566 F120.00
G01 X19.9755 Y-13.8650 F120.00
G01 X19.9914 Y-13.9723 F120.00
G01 X20.0180 Y-14.0788 F120.00
G01 X20.0550 Y-14.1820 F120.00
G01 X20.1017 Y-14.2807 F120.00
G01 X20.1575 Y-14.3737 F120.00
G01 X20.2221 Y-14.4609 F120.00
G01 X20.2958 Y-14.5422 F120.00
G01 X20.3766 Y-14.6155 F120.00
G01 X20.4648 Y-14.6808 F120.00
G01 X20.5579 Y-14.7366 F120.00
G01 X20.6560 Y-14.7830 F120.00
G01 X20.7592 Y-14.8200 F120.00
G01 X20.8651 Y-14.8465 F120.00
G01 X20.9730 Y-14.8625 F120.00
G01 X21.0814 Y-14.8679 F120.00
G01 X21.1916 Y-14.8625 F120.00
G01 X21.2989 Y-14.8465 F120.00
G01 X21.4048 Y-14.8200 F120.00
G01 X21.5075 Y-14.7833 F120.00
G01 X21.6059 Y-14.7367 F120.00
G01 X21.6997 Y-14.6805 F120.00
G01 X21.7869 Y-14.6159 F120.00
G01 X21.8684 Y-14.5420 F120.00
G01 X21.9415 Y-14.4614 F120.00
G01 X22.0063 Y-14.3740 F120.00
G01 X22.0625 Y-14.2804 F120.00
G01 X22.0872 Y-14.2282 F120.00
G01 X22.8897 Y-14.2282 F120.00
G01 X22.8957 Y-14.2407 F120.00
G01 X22.9518 Y-14.3342 F120.00
G01 X23.0165 Y-14.4214 F120.00
G01 X23.0902 Y-14.5026 F120.00
G01 X23.1706 Y-14.5755 F120.00
G01 X23.2583 Y-14.6405 F120.00
G01 X23.3519 Y-14.6966 F120.00
G01 X23.4502 Y-14.7431 F120.00
G01 X23.5532 Y-14.7800 F120.00
G01 X23.6591 Y-14.8065 F120.00
G01 X23.7670 Y-14.8225 F120.00
G01 X23.8754 Y-14.8279 F120.00
G01 X23.9850 Y-14.8225 F120.00
G01 X24.0923 Y-14.8066 F120.00
G01 X24.1982 Y-14.7802 F120.00
G01 X24.2113 Y-14.7756 F120.00
G01 X24.2761 Y-14.8403 F120.00
G01 X24.3131 Y-14.8739 F120.00
G01 X24.3535 Y-14.9038 F120.00
G01 X24.3963 Y-14.9295 F120.00
G01 X24.4420 Y-14.9512 F120.00
G01 X24.4893 Y-14.9681 F120.00
G01 X24.5381 Y-14.9803 F120.00
G01 X24.5881 Y-14.9877 F120.00
G01 X24.6380 Y-14.9902 F120.00
G01 X35.1539 Y-14.9902 F120.00
G01 X37.3398 Y-17.1761 F120.00
G01 X36.9157 Y-17.1761 F120.00
G01 X36.9120 Y-17.1768 F120.00
G01 X36.9085 Y-17.1788 F120.00
G01 X36.9058 Y-17.1819 F120.00
G01 X36.9043 Y-17.1857 F120.00
G01 X36.9041 Y-19.3880 F120.00
G01 X36.9047 Y-19.3917 F120.00
G01 X36.9064 Y-19.3951 F120.00
G01 X36.9082 Y-19.3970 F120.00
G01 X36.9106 Y-19.3986 F120.00
G01 X36.9134 Y-19.3996 F120.00
G01 X36.9160 Y-19.3999 F120.00
G01 X37.5038 Y-19.3999 F120.00
G01 X37.5039 Y-19.4483 F120.00
G01 X37.5063 Y-19.4985 F120.00
G01 X37.5137 Y-19.5479 F120.00
G01 X37.5259 Y-19.5967 F120.00
G01 X37.5428 Y-19.6440 F120.00
G01 X37.5643 Y-19.6894 F120.00
G01 X37.5902 Y-19.7325 F120.00
G01 X37.6203 Y-19.7731 F120.00
G01 X37.6539 Y-19.8101 F120.00
G01 X39.2883 Y-21.4445 F120.00
G01 X39.3251 Y-21.4779 F120.00
G01 X39.3655 Y-21.5078 F120.00
G01 X39.4086 Y-21.5337 F120.00
G01 X39.4540 Y-21.5552 F120.00
G01 X39.5013 Y-21.5721 F120.00
G01 X39.5501 Y-21.5843 F120.00
G01 X39.5998 Y-21.5917 F120.00
G01 X39.6537 Y-21.5942 F120.00
G01 X39.6597 Y-21.6067 F120.00
G01 X39.7158 Y-21.7002 F120.00
G01 X39.7805 Y-21.7874 F120.00
G01 X39.8538 Y-21.8682 F120.00
G01 X39.9351 Y-21.9419 F120.00
G01 X40.0223 Y-22.0065 F120.00
G01 X40.1153 Y-22.0623 F120.00
G01 X40.2145 Y-22.1093 F120.00
G01 X40.3172 Y-22.1460 F120.00
G01 X40.4231 Y-22.1725 F120.00
G01 X40.5307 Y-22.1885 F120.00
G01 X40.6406 Y-22.1939 F120.00
G01 X40.7490 Y-22.1885 F120.00
G01 X40.8569 Y-22.1725 F120.00
G01 X40.9633 Y-22.1458 F120.00
G01 X41.0655 Y-22.1093 F120.00
G01 X41.1641 Y-22.0626 F120.00
G01 X41.2577 Y-22.0065 F120.00
G01 X41.3449 Y-21.9419 F120.00
G01 X41.4262 Y-21.8682 F120.00
G01 X41.4995 Y-21.7874 F120.00
G01 X41.5642 Y-21.7002 F120.00
G01 X41.6203 Y-21.6067 F120.00
G01 X41.6263 Y-21.5942 F120.00
G01 X44.3456 Y-21.5942 F120.00
G01 X44.3515 Y-21.6067 F120.00
G01 X44.4074 Y-21.6997 F120.00
G01 X44.4727 Y-21.7878 F120.00
G01 X44.5456 Y-21.8682 F120.00
G01 X44.6260 Y-21.9411 F120.00
G01 X44.7146 Y-22.0068 F120.00
G01 X44.8077 Y-22.0626 F120.00
G01 X44.9058 Y-22.1090 F120.00
G01 X45.0091 Y-22.1460 F120.00
G01 X45.1149 Y-22.1725 F120.00
G01 X45.2223 Y-22.1885 F120.00
G01 X45.3319 Y-22.1939 F120.00
G01 X45.4414 Y-22.1885 F120.00
G01 X45.5488 Y-22.1725 F120.00
G01 X45.6546 Y-22.1460 F120.00
G01 X45.7579 Y-22.1090 F120.00
G01 X45.8560 Y-22.0626 F120.00
G01 X45.9491 Y-22.0068 F120.00
G01 X46.0377 Y-21.9411 F120.00
G01 X46.1181 Y-21.8682 F120.00
G01 X46.1910 Y-21.7878 F120.00
G01 X46.2564 Y-21.6997 F120.00
G01 X46.3122 Y-21.6067 F120.00
G01 X46.3182 Y-21.5942 F120.00
G01 X47.2440 Y-21.5942 F120.00
G01 X47.2936 Y-21.5917 F120.00
G01 X47.3439 Y-21.5843 F120.00
G01 X47.3927 Y-21.5721 F120.00
G01 X47.4400 Y-21.5552 F120.00
G01 X47.4852 Y-21.5338 F120.00
G01 X47.5290 Y-21.5075 F120.00
G01 X47.5689 Y-21.4779 F120.00
G01 X47.6061 Y-21.4441 F120.00
G01 X53.5521 Y-15.4982 F120.00
G01 X55.5301 Y-15.4982 F120.00
G01 X55.5301 Y-16.0863 F120.00
G01 X55.5309 Y-16.0903 F120.00
G01 X55.5330 Y-16.0938 F120.00
G01 X55.5361 Y-16.0964 F120.00
G01 X55.5403 Y-16.0978 F120.00
G01 X57.7420 Y-16.0979 F120.00
G01 X57.7463 Y-16.0971 F120.00
G01 X57.7498 Y-16.0950 F120.00
G01 X57.7525 Y-16.0916 F120.00
G01 X57.7538 Y-16.0875 F120.00
G01 X57.7539 Y-13.8860 F120.00
G01 X57.7530 Y-13.8814 F120.00
G01 X57.7504 Y-13.8776 F120.00
G01 X57.7466 Y-13.8750 F120.00
G01 X57.7420 Y-13.8741 F120.00
G01 X55.5420 Y-13.8741 F120.00
G01 X55.5391 Y-13.8745 F120.00
G01 X55.5356 Y-13.8759 F120.00
G01 X55.5328 Y-13.8785 F120.00
G01 X55.5308 Y-13.8820 F120.00
G01 X55.5301 Y-13.8857 F120.00
G01 X55.5301 Y-14.4738 F120.00
G01 X53.3394 Y-14.4739 F120.00
G01 X53.2898 Y-14.4763 F120.00
G01 X53.2401 Y-14.4837 F120.00
G01 X53.1913 Y-14.4959 F120.00
G01 X53.1446 Y-14.5126 F120.00
G01 X53.0981 Y-14.5346 F120.00
G01 X53.0555 Y-14.5602 F120.00
G01 X53.0153 Y-14.5899 F120.00
G01 X52.9779 Y-14.6239 F120.00
G01 X47.0319 Y-20.5698 F120.00
G01 X46.3182 Y-20.5698 F120.00
G01 X46.3122 Y-20.5573 F120.00
G01 X46.2564 Y-20.4643 F120.00
G01 X46.1910 Y-20.3762 F120.00
G01 X46.1181 Y-20.2958 F120.00
G01 X46.0377 Y-20.2229 F120.00
G01 X45.9491 Y-20.1572 F120.00
G01 X45.8560 Y-20.1014 F120.00
G01 X45.7579 Y-20.0550 F120.00
G01 X45.6546 Y-20.0180 F120.00
G01 X45.5482 Y-19.9914 F120.00
G01 X45.4408 Y-19.9755 F120.00
G01 X45.3322 Y-19.9701 F120.00
G01 X45.2223 Y-19.9755 F120.00
G01 X45.1149 Y-19.9915 F120.00
G01 X45.0091 Y-20.0180 F120.00
G01 X44.9058 Y-20.0550 F120.00
G01 X44.8077 Y-20.1014 F120.00
G01 X44.7146 Y-20.1572 F120.00
G01 X44.6260 Y-20.2229 F120.00
G01 X44.5456 Y-20.2958 F120.00
G01 X44.4727 Y-20.3762 F120.00
G01 X44.4074 Y-20.4643 F120.00
G01 X44.3515 Y-20.5573 F120.00
G01 X44.3456 Y-20.5698 F120.00
G01 X41.6263 Y-20.5698 F120.00
G01 X41.6203 Y-20.5573 F120.00
G01 X41.5645 Y-20.4643 F120.00
G01 X41.4991 Y-20.3762 F120.00
G01 X41.4262 Y-20.2958 F120.00
G01 X41.3458 Y-20.2229 F120.00
G01 X41.2572 Y-20.1572 F120.00
G01 X41.1641 Y-20.1014 F120.00
G01 X41.0660 Y-20.0550 F120.00
G01 X40.9628 Y-20.0180 F120.00
G01 X40.8563 Y-19.9914 F120.00
G01 X40.7490 Y-19.9755 F120.00
G01 X40.6403 Y-19.9701 F120.00
G01 X40.5310 Y-19.9755 F120.00
G01 X40.4225 Y-19.9916 F120.00
G01 X40.3172 Y-20.0180 F120.00
G01 X40.2150 Y-20.0545 F120.00
G01 X40.1161 Y-20.1013 F120.00
G01 X40.0223 Y-20.1575 F120.00
G01 X39.9342 Y-20.2229 F120.00
G01 X39.8534 Y-20.2962 F120.00
G01 X39.7805 Y-20.3766 F120.00
G01 X39.7330 Y-20.4407 F120.00
G01 X38.6922 Y-19.3999 F120.00
G01 X39.1163 Y-19.3999 F120.00
G01 X39.1200 Y-19.3992 F120.00
G01 X39.1235 Y-19.3972 F120.00
G01 X39.1262 Y-19.3941 F120.00
G01 X39.1277 Y-19.3903 F120.00
G01 X39.1279 Y-17.1880 F120.00
G01 X39.1275 Y-17.1848 F120.00
G01 X39.1261 Y-17.1816 F120.00
G01 X39.1242 Y-17.1794 F120.00
G01 X39.1219 Y-17.1776 F120.00
G01 X39.1192 Y-17.1765 F120.00
G01 X39.1160 Y-17.1761 F120.00
G01 X38.5282 Y-17.1761 F120.00
G01 X38.5281 Y-17.1277 F120.00
G01 X38.5257 Y-17.0781 F120.00
G01 X38.5184 Y-17.0287 F120.00
G01 X38.5061 Y-16.9793 F120.00
G01 X38.4894 Y-16.9326 F120.00
G01 X38.4677 Y-16.8866 F120.00
G01 X38.4418 Y-16.8435 F120.00
G01 X38.4119 Y-16.8031 F120.00
G01 X38.3783 Y-16.7661 F120.00
G01 X35.7281 Y-14.1159 F120.00
G01 X35.6909 Y-14.0821 F120.00
G01 X35.6505 Y-14.0522 F120.00
G01 X35.6074 Y-14.0263 F120.00
G01 X35.5617 Y-14.0047 F120.00
G01 X35.5147 Y-13.9879 F120.00
G01 X35.4659 Y-13.9757 F120.00
G01 X35.4162 Y-13.9683 F120.00
G01 X35.3660 Y-13.9658 F120.00
G01 X24.9583 Y-13.9658 F120.00
G01 X24.9666 Y-13.9326 F120.00
G01 X24.9825 Y-13.8253 F120.00
G01 X24.9879 Y-13.7163 F120.00
G01 X24.9825 Y-13.6070 F120.00
G01 X24.9666 Y-13.4994 F120.00
G01 X24.9400 Y-13.3932 F120.00
G01 X24.9033 Y-13.2905 F120.00
G01 X24.8566 Y-13.1919 F120.00
G01 X24.8003 Y-13.0980 F120.00
G01 X24.7355 Y-13.0106 F120.00
G01 X24.6618 Y-12.9294 F120.00
G01 X24.5809 Y-12.8561 F120.00
G01 X24.4937 Y-12.7915 F120.00
G01 X24.4007 Y-12.7357 F120.00
G01 X24.3015 Y-12.6887 F120.00
G01 X24.1988 Y-12.6520 F120.00
G01 X24.0929 Y-12.6255 F120.00
G01 X23.9844 Y-12.6094 F120.00
G01 X23.8760 Y-12.6041 F120.00
G01 X23.7676 Y-12.6094 F120.00
G01 X23.6591 Y-12.6255 F120.00
G01 X23.5527 Y-12.6522 F120.00
G01 X23.4505 Y-12.6887 F120.00
G01 X23.3519 Y-12.7354 F120.00
G01 X23.2583 Y-12.7915 F120.00
G01 X23.1711 Y-12.8561 F120.00
G01 X23.0898 Y-12.9298 F120.00
G01 X23.0165 Y-13.0106 F120.00
G01 X22.9518 Y-13.0978 F120.00
G01 X22.8957 Y-13.1913 F120.00
G01 X22.8897 Y-13.2038 F120.00
G01 X22.0458 Y-13.2038 F120.00
G01 X22.0065 Y-13.1383 F120.00
G01 X21.9419 Y-13.0511 F120.00
G01 X21.8680 Y-12.9696 F120.00
G01 X21.7874 Y-12.8965 F120.00
G01 X21.7002 Y-12.8318 F120.00
G01 X21.6061 Y-12.7754 F120.00
G01 X21.5070 Y-12.7285 F120.00
G01 X21.4048 Y-12.6920 F120.00
G01 X21.2989 Y-12.6655 F120.00
G01 X21.1904 Y-12.6494 F120.00
G01 X21.0820 Y-12.6441 F120.00
G01 X20.9928 Y-12.6485 F120.00
G01 X19.1459 Y-10.8016 F120.00
G01 X19.1459 Y-9.3140 F120.00
G01 X19.1451 Y-9.3097 F120.00
G01 X19.1428 Y-9.3060 F120.00
G01 X19.1394 Y-9.3034 F120.00
G01 X19.1355 Y-9.3022 F120.00
G01 X16.9340 Y-9.3021 F120.00
G01 X16.9294 Y-9.3030 F120.00
G01 X16.9256 Y-9.3056 F120.00
G01 X16.9230 Y-9.3094 F120.00
G01 X16.9221 Y-9.3140 F120.00
G01 X16.9221 Y-11.5140 F120.00
G01 X16.9230 Y-11.5186 F120.00
G01 X16.9256 Y-11.5224 F120.00
G01 X16.9294 Y-11.5250 F120.00
G01 X16.9340 Y-11.5259 F120.00
G00 Z2.0000
G00 X13.2893 Y-3.8936
G01 F60.00
G01 Z-0.0900
G01 F120.00
G01 X13.3141 Y-3.9183 F120.00
G01 X13.3513 Y-3.9521 F120.00
G01 X13.3915 Y-3.9818 F120.00
G01 X13.4348 Y-4.0078 F120.00
G01 X13.4800 Y-4.0292 F120.00
G01 X13.5273 Y-4.0461 F120.00
G01 X13.5761 Y-4.0583 F120.00
G01 X13.6255 Y-4.0657 F120.00
G01 X13.6760 Y-4.0682 F120.00
G01 X14.7739 Y-4.0682 F120.00
G01 X15.6399 Y-4.9341 F120.00
G01 X15.6771 Y-4.9679 F120.00
G01 X15.7175 Y-4.9978 F120.00
G01 X15.7601 Y-5.0234 F120.00
G01 X15.8066 Y-5.0454 F120.00
G01 X15.8533 Y-5.0621 F120.00
G01 X15.9021 Y-5.0743 F120.00
G01 X15.9518 Y-5.0817 F120.00
G01 X16.0014 Y-5.0841 F120.00
G01 X22.9019 Y-5.0842 F120.00
G01 X23.0061 Y-5.1883 F120.00
G01 X23.0429 Y-5.2217 F120.00
G01 X23.0835 Y-5.2518 F120.00
G01 X23.1266 Y-5.2777 F120.00
G01 X23.1726 Y-5.2994 F120.00
G01 X23.2193 Y-5.3161 F120.00
G01 X23.2675 Y-5.3282 F120.00
G01 X23.3178 Y-5.3357 F120.00
G01 X23.3680 Y-5.3382 F120.00
G01 X55.5301 Y-5.3382 F120.00
G01 X55.5301 Y-5.9263 F120.00
G01 X55.5308 Y-5.9300 F120.00
G01 X55.5326 Y-5.9333 F120.00
G01 X55.5354 Y-5.9359 F120.00
G01 X55.5388 Y-5.9375 F120.00
G01 X55.5420 Y-5.9379 F120.00
G01 X57.7420 Y-5.9379 F120.00
G01 X57.7466 Y-5.9370 F120.00
G01 X57.7502 Y-5.9346 F120.00
G01 X57.7529 Y-5.9308 F120.00
G01 X57.7539 Y-5.9266 F120.00
G01 X57.7539 Y-3.7260 F120.00
G01 X57.7531 Y-3.7217 F120.00
G01 X57.7508 Y-3.7180 F120.00
G01 X57.7474 Y-3.7154 F120.00
G01 X57.7432 Y-3.7142 F120.00
G01 X55.5420 Y-3.7141 F120.00
G01 X55.5388 Y-3.7145 F120.00
G01 X55.5354 Y-3.7161 F120.00
G01 X55.5326 Y-3.7187 F120.00
G01 X55.5308 Y-3.7220 F120.00
G01 X55.5301 Y-3.7257 F120.00
G01 X55.5301 Y-4.3138 F120.00
G01 X23.5801 Y-4.3138 F120.00
G01 X23.4759 Y-4.2097 F120.00
G01 X23.4391 Y-4.1763 F120.00
G01 X23.3985 Y-4.1462 F120.00
G01 X23.3554 Y-4.1203 F120.00
G01 X23.3100 Y-4.0988 F120.00
G01 X23.2621 Y-4.0817 F120.00
G01 X23.2139 Y-4.0697 F120.00
G01 X23.1648 Y-4.0624 F120.00
G01 X23.1143 Y-4.0599 F120.00
G01 X16.2141 Y-4.0598 F120.00
G01 X15.3479 Y-3.1937 F120.00
G01 X15.3109 Y-3.1601 F120.00
G01 X15.2705 Y-3.1302 F120.00
G01 X15.2274 Y-3.1043 F120.00
G01 X15.1825 Y-3.0831 F120.00
G01 X15.1347 Y-3.0659 F120.00
G01 X15.0859 Y-3.0537 F120.00
G01 X15.0362 Y-3.0463 F120.00
G01 X14.9863 Y-3.0439 F120.00
G01 X14.0456 Y-3.0438 F120.00
G01 X14.0605 Y-2.9430 F120.00
G01 X14.0659 Y-2.8346 F120.00
G01 X14.0605 Y-2.7250 F120.00
G01 X14.0445 Y-2.6171 F120.00
G01 X14.0182 Y-2.5118 F120.00
G01 X13.9813 Y-2.4085 F120.00
G01 X13.9343 Y-2.3093 F120.00
G01 X13.8785 Y-2.2163 F120.00
G01 X13.8135 Y-2.1286 F120.00
G01 X13.7402 Y-2.0478 F120.00
G01 X13.6598 Y-1.9749 F120.00
G01 X13.5715 Y-1.9093 F120.00
G01 X13.4781 Y-1.8534 F120.00
G01 X13.3790 Y-1.8065 F120.00
G01 X13.2762 Y-1.7698 F120.00
G01 X13.1709 Y-1.7435 F120.00
G01 X13.0636 Y-1.7275 F120.00
G01 X12.9540 Y-1.7221 F120.00
G01 X12.8450 Y-1.7275 F120.00
G01 X12.7371 Y-1.7435 F120.00
G01 X12.6312 Y-1.7700 F120.00
G01 X12.5285 Y-1.8067 F120.00
G01 X12.4299 Y-1.8534 F120.00
G01 X12.3363 Y-1.9095 F120.00
G01 X12.2486 Y-1.9745 F120.00
G01 X12.1678 Y-2.0478 F120.00
G01 X12.0945 Y-2.1286 F120.00
G01 X12.0295 Y-2.2163 F120.00
G01 X11.9734 Y-2.3099 F120.00
G01 X11.9267 Y-2.4085 F120.00
G01 X11.8900 Y-2.5112 F120.00
G01 X11.8635 Y-2.6171 F120.00
G01 X11.8475 Y-2.7250 F120.00
G01 X11.8421 Y-2.8340 F120.00
G01 X11.8475 Y-2.9430 F120.00
G01 X11.8635 Y-3.0509 F120.00
G01 X11.8900 Y-3.1568 F120.00
G01 X11.9267 Y-3.2595 F120.00
G01 X11.9734 Y-3.3581 F120.00
G01 X12.0295 Y-3.4517 F120.00
G01 X12.0945 Y-3.5394 F120.00
G01 X12.1678 Y-3.6202 F120.00
G01 X12.2486 Y-3.6935 F120.00
G01 X12.3363 Y-3.7585 F120.00
G01 X12.4299 Y-3.8146 F120.00
G01 X12.5285 Y-3.8613 F120.00
G01 X12.6312 Y-3.8980 F120.00
G01 X12.7371 Y-3.9245 F120.00
G01 X12.8450 Y-3.9405 F120.00
G01 X12.9540 Y-3.9459 F120.00
G01 X13.0630 Y-3.9405 F120.00
G01 X13.1709 Y-3.9245 F120.00
G01 X13.2762 Y-3.8982 F120.00
G01 X13.2893 Y-3.8936 F120.00
G00 Z2.0000
G00 X26.7560 Y-11.7799
G01 F60.00
G01 Z-0.0900
G01 F120.00
G01 X28.9560 Y-11.7799 F120.00
G01 X28.9606 Y-11.7790 F120.00
G01 X28.9644 Y-11.7764 F120.00
G01 X28.9670 Y-11.7726 F120.00
G01 X28.9679 Y-11.7680 F120.00
G01 X28.9679 Y-9.5680 F120.00
G01 X28.9670 Y-9.5634 F120.00
G01 X28.9644 Y-9.5596 F120.00
G01 X28.9606 Y-9.5570 F120.00
G01 X28.9560 Y-9.5561 F120.00
G01 X26.7560 Y-9.5561 F120.00
G01 X26.7514 Y-9.5570 F120.00
G01 X26.7476 Y-9.5596 F120.00
G01 X26.7450 Y-9.5634 F120.00
G01 X26.7441 Y-9.5680 F120.00
G01 X26.7441 Y-11.7680 F120.00
G01 X26.7450 Y-11.7726 F120.00
G01 X26.7476 Y-11.7764 F120.00
G01 X26.7514 Y-11.7790 F120.00
G01 X26.7560 Y-11.7799 F120.00
G00 Z2.0000
G00 X29.2960 Y-11.7799
G01 F60.00
G01 Z-0.0900
G01 F120.00
G01 X31.4960 Y-11.7799 F120.00
G01 X31.5006 Y-11.7790 F120.00
G01 X31.5044 Y-11.7764 F120.00
G01 X31.5070 Y-11.7726 F120.00
G01 X31.5079 Y-11.7680 F120.00
G01 X31.5079 Y-9.5680 F120.00
G01 X31.5070 Y-9.5634 F120.00
G01 X31.5044 Y-9.5596 F120.00
G01 X31.5006 Y-9.5570 F120.00
G01 X31.4960 Y-9.5561 F120.00
G01 X29.2960 Y-9.5561 F120.00
G01 X29.2914 Y-9.5570 F120.00
G01 X29.2876 Y-9.5596 F120.00
G01 X29.2850 Y-9.5634 F120.00
G01 X29.2841 Y-9.5680 F120.00
G01 X29.2841 Y-11.7680 F120.00
G01 X29.2850 Y-11.7726 F120.00
G01 X29.2876 Y-11.7764 F120.00
G01 X29.2914 Y-11.7790 F120.00
G01 X29.2960 Y-11.7799 F120.00
G00 Z2.0000
G00 X31.8360 Y-11.7799
G01 F60.00
G01 Z-0.0900
G01 F120.00
G01 X34.0360 Y-11.7799 F120.00
G01 X34.0406 Y-11.7790 F120.00
G01 X34.0444 Y-11.7764 F120.00
G01 X34.0470 Y-11.7726 F120.00
G01 X34.0479 Y-11.7680 F120.00
G01 X34.0479 Y-9.5680 F120.00
G01 X34.0470 Y-9.5634 F120.00
G01 X34.0444 Y-9.5596 F120.00
G01 X34.0406 Y-9.5570 F120.00
G01 X34.0360 Y-9.5561 F120.00
G01 X31.8360 Y-9.5561 F120.00
G01 X31.8314 Y-9.5570 F120.00
G01 X31.8276 Y-9.5596 F120.00
G01 X31.8250 Y-9.5634 F120.00
G01 X31.8241 Y-9.5680 F120.00
G01 X31.8241 Y-11.7680 F120.00
G01 X31.8250 Y-11.7726 F120.00
G01 X31.8276 Y-11.7764 F120.00
G01 X31.8314 Y-11.7790 F120.00
G01 X31.8360 Y-11.7799 F120.00
G00 Z2.0000
G00 X34.3760 Y-11.7799
G01 F60.00
G01 Z-0.0900
G01 F120.00
G01 X36.5760 Y-11.7799 F120.00
G01 X36.5806 Y-11.7790 F120.00
G01 X36.5844 Y-11.7764 F120.00
G01 X36.5870 Y-11.7726 F120.00
G01 X36.5879 Y-11.7680 F120.00
G01 X36.5879 Y-9.5680 F120.00
G01 X36.5870 Y-9.5634 F120.00
G01 X36.5844 Y-9.5596 F120.00
G01 X36.5806 Y-9.5570 F120.00
G01 X36.5760 Y-9.5561 F120.00
G01 X34.3760 Y-9.5561 F120.00
G01 X34.3714 Y-9.5570 F120.00
G01 X34.3676 Y-9.5596 F120.00
G01 X34.3650 Y-9.5634 F120.00
G01 X34.3641 Y-9.5680 F120.00
G01 X34.3641 Y-11.7680 F120.00
G01 X34.3650 Y-11.7726 F120.00
G01 X34.3676 Y-11.7764 F120.00
G01 X34.3714 Y-11.7790 F120.00
G01 X34.3760 Y-11.7799 F120.00
G00 Z2.0000
G00 X39.4560 Y-11.7799
G01 F60.00
G01 Z-0.0900
G01 F120.00
G01 X41.6560 Y-11.7799 F120.00
G01 X41.6606 Y-11.7790 F120.00
G01 X41.6644 Y-11.7764 F120.00
G01 X41.6670 Y-11.7726 F120.00
G01 X41.6679 Y-11.7680 F120.00
G01 X41.6679 Y-9.5680 F120.00
G01 X41.6670 Y-9.5634 F120.00
G01 X41.6644 Y-9.5596 F120.00
G01 X41.6606 Y-9.5570 F120.00
G01 X41.6560 Y-9.5561 F120.00
G01 X39.4560 Y-9.5561 F120.00
G01 X39.4514 Y-9.5570 F120.00
G01 X39.4476 Y-9.5596 F120.00
G01 X39.4450 Y-9.5634 F120.00
G01 X39.4441 Y-9.5680 F120.00
G01 X39.4441 Y-11.7680 F120.00
G01 X39.4450 Y-11.7726 F120.00
G01 X39.4476 Y-11.7764 F120.00
G01 X39.4514 Y-11.7790 F120.00
G01 X39.4560 Y-11.7799 F120.00
G00 Z2.0000
G00 X41.9960 Y-11.7799
G01 F60.00
G01 Z-0.0900
G01 F120.00
G01 X44.1960 Y-11.7799 F120.00
G01 X44.2006 Y-11.7790 F120.00
G01 X44.2044 Y-11.7764 F120.00
G01 X44.2070 Y-11.7726 F120.00
G01 X44.2079 Y-11.7680 F120.00
G01 X44.2079 Y-9.5680 F120.00
G01 X44.2070 Y-9.5634 F120.00
G01 X44.2044 Y-9.5596 F120.00
G01 X44.2006 Y-9.5570 F120.00
G01 X44.1960 Y-9.5561 F120.00
G01 X41.9960 Y-9.5561 F120.00
G01 X41.9914 Y-9.5570 F120.00
G01 X41.9876 Y-9.5596 F120.00
G01 X41.9850 Y-9.5634 F120.00
G01 X41.9841 Y-9.5680 F120.00
G01 X41.9841 Y-11.7680 F120.00
G01 X41.9850 Y-11.7726 F120.00
G01 X41.9876 Y-11.7764 F120.00
G01 X41.9914 Y-11.7790 F120.00
G01 X41.9960 Y-11.7799 F120.00
G00 Z2.0000
G00 X44.5360 Y-11.7799
G01 F60.00
G01 Z-0.0900
G01 F120.00
G01 X46.7360 Y-11.7799 F120.00
G01 X46.7406 Y-11.7790 F120.00
G01 X46.7444 Y-11.7764 F120.00
G01 X46.7470 Y-11.7726 F120.00
G01 X46.7479 Y-11.7680 F120.00
G01 X46.7479 Y-9.5680 F120.00
G01 X46.7470 Y-9.5634 F120.00
G01 X46.7444 Y-9.5596 F120.00
G01 X46.7406 Y-9.5570 F120.00
G01 X46.7360 Y-9.5561 F120.00
G01 X44.5360 Y-9.5561 F120.00
G01 X44.5314 Y-9.5570 F120.00
G01 X44.5276 Y-9.5596 F120.00
G01 X44.5250 Y-9.5634 F120.00
G01 X44.5241 Y-9.5680 F120.00
G01 X44.5241 Y-11.7680 F120.00
G01 X44.5250 Y-11.7726 F120.00
G01 X44.5276 Y-11.7764 F120.00
G01 X44.5314 Y-11.7790 F120.00
G01 X44.5360 Y-11.7799 F120.00
G00 Z2.0000
G00 X44.5360 Y-19.3999
G01 F60.00
G01 Z-0.0900
G01 F120.00
G01 X46.7360 Y-19.3999 F120.00
G01 X46.7406 Y-19.3990 F120.00
G01 X46.7444 Y-19.3964 F120.00
G01 X46.7470 Y-19.3926 F120.00
G01 X46.7479 Y-19.3880 F120.00
G01 X46.7479 Y-17.2224 F120.00
G01 X51.0121 Y-12.9582 F120.00
G01 X55.5301 Y-12.9582 F120.00
G01 X55.5301 Y-13.5463 F120.00
G01 X55.5308 Y-13.5500 F120.00
G01 X55.5326 Y-13.5533 F120.00
G01 X55.5354 Y-13.5559 F120.00
G01 X55.5388 Y-13.5575 F120.00
G01 X55.5420 Y-13.5579 F120.00
G01 X57.7420 Y-13.5579 F120.00
G01 X57.7449 Y-13.5575 F120.00
G01 X57.7486 Y-13.5559 F120.00
G01 X57.7514 Y-13.5533 F120.00
G01 X57.7533 Y-13.5497 F120.00
G01 X57.7539 Y-13.5460 F120.00
G01 X57.7539 Y-11.3460 F120.00
G01 X57.7535 Y-11.3428 F120.00
G01 X57.7522 Y-11.3399 F120.00
G01 X57.7504 Y-11.3376 F120.00
G01 X57.7479 Y-11.3356 F120.00
G01 X57.7452 Y-11.3345 F120.00
G01 X57.7420 Y-11.3341 F120.00
G01 X55.5420 Y-11.3341 F120.00
G01 X55.5388 Y-11.3345 F120.00
G01 X55.5354 Y-11.3361 F120.00
G01 X55.5326 Y-11.3387 F120.00
G01 X55.5308 Y-11.3420 F120.00
G01 X55.5301 Y-11.3457 F120.00
G01 X55.5301 Y-11.9338 F120.00
G01 X50.7997 Y-11.9339 F120.00
G01 X50.7498 Y-11.9363 F120.00
G01 X50.7007 Y-11.9436 F120.00
G01 X50.6513 Y-11.9559 F120.00
G01 X50.6035 Y-11.9731 F120.00
G01 X50.5586 Y-11.9943 F120.00
G01 X50.5160 Y-12.0199 F120.00
G01 X50.4751 Y-12.0501 F120.00
G01 X50.4379 Y-12.0839 F120.00
G01 X45.3456 Y-17.1761 F120.00
G01 X44.5360 Y-17.1761 F120.00
G01 X44.5334 Y-17.1764 F120.00
G01 X44.5309 Y-17.1772 F120.00
G01 X44.5287 Y-17.1786 F120.00
G01 X44.5268 Y-17.1805 F120.00
G01 X44.5248 Y-17.1840 F120.00
G01 X44.5241 Y-17.1880 F120.00
G01 X44.5241 Y-19.3880 F120.00
G01 X44.5250 Y-19.3926 F120.00
G01 X44.5276 Y-19.3964 F120.00
G01 X44.5314 Y-19.3990 F120.00
G01 X44.5360 Y-19.3999 F120.00
G00 Z2.0000
G00 X41.9960 Y-19.3999
G01 F60.00
G01 Z-0.0900
G01 F120.00
G01 X44.1960 Y-19.3999 F120.00
G01 X44.2006 Y-19.3990 F120.00
G01 X44.2029 Y-19.3977 F120.00
G01 X44.2046 Y-19.3962 F120.00
G01 X44.2070 Y-19.3926 F120.00
G01 X44.2079 Y-19.3880 F120.00
G01 X44.2078 Y-17.1868 F120.00
G01 X44.2068 Y-17.1829 F120.00
G01 X44.2042 Y-17.1794 F120.00
G01 X44.2008 Y-17.1771 F120.00
G01 X44.1966 Y-17.1761 F120.00
G01 X43.9982 Y-17.1761 F120.00
G01 X50.7561 Y-10.4182 F120.00
G01 X55.5301 Y-10.4182 F120.00
G01 X55.5301 Y-11.0063 F120.00
G01 X55.5308 Y-11.0100 F120.00
G01 X55.5326 Y-11.0133 F120.00
G01 X55.5354 Y-11.0159 F120.00
G01 X55.5388 Y-11.0175 F120.00
G01 X55.5420 Y-11.0179 F120.00
G01 X57.7420 Y-11.0179 F120.00
G01 X57.7446 Y-11.0176 F120.00
G01 X57.7484 Y-11.0161 F120.00
G01 X57.7514 Y-11.0133 F120.00
G01 X57.7533 Y-11.0097 F120.00
G01 X57.7539 Y-11.0060 F120.00
G01 X57.7539 Y-8.8060 F120.00
G01 X57.7534 Y-8.8025 F120.00
G01 X57.7519 Y-8.7994 F120.00
G01 X57.7500 Y-8.7972 F120.00
G01 X57.7476 Y-8.7955 F120.00
G01 X57.7449 Y-8.7945 F120.00
G01 X57.7420 Y-8.7941 F120.00
G01 X55.5420 Y-8.7941 F120.00
G01 X55.5388 Y-8.7945 F120.00
G01 X55.5354 Y-8.7961 F120.00
G01 X55.5326 Y-8.7987 F120.00
G01 X55.5308 Y-8.8020 F120.00
G01 X55.5301 Y-8.8057 F120.00
G01 X55.5301 Y-9.3938 F120.00
G01 X50.5437 Y-9.3939 F120.00
G01 X50.4938 Y-9.3963 F120.00
G01 X50.4447 Y-9.4036 F120.00
G01 X50.3953 Y-9.4159 F120.00
G01 X50.3480 Y-9.4328 F120.00
G01 X50.3031 Y-9.4541 F120.00
G01 X50.2595 Y-9.4802 F120.00
G01 X50.2191 Y-9.5101 F120.00
G01 X50.1819 Y-9.5439 F120.00
G01 X42.7339 Y-16.9919 F120.00
G01 X42.7001 Y-17.0291 F120.00
G01 X42.6700 Y-17.0697 F120.00
G01 X42.6442 Y-17.1128 F120.00
G01 X42.6230 Y-17.1577 F120.00
G01 X42.6163 Y-17.1761 F120.00
G01 X41.9960 Y-17.1761 F120.00
G01 X41.9934 Y-17.1764 F120.00
G01 X41.9909 Y-17.1772 F120.00
G01 X41.9887 Y-17.1786 F120.00
G01 X41.9868 Y-17.1805 F120.00
G01 X41.9848 Y-17.1840 F120.00
G01 X41.9841 Y-17.1880 F120.00
G01 X41.9841 Y-19.3880 F120.00
G01 X41.9850 Y-19.3926 F120.00
G01 X41.9876 Y-19.3964 F120.00
G01 X41.9914 Y-19.3990 F120.00
G01 X41.9960 Y-19.3999 F120.00
G00 Z2.0000
G00 X35.4165 Y-22.1709
G01 F60.00
G01 Z-0.0900
G01 F120.00
G01 X35.0364 Y-22.5509 F120.00
G01 X35.1477 Y-22.5970 F120.00
G01 X35.3908 Y-22.6554 F120.00
G01 X35.6400 Y-22.6750 F120.00
G01 X35.8892 Y-22.6554 F120.00
G01 X36.1323 Y-22.5970 F120.00
G01 X36.2436 Y-22.5509 F120.00
G01 X35.8635 Y-22.1709 F120.00
G01 X35.8563 Y-22.1726 F120.00
G01 X35.7490 Y-22.1885 F120.00
G01 X35.6400 Y-22.1939 F120.00
G01 X35.5310 Y-22.1885 F120.00
G01 X35.4237 Y-22.1726 F120.00
G01 X35.4165 Y-22.1709 F120.00
G00 Z2.0000
G00 X29.2960 Y-19.3999
G01 F60.00
G01 Z-0.0900
G01 F120.00
G01 X29.8838 Y-19.3999 F120.00
G01 X29.8838 Y-19.9820 F120.00
G01 X29.8863 Y-20.0325 F120.00
G01 X29.8937 Y-20.0819 F120.00
G01 X29.9057 Y-20.1301 F120.00
G01 X29.9228 Y-20.1780 F120.00
G01 X29.9443 Y-20.2234 F120.00
G01 X29.9699 Y-20.2660 F120.00
G01 X30.0005 Y-20.3073 F120.00
G01 X30.0339 Y-20.3441 F120.00
G01 X34.6901 Y-25.0003 F120.00
G01 X34.7271 Y-25.0339 F120.00
G01 X34.7675 Y-25.0638 F120.00
G01 X34.8106 Y-25.0897 F120.00
G01 X34.8555 Y-25.1109 F120.00
G01 X34.9039 Y-25.1283 F120.00
G01 X34.9521 Y-25.1403 F120.00
G01 X35.0021 Y-25.1477 F120.00
G01 X35.0520 Y-25.1502 F120.00
G01 X50.6466 Y-25.1502 F120.00
G01 X50.6968 Y-25.1477 F120.00
G01 X50.7462 Y-25.1404 F120.00
G01 X50.7958 Y-25.1279 F120.00
G01 X50.8426 Y-25.1112 F120.00
G01 X50.8880 Y-25.0897 F120.00
G01 X50.9316 Y-25.0635 F120.00
G01 X50.9715 Y-25.0339 F120.00
G01 X51.0085 Y-25.0003 F120.00
G01 X55.4307 Y-20.5782 F120.00
G01 X55.5301 Y-20.5782 F120.00
G01 X55.5301 Y-21.1663 F120.00
G01 X55.5309 Y-21.1703 F120.00
G01 X55.5328 Y-21.1735 F120.00
G01 X55.5356 Y-21.1761 F120.00
G01 X55.5391 Y-21.1775 F120.00
G01 X55.5420 Y-21.1779 F120.00
G01 X57.7420 Y-21.1779 F120.00
G01 X57.7466 Y-21.1770 F120.00
G01 X57.7502 Y-21.1746 F120.00
G01 X57.7528 Y-21.1711 F120.00
G01 X57.7539 Y-21.1669 F120.00
G01 X57.7539 Y-18.9660 F120.00
G01 X57.7530 Y-18.9614 F120.00
G01 X57.7504 Y-18.9576 F120.00
G01 X57.7466 Y-18.9550 F120.00
G01 X57.7420 Y-18.9541 F120.00
G01 X55.5405 Y-18.9542 F120.00
G01 X55.5366 Y-18.9554 F120.00
G01 X55.5332 Y-18.9580 F120.00
G01 X55.5309 Y-18.9617 F120.00
G01 X55.5301 Y-18.9657 F120.00
G01 X55.5301 Y-19.5538 F120.00
G01 X55.2183 Y-19.5539 F120.00
G01 X55.1684 Y-19.5563 F120.00
G01 X55.1190 Y-19.5636 F120.00
G01 X55.0694 Y-19.5761 F120.00
G01 X55.0226 Y-19.5928 F120.00
G01 X54.9777 Y-19.6141 F120.00
G01 X54.9341 Y-19.6402 F120.00
G01 X54.8933 Y-19.6705 F120.00
G01 X54.8565 Y-19.7039 F120.00
G01 X50.4345 Y-24.1258 F120.00
G01 X35.2641 Y-24.1258 F120.00
G01 X30.9082 Y-19.7699 F120.00
G01 X30.9082 Y-19.3999 F120.00
G01 X31.4963 Y-19.3999 F120.00
G01 X31.5000 Y-19.3992 F120.00
G01 X31.5035 Y-19.3972 F120.00
G01 X31.5062 Y-19.3941 F120.00
G01 X31.5076 Y-19.3906 F120.00
G01 X31.5079 Y-19.3880 F120.00
G01 X31.5079 Y-17.1880 F120.00
G01 X31.5076 Y-17.1854 F120.00
G01 X31.5068 Y-17.1829 F120.00
G01 X31.5052 Y-17.1805 F120.00
G01 X31.5033 Y-17.1786 F120.00
G01 X31.5000 Y-17.1768 F120.00
G01 X31.4960 Y-17.1761 F120.00
G01 X29.2960 Y-17.1761 F120.00
G01 X29.2914 Y-17.1770 F120.00
G01 X29.2876 Y-17.1796 F120.00
G01 X29.2850 Y-17.1834 F120.00
G01 X29.2841 Y-17.1880 F120.00
G01 X29.2841 Y-19.3880 F120.00
G01 X29.2850 Y-19.3926 F120.00
G01 X29.2876 Y-19.3964 F120.00
G01 X29.2914 Y-19.3990 F120.00
G01 X29.2960 Y-19.3999 F120.00
G00 Z2.0000
G00 X26.7560 Y-19.3999
G01 F60.00
G01 Z-0.0900
G01 F120.00
G01 X27.3438 Y-19.3999 F120.00
G01 X27.3438 Y-20.4900 F120.00
G01 X27.3463 Y-20.5402 F120.00
G01 X27.3537 Y-20.5899 F120.00
G01 X27.3657 Y-20.6381 F120.00
