(G-CODE GENERATED BY FLATCAM v8.994 - www.flatcam.org - Version Date: 2020/11/7)

(Name: Active_Electrode-F_Cu.gbr_iso_combined_cnc)
(Type: G-code from Geometry)
(Units: MM)

(Created on Monday, 26 February 2024 at 10:56)

(This preprocessor is used with a motion controller loaded with GRBL firmware.)
(It is configured to be compatible with almost any version of GRBL firmware.)

(TOOL DIAMETER: 0.037 mm)
(Feedrate_XY: 120.0 mm/min)
(Feedrate_Z: 60.0 mm/min)
(Feedrate rapids 1500.0 mm/min)

(Z_Cut: -0.1046 mm)
(Z_Move: 2.0 mm)
(Z Start: None mm)
(Z End: 15.0 mm)
(X,Y End: None mm)
(Steps per circle: 64)
(Steps per circle: 64)
(Preprocessor Geometry: GRBL_11_no_M6)

(X range:   -0.0185 ...   59.7085  mm)
(Y range:  -30.2445 ...    0.0185  mm)

(Spindle Speed: 0.0 RPM)
G21
G90
G17
G94


G01 F120.00

M5             
G00 Z15.0000
G00 X0.0000 Y0.0000                
T2
(MSG, Change to Tool Dia = 0.0370)
M0
G00 Z15.0000
        
M03
G01 F120.00
G00 X-0.0185 Y-0.1240
G01 F60.00
G01 Z-0.1046
G01 F120.00
G01 X-0.0185 Y-30.1020 F120.00
G01 X-0.0181 Y-30.1059 F120.00
G01 X-0.0069 Y-30.1574 F120.00
G01 X-0.0049 Y-30.1626 F120.00
G01 X-0.0028 Y-30.1656 F120.00
G01 X0.0433 Y-30.2188 F120.00
G01 X0.0460 Y-30.2212 F120.00
G01 X0.0488 Y-30.2229 F120.00
G01 X0.0517 Y-30.2241 F120.00
G01 X0.1188 Y-30.2438 F120.00
G01 X0.1240 Y-30.2445 F120.00
G01 X59.5660 Y-30.2445 F120.00
G01 X59.5699 Y-30.2441 F120.00
G01 X59.6214 Y-30.2329 F120.00
G01 X59.6266 Y-30.2309 F120.00
G01 X59.6296 Y-30.2288 F120.00
G01 X59.6828 Y-30.1827 F120.00
G01 X59.6850 Y-30.1804 F120.00
G01 X59.6869 Y-30.1772 F120.00
G01 X59.6881 Y-30.1743 F120.00
G01 X59.7078 Y-30.1072 F120.00
G01 X59.7085 Y-30.1020 F120.00
G01 X59.7085 Y-0.1240 F120.00
G01 X59.7081 Y-0.1201 F120.00
G01 X59.6969 Y-0.0686 F120.00
G01 X59.6949 Y-0.0634 F120.00
G01 X59.6928 Y-0.0604 F120.00
G01 X59.6467 Y-0.0072 F120.00
G01 X59.6440 Y-0.0048 F120.00
G01 X59.6412 Y-0.0031 F120.00
G01 X59.6383 Y-0.0019 F120.00
G01 X59.5712 Y0.0178 F120.00
G01 X59.5660 Y0.0185 F120.00
G01 X0.1240 Y0.0185 F120.00
G01 X0.1201 Y0.0181 F120.00
G01 X0.0686 Y0.0069 F120.00
G01 X0.0638 Y0.0051 F120.00
G01 X0.0604 Y0.0028 F120.00
G01 X0.0066 Y-0.0439 F120.00
G01 X0.0040 Y-0.0472 F120.00
G01 X0.0021 Y-0.0513 F120.00
G01 X-0.0178 Y-0.1188 F120.00
G01 X-0.0185 Y-0.1240 F120.00
G00 Z2.0000
G00 X7.3552 Y-9.9315
G01 F60.00
G01 Z-0.1046
G01 F120.00
G01 X7.3460 Y-9.9360 F120.00
G01 X7.2526 Y-9.9920 F120.00
G01 X7.1644 Y-10.0574 F120.00
G01 X7.0831 Y-10.1311 F120.00
G01 X7.0094 Y-10.2124 F120.00
G01 X6.9440 Y-10.3006 F120.00
G01 X6.8876 Y-10.3947 F120.00
G01 X6.8406 Y-10.4940 F120.00
G01 X6.8037 Y-10.5973 F120.00
G01 X6.7770 Y-10.7038 F120.00
G01 X6.7609 Y-10.8124 F120.00
G01 X6.7555 Y-10.9220 F120.00
G01 X6.7609 Y-11.0316 F120.00
G01 X6.7770 Y-11.1402 F120.00
G01 X6.8037 Y-11.2467 F120.00
G01 X6.8406 Y-11.3500 F120.00
G01 X6.8876 Y-11.4493 F120.00
G01 X6.9440 Y-11.5434 F120.00
G01 X7.0094 Y-11.6316 F120.00
G01 X7.0831 Y-11.7129 F120.00
G01 X7.1644 Y-11.7866 F120.00
G01 X7.2526 Y-11.8520 F120.00
G01 X7.3467 Y-11.9084 F120.00
G01 X7.4460 Y-11.9554 F120.00
G01 X7.5493 Y-11.9923 F120.00
G01 X7.6558 Y-12.0190 F120.00
G01 X7.7644 Y-12.0351 F120.00
G01 X7.8740 Y-12.0405 F120.00
G01 X7.9836 Y-12.0351 F120.00
G01 X8.0922 Y-12.0190 F120.00
G01 X8.1987 Y-11.9923 F120.00
G01 X8.3020 Y-11.9554 F120.00
G01 X8.4013 Y-11.9084 F120.00
G01 X8.4954 Y-11.8520 F120.00
G01 X8.5829 Y-11.7872 F120.00
G01 X8.6649 Y-11.7129 F120.00
G01 X8.7392 Y-11.6309 F120.00
G01 X8.8040 Y-11.5434 F120.00
G01 X8.8600 Y-11.4500 F120.00
G01 X8.9074 Y-11.3500 F120.00
G01 X8.9446 Y-11.2458 F120.00
G01 X8.9710 Y-11.1402 F120.00
G01 X8.9870 Y-11.0325 F120.00
G01 X8.9925 Y-10.9220 F120.00
G01 X8.9870 Y-10.8115 F120.00
G01 X8.9710 Y-10.7038 F120.00
G01 X8.9443 Y-10.5973 F120.00
G01 X8.9070 Y-10.4931 F120.00
G01 X8.8604 Y-10.3947 F120.00
G01 X8.8045 Y-10.3014 F120.00
G01 X8.7380 Y-10.2117 F120.00
G01 X8.6649 Y-10.1311 F120.00
G01 X8.5843 Y-10.0580 F120.00
G01 X8.4954 Y-9.9920 F120.00
G01 X8.4020 Y-9.9360 F120.00
G01 X8.3928 Y-9.9315 F120.00
G01 X8.3928 Y-9.6129 F120.00
G01 X12.1529 Y-5.8528 F120.00
G01 X13.7551 Y-5.8528 F120.00
G01 X14.6192 Y-6.7168 F120.00
G01 X14.6562 Y-6.7504 F120.00
G01 X14.6978 Y-6.7813 F120.00
G01 X14.7423 Y-6.8079 F120.00
G01 X14.7875 Y-6.8293 F120.00
G01 X14.8346 Y-6.8461 F120.00
G01 X14.8848 Y-6.8588 F120.00
G01 X14.9352 Y-6.8663 F120.00
G01 X14.9860 Y-6.8688 F120.00
G01 X22.1371 Y-6.8688 F120.00
G01 X22.9612 Y-7.6928 F120.00
G01 X22.9986 Y-7.7267 F120.00
G01 X23.0406 Y-7.7578 F120.00
G01 X23.0835 Y-7.7835 F120.00
G01 X23.1295 Y-7.8053 F120.00
G01 X23.1774 Y-7.8224 F120.00
G01 X23.2259 Y-7.8346 F120.00
G01 X23.2776 Y-7.8423 F120.00
G01 X23.3280 Y-7.8448 F120.00
G01 X38.7456 Y-7.8448 F120.00
G01 X37.6492 Y-8.9412 F120.00
G01 X37.6150 Y-8.9789 F120.00
G01 X37.5852 Y-9.0191 F120.00
G01 X37.5585 Y-9.0635 F120.00
G01 X37.5367 Y-9.1095 F120.00
G01 X37.5196 Y-9.1574 F120.00
G01 X37.5071 Y-9.2072 F120.00
G01 X37.4997 Y-9.2572 F120.00
G01 X37.4973 Y-9.3075 F120.00
G01 X37.4972 Y-9.5495 F120.00
G01 X36.9155 Y-9.5495 F120.00
G01 X36.9106 Y-9.5503 F120.00
G01 X36.9061 Y-9.5524 F120.00
G01 X36.9020 Y-9.5559 F120.00
G01 X36.8993 Y-9.5601 F120.00
G01 X36.8979 Y-9.5639 F120.00
G01 X36.8975 Y-9.5680 F120.00
G01 X36.8976 Y-11.7698 F120.00
G01 X36.8982 Y-11.7729 F120.00
G01 X36.8995 Y-11.7763 F120.00
G01 X36.9014 Y-11.7794 F120.00
G01 X36.9036 Y-11.7817 F120.00
G01 X36.9061 Y-11.7836 F120.00
G01 X36.9093 Y-11.7853 F120.00
G01 X36.9124 Y-11.7861 F120.00
G01 X36.9160 Y-11.7865 F120.00
G01 X39.1174 Y-11.7864 F120.00
G01 X39.1205 Y-11.7859 F120.00
G01 X39.1239 Y-11.7847 F120.00
G01 X39.1270 Y-11.7829 F120.00
G01 X39.1297 Y-11.7804 F120.00
G01 X39.1316 Y-11.7779 F120.00
G01 X39.1333 Y-11.7747 F120.00
G01 X39.1342 Y-11.7712 F120.00
G01 X39.1345 Y-11.7680 F120.00
G01 X39.1345 Y-9.5680 F120.00
G01 X39.1339 Y-9.5635 F120.00
G01 X39.1316 Y-9.5581 F120.00
G01 X39.1277 Y-9.5537 F120.00
G01 X39.1227 Y-9.5507 F120.00
G01 X39.1196 Y-9.5499 F120.00
G01 X39.1165 Y-9.5495 F120.00
G01 X38.5348 Y-9.5495 F120.00
G01 X38.5348 Y-9.5229 F120.00
G01 X39.8971 Y-8.1605 F120.00
G01 X39.9308 Y-8.1909 F120.00
G01 X40.0182 Y-8.2557 F120.00
G01 X40.1123 Y-8.3122 F120.00
G01 X40.2120 Y-8.3594 F120.00
G01 X40.3149 Y-8.3962 F120.00
G01 X40.4218 Y-8.4230 F120.00
G01 X40.5304 Y-8.4391 F120.00
G01 X40.6400 Y-8.4445 F120.00
G01 X40.7501 Y-8.4391 F120.00
G01 X40.8591 Y-8.4228 F120.00
G01 X40.9647 Y-8.3963 F120.00
G01 X41.0672 Y-8.3597 F120.00
G01 X41.1673 Y-8.3124 F120.00
G01 X41.2614 Y-8.2560 F120.00
G01 X41.3503 Y-8.1900 F120.00
G01 X41.4309 Y-8.1169 F120.00
G01 X41.5040 Y-8.0363 F120.00
G01 X41.5700 Y-7.9474 F120.00
G01 X41.6260 Y-7.8540 F120.00
G01 X41.6305 Y-7.8448 F120.00
G01 X42.4435 Y-7.8448 F120.00
G01 X42.4480 Y-7.8540 F120.00
G01 X42.5040 Y-7.9474 F120.00
G01 X42.5700 Y-8.0363 F120.00
G01 X42.6431 Y-8.1169 F120.00
G01 X42.7237 Y-8.1900 F120.00
G01 X42.8134 Y-8.2565 F120.00
G01 X42.9067 Y-8.3124 F120.00
G01 X43.0051 Y-8.3590 F120.00
G01 X43.1093 Y-8.3963 F120.00
G01 X43.2158 Y-8.4230 F120.00
G01 X43.3235 Y-8.4390 F120.00
G01 X43.4345 Y-8.4445 F120.00
G01 X43.5436 Y-8.4391 F120.00
G01 X43.6513 Y-8.4232 F120.00
G01 X43.7587 Y-8.3963 F120.00
G01 X43.8629 Y-8.3590 F120.00
G01 X43.9613 Y-8.3124 F120.00
G01 X44.0546 Y-8.2565 F120.00
G01 X44.1443 Y-8.1900 F120.00
G01 X44.2249 Y-8.1169 F120.00
G01 X44.2980 Y-8.0363 F120.00
G01 X44.3640 Y-7.9474 F120.00
G01 X44.4200 Y-7.8540 F120.00
G01 X44.4245 Y-7.8448 F120.00
G01 X55.5235 Y-7.8448 F120.00
G01 X55.5235 Y-8.4665 F120.00
G01 X55.5246 Y-8.4722 F120.00
G01 X55.5274 Y-8.4774 F120.00
G01 X55.5317 Y-8.4814 F120.00
G01 X55.5371 Y-8.4838 F120.00
G01 X55.5420 Y-8.4845 F120.00
G01 X57.7438 Y-8.4844 F120.00
G01 X57.7474 Y-8.4837 F120.00
G01 X57.7503 Y-8.4825 F120.00
G01 X57.7534 Y-8.4806 F120.00
G01 X57.7557 Y-8.4784 F120.00
G01 X57.7576 Y-8.4759 F120.00
G01 X57.7593 Y-8.4727 F120.00
G01 X57.7602 Y-8.4692 F120.00
G01 X57.7605 Y-8.4660 F120.00
G01 X57.7604 Y-6.2646 F120.00
G01 X57.7598 Y-6.2611 F120.00
G01 X57.7585 Y-6.2577 F120.00
G01 X57.7566 Y-6.2546 F120.00
G01 X57.7544 Y-6.2523 F120.00
G01 X57.7519 Y-6.2504 F120.00
G01 X57.7487 Y-6.2487 F120.00
G01 X57.7456 Y-6.2479 F120.00
G01 X57.7420 Y-6.2475 F120.00
G01 X55.5420 Y-6.2475 F120.00
G01 X55.5375 Y-6.2481 F120.00
G01 X55.5321 Y-6.2504 F120.00
G01 X55.5296 Y-6.2523 F120.00
G01 X55.5274 Y-6.2546 F120.00
G01 X55.5246 Y-6.2598 F120.00
G01 X55.5235 Y-6.2655 F120.00
G01 X55.5235 Y-6.8072 F120.00
G01 X44.4245 Y-6.8072 F120.00
G01 X44.4200 Y-6.7980 F120.00
G01 X44.3640 Y-6.7046 F120.00
G01 X44.2980 Y-6.6157 F120.00
G01 X44.2249 Y-6.5351 F120.00
G01 X44.1443 Y-6.4620 F120.00
G01 X44.0546 Y-6.3955 F120.00
G01 X43.9613 Y-6.3396 F120.00
G01 X43.8629 Y-6.2930 F120.00
G01 X43.7587 Y-6.2557 F120.00
G01 X43.6522 Y-6.2290 F120.00
G01 X43.5445 Y-6.2130 F120.00
G01 X43.4340 Y-6.2075 F120.00
G01 X43.3235 Y-6.2130 F120.00
G01 X43.2158 Y-6.2290 F120.00
G01 X43.1093 Y-6.2557 F120.00
G01 X43.0051 Y-6.2930 F120.00
G01 X42.9067 Y-6.3396 F120.00
G01 X42.8134 Y-6.3955 F120.00
G01 X42.7237 Y-6.4620 F120.00
G01 X42.6431 Y-6.5351 F120.00
G01 X42.5700 Y-6.6157 F120.00
G01 X42.5040 Y-6.7046 F120.00
G01 X42.4480 Y-6.7980 F120.00
G01 X42.4435 Y-6.8072 F120.00
G01 X41.6305 Y-6.8072 F120.00
G01 X41.6260 Y-6.7980 F120.00
G01 X41.5700 Y-6.7046 F120.00
G01 X41.5040 Y-6.6157 F120.00
G01 X41.4309 Y-6.5351 F120.00
G01 X41.3503 Y-6.4620 F120.00
G01 X41.2606 Y-6.3955 F120.00
G01 X41.1673 Y-6.3396 F120.00
G01 X41.0689 Y-6.2930 F120.00
G01 X40.9647 Y-6.2557 F120.00
G01 X40.8582 Y-6.2290 F120.00
G01 X40.7505 Y-6.2130 F120.00
G01 X40.6400 Y-6.2075 F120.00
G01 X40.5295 Y-6.2130 F120.00
G01 X40.4218 Y-6.2290 F120.00
G01 X40.3153 Y-6.2557 F120.00
G01 X40.2111 Y-6.2930 F120.00
G01 X40.1127 Y-6.3396 F120.00
G01 X40.0194 Y-6.3955 F120.00
G01 X39.9297 Y-6.4620 F120.00
G01 X39.8491 Y-6.5351 F120.00
G01 X39.7760 Y-6.6157 F120.00
G01 X39.7100 Y-6.7046 F120.00
G01 X39.6540 Y-6.7980 F120.00
G01 X39.6495 Y-6.8072 F120.00
G01 X23.5429 Y-6.8072 F120.00
G01 X22.7188 Y-5.9832 F120.00
G01 X22.6818 Y-5.9496 F120.00
G01 X22.6402 Y-5.9187 F120.00
G01 X22.5957 Y-5.8921 F120.00
G01 X22.5505 Y-5.8707 F120.00
G01 X22.5034 Y-5.8539 F120.00
G01 X22.4528 Y-5.8411 F120.00
G01 X22.4028 Y-5.8337 F120.00
G01 X22.3520 Y-5.8312 F120.00
G01 X15.2009 Y-5.8312 F120.00
G01 X14.3362 Y-4.9666 F120.00
G01 X14.2984 Y-4.9324 F120.00
G01 X14.2582 Y-4.9027 F120.00
G01 X14.2153 Y-4.8770 F120.00
G01 X14.1685 Y-4.8547 F120.00
G01 X14.1206 Y-4.8376 F120.00
G01 X14.0712 Y-4.8252 F120.00
G01 X14.0217 Y-4.8179 F120.00
G01 X13.9700 Y-4.8152 F120.00
G01 X11.9380 Y-4.8152 F120.00
G01 X11.8876 Y-4.8177 F120.00
G01 X11.8368 Y-4.8252 F120.00
G01 X11.7883 Y-4.8373 F120.00
G01 X11.7387 Y-4.8551 F120.00
G01 X11.6935 Y-4.8765 F120.00
G01 X11.6498 Y-4.9027 F120.00
G01 X11.6089 Y-4.9330 F120.00
G01 X11.5715 Y-4.9669 F120.00
G01 X7.5072 Y-9.0312 F120.00
G01 X7.4736 Y-9.0682 F120.00
G01 X7.4422 Y-9.1106 F120.00
G01 X7.4165 Y-9.1535 F120.00
G01 X7.3947 Y-9.1995 F120.00
G01 X7.3773 Y-9.2483 F120.00
G01 X7.3652 Y-9.2968 F120.00
G01 X7.3579 Y-9.3463 F120.00
G01 X7.3552 Y-9.3980 F120.00
G01 X7.3552 Y-9.9315 F120.00
G00 Z2.0000
G00 X9.3140 Y-11.5325
G01 F60.00
G01 Z-0.1046
G01 F120.00
G01 X11.5140 Y-11.5325 F120.00
G01 X11.5189 Y-11.5318 F120.00
G01 X11.5243 Y-11.5294 F120.00
G01 X11.5286 Y-11.5254 F120.00
G01 X11.5314 Y-11.5202 F120.00
G01 X11.5325 Y-11.5145 F120.00
G01 X11.5325 Y-10.9328 F120.00
G01 X11.8355 Y-10.9328 F120.00
G01 X11.8355 Y-11.5145 F120.00
G01 X11.8359 Y-11.5176 F120.00
G01 X11.8367 Y-11.5207 F120.00
G01 X11.8397 Y-11.5257 F120.00
G01 X11.8441 Y-11.5296 F120.00
G01 X11.8469 Y-11.5311 F120.00
G01 X11.8499 Y-11.5321 F120.00
G01 X11.8540 Y-11.5325 F120.00
G01 X14.0540 Y-11.5325 F120.00
G01 X14.0576 Y-11.5321 F120.00
G01 X14.0611 Y-11.5311 F120.00
G01 X14.0643 Y-11.5294 F120.00
G01 X14.0671 Y-11.5271 F120.00
G01 X14.0694 Y-11.5243 F120.00
G01 X14.0711 Y-11.5211 F120.00
G01 X14.0721 Y-11.5176 F120.00
G01 X14.0725 Y-11.5140 F120.00
G01 X14.0725 Y-9.3140 F120.00
G01 X14.0718 Y-9.3091 F120.00
G01 X14.0694 Y-9.3037 F120.00
G01 X14.0654 Y-9.2994 F120.00
G01 X14.0602 Y-9.2966 F120.00
G01 X14.0545 Y-9.2955 F120.00
G01 X13.4728 Y-9.2955 F120.00
G01 X13.4728 Y-8.8245 F120.00
G01 X13.4820 Y-8.8200 F120.00
G01 X13.5754 Y-8.7640 F120.00
G01 X13.6643 Y-8.6980 F120.00
G01 X13.7449 Y-8.6249 F120.00
G01 X13.8180 Y-8.5443 F120.00
G01 X13.8840 Y-8.4554 F120.00
G01 X13.9404 Y-8.3613 F120.00
G01 X13.9877 Y-8.2612 F120.00
G01 X14.0243 Y-8.1587 F120.00
G01 X14.0508 Y-8.0531 F120.00
G01 X14.0671 Y-7.9441 F120.00
G01 X14.0725 Y-7.8340 F120.00
G01 X14.0671 Y-7.7244 F120.00
G01 X14.0510 Y-7.6158 F120.00
G01 X14.0241 Y-7.5085 F120.00
G01 X13.9874 Y-7.4060 F120.00
G01 X13.9408 Y-7.3076 F120.00
G01 X13.8845 Y-7.2134 F120.00
G01 X13.8186 Y-7.1244 F120.00
G01 X13.7449 Y-7.0431 F120.00
G01 X13.6636 Y-6.9694 F120.00
G01 X13.5754 Y-6.9040 F120.00
G01 X13.4813 Y-6.8476 F120.00
G01 X13.3812 Y-6.8003 F120.00
G01 X13.2778 Y-6.7634 F120.00
G01 X13.1722 Y-6.7370 F120.00
G01 X13.0645 Y-6.7210 F120.00
G01 X12.9540 Y-6.7155 F120.00
G01 X12.8444 Y-6.7209 F120.00
G01 X12.7358 Y-6.7370 F120.00
G01 X12.6293 Y-6.7637 F120.00
G01 X12.5260 Y-6.8006 F120.00
G01 X12.4260 Y-6.8480 F120.00
G01 X12.3326 Y-6.9040 F120.00
G01 X12.2451 Y-6.9688 F120.00
G01 X12.1638 Y-7.0425 F120.00
G01 X12.0894 Y-7.1244 F120.00
G01 X12.0240 Y-7.2126 F120.00
G01 X11.9676 Y-7.3067 F120.00
G01 X11.9206 Y-7.4060 F120.00
G01 X11.8837 Y-7.5093 F120.00
G01 X11.8570 Y-7.6158 F120.00
G01 X11.8409 Y-7.7244 F120.00
G01 X11.8355 Y-7.8340 F120.00
G01 X11.8409 Y-7.9436 F120.00
G01 X11.8570 Y-8.0522 F120.00
G01 X11.8837 Y-8.1587 F120.00
G01 X11.9210 Y-8.2629 F120.00
G01 X11.9680 Y-8.3620 F120.00
G01 X12.0240 Y-8.4554 F120.00
G01 X12.0888 Y-8.5429 F120.00
G01 X12.1631 Y-8.6249 F120.00
G01 X12.2444 Y-8.6986 F120.00
G01 X12.3326 Y-8.7640 F120.00
G01 X12.4260 Y-8.8200 F120.00
G01 X12.4352 Y-8.8245 F120.00
G01 X12.4352 Y-9.2955 F120.00
G01 X11.8540 Y-9.2955 F120.00
G01 X11.8504 Y-9.2959 F120.00
G01 X11.8469 Y-9.2969 F120.00
G01 X11.8437 Y-9.2986 F120.00
G01 X11.8409 Y-9.3009 F120.00
G01 X11.8386 Y-9.3037 F120.00
G01 X11.8369 Y-9.3069 F120.00
G01 X11.8359 Y-9.3104 F120.00
G01 X11.8355 Y-9.3140 F120.00
G01 X11.8355 Y-9.8952 F120.00
G01 X11.5325 Y-9.8952 F120.00
G01 X11.5325 Y-9.3135 F120.00
G01 X11.5321 Y-9.3104 F120.00
G01 X11.5313 Y-9.3073 F120.00
G01 X11.5283 Y-9.3023 F120.00
G01 X11.5239 Y-9.2984 F120.00
G01 X11.5211 Y-9.2969 F120.00
G01 X11.5181 Y-9.2959 F120.00
G01 X11.5140 Y-9.2955 F120.00
G01 X9.3140 Y-9.2955 F120.00
G01 X9.3104 Y-9.2959 F120.00
G01 X9.3069 Y-9.2969 F120.00
G01 X9.3037 Y-9.2986 F120.00
G01 X9.3009 Y-9.3009 F120.00
G01 X9.2986 Y-9.3037 F120.00
G01 X9.2969 Y-9.3069 F120.00
G01 X9.2959 Y-9.3104 F120.00
G01 X9.2955 Y-9.3140 F120.00
G01 X9.2955 Y-11.5140 F120.00
G01 X9.2959 Y-11.5176 F120.00
G01 X9.2969 Y-11.5211 F120.00
G01 X9.2986 Y-11.5243 F120.00
G01 X9.3009 Y-11.5271 F120.00
G01 X9.3037 Y-11.5294 F120.00
G01 X9.3069 Y-11.5311 F120.00
G01 X9.3104 Y-11.5321 F120.00
G01 X9.3140 Y-11.5325 F120.00
G00 Z2.0000
G00 X11.8355 Y-17.2540
G01 F60.00
G01 Z-0.1046
G01 F120.00
G01 X11.8355 Y-19.4540 F120.00
G01 X11.8359 Y-19.4581 F120.00
G01 X11.8373 Y-19.4619 F120.00
G01 X11.8394 Y-19.4654 F120.00
G01 X11.8423 Y-19.4683 F120.00
G01 X11.8449 Y-19.4701 F120.00
G01 X11.8478 Y-19.4714 F120.00
G01 X11.8508 Y-19.4722 F120.00
G01 X11.8540 Y-19.4725 F120.00
G01 X14.0540 Y-19.4725 F120.00
G01 X14.0581 Y-19.4721 F120.00
G01 X14.0611 Y-19.4711 F120.00
G01 X14.0639 Y-19.4696 F120.00
G01 X14.0683 Y-19.4657 F120.00
G01 X14.0701 Y-19.4631 F120.00
G01 X14.0714 Y-19.4602 F120.00
G01 X14.0725 Y-19.4545 F120.00
G01 X14.0725 Y-18.8728 F120.00
G01 X14.3755 Y-18.8728 F120.00
G01 X14.3755 Y-19.4540 F120.00
G01 X14.3759 Y-19.4576 F120.00
G01 X14.3769 Y-19.4611 F120.00
G01 X14.3786 Y-19.4643 F120.00
G01 X14.3806 Y-19.4668 F120.00
G01 X14.3833 Y-19.4691 F120.00
G01 X14.3865 Y-19.4709 F120.00
G01 X14.3899 Y-19.4721 F120.00
G01 X14.3940 Y-19.4725 F120.00
G01 X14.9752 Y-19.4725 F120.00
G01 X14.9753 Y-19.5145 F120.00
G01 X14.9777 Y-19.5644 F120.00
G01 X14.9851 Y-19.6148 F120.00
G01 X14.9976 Y-19.6646 F120.00
G01 X15.0144 Y-19.7117 F120.00
G01 X15.0365 Y-19.7585 F120.00
G01 X15.0627 Y-19.8022 F120.00
G01 X15.0930 Y-19.8431 F120.00
G01 X15.1269 Y-19.8805 F120.00
G01 X18.7666 Y-23.5203 F120.00
G01 X18.7518 Y-23.5620 F120.00
G01 X18.7253 Y-23.6676 F120.00
G01 X18.7091 Y-23.7771 F120.00
G01 X18.7037 Y-23.8862 F120.00
G01 X18.7091 Y-23.9950 F120.00
G01 X18.7253 Y-24.1049 F120.00
G01 X18.7519 Y-24.2109 F120.00
G01 X18.7885 Y-24.3134 F120.00
G01 X18.8358 Y-24.4135 F120.00
G01 X18.8922 Y-24.5076 F120.00
G01 X18.9571 Y-24.5951 F120.00
G01 X19.0320 Y-24.6778 F120.00
G01 X19.1127 Y-24.7508 F120.00
G01 X19.2008 Y-24.8162 F120.00
G01 X19.2950 Y-24.8727 F120.00
G01 X19.3950 Y-24.9199 F120.00
G01 X19.4984 Y-24.9568 F120.00
G01 X19.6040 Y-24.9832 F120.00
G01 X19.7117 Y-24.9992 F120.00
G01 X19.8222 Y-25.0047 F120.00
G01 X19.9310 Y-24.9994 F120.00
G01 X20.0404 Y-24.9832 F120.00
G01 X20.1469 Y-24.9566 F120.00
G01 X20.2503 Y-24.9196 F120.00
G01 X20.3495 Y-24.8727 F120.00
G01 X20.4436 Y-24.8162 F120.00
G01 X20.5318 Y-24.7508 F120.00
G01 X20.6131 Y-24.6771 F120.00
G01 X20.6868 Y-24.5958 F120.00
G01 X20.7522 Y-24.5076 F120.00
G01 X20.8082 Y-24.4143 F120.00
G01 X20.8559 Y-24.3134 F120.00
G01 X20.8926 Y-24.2109 F120.00
G01 X20.9192 Y-24.1044 F120.00
G01 X20.9353 Y-23.9959 F120.00
G01 X20.9407 Y-23.8862 F120.00
G01 X20.9353 Y-23.7766 F120.00
G01 X20.9192 Y-23.6680 F120.00
G01 X20.8926 Y-23.5615 F120.00
G01 X20.8559 Y-23.4590 F120.00
G01 X20.8082 Y-23.3582 F120.00
G01 X20.7522 Y-23.2648 F120.00
G01 X20.6866 Y-23.1763 F120.00
G01 X20.6131 Y-23.0953 F120.00
G01 X20.5325 Y-23.0222 F120.00
G01 X20.4436 Y-22.9562 F120.00
G01 X20.3495 Y-22.8998 F120.00
G01 X20.2511 Y-22.8532 F120.00
G01 X20.1469 Y-22.8159 F120.00
G01 X20.0404 Y-22.7892 F120.00
G01 X19.9328 Y-22.7732 F120.00
G01 X19.8222 Y-22.7677 F120.00
G01 X19.7117 Y-22.7732 F120.00
G01 X19.6040 Y-22.7892 F120.00
G01 X19.5231 Y-22.8095 F120.00
G01 X16.1861 Y-19.4725 F120.00
G01 X16.5945 Y-19.4725 F120.00
G01 X16.5976 Y-19.4721 F120.00
G01 X16.6007 Y-19.4713 F120.00
G01 X16.6035 Y-19.4699 F120.00
G01 X16.6061 Y-19.4680 F120.00
G01 X16.6083 Y-19.4657 F120.00
G01 X16.6101 Y-19.4631 F120.00
G01 X16.6121 Y-19.4576 F120.00
G01 X16.6125 Y-19.4540 F120.00
G01 X16.6125 Y-17.2540 F120.00
G01 X16.6121 Y-17.2499 F120.00
G01 X16.6107 Y-17.2461 F120.00
G01 X16.6086 Y-17.2426 F120.00
G01 X16.6057 Y-17.2397 F120.00
G01 X16.6031 Y-17.2379 F120.00
G01 X16.6002 Y-17.2366 F120.00
G01 X16.5972 Y-17.2358 F120.00
G01 X16.5940 Y-17.2355 F120.00
G01 X14.3940 Y-17.2355 F120.00
G01 X14.3891 Y-17.2362 F120.00
G01 X14.3837 Y-17.2386 F120.00
G01 X14.3794 Y-17.2426 F120.00
G01 X14.3766 Y-17.2478 F120.00
G01 X14.3755 Y-17.2535 F120.00
G01 X14.3755 Y-17.8352 F120.00
G01 X14.0725 Y-17.8352 F120.00
G01 X14.0725 Y-17.2535 F120.00
G01 X14.0714 Y-17.2478 F120.00
G01 X14.0701 Y-17.2449 F120.00
G01 X14.0683 Y-17.2423 F120.00
G01 X14.0661 Y-17.2400 F120.00
G01 X14.0635 Y-17.2381 F120.00
G01 X14.0581 Y-17.2359 F120.00
G01 X14.0540 Y-17.2355 F120.00
G01 X11.8540 Y-17.2355 F120.00
G01 X11.8504 Y-17.2359 F120.00
G01 X11.8469 Y-17.2369 F120.00
G01 X11.8437 Y-17.2386 F120.00
G01 X11.8409 Y-17.2409 F120.00
G01 X11.8386 Y-17.2437 F120.00
G01 X11.8369 Y-17.2469 F120.00
G01 X11.8359 Y-17.2504 F120.00
G01 X11.8355 Y-17.2540 F120.00
G00 Z2.0000
G00 X6.3245 Y-19.0608
G01 F60.00
G01 Z-0.1046
G01 F120.00
G01 X7.0073 Y-19.0608 F120.00
G01 X7.0100 Y-19.0643 F120.00
G01 X7.0831 Y-19.1449 F120.00
G01 X7.1644 Y-19.2186 F120.00
G01 X7.2526 Y-19.2840 F120.00
G01 X7.3460 Y-19.3400 F120.00
G01 X7.3552 Y-19.3445 F120.00
G01 X7.3552 Y-20.2746 F120.00
G01 X7.3368 Y-20.2914 F120.00
G01 X7.2631 Y-20.3728 F120.00
G01 X7.1980 Y-20.4606 F120.00
G01 X7.1412 Y-20.5556 F120.00
G01 X7.0946 Y-20.6540 F120.00
G01 X7.0577 Y-20.7573 F120.00
G01 X7.0310 Y-20.8638 F120.00
G01 X7.0148 Y-20.9728 F120.00
G01 X7.0095 Y-21.0820 F120.00
G01 X7.0149 Y-21.1916 F120.00
G01 X7.0310 Y-21.3002 F120.00
G01 X7.0574 Y-21.4058 F120.00
G01 X7.0950 Y-21.5109 F120.00
G01 X7.1416 Y-21.6093 F120.00
G01 X7.1983 Y-21.7038 F120.00
G01 X7.2634 Y-21.7916 F120.00
G01 X7.3365 Y-21.8722 F120.00
G01 X7.4191 Y-21.9472 F120.00
G01 X7.5066 Y-22.0120 F120.00
G01 X7.6007 Y-22.0684 F120.00
G01 X7.7000 Y-22.1154 F120.00
G01 X7.8025 Y-22.1521 F120.00
G01 X7.9107 Y-22.1792 F120.00
G01 X8.0184 Y-22.1951 F120.00
G01 X8.1280 Y-22.2005 F120.00
G01 X8.2376 Y-22.1951 F120.00
G01 X8.3453 Y-22.1792 F120.00
G01 X8.4535 Y-22.1521 F120.00
G01 X8.5560 Y-22.1154 F120.00
G01 X8.6553 Y-22.0684 F120.00
G01 X8.7494 Y-22.0120 F120.00
G01 X8.8369 Y-21.9472 F120.00
G01 X8.9195 Y-21.8722 F120.00
G01 X8.9926 Y-21.7916 F120.00
G01 X9.0575 Y-21.7041 F120.00
G01 X9.1148 Y-21.6084 F120.00
G01 X9.1614 Y-21.5100 F120.00
G01 X9.1983 Y-21.4067 F120.00
G01 X9.2250 Y-21.3002 F120.00
G01 X9.2410 Y-21.1925 F120.00
G01 X9.2465 Y-21.0815 F120.00
G01 X9.2411 Y-20.9724 F120.00
G01 X9.2250 Y-20.8638 F120.00
G01 X9.1983 Y-20.7573 F120.00
G01 X9.1617 Y-20.6548 F120.00
G01 X9.1140 Y-20.5540 F120.00
G01 X9.0580 Y-20.4606 F120.00
G01 X8.9929 Y-20.3728 F120.00
G01 X8.9189 Y-20.2911 F120.00
G01 X8.8383 Y-20.2180 F120.00
G01 X8.7490 Y-20.1518 F120.00
G01 X8.6553 Y-20.0956 F120.00
G01 X8.5564 Y-20.0488 F120.00
G01 X8.4531 Y-20.0118 F120.00
G01 X8.3928 Y-19.9966 F120.00
G01 X8.3928 Y-19.3445 F120.00
G01 X8.4020 Y-19.3400 F120.00
G01 X8.4961 Y-19.2835 F120.00
G01 X8.5836 Y-19.2186 F120.00
G01 X8.6649 Y-19.1449 F120.00
G01 X8.7386 Y-19.0636 F120.00
G01 X8.8035 Y-18.9761 F120.00
G01 X8.8600 Y-18.8820 F120.00
G01 X8.8645 Y-18.8728 F120.00
G01 X9.2955 Y-18.8728 F120.00
G01 X9.2955 Y-19.4545 F120.00
G01 X9.2966 Y-19.4602 F120.00
G01 X9.2994 Y-19.4654 F120.00
G01 X9.3037 Y-19.4694 F120.00
G01 X9.3091 Y-19.4718 F120.00
G01 X9.3140 Y-19.4725 F120.00
G01 X11.5140 Y-19.4725 F120.00
G01 X11.5194 Y-19.4717 F120.00
G01 X11.5243 Y-19.4694 F120.00
G01 X11.5277 Y-19.4664 F120.00
G01 X11.5303 Y-19.4627 F120.00
G01 X11.5319 Y-19.4585 F120.00
G01 X11.5325 Y-19.4540 F120.00
G01 X11.5325 Y-17.2540 F120.00
G01 X11.5322 Y-17.2508 F120.00
G01 X11.5314 Y-17.2478 F120.00
G01 X11.5286 Y-17.2426 F120.00
G01 X11.5247 Y-17.2389 F120.00
G01 X11.5198 Y-17.2364 F120.00
G01 X11.5140 Y-17.2355 F120.00
G01 X9.3140 Y-17.2355 F120.00
G01 X9.3095 Y-17.2361 F120.00
G01 X9.3041 Y-17.2384 F120.00
G01 X9.2997 Y-17.2423 F120.00
G01 X9.2979 Y-17.2449 F120.00
G01 X9.2966 Y-17.2478 F120.00
G01 X9.2955 Y-17.2535 F120.00
G01 X9.2955 Y-17.8352 F120.00
G01 X8.8645 Y-17.8352 F120.00
G01 X8.8600 Y-17.8260 F120.00
G01 X8.8040 Y-17.7326 F120.00
G01 X8.7386 Y-17.6444 F120.00
G01 X8.6649 Y-17.5631 F120.00
G01 X8.5836 Y-17.4894 F120.00
G01 X8.4954 Y-17.4240 F120.00
G01 X8.4013 Y-17.3676 F120.00
G01 X8.3020 Y-17.3206 F120.00
G01 X8.1995 Y-17.2839 F120.00
G01 X8.0922 Y-17.2570 F120.00
G01 X7.9827 Y-17.2408 F120.00
G01 X7.8740 Y-17.2355 F120.00
G01 X7.7653 Y-17.2408 F120.00
G01 X7.6562 Y-17.2569 F120.00
G01 X7.5485 Y-17.2839 F120.00
G01 X7.4460 Y-17.3206 F120.00
G01 X7.3476 Y-17.3672 F120.00
G01 X7.2526 Y-17.4240 F120.00
G01 X7.1637 Y-17.4900 F120.00
G01 X7.0831 Y-17.5631 F120.00
G01 X7.0100 Y-17.6437 F120.00
G01 X6.9440 Y-17.7326 F120.00
G01 X6.8872 Y-17.8276 F120.00
G01 X6.8406 Y-17.9260 F120.00
G01 X6.8058 Y-18.0232 F120.00
G01 X6.3245 Y-18.0232 F120.00
G01 X6.3200 Y-18.0140 F120.00
G01 X6.2635 Y-17.9199 F120.00
G01 X6.1986 Y-17.8324 F120.00
G01 X6.1249 Y-17.7511 F120.00
G01 X6.0429 Y-17.6768 F120.00
G01 X5.9554 Y-17.6120 F120.00
G01 X5.8613 Y-17.5556 F120.00
G01 X5.7612 Y-17.5083 F120.00
G01 X5.6587 Y-17.4717 F120.00
G01 X5.5522 Y-17.4450 F120.00
G01 X5.4436 Y-17.4289 F120.00
G01 X5.3349 Y-17.4235 F120.00
G01 X5.2244 Y-17.4289 F120.00
G01 X5.1149 Y-17.4452 F120.00
G01 X5.0093 Y-17.4717 F120.00
G01 X4.9068 Y-17.5083 F120.00
G01 X4.8067 Y-17.5556 F120.00
G01 X4.7126 Y-17.6120 F120.00
G01 X4.6237 Y-17.6780 F120.00
G01 X4.5431 Y-17.7511 F120.00
G01 X4.4700 Y-17.8317 F120.00
G01 X4.4040 Y-17.9206 F120.00
G01 X4.3476 Y-18.0147 F120.00
G01 X4.3006 Y-18.1140 F120.00
G01 X4.2637 Y-18.2173 F120.00
G01 X4.2370 Y-18.3238 F120.00
G01 X4.2209 Y-18.4324 F120.00
G01 X4.2155 Y-18.5420 F120.00
G01 X4.2209 Y-18.6516 F120.00
G01 X4.2370 Y-18.7602 F120.00
G01 X4.2637 Y-18.8667 F120.00
G01 X4.3006 Y-18.9700 F120.00
G01 X4.3476 Y-19.0693 F120.00
G01 X4.4040 Y-19.1634 F120.00
G01 X4.4694 Y-19.2516 F120.00
G01 X4.5431 Y-19.3329 F120.00
G01 X4.6244 Y-19.4066 F120.00
G01 X4.7126 Y-19.4720 F120.00
G01 X4.8067 Y-19.5284 F120.00
G01 X4.9060 Y-19.5754 F120.00
G01 X5.0093 Y-19.6123 F120.00
G01 X5.1158 Y-19.6390 F120.00
G01 X5.2244 Y-19.6551 F120.00
G01 X5.3340 Y-19.6605 F120.00
G01 X5.4436 Y-19.6551 F120.00
G01 X5.5522 Y-19.6390 F120.00
G01 X5.6587 Y-19.6123 F120.00
G01 X5.7620 Y-19.5754 F120.00
G01 X5.8613 Y-19.5284 F120.00
G01 X5.9554 Y-19.4720 F120.00
G01 X6.0436 Y-19.4066 F120.00
G01 X6.1249 Y-19.3329 F120.00
G01 X6.1986 Y-19.2516 F120.00
G01 X6.2640 Y-19.1634 F120.00
G01 X6.3200 Y-19.0700 F120.00
G01 X6.3245 Y-19.0608 F120.00
G00 Z2.0000
G00 X5.5555 Y-22.4458
G01 F60.00
G01 Z-0.1046
G01 F120.00
G01 X5.9259 Y-22.0754 F120.00
G01 X5.8242 Y-22.0333 F120.00
G01 X5.5822 Y-21.9751 F120.00
G01 X5.3340 Y-21.9556 F120.00
G01 X5.0858 Y-21.9751 F120.00
G01 X4.8438 Y-22.0333 F120.00
G01 X4.7421 Y-22.0754 F120.00
G01 X5.1125 Y-22.4458 F120.00
G01 X5.1167 Y-22.4448 F120.00
G01 X5.2244 Y-22.4289 F120.00
G01 X5.3340 Y-22.4235 F120.00
G01 X5.4436 Y-22.4289 F120.00
G01 X5.5513 Y-22.4448 F120.00
G01 X5.5555 Y-22.4458 F120.00
G00 Z2.0000
G00 X6.4302 Y-23.7635
G01 F60.00
G01 Z-0.1046
G01 F120.00
G01 X6.8006 Y-24.1339 F120.00
G01 X6.8427 Y-24.0322 F120.00
G01 X6.9009 Y-23.7902 F120.00
G01 X6.9204 Y-23.5420 F120.00
G01 X6.9009 Y-23.2938 F120.00
G01 X6.8427 Y-23.0518 F120.00
G01 X6.8006 Y-22.9501 F120.00
G01 X6.4302 Y-23.3205 F120.00
G01 X6.4312 Y-23.3247 F120.00
G01 X6.4471 Y-23.4324 F120.00
G01 X6.4525 Y-23.5420 F120.00
G01 X6.4471 Y-23.6516 F120.00
G01 X6.4312 Y-23.7593 F120.00
G01 X6.4302 Y-23.7635 F120.00
G00 Z2.0000
G00 X5.1125 Y-24.6382
G01 F60.00
G01 Z-0.1046
G01 F120.00
G01 X4.7421 Y-25.0086 F120.00
G01 X4.8438 Y-25.0507 F120.00
G01 X5.0858 Y-25.1089 F120.00
G01 X5.3340 Y-25.1284 F120.00
G01 X5.5822 Y-25.1089 F120.00
G01 X5.8242 Y-25.0507 F120.00
G01 X5.9259 Y-25.0086 F120.00
G01 X5.5555 Y-24.6382 F120.00
G01 X5.5513 Y-24.6392 F120.00
G01 X5.4436 Y-24.6551 F120.00
G01 X5.3340 Y-24.6605 F120.00
G01 X5.2244 Y-24.6551 F120.00
G01 X5.1167 Y-24.6392 F120.00
G01 X5.1125 Y-24.6382 F120.00
G00 Z2.0000
G00 X3.7476 Y-23.5420
G01 F60.00
G01 Z-0.1046
G01 F120.00
G01 X3.7671 Y-23.7902 F120.00
G01 X3.8253 Y-24.0322 F120.00
G01 X3.8674 Y-24.1339 F120.00
G01 X4.2378 Y-23.7635 F120.00
G01 X4.2368 Y-23.7593 F120.00
G01 X4.2209 Y-23.6516 F120.00
G01 X4.2155 Y-23.5420 F120.00
G01 X4.2209 Y-23.4324 F120.00
G01 X4.2368 Y-23.3247 F120.00
G01 X4.2378 Y-23.3205 F120.00
G01 X3.8674 Y-22.9501 F120.00
G01 X3.8253 Y-23.0518 F120.00
G01 X3.7671 Y-23.2938 F120.00
G01 X3.7476 Y-23.5420 F120.00
G00 Z2.0000
G00 X6.5416 Y-26.0820
G01 F60.00
G01 Z-0.1046
G01 F120.00
G01 X6.5611 Y-26.3302 F120.00
G01 X6.6193 Y-26.5722 F120.00
G01 X6.6614 Y-26.6739 F120.00
G01 X7.0318 Y-26.3035 F120.00
G01 X7.0308 Y-26.2993 F120.00
G01 X7.0149 Y-26.1916 F120.00
G01 X7.0095 Y-26.0820 F120.00
G01 X7.0149 Y-25.9724 F120.00
G01 X7.0308 Y-25.8647 F120.00
G01 X7.0318 Y-25.8605 F120.00
G01 X6.6614 Y-25.4901 F120.00
G01 X6.6193 Y-25.5918 F120.00
G01 X6.5611 Y-25.8338 F120.00
G01 X6.5416 Y-26.0820 F120.00
G00 Z2.0000
G00 X7.9065 Y-27.1782
G01 F60.00
G01 Z-0.1046
G01 F120.00
G01 X7.5361 Y-27.5486 F120.00
G01 X7.6378 Y-27.5907 F120.00
G01 X7.8798 Y-27.6489 F120.00
G01 X8.1280 Y-27.6684 F120.00
G01 X8.3762 Y-27.6489 F120.00
G01 X8.6182 Y-27.5907 F120.00
G01 X8.7199 Y-27.5486 F120.00
G01 X8.3495 Y-27.1782 F120.00
G01 X8.3453 Y-27.1792 F120.00
G01 X8.2376 Y-27.1951 F120.00
G01 X8.1280 Y-27.2005 F120.00
G01 X8.0184 Y-27.1951 F120.00
G01 X7.9107 Y-27.1792 F120.00
G01 X7.9065 Y-27.1782 F120.00
G00 Z2.0000
G00 X9.2242 Y-26.3035
G01 F60.00
G01 Z-0.1046
G01 F120.00
G01 X9.5946 Y-26.6739 F120.00
G01 X9.6367 Y-26.5722 F120.00
G01 X9.6949 Y-26.3302 F120.00
G01 X9.7144 Y-26.0820 F120.00
G01 X9.6949 Y-25.8338 F120.00
G01 X9.6367 Y-25.5918 F120.00
G01 X9.5946 Y-25.4901 F120.00
G01 X9.2242 Y-25.8605 F120.00
G01 X9.2252 Y-25.8647 F120.00
G01 X9.2411 Y-25.9724 F120.00
G01 X9.2465 Y-26.0820 F120.00
G01 X9.2411 Y-26.1916 F120.00
G01 X9.2252 Y-26.2993 F120.00
G01 X9.2242 Y-26.3035 F120.00
G00 Z2.0000
G00 X8.3495 Y-24.9858
G01 F60.00
G01 Z-0.1046
G01 F120.00
G01 X8.7199 Y-24.6154 F120.00
G01 X8.6182 Y-24.5733 F120.00
G01 X8.3762 Y-24.5151 F120.00
G01 X8.1280 Y-24.4956 F120.00
G01 X7.8798 Y-24.5151 F120.00
G01 X7.6378 Y-24.5733 F120.00
G01 X7.5361 Y-24.6154 F120.00
G01 X7.9065 Y-24.9858 F120.00
G01 X7.9107 Y-24.9848 F120.00
G01 X8.0184 Y-24.9689 F120.00
G01 X8.1280 Y-24.9635 F120.00
G01 X8.2376 Y-24.9689 F120.00
G01 X8.3453 Y-24.9848 F120.00
G01 X8.3495 Y-24.9858 F120.00
G00 Z2.0000
G00 X2.5070 Y-16.6609
G01 F60.00
G01 Z-0.1046
G01 F120.00
G01 X2.5131 Y-16.7172 F120.00
G01 X2.5616 Y-16.8474 F120.00
G01 X2.6447 Y-16.9583 F120.00
G01 X2.7556 Y-17.0414 F120.00
G01 X2.8858 Y-17.0899 F120.00
G01 X2.9421 Y-17.0960 F120.00
G01 X4.2062 Y-17.0960 F120.00
G01 X4.2101 Y-17.0967 F120.00
G01 X4.2771 Y-17.1164 F120.00
G01 X4.2817 Y-17.1185 F120.00
G01 X4.2859 Y-17.1221 F120.00
G01 X4.3316 Y-17.1749 F120.00
G01 X4.3335 Y-17.1775 F120.00
G01 X4.3351 Y-17.1808 F120.00
G01 X4.3360 Y-17.1844 F120.00
G01 X4.3459 Y-17.2535 F120.00
G01 X4.3460 Y-17.2586 F120.00
G01 X4.3444 Y-17.2638 F120.00
G01 X4.3141 Y-17.3297 F120.00
G01 X4.3119 Y-17.3325 F120.00
G01 X4.2978 Y-17.3466 F120.00
G01 X4.2119 Y-17.4199 F120.00
G01 X4.0502 Y-17.6092 F120.00
G01 X3.9201 Y-17.8216 F120.00
G01 X3.8248 Y-18.0516 F120.00
G01 X3.7666 Y-18.2938 F120.00
G01 X3.7471 Y-18.5420 F120.00
G01 X3.7666 Y-18.7902 F120.00
G01 X3.8248 Y-19.0324 F120.00
G01 X3.9201 Y-19.2624 F120.00
G01 X4.0502 Y-19.4747 F120.00
G01 X4.2119 Y-19.6641 F120.00
G01 X4.4012 Y-19.8258 F120.00
G01 X4.6136 Y-19.9559 F120.00
G01 X4.8436 Y-20.0512 F120.00
G01 X5.0858 Y-20.1094 F120.00
G01 X5.3340 Y-20.1289 F120.00
G01 X5.5822 Y-20.1094 F120.00
G01 X5.8244 Y-20.0512 F120.00
G01 X6.0544 Y-19.9559 F120.00
G01 X6.2668 Y-19.8258 F120.00
G01 X6.4561 Y-19.6641 F120.00
G01 X6.5349 Y-19.5721 F120.00
G01 X6.5956 Y-19.5323 F120.00
G01 X6.5991 Y-19.5305 F120.00
G01 X6.6030 Y-19.5295 F120.00
G01 X6.6406 Y-19.5240 F120.00
G01 X6.7495 Y-19.5240 F120.00
G01 X6.7543 Y-19.5246 F120.00
G01 X6.8218 Y-19.5444 F120.00
G01 X6.8267 Y-19.5467 F120.00
G01 X6.8305 Y-19.5501 F120.00
G01 X6.8766 Y-19.6032 F120.00
G01 X6.8788 Y-19.6067 F120.00
G01 X6.8803 Y-19.6106 F120.00
G01 X6.8916 Y-19.6626 F120.00
G01 X6.8920 Y-19.6661 F120.00
G01 X6.8920 Y-20.0407 F120.00
G01 X6.8917 Y-20.0442 F120.00
G01 X6.8716 Y-20.1129 F120.00
G01 X6.8699 Y-20.1168 F120.00
G01 X6.8584 Y-20.1326 F120.00
G01 X6.8442 Y-20.1492 F120.00
G01 X6.7141 Y-20.3616 F120.00
G01 X6.6188 Y-20.5916 F120.00
G01 X6.5606 Y-20.8338 F120.00
G01 X6.5411 Y-21.0820 F120.00
G01 X6.5606 Y-21.3302 F120.00
G01 X6.6188 Y-21.5724 F120.00
G01 X6.7141 Y-21.8024 F120.00
G01 X6.8442 Y-22.0147 F120.00
G01 X7.0059 Y-22.2041 F120.00
G01 X7.1952 Y-22.3658 F120.00
G01 X7.4076 Y-22.4959 F120.00
G01 X7.6376 Y-22.5912 F120.00
G01 X7.8798 Y-22.6494 F120.00
G01 X8.1280 Y-22.6689 F120.00
G01 X8.3762 Y-22.6494 F120.00
G01 X8.6184 Y-22.5912 F120.00
G01 X8.8484 Y-22.4959 F120.00
G01 X9.0608 Y-22.3658 F120.00
G01 X9.2501 Y-22.2041 F120.00
G01 X9.4118 Y-22.0148 F120.00
G01 X9.5419 Y-21.8024 F120.00
G01 X9.6372 Y-21.5724 F120.00
G01 X9.6954 Y-21.3302 F120.00
G01 X9.7149 Y-21.0820 F120.00
G01 X9.6954 Y-20.8338 F120.00
G01 X9.6372 Y-20.5916 F120.00
G01 X9.5419 Y-20.3616 F120.00
G01 X9.4132 Y-20.1514 F120.00
G01 X9.4120 Y-20.1481 F120.00
G01 X9.3935 Y-20.0798 F120.00
G01 X9.3931 Y-20.0752 F120.00
G01 X9.3939 Y-20.0707 F120.00
G01 X9.4151 Y-20.0036 F120.00
G01 X9.4173 Y-19.9991 F120.00
G01 X9.4209 Y-19.9950 F120.00
G01 X9.4747 Y-19.9504 F120.00
G01 X9.4773 Y-19.9486 F120.00
G01 X9.4802 Y-19.9473 F120.00
G01 X9.5319 Y-19.9364 F120.00
G01 X9.5356 Y-19.9360 F120.00
G01 X11.5609 Y-19.9360 F120.00
G01 X11.6172 Y-19.9299 F120.00
G01 X11.6346 Y-19.9235 F120.00
G01 X11.6385 Y-19.9226 F120.00
G01 X11.7104 Y-19.9175 F120.00
G01 X11.7151 Y-19.9181 F120.00
G01 X11.7330 Y-19.9233 F120.00
G01 X11.7508 Y-19.9299 F120.00
G01 X11.8071 Y-19.9360 F120.00
G01 X14.1009 Y-19.9360 F120.00
G01 X14.1572 Y-19.9299 F120.00
G01 X14.1746 Y-19.9235 F120.00
G01 X14.1785 Y-19.9226 F120.00
G01 X14.2504 Y-19.9175 F120.00
G01 X14.2551 Y-19.9181 F120.00
G01 X14.2730 Y-19.9233 F120.00
G01 X14.2908 Y-19.9299 F120.00
G01 X14.3471 Y-19.9360 F120.00
G01 X14.5193 Y-19.9360 F120.00
G01 X14.5236 Y-19.9365 F120.00
G01 X14.5915 Y-19.9564 F120.00
G01 X14.5949 Y-19.9578 F120.00
G01 X14.5990 Y-19.9607 F120.00
G01 X14.6358 Y-19.9971 F120.00
G01 X14.6383 Y-20.0001 F120.00
G01 X14.6507 Y-20.0190 F120.00
G01 X14.6558 Y-20.0273 F120.00
G01 X14.6838 Y-20.0779 F120.00
G01 X14.7032 Y-20.1005 F120.00
G01 X14.7131 Y-20.1136 F120.00
G01 X14.7290 Y-20.1378 F120.00
G01 X14.7694 Y-20.1781 F120.00
G01 X14.7763 Y-20.1856 F120.00
G01 X14.8139 Y-20.2294 F120.00
G01 X14.8368 Y-20.2471 F120.00
G01 X14.8501 Y-20.2588 F120.00
G01 X18.2077 Y-23.6166 F120.00
G01 X18.2097 Y-23.6195 F120.00
G01 X18.2432 Y-23.6808 F120.00
G01 X18.2446 Y-23.6841 F120.00
G01 X18.2453 Y-23.6871 F120.00
G01 X18.2479 Y-23.7268 F120.00
G01 X18.2353 Y-23.8862 F120.00
G01 X18.2549 Y-24.1345 F120.00
G01 X18.3130 Y-24.3766 F120.00
G01 X18.4083 Y-24.6067 F120.00
G01 X18.5384 Y-24.8190 F120.00
G01 X18.7001 Y-25.0083 F120.00
G01 X18.8895 Y-25.1701 F120.00
G01 X19.1018 Y-25.3002 F120.00
G01 X19.3319 Y-25.3955 F120.00
G01 X19.5740 Y-25.4536 F120.00
G01 X19.8222 Y-25.4731 F120.00
G01 X20.0705 Y-25.4536 F120.00
G01 X20.3126 Y-25.3955 F120.00
G01 X20.5427 Y-25.3002 F120.00
G01 X20.7550 Y-25.1701 F120.00
G01 X20.9443 Y-25.0083 F120.00
G01 X21.1061 Y-24.8190 F120.00
G01 X21.2362 Y-24.6067 F120.00
G01 X21.3315 Y-24.3766 F120.00
G01 X21.3896 Y-24.1345 F120.00
G01 X21.4091 Y-23.8862 F120.00
G01 X21.3896 Y-23.6380 F120.00
G01 X21.3315 Y-23.3959 F120.00
G01 X21.2362 Y-23.1658 F120.00
G01 X21.1061 Y-22.9535 F120.00
G01 X20.9443 Y-22.7641 F120.00
G01 X20.7550 Y-22.6024 F120.00
G01 X20.5427 Y-22.4723 F120.00
G01 X20.3126 Y-22.3770 F120.00
G01 X20.0705 Y-22.3189 F120.00
G01 X19.8222 Y-22.2993 F120.00
G01 X19.7448 Y-22.3054 F120.00
G01 X19.7413 Y-22.3054 F120.00
G01 X19.6686 Y-22.2900 F120.00
G01 X19.6643 Y-22.2877 F120.00
G01 X19.6342 Y-22.2653 F120.00
G01 X17.5480 Y-20.1793 F120.00
G01 X17.5449 Y-20.1750 F120.00
G01 X17.5112 Y-20.1133 F120.00
G01 X17.5097 Y-20.1095 F120.00
G01 X17.5091 Y-20.1054 F120.00
G01 X17.5141 Y-20.0338 F120.00
G01 X17.5152 Y-20.0289 F120.00
G01 X17.5178 Y-20.0241 F120.00
G01 X17.5597 Y-19.9681 F120.00
G01 X17.5632 Y-19.9646 F120.00
G01 X17.5676 Y-19.9621 F120.00
G01 X17.6335 Y-19.9375 F120.00
G01 X17.6379 Y-19.9364 F120.00
G01 X17.6488 Y-19.9360 F120.00
G01 X19.1809 Y-19.9360 F120.00
G01 X19.2372 Y-19.9299 F120.00
G01 X19.3674 Y-19.8814 F120.00
G01 X19.4783 Y-19.7983 F120.00
G01 X19.5614 Y-19.6874 F120.00
G01 X19.6099 Y-19.5572 F120.00
G01 X19.6160 Y-19.5009 F120.00
G01 X19.6161 Y-19.4041 F120.00
G01 X19.6364 Y-19.3341 F120.00
G01 X19.6382 Y-19.3299 F120.00
G01 X19.6577 Y-19.3056 F120.00
G01 X19.9858 Y-18.9775 F120.00
G01 X19.9848 Y-18.9733 F120.00
G01 X19.9689 Y-18.8656 F120.00
G01 X19.9635 Y-18.7560 F120.00
G01 X19.9689 Y-18.6464 F120.00
G01 X19.9848 Y-18.5387 F120.00
G01 X19.9858 Y-18.5345 F120.00
G01 X19.6571 Y-18.2058 F120.00
G01 X19.6546 Y-18.2022 F120.00
G01 X19.6211 Y-18.1409 F120.00
G01 X19.6191 Y-18.1353 F120.00
G01 X19.6160 Y-18.1057 F120.00
G01 X19.6160 Y-17.2071 F120.00
G01 X19.6089 Y-17.1395 F120.00
G01 X19.6217 Y-17.0673 F120.00
G01 X19.6229 Y-17.0633 F120.00
G01 X19.6250 Y-17.0598 F120.00
G01 X19.6738 Y-17.0073 F120.00
G01 X19.6776 Y-17.0041 F120.00
G01 X19.6825 Y-17.0020 F120.00
G01 X19.7458 Y-16.9847 F120.00
G01 X19.7498 Y-16.9840 F120.00
G01 X20.5114 Y-16.9840 F120.00
G01 X20.5161 Y-16.9847 F120.00
G01 X20.5841 Y-17.0047 F120.00
G01 X20.5882 Y-17.0067 F120.00
G01 X20.5916 Y-17.0097 F120.00
G01 X20.6377 Y-17.0629 F120.00
G01 X20.6405 Y-17.0671 F120.00
G01 X20.6420 Y-17.0724 F120.00
G01 X20.6520 Y-17.1420 F120.00
G01 X20.6521 Y-17.1461 F120.00
G01 X20.6512 Y-17.1501 F120.00
G01 X20.6213 Y-17.2158 F120.00
G01 X20.6194 Y-17.2189 F120.00
G01 X20.6169 Y-17.2216 F120.00
G01 X20.5672 Y-17.2573 F120.00
G01 X20.4901 Y-17.2894 F120.00
G01 X20.8605 Y-17.6598 F120.00
G01 X20.8647 Y-17.6588 F120.00
G01 X20.9724 Y-17.6429 F120.00
G01 X21.0820 Y-17.6375 F120.00
G01 X21.1916 Y-17.6429 F120.00
G01 X21.2993 Y-17.6588 F120.00
G01 X21.3035 Y-17.6598 F120.00
G01 X21.6739 Y-17.2894 F120.00
G01 X21.5962 Y-17.2570 F120.00
G01 X21.5382 Y-17.2104 F120.00
G01 X21.5356 Y-17.2072 F120.00
G01 X21.5338 Y-17.2035 F120.00
G01 X21.5116 Y-17.1368 F120.00
G01 X21.5107 Y-17.1323 F120.00
G01 X21.5111 Y-17.1268 F120.00
G01 X21.5286 Y-17.0582 F120.00
G01 X21.5302 Y-17.0544 F120.00
G01 X21.5328 Y-17.0507 F120.00
G01 X21.5850 Y-17.0021 F120.00
G01 X21.5886 Y-16.9994 F120.00
G01 X21.5933 Y-16.9976 F120.00
G01 X21.6507 Y-16.9842 F120.00
G01 X23.2088 Y-16.9840 F120.00
G01 X23.2136 Y-16.9847 F120.00
G01 X23.2811 Y-17.0046 F120.00
G01 X23.2856 Y-17.0067 F120.00
G01 X23.2891 Y-17.0097 F120.00
G01 X23.3351 Y-17.0629 F120.00
G01 X23.3377 Y-17.0667 F120.00
G01 X23.3395 Y-17.0724 F120.00
G01 X23.3496 Y-17.1443 F120.00
G01 X23.3492 Y-17.1479 F120.00
G01 X23.3481 Y-17.1514 F120.00
G01 X23.3189 Y-17.2154 F120.00
G01 X23.3173 Y-17.2182 F120.00
G01 X23.3133 Y-17.2224 F120.00
G01 X23.2807 Y-17.2460 F120.00
G01 X23.6545 Y-17.6198 F120.00
G01 X23.6587 Y-17.6188 F120.00
G01 X23.7664 Y-17.6029 F120.00
G01 X23.8760 Y-17.5975 F120.00
G01 X23.9856 Y-17.6029 F120.00
G01 X24.0933 Y-17.6188 F120.00
G01 X24.0975 Y-17.6198 F120.00
G01 X24.4720 Y-17.2453 F120.00
G01 X24.4298 Y-17.2113 F120.00
G01 X24.4260 Y-17.2068 F120.00
G01 X24.4242 Y-17.2031 F120.00
G01 X24.4022 Y-17.1368 F120.00
G01 X24.4014 Y-17.1332 F120.00
G01 X24.4012 Y-17.1300 F120.00
G01 X24.4018 Y-17.1264 F120.00
G01 X24.4191 Y-17.0587 F120.00
G01 X24.4212 Y-17.0536 F120.00
G01 X24.4244 Y-17.0497 F120.00
G01 X24.4759 Y-17.0018 F120.00
G01 X24.4796 Y-16.9992 F120.00
G01 X24.4839 Y-16.9976 F120.00
G01 X24.5394 Y-16.9845 F120.00
G01 X24.5436 Y-16.9840 F120.00
G01 X26.1323 Y-16.9840 F120.00
G01 X26.1375 Y-16.9847 F120.00
G01 X26.2045 Y-17.0044 F120.00
G01 X26.2087 Y-17.0063 F120.00
G01 X26.2133 Y-17.0101 F120.00
G01 X26.2590 Y-17.0629 F120.00
G01 X26.2615 Y-17.0666 F120.00
G01 X26.2632 Y-17.0716 F120.00
G01 X26.2726 Y-17.1293 F120.00
G01 X26.2737 Y-17.1328 F120.00
G01 X26.2742 Y-17.1364 F120.00
G01 X26.2740 Y-19.4349 F120.00
G01 X26.2801 Y-19.4912 F120.00
G01 X26.3286 Y-19.6214 F120.00
G01 X26.4117 Y-19.7323 F120.00
G01 X26.5226 Y-19.8154 F120.00
G01 X26.6528 Y-19.8639 F120.00
G01 X26.7091 Y-19.8700 F120.00
G01 X26.7346 Y-19.8703 F120.00
G01 X26.8037 Y-19.8904 F120.00
G01 X26.8067 Y-19.8916 F120.00
G01 X26.8099 Y-19.8935 F120.00
G01 X26.8125 Y-19.8961 F120.00
G01 X26.8583 Y-19.9489 F120.00
G01 X26.8608 Y-19.9527 F120.00
G01 X26.8624 Y-19.9571 F120.00
G01 X26.8736 Y-20.0086 F120.00
G01 X26.8740 Y-20.0121 F120.00
G01 X26.8740 Y-20.4757 F120.00
G01 X26.8718 Y-20.5650 F120.00
G01 X26.8820 Y-20.6219 F120.00
G01 X26.8834 Y-20.6319 F120.00
G01 X26.8891 Y-20.6887 F120.00
G01 X26.8978 Y-20.7163 F120.00
G01 X26.9017 Y-20.7323 F120.00
G01 X26.9070 Y-20.7615 F120.00
G01 X26.9284 Y-20.8152 F120.00
G01 X26.9318 Y-20.8248 F120.00
G01 X26.9489 Y-20.8793 F120.00
G01 X26.9630 Y-20.9046 F120.00
G01 X26.9700 Y-20.9194 F120.00
G01 X26.9811 Y-20.9470 F120.00
G01 X27.0125 Y-20.9947 F120.00
G01 X27.0178 Y-21.0033 F120.00
G01 X27.0459 Y-21.0539 F120.00
G01 X27.0652 Y-21.0765 F120.00
G01 X27.0751 Y-21.0896 F120.00
G01 X27.0910 Y-21.1138 F120.00
G01 X27.1314 Y-21.1541 F120.00
G01 X27.1383 Y-21.1616 F120.00
G01 X27.1759 Y-21.2054 F120.00
G01 X27.1988 Y-21.2231 F120.00
G01 X27.2120 Y-21.2348 F120.00
G01 X32.9460 Y-26.9687 F120.00
G01 X32.9491 Y-26.9730 F120.00
G01 X32.9826 Y-27.0343 F120.00
G01 X32.9844 Y-27.0390 F120.00
G01 X32.9848 Y-27.0445 F120.00
G01 X32.9799 Y-27.1142 F120.00
G01 X32.9792 Y-27.1178 F120.00
G01 X32.9779 Y-27.1212 F120.00
G01 X32.9762 Y-27.1239 F120.00
G01 X32.9341 Y-27.1802 F120.00
G01 X32.9301 Y-27.1840 F120.00
G01 X32.9260 Y-27.1861 F120.00
G01 X32.8597 Y-27.2108 F120.00
G01 X32.8556 Y-27.2116 F120.00
G01 X32.8452 Y-27.2120 F120.00
G01 X25.0445 Y-27.2119 F120.00
G01 X24.9744 Y-27.1916 F120.00
G01 X24.9695 Y-27.1893 F120.00
G01 X24.9657 Y-27.1859 F120.00
G01 X24.9199 Y-27.1331 F120.00
G01 X24.9177 Y-27.1299 F120.00
G01 X24.9082 Y-27.1032 F120.00
G01 X24.8670 Y-26.9314 F120.00
G01 X24.7717 Y-26.7013 F120.00
G01 X24.6416 Y-26.4890 F120.00
G01 X24.4799 Y-26.2997 F120.00
G01 X24.2905 Y-26.1379 F120.00
G01 X24.0782 Y-26.0078 F120.00
G01 X23.8481 Y-25.9125 F120.00
G01 X23.6060 Y-25.8544 F120.00
G01 X23.3578 Y-25.8349 F120.00
G01 X23.1095 Y-25.8544 F120.00
G01 X22.8674 Y-25.9125 F120.00
G01 X22.6373 Y-26.0078 F120.00
G01 X22.4250 Y-26.1379 F120.00
G01 X22.2357 Y-26.2997 F120.00
G01 X22.0739 Y-26.4890 F120.00
G01 X21.9438 Y-26.7013 F120.00
G01 X21.8485 Y-26.9314 F120.00
G01 X21.7904 Y-27.1735 F120.00
G01 X21.7709 Y-27.4218 F120.00
G01 X21.7904 Y-27.6700 F120.00
G01 X21.8485 Y-27.9121 F120.00
G01 X21.9438 Y-28.1422 F120.00
G01 X22.0739 Y-28.3545 F120.00
G01 X22.2357 Y-28.5439 F120.00
G01 X22.4250 Y-28.7056 F120.00
G01 X22.6373 Y-28.8357 F120.00
G01 X22.8674 Y-28.9310 F120.00
G01 X23.1095 Y-28.9891 F120.00
G01 X23.3578 Y-29.0087 F120.00
G01 X23.5006 Y-28.9974 F120.00
G01 X23.5054 Y-28.9977 F120.00
G01 X23.5742 Y-29.0121 F120.00
G01 X23.5774 Y-29.0131 F120.00
G01 X23.6132 Y-29.0320 F120.00
G01 X23.6272 Y-29.0405 F120.00
G01 X23.6510 Y-29.0570 F120.00
G01 X23.7035 Y-29.0796 F120.00
G01 X23.7126 Y-29.0839 F120.00
G01 X23.7638 Y-29.1106 F120.00
G01 X23.7916 Y-29.1186 F120.00
G01 X23.8072 Y-29.1241 F120.00
G01 X23.8345 Y-29.1358 F120.00
G01 X23.8905 Y-29.1473 F120.00
G01 X23.9003 Y-29.1497 F120.00
G01 X23.9559 Y-29.1656 F120.00
G01 X23.9855 Y-29.1679 F120.00
G01 X24.0018 Y-29.1702 F120.00
G01 X24.0301 Y-29.1760 F120.00
G01 X24.0872 Y-29.1760 F120.00
G01 X24.0974 Y-29.1764 F120.00
G01 X24.1550 Y-29.1807 F120.00
G01 X24.1837 Y-29.1771 F120.00
G01 X24.2013 Y-29.1760 F120.00
G01 X53.5797 Y-29.1760 F120.00
G01 X53.6689 Y-29.1782 F120.00
G01 X53.7259 Y-29.1680 F120.00
G01 X53.7359 Y-29.1666 F120.00
G01 X53.7927 Y-29.1609 F120.00
G01 X53.8203 Y-29.1522 F120.00
G01 X53.8363 Y-29.1483 F120.00
G01 X53.8655 Y-29.1430 F120.00
G01 X53.9186 Y-29.1218 F120.00
G01 X53.9281 Y-29.1184 F120.00
G01 X53.9833 Y-29.1011 F120.00
G01 X54.0093 Y-29.0867 F120.00
G01 X54.0241 Y-29.0796 F120.00
G01 X54.0510 Y-29.0689 F120.00
G01 X54.0987 Y-29.0375 F120.00
G01 X54.1073 Y-29.0322 F120.00
G01 X54.1579 Y-29.0041 F120.00
G01 X54.1798 Y-28.9853 F120.00
G01 X54.1930 Y-28.9754 F120.00
G01 X54.2178 Y-28.9590 F120.00
G01 X54.2581 Y-28.9186 F120.00
G01 X54.2656 Y-28.9117 F120.00
G01 X54.3094 Y-28.8741 F120.00
G01 X54.3271 Y-28.8512 F120.00
G01 X54.3388 Y-28.8380 F120.00
G01 X56.4070 Y-26.7697 F120.00
G01 X56.4105 Y-26.7670 F120.00
G01 X56.4746 Y-26.7321 F120.00
G01 X56.4790 Y-26.7310 F120.00
G01 X56.5073 Y-26.7280 F120.00
G01 X57.7889 Y-26.7280 F120.00
G01 X57.8452 Y-26.7219 F120.00
G01 X57.9754 Y-26.6734 F120.00
G01 X58.0863 Y-26.5903 F120.00
G01 X58.1694 Y-26.4794 F120.00
G01 X58.2179 Y-26.3492 F120.00
G01 X58.2240 Y-26.2929 F120.00
G01 X58.2240 Y-23.9991 F120.00
G01 X58.2179 Y-23.9428 F120.00
G01 X58.2115 Y-23.9254 F120.00
G01 X58.2106 Y-23.9215 F120.00
G01 X58.2055 Y-23.8496 F120.00
G01 X58.2061 Y-23.8449 F120.00
G01 X58.2113 Y-23.8270 F120.00
G01 X58.2179 Y-23.8092 F120.00
G01 X58.2240 Y-23.7529 F120.00
G01 X58.2240 Y-21.4591 F120.00
G01 X58.2179 Y-21.4028 F120.00
G01 X58.2115 Y-21.3854 F120.00
G01 X58.2106 Y-21.3815 F120.00
G01 X58.2055 Y-21.3096 F120.00
G01 X58.2061 Y-21.3049 F120.00
G01 X58.2113 Y-21.2870 F120.00
G01 X58.2179 Y-21.2692 F120.00
G01 X58.2240 Y-21.2129 F120.00
G01 X58.2240 Y-18.9191 F120.00
G01 X58.2179 Y-18.8628 F120.00
G01 X58.2112 Y-18.8447 F120.00
G01 X58.2103 Y-18.8408 F120.00
G01 X58.2052 Y-18.7689 F120.00
G01 X58.2058 Y-18.7641 F120.00
G01 X58.2110 Y-18.7463 F120.00
G01 X58.2175 Y-18.7291 F120.00
G01 X58.2235 Y-18.6729 F120.00
G01 X58.2235 Y-18.1445 F120.00
G01 X57.7605 Y-18.1445 F120.00
G01 X57.7605 Y-18.6265 F120.00
G01 X57.7601 Y-18.6296 F120.00
G01 X57.7593 Y-18.6327 F120.00
G01 X57.7563 Y-18.6377 F120.00
G01 X57.7541 Y-18.6400 F120.00
G01 X57.7515 Y-18.6419 F120.00
G01 X57.7487 Y-18.6433 F120.00
G01 X57.7456 Y-18.6441 F120.00
G01 X57.7420 Y-18.6445 F120.00
G01 X55.5420 Y-18.6445 F120.00
G01 X55.5384 Y-18.6441 F120.00
G01 X55.5353 Y-18.6433 F120.00
G01 X55.5321 Y-18.6416 F120.00
G01 X55.5292 Y-18.6394 F120.00
G01 X55.5269 Y-18.6367 F120.00
G01 X55.5251 Y-18.6335 F120.00
G01 X55.5241 Y-18.6305 F120.00
G01 X55.5235 Y-18.6269 F120.00
G01 X55.5235 Y-18.1445 F120.00
G01 X55.0605 Y-18.1445 F120.00
G01 X55.0605 Y-18.6729 F120.00
G01 X55.0665 Y-18.7291 F120.00
G01 X55.0728 Y-18.7459 F120.00
G01 X55.0737 Y-18.7498 F120.00
G01 X55.0788 Y-18.8221 F120.00
G01 X55.0782 Y-18.8264 F120.00
G01 X55.0730 Y-18.8442 F120.00
G01 X55.0661 Y-18.8628 F120.00
G01 X55.0600 Y-18.9191 F120.00
G01 X55.0600 Y-18.9775 F120.00
G01 X55.0597 Y-18.9811 F120.00
G01 X55.0394 Y-19.0502 F120.00
G01 X55.0382 Y-19.0532 F120.00
G01 X55.0362 Y-19.0563 F120.00
G01 X55.0339 Y-19.0586 F120.00
G01 X54.9811 Y-19.1043 F120.00
G01 X54.9774 Y-19.1068 F120.00
G01 X54.9574 Y-19.1134 F120.00
G01 X54.9540 Y-19.1149 F120.00
G01 X54.9480 Y-19.1167 F120.00
G01 X54.8940 Y-19.1382 F120.00
G01 X54.8845 Y-19.1416 F120.00
G01 X54.8294 Y-19.1589 F120.00
G01 X54.8041 Y-19.1730 F120.00
G01 X54.7892 Y-19.1800 F120.00
G01 X54.7616 Y-19.1911 F120.00
G01 X54.7139 Y-19.2225 F120.00
G01 X54.7053 Y-19.2278 F120.00
G01 X54.6547 Y-19.2559 F120.00
G01 X54.6322 Y-19.2752 F120.00
G01 X54.6190 Y-19.2851 F120.00
G01 X54.5948 Y-19.3010 F120.00
G01 X54.5545 Y-19.3414 F120.00
G01 X54.5471 Y-19.3483 F120.00
G01 X54.5032 Y-19.3859 F120.00
G01 X54.4855 Y-19.4088 F120.00
G01 X54.4738 Y-19.4221 F120.00
G01 X52.0043 Y-21.8914 F120.00
G01 X52.0014 Y-21.8934 F120.00
G01 X51.9401 Y-21.9269 F120.00
G01 X51.9349 Y-21.9287 F120.00
G01 X51.9299 Y-21.9291 F120.00
G01 X51.8602 Y-21.9241 F120.00
G01 X51.8549 Y-21.9229 F120.00
G01 X51.8504 Y-21.9205 F120.00
G01 X51.7945 Y-21.8786 F120.00
G01 X51.7909 Y-21.8750 F120.00
G01 X51.7883 Y-21.8702 F120.00
G01 X51.7638 Y-21.8048 F120.00
G01 X51.7629 Y-21.8008 F120.00
G01 X51.7629 Y-21.7953 F120.00
G01 X51.7727 Y-21.7363 F120.00
G01 X51.8406 Y-21.5722 F120.00
G01 X51.8987 Y-21.3302 F120.00
G01 X51.9183 Y-21.0820 F120.00
G01 X51.8987 Y-20.8338 F120.00
G01 X51.8406 Y-20.5918 F120.00
G01 X51.7985 Y-20.4901 F120.00
G01 X51.4281 Y-20.8605 F120.00
G01 X51.4290 Y-20.8647 F120.00
G01 X51.4450 Y-20.9724 F120.00
G01 X51.4503 Y-21.0829 F120.00
G01 X51.4450 Y-21.1916 F120.00
G01 X51.4290 Y-21.2993 F120.00
G01 X51.4022 Y-21.4067 F120.00
G01 X51.3652 Y-21.5100 F120.00
G01 X51.3178 Y-21.6100 F120.00
G01 X51.2619 Y-21.7034 F120.00
G01 X51.1970 Y-21.7909 F120.00
G01 X51.1228 Y-21.8729 F120.00
G01 X51.0407 Y-21.9472 F120.00
G01 X50.9533 Y-22.0120 F120.00
G01 X50.8599 Y-22.0680 F120.00
G01 X50.7599 Y-22.1154 F120.00
G01 X50.6565 Y-22.1523 F120.00
G01 X50.5492 Y-22.1792 F120.00
G01 X50.4415 Y-22.1951 F120.00
G01 X50.3328 Y-22.2005 F120.00
G01 X50.2222 Y-22.1951 F120.00
G01 X50.1145 Y-22.1792 F120.00
G01 X50.1103 Y-22.1782 F120.00
G01 X49.7399 Y-22.5486 F120.00
G01 X49.8416 Y-22.5907 F120.00
G01 X50.0837 Y-22.6489 F120.00
G01 X50.3319 Y-22.6684 F120.00
G01 X50.5800 Y-22.6489 F120.00
G01 X50.8221 Y-22.5907 F120.00
G01 X50.9869 Y-22.5226 F120.00
G01 X50.9899 Y-22.5221 F120.00
G01 X51.0621 Y-22.5145 F120.00
G01 X51.0657 Y-22.5150 F120.00
G01 X51.0696 Y-22.5164 F120.00
G01 X51.1321 Y-22.5477 F120.00
G01 X51.1363 Y-22.5506 F120.00
G01 X51.1397 Y-22.5548 F120.00
G01 X51.1766 Y-22.6174 F120.00
G01 X51.1776 Y-22.6209 F120.00
G01 X51.1780 Y-22.6245 F120.00
G01 X51.1755 Y-22.6948 F120.00
G01 X51.1749 Y-22.6989 F120.00
G01 X51.1727 Y-22.7039 F120.00
G01 X51.1427 Y-22.7524 F120.00
G01 X51.1404 Y-22.7554 F120.00
G01 X50.2813 Y-23.6146 F120.00
G01 X50.2774 Y-23.6174 F120.00
G01 X50.2144 Y-23.6517 F120.00
G01 X50.2096 Y-23.6530 F120.00
G01 X50.1823 Y-23.6559 F120.00
G01 X35.5178 Y-23.6560 F120.00
G01 X35.5143 Y-23.6557 F120.00
G01 X35.4434 Y-23.6348 F120.00
G01 X35.4395 Y-23.6325 F120.00
G01 X35.4170 Y-23.6143 F120.00
G01 X31.9160 Y-20.1133 F120.00
G01 X31.9129 Y-20.1090 F120.00
G01 X31.8794 Y-20.0477 F120.00
G01 X31.8776 Y-20.0430 F120.00
G01 X31.8772 Y-20.0375 F120.00
G01 X31.8824 Y-19.9660 F120.00
G01 X31.8835 Y-19.9621 F120.00
G01 X31.8855 Y-19.9584 F120.00
G01 X31.9277 Y-19.9021 F120.00
G01 X31.9316 Y-19.8983 F120.00
G01 X31.9360 Y-19.8959 F120.00
G01 X32.0019 Y-19.8713 F120.00
G01 X32.0064 Y-19.8704 F120.00
G01 X32.0161 Y-19.8700 F120.00
G01 X34.0829 Y-19.8700 F120.00
G01 X34.1392 Y-19.8639 F120.00
G01 X34.1573 Y-19.8572 F120.00
G01 X34.1612 Y-19.8563 F120.00
G01 X34.2331 Y-19.8512 F120.00
G01 X34.2379 Y-19.8518 F120.00
G01 X34.2557 Y-19.8570 F120.00
G01 X34.2729 Y-19.8635 F120.00
G01 X34.3048 Y-19.8669 F120.00
G01 X34.3083 Y-19.8676 F120.00
G01 X34.3745 Y-19.8949 F120.00
G01 X34.3785 Y-19.8972 F120.00
G01 X34.3826 Y-19.9015 F120.00
G01 X34.4224 Y-19.9589 F120.00
G01 X34.4249 Y-19.9638 F120.00
G01 X34.4257 Y-19.9687 F120.00
G01 X34.4282 Y-20.0386 F120.00
G01 X34.4281 Y-20.0417 F120.00
G01 X34.4274 Y-20.0448 F120.00
G01 X34.4262 Y-20.0477 F120.00
G01 X34.3996 Y-20.0988 F120.00
G01 X34.3566 Y-20.1495 F120.00
G01 X34.2265 Y-20.3618 F120.00
G01 X34.1313 Y-20.5918 F120.00
G01 X34.0731 Y-20.8338 F120.00
G01 X34.0536 Y-21.0820 F120.00
G01 X34.0731 Y-21.3302 F120.00
G01 X34.1313 Y-21.5722 F120.00
G01 X34.1734 Y-21.6739 F120.00
G01 X34.5438 Y-21.3035 F120.00
G01 X34.5428 Y-21.2993 F120.00
G01 X34.5268 Y-21.1907 F120.00
G01 X34.5215 Y-21.0820 F120.00
G01 X34.5270 Y-20.9715 F120.00
G01 X34.5430 Y-20.8638 F120.00
G01 X34.5697 Y-20.7573 F120.00
G01 X34.6066 Y-20.6540 F120.00
G01 X34.6540 Y-20.5540 F120.00
G01 X34.7100 Y-20.4606 F120.00
G01 X34.7748 Y-20.3731 F120.00
G01 X34.8491 Y-20.2911 F120.00
G01 X34.9304 Y-20.2174 F120.00
G01 X35.0179 Y-20.1525 F120.00
G01 X35.1120 Y-20.0960 F120.00
G01 X35.1212 Y-20.0915 F120.00
G01 X35.1212 Y-19.4065 F120.00
G01 X34.3755 Y-19.4065 F120.00
G01 X34.3719 Y-19.4061 F120.00
G01 X34.3689 Y-19.4051 F120.00
G01 X34.3657 Y-19.4034 F120.00
G01 X34.3632 Y-19.4014 F120.00
G01 X34.3611 Y-19.3990 F120.00
G01 X34.3593 Y-19.3959 F120.00
G01 X34.3581 Y-19.3925 F120.00
G01 X34.3576 Y-19.3894 F120.00
G01 X34.3575 Y-17.1880 F120.00
G01 X34.3579 Y-17.1844 F120.00
G01 X34.3599 Y-17.1789 F120.00
G01 X34.3617 Y-17.1763 F120.00
G01 X34.3639 Y-17.1740 F120.00
G01 X34.3665 Y-17.1721 F120.00
G01 X34.3693 Y-17.1707 F120.00
G01 X34.3724 Y-17.1699 F120.00
G01 X34.3755 Y-17.1695 F120.00
G01 X34.8575 Y-17.1695 F120.00
G01 X34.8575 Y-16.7065 F120.00
G01 X34.3291 Y-16.7065 F120.00
G01 X34.2729 Y-16.7125 F120.00
G01 X34.2561 Y-16.7188 F120.00
G01 X34.2522 Y-16.7197 F120.00
G01 X34.1799 Y-16.7248 F120.00
G01 X34.1756 Y-16.7242 F120.00
G01 X34.1577 Y-16.7190 F120.00
G01 X34.1392 Y-16.7121 F120.00
G01 X34.0829 Y-16.7060 F120.00
G01 X33.9085 Y-16.7059 F120.00
G01 X33.8385 Y-16.6856 F120.00
G01 X33.8335 Y-16.6833 F120.00
G01 X33.8307 Y-16.6810 F120.00
G01 X33.7923 Y-16.6427 F120.00
G01 X33.7793 Y-16.6231 F120.00
G01 X33.7740 Y-16.6144 F120.00
G01 X33.7461 Y-16.5641 F120.00
G01 X33.7273 Y-16.5422 F120.00
G01 X33.7174 Y-16.5290 F120.00
G01 X33.7010 Y-16.5042 F120.00
G01 X33.6606 Y-16.4639 F120.00
G01 X33.6537 Y-16.4565 F120.00
G01 X33.6161 Y-16.4126 F120.00
G01 X33.5932 Y-16.3949 F120.00
G01 X33.5799 Y-16.3832 F120.00
G01 X32.9000 Y-15.7033 F120.00
G01 X32.8978 Y-15.7005 F120.00
G01 X32.8634 Y-15.6377 F120.00
G01 X32.8615 Y-15.6326 F120.00
G01 X32.8612 Y-15.6275 F120.00
G01 X32.8661 Y-15.5578 F120.00
G01 X32.8673 Y-15.5525 F120.00
G01 X32.8698 Y-15.5481 F120.00
G01 X32.9117 Y-15.4921 F120.00
G01 X32.9152 Y-15.4886 F120.00
G01 X32.9200 Y-15.4859 F120.00
G01 X32.9855 Y-15.4615 F120.00
G01 X32.9899 Y-15.4604 F120.00
G01 X33.0008 Y-15.4600 F120.00
G01 X34.9002 Y-15.4600 F120.00
G01 X34.9054 Y-15.4607 F120.00
G01 X34.9750 Y-15.4814 F120.00
G01 X34.9785 Y-15.4835 F120.00
G01 X35.0010 Y-15.5017 F120.00
G01 X36.0528 Y-16.5535 F120.00
G01 X36.0550 Y-16.5562 F120.00
G01 X36.0904 Y-16.6211 F120.00
G01 X36.0915 Y-16.6255 F120.00
G01 X36.0945 Y-16.6533 F120.00
G01 X36.0945 Y-17.1695 F120.00
G01 X36.5765 Y-17.1695 F120.00
G01 X36.5809 Y-17.1702 F120.00
G01 X36.5847 Y-17.1717 F120.00
G01 X36.5884 Y-17.1743 F120.00
G01 X36.5914 Y-17.1777 F120.00
G01 X36.5937 Y-17.1826 F120.00
G01 X36.5945 Y-17.1880 F120.00
G01 X36.5943 Y-19.3907 F120.00
G01 X36.5936 Y-19.3938 F120.00
G01 X36.5923 Y-19.3967 F120.00
G01 X36.5906 Y-19.3994 F120.00
G01 X36.5884 Y-19.4017 F120.00
G01 X36.5855 Y-19.4039 F120.00
G01 X36.5827 Y-19.4053 F120.00
G01 X36.5796 Y-19.4061 F120.00
G01 X36.5765 Y-19.4065 F120.00
G01 X36.1588 Y-19.4065 F120.00
G01 X36.1588 Y-20.0915 F120.00
G01 X36.1680 Y-20.0960 F120.00
G01 X36.2621 Y-20.1525 F120.00
G01 X36.3496 Y-20.2174 F120.00
G01 X36.4309 Y-20.2911 F120.00
G01 X36.5052 Y-20.3731 F120.00
G01 X36.5700 Y-20.4606 F120.00
G01 X36.6260 Y-20.5540 F120.00
G01 X36.6734 Y-20.6540 F120.00
G01 X36.7103 Y-20.7573 F120.00
G01 X36.7370 Y-20.8638 F120.00
G01 X36.7530 Y-20.9715 F120.00
G01 X36.7585 Y-21.0820 F120.00
G01 X36.7532 Y-21.1907 F120.00
G01 X36.7372 Y-21.2993 F120.00
G01 X36.7362 Y-21.3035 F120.00
G01 X37.1066 Y-21.6739 F120.00
G01 X37.1487 Y-21.5722 F120.00
G01 X37.2069 Y-21.3302 F120.00
G01 X37.2264 Y-21.0820 F120.00
G01 X37.2069 Y-20.8338 F120.00
G01 X37.1487 Y-20.5918 F120.00
G01 X37.0535 Y-20.3618 F120.00
G01 X36.9234 Y-20.1495 F120.00
G01 X36.8836 Y-20.1025 F120.00
G01 X36.8540 Y-20.0368 F120.00
G01 X36.8528 Y-20.0329 F120.00
G01 X36.8526 Y-20.0270 F120.00
G01 X36.8631 Y-19.9570 F120.00
G01 X36.8647 Y-19.9522 F120.00
G01 X36.8675 Y-19.9480 F120.00
G01 X36.9136 Y-19.8955 F120.00
G01 X36.9178 Y-19.8920 F120.00
G01 X36.9223 Y-19.8899 F120.00
G01 X36.9886 Y-19.8707 F120.00
G01 X36.9928 Y-19.8700 F120.00
G01 X37.0413 Y-19.8700 F120.00
G01 X37.0448 Y-19.8703 F120.00
G01 X37.1140 Y-19.8906 F120.00
G01 X37.1177 Y-19.8922 F120.00
G01 X37.1213 Y-19.8950 F120.00
G01 X37.1597 Y-19.9333 F120.00
G01 X37.1727 Y-19.9530 F120.00
G01 X37.1780 Y-19.9616 F120.00
G01 X37.2058 Y-20.0119 F120.00
G01 X37.2252 Y-20.0345 F120.00
G01 X37.2351 Y-20.0476 F120.00
G01 X37.2510 Y-20.0718 F120.00
G01 X37.2914 Y-20.1121 F120.00
G01 X37.2983 Y-20.1196 F120.00
G01 X37.3359 Y-20.1634 F120.00
G01 X37.3588 Y-20.1811 F120.00
G01 X37.3721 Y-20.1928 F120.00
G01 X38.9455 Y-21.7663 F120.00
G01 X39.0071 Y-21.8309 F120.00
G01 X39.0539 Y-21.8636 F120.00
G01 X39.0620 Y-21.8696 F120.00
G01 X39.1068 Y-21.9062 F120.00
G01 X39.1332 Y-21.9200 F120.00
G01 X39.1472 Y-21.9285 F120.00
G01 X39.1710 Y-21.9450 F120.00
G01 X39.2235 Y-21.9676 F120.00
G01 X39.2326 Y-21.9719 F120.00
G01 X39.2838 Y-21.9986 F120.00
G01 X39.3124 Y-22.0068 F120.00
G01 X39.3279 Y-22.0124 F120.00
G01 X39.3392 Y-22.0172 F120.00
G01 X39.3424 Y-22.0191 F120.00
G01 X39.3878 Y-22.0526 F120.00
G01 X39.3903 Y-22.0547 F120.00
G01 X39.5179 Y-22.2041 F120.00
G01 X39.7072 Y-22.3658 F120.00
G01 X39.9196 Y-22.4959 F120.00
G01 X40.1496 Y-22.5912 F120.00
G01 X40.3918 Y-22.6494 F120.00
G01 X40.6400 Y-22.6689 F120.00
G01 X40.8882 Y-22.6494 F120.00
G01 X41.1304 Y-22.5912 F120.00
G01 X41.3604 Y-22.4959 F120.00
G01 X41.5728 Y-22.3658 F120.00
G01 X41.7621 Y-22.2041 F120.00
G01 X41.8391 Y-22.1140 F120.00
G01 X41.8423 Y-22.1110 F120.00
G01 X41.9016 Y-22.0723 F120.00
G01 X41.9043 Y-22.0708 F120.00
G01 X41.9090 Y-22.0695 F120.00
G01 X41.9475 Y-22.0640 F120.00
G01 X44.0244 Y-22.0640 F120.00
G01 X44.0275 Y-22.0643 F120.00
G01 X44.0971 Y-22.0846 F120.00
G01 X44.1003 Y-22.0860 F120.00
G01 X44.1033 Y-22.0880 F120.00
G01 X44.1325 Y-22.1136 F120.00
G01 X44.2098 Y-22.2041 F120.00
G01 X44.3991 Y-22.3658 F120.00
G01 X44.6114 Y-22.4959 F120.00
G01 X44.8415 Y-22.5912 F120.00
G01 X45.0836 Y-22.6494 F120.00
G01 X45.3319 Y-22.6689 F120.00
G01 X45.5801 Y-22.6494 F120.00
G01 X45.8222 Y-22.5912 F120.00
G01 X46.0523 Y-22.4959 F120.00
G01 X46.2646 Y-22.3658 F120.00
G01 X46.4540 Y-22.2041 F120.00
G01 X46.5328 Y-22.1121 F120.00
G01 X46.5934 Y-22.0723 F120.00
G01 X46.5978 Y-22.0702 F120.00
G01 X46.6008 Y-22.0695 F120.00
G01 X46.6393 Y-22.0640 F120.00
G01 X47.2297 Y-22.0640 F120.00
G01 X47.3189 Y-22.0662 F120.00
G01 X47.3759 Y-22.0560 F120.00
G01 X47.3859 Y-22.0546 F120.00
G01 X47.4427 Y-22.0489 F120.00
G01 X47.4703 Y-22.0402 F120.00
G01 X47.4863 Y-22.0363 F120.00
G01 X47.5155 Y-22.0310 F120.00
G01 X47.5686 Y-22.0098 F120.00
G01 X47.5781 Y-22.0064 F120.00
G01 X47.6333 Y-21.9891 F120.00
G01 X47.6593 Y-21.9747 F120.00
G01 X47.6741 Y-21.9676 F120.00
G01 X47.7010 Y-21.9569 F120.00
G01 X47.7487 Y-21.9255 F120.00
G01 X47.7573 Y-21.9202 F120.00
G01 X47.8079 Y-21.8921 F120.00
G01 X47.8298 Y-21.8733 F120.00
G01 X47.8430 Y-21.8634 F120.00
G01 X47.8678 Y-21.8470 F120.00
G01 X47.9081 Y-21.8066 F120.00
G01 X47.9156 Y-21.7997 F120.00
G01 X47.9594 Y-21.7621 F120.00
G01 X47.9771 Y-21.7392 F120.00
G01 X47.9888 Y-21.7260 F120.00
G01 X48.5190 Y-21.1958 F120.00
G01 X48.5229 Y-21.1929 F120.00
G01 X48.5842 Y-21.1594 F120.00
G01 X48.5880 Y-21.1579 F120.00
G01 X48.5912 Y-21.1573 F120.00
G01 X48.5944 Y-21.1572 F120.00
G01 X48.6641 Y-21.1622 F120.00
G01 X48.6695 Y-21.1634 F120.00
G01 X48.6739 Y-21.1658 F120.00
G01 X48.7302 Y-21.2080 F120.00
G01 X48.7328 Y-21.2105 F120.00
G01 X48.7351 Y-21.2139 F120.00
G01 X48.7611 Y-21.2828 F120.00
G01 X48.7650 Y-21.3302 F120.00
G01 X48.8231 Y-21.5722 F120.00
G01 X48.8652 Y-21.6739 F120.00
G01 X49.2357 Y-21.3035 F120.00
G01 X49.2347 Y-21.2993 F120.00
G01 X49.2187 Y-21.1916 F120.00
G01 X49.2134 Y-21.0820 F120.00
G01 X49.2187 Y-20.9724 F120.00
G01 X49.2351 Y-20.8629 F120.00
G01 X49.2615 Y-20.7573 F120.00
G01 X49.2982 Y-20.6548 F120.00
G01 X49.3450 Y-20.5556 F120.00
G01 X49.4019 Y-20.4606 F120.00
G01 X49.4675 Y-20.3721 F120.00
G01 X49.5410 Y-20.2911 F120.00
G01 X49.6216 Y-20.2180 F120.00
G01 X49.7105 Y-20.1520 F120.00
G01 X49.8054 Y-20.0952 F120.00
G01 X49.9038 Y-20.0486 F120.00
G01 X50.0063 Y-20.0119 F120.00
G01 X50.1145 Y-19.9848 F120.00
G01 X50.2222 Y-19.9689 F120.00
G01 X50.3310 Y-19.9635 F120.00
G01 X50.4415 Y-19.9689 F120.00
G01 X50.5492 Y-19.9848 F120.00
G01 X50.5534 Y-19.9858 F120.00
G01 X50.9238 Y-19.6154 F120.00
G01 X50.8221 Y-19.5733 F120.00
G01 X50.5800 Y-19.5151 F120.00
G01 X50.5325 Y-19.5111 F120.00
G01 X50.4651 Y-19.4856 F120.00
G01 X50.4610 Y-19.4834 F120.00
G01 X50.4571 Y-19.4797 F120.00
G01 X50.4151 Y-19.4227 F120.00
G01 X50.4128 Y-19.4182 F120.00
G01 X50.4118 Y-19.4137 F120.00
G01 X50.4073 Y-19.3435 F120.00
G01 X50.4077 Y-19.3381 F120.00
G01 X50.4095 Y-19.3334 F120.00
G01 X50.4441 Y-19.2710 F120.00
G01 X53.7050 Y-16.0097 F120.00
G01 X53.7092 Y-16.0066 F120.00
G01 X53.7706 Y-15.9731 F120.00
G01 X53.7735 Y-15.9718 F120.00
G01 X53.7774 Y-15.9709 F120.00
G01 X53.8058 Y-15.9680 F120.00
G01 X54.9179 Y-15.9680 F120.00
G01 X54.9227 Y-15.9687 F120.00
G01 X54.9898 Y-15.9884 F120.00
G01 X54.9927 Y-15.9896 F120.00
G01 X54.9955 Y-15.9913 F120.00
G01 X54.9985 Y-15.9941 F120.00
G01 X55.0446 Y-16.0472 F120.00
G01 X55.0466 Y-16.0503 F120.00
G01 X55.0480 Y-16.0537 F120.00
G01 X55.0598 Y-16.1079 F120.00
G01 X55.0600 Y-16.1329 F120.00
G01 X55.0661 Y-16.1892 F120.00
G01 X55.0728 Y-16.2073 F120.00
G01 X55.0737 Y-16.2112 F120.00
G01 X55.0788 Y-16.2818 F120.00
G01 X55.0783 Y-16.2874 F120.00
G01 X55.0731 Y-16.3053 F120.00
G01 X55.0665 Y-16.3229 F120.00
G01 X55.0605 Y-16.3791 F120.00
G01 X55.0605 Y-16.9075 F120.00
G01 X55.5235 Y-16.9075 F120.00
G01 X55.5235 Y-16.4255 F120.00
G01 X55.5239 Y-16.4224 F120.00
G01 X55.5247 Y-16.4193 F120.00
G01 X55.5277 Y-16.4143 F120.00
G01 X55.5299 Y-16.4120 F120.00
G01 X55.5325 Y-16.4101 F120.00
G01 X55.5353 Y-16.4087 F120.00
G01 X55.5384 Y-16.4079 F120.00
G01 X55.5420 Y-16.4075 F120.00
G01 X57.7420 Y-16.4075 F120.00
G01 X57.7456 Y-16.4079 F120.00
G01 X57.7487 Y-16.4087 F120.00
G01 X57.7519 Y-16.4104 F120.00
G01 X57.7548 Y-16.4126 F120.00
G01 X57.7571 Y-16.4153 F120.00
G01 X57.7589 Y-16.4185 F120.00
G01 X57.7599 Y-16.4215 F120.00
G01 X57.7605 Y-16.4251 F120.00
G01 X57.7605 Y-16.9075 F120.00
G01 X58.2235 Y-16.9075 F120.00
G01 X58.2235 Y-16.3792 F120.00
G01 X58.2175 Y-16.3229 F120.00
G01 X58.2112 Y-16.3061 F120.00
G01 X58.2103 Y-16.3022 F120.00
G01 X58.2052 Y-16.2304 F120.00
G01 X58.2058 Y-16.2256 F120.00
G01 X58.2110 Y-16.2078 F120.00
G01 X58.2179 Y-16.1892 F120.00
G01 X58.2240 Y-16.1329 F120.00
G01 X58.2240 Y-13.8391 F120.00
G01 X58.2179 Y-13.7828 F120.00
G01 X58.2115 Y-13.7654 F120.00
G01 X58.2106 Y-13.7615 F120.00
G01 X58.2055 Y-13.6896 F120.00
G01 X58.2061 Y-13.6849 F120.00
G01 X58.2113 Y-13.6670 F120.00
G01 X58.2179 Y-13.6492 F120.00
G01 X58.2240 Y-13.5929 F120.00
G01 X58.2240 Y-11.2991 F120.00
G01 X58.2179 Y-11.2428 F120.00
G01 X58.2115 Y-11.2254 F120.00
G01 X58.2106 Y-11.2215 F120.00
G01 X58.2055 Y-11.1496 F120.00
G01 X58.2061 Y-11.1449 F120.00
G01 X58.2113 Y-11.1270 F120.00
G01 X58.2179 Y-11.1092 F120.00
G01 X58.2240 Y-11.0529 F120.00
G01 X58.2240 Y-8.7591 F120.00
G01 X58.2179 Y-8.7028 F120.00
G01 X58.2115 Y-8.6854 F120.00
G01 X58.2106 Y-8.6815 F120.00
G01 X58.2055 Y-8.6096 F120.00
G01 X58.2061 Y-8.6049 F120.00
G01 X58.2113 Y-8.5870 F120.00
G01 X58.2179 Y-8.5692 F120.00
G01 X58.2240 Y-8.5129 F120.00
G01 X58.2240 Y-6.2191 F120.00
G01 X58.2179 Y-6.1628 F120.00
G01 X58.2115 Y-6.1454 F120.00
G01 X58.2106 Y-6.1415 F120.00
G01 X58.2055 Y-6.0696 F120.00
G01 X58.2061 Y-6.0649 F120.00
G01 X58.2113 Y-6.0470 F120.00
G01 X58.2179 Y-6.0292 F120.00
G01 X58.2240 Y-5.9729 F120.00
G01 X58.2240 Y-3.6791 F120.00
G01 X58.2179 Y-3.6228 F120.00
G01 X58.1694 Y-3.4926 F120.00
G01 X58.0863 Y-3.3817 F120.00
G01 X57.9754 Y-3.2986 F120.00
G01 X57.8452 Y-3.2501 F120.00
G01 X57.7889 Y-3.2440 F120.00
G01 X55.4951 Y-3.2440 F120.00
G01 X55.4388 Y-3.2501 F120.00
G01 X55.3086 Y-3.2986 F120.00
G01 X55.1977 Y-3.3817 F120.00
G01 X55.1146 Y-3.4926 F120.00
G01 X55.0661 Y-3.6228 F120.00
G01 X55.0600 Y-3.6791 F120.00
G01 X55.0600 Y-3.7019 F120.00
G01 X55.0597 Y-3.7050 F120.00
G01 X55.0396 Y-3.7738 F120.00
G01 X55.0377 Y-3.7780 F120.00
G01 X55.0339 Y-3.7825 F120.00
G01 X54.9811 Y-3.8283 F120.00
G01 X54.9781 Y-3.8304 F120.00
G01 X54.9729 Y-3.8324 F120.00
G01 X54.9214 Y-3.8436 F120.00
G01 X54.9175 Y-3.8440 F120.00
G01 X44.1355 Y-3.8440 F120.00
G01 X44.1311 Y-3.8433 F120.00
G01 X44.0624 Y-3.8230 F120.00
G01 X44.0580 Y-3.8205 F120.00
G01 X44.0363 Y-3.8029 F120.00
G01 X43.6555 Y-3.4222 F120.00
G01 X43.6513 Y-3.4232 F120.00
G01 X43.5436 Y-3.4391 F120.00
G01 X43.4340 Y-3.4445 F120.00
G01 X43.3244 Y-3.4391 F120.00
G01 X43.2167 Y-3.4232 F120.00
G01 X43.2125 Y-3.4222 F120.00
G01 X42.8315 Y-3.8032 F120.00
G01 X42.8282 Y-3.8054 F120.00
G01 X42.7648 Y-3.8399 F120.00
G01 X42.7605 Y-3.8410 F120.00
G01 X42.7317 Y-3.8440 F120.00
G01 X41.3423 Y-3.8440 F120.00
G01 X41.3384 Y-3.8436 F120.00
G01 X41.2679 Y-3.8228 F120.00
G01 X41.2640 Y-3.8205 F120.00
G01 X41.2423 Y-3.8029 F120.00
G01 X40.8615 Y-3.4222 F120.00
G01 X40.8573 Y-3.4232 F120.00
G01 X40.7496 Y-3.4391 F120.00
G01 X40.6400 Y-3.4445 F120.00
G01 X40.5304 Y-3.4391 F120.00
G01 X40.4227 Y-3.4232 F120.00
G01 X40.4185 Y-3.4222 F120.00
G01 X40.0375 Y-3.8032 F120.00
G01 X40.0342 Y-3.8054 F120.00
G01 X39.9708 Y-3.8399 F120.00
G01 X39.9665 Y-3.8410 F120.00
G01 X39.9377 Y-3.8440 F120.00
G01 X23.8317 Y-3.8440 F120.00
G01 X23.8265 Y-3.8433 F120.00
G01 X23.7595 Y-3.8236 F120.00
G01 X23.7564 Y-3.8224 F120.00
G01 X23.7095 Y-3.7900 F120.00
G01 X23.7014 Y-3.7839 F120.00
G01 X23.6572 Y-3.7478 F120.00
G01 X23.6315 Y-3.7344 F120.00
G01 X23.6174 Y-3.7259 F120.00
G01 X23.5930 Y-3.7090 F120.00
G01 X23.5405 Y-3.6864 F120.00
G01 X23.5314 Y-3.6821 F120.00
G01 X23.4802 Y-3.6554 F120.00
G01 X23.4523 Y-3.6474 F120.00
G01 X23.4368 Y-3.6419 F120.00
G01 X23.4095 Y-3.6302 F120.00
G01 X23.3529 Y-3.6185 F120.00
G01 X23.3430 Y-3.6161 F120.00
G01 X23.2881 Y-3.6004 F120.00
G01 X23.2593 Y-3.5982 F120.00
G01 X23.2430 Y-3.5959 F120.00
G01 X23.2139 Y-3.5900 F120.00
G01 X23.1568 Y-3.5900 F120.00
G01 X23.1466 Y-3.5896 F120.00
G01 X23.0890 Y-3.5853 F120.00
G01 X23.0603 Y-3.5889 F120.00
G01 X23.0427 Y-3.5900 F120.00
G01 X16.4669 Y-3.5900 F120.00
G01 X16.4626 Y-3.5893 F120.00
G01 X16.3938 Y-3.5690 F120.00
G01 X16.3895 Y-3.5665 F120.00
G01 X16.3677 Y-3.5489 F120.00
G01 X15.6905 Y-2.8717 F120.00
G01 X15.6289 Y-2.8071 F120.00
G01 X15.5815 Y-2.7740 F120.00
G01 X15.5734 Y-2.7679 F120.00
G01 X15.5292 Y-2.7318 F120.00
G01 X15.5035 Y-2.7184 F120.00
G01 X15.4894 Y-2.7099 F120.00
G01 X15.4650 Y-2.6930 F120.00
G01 X15.4125 Y-2.6704 F120.00
G01 X15.4034 Y-2.6661 F120.00
G01 X15.3522 Y-2.6394 F120.00
G01 X15.3243 Y-2.6314 F120.00
G01 X15.3088 Y-2.6259 F120.00
G01 X15.2815 Y-2.6142 F120.00
G01 X15.2249 Y-2.6025 F120.00
G01 X15.2150 Y-2.6001 F120.00
G01 X15.1601 Y-2.5844 F120.00
G01 X15.1313 Y-2.5822 F120.00
G01 X15.1150 Y-2.5799 F120.00
G01 X15.0859 Y-2.5740 F120.00
G01 X15.0288 Y-2.5740 F120.00
G01 X15.0186 Y-2.5736 F120.00
G01 X14.9610 Y-2.5693 F120.00
G01 X14.9323 Y-2.5729 F120.00
G01 X14.9151 Y-2.5740 F120.00
G01 X14.6300 Y-2.5740 F120.00
G01 X14.6257 Y-2.5733 F120.00
G01 X14.5586 Y-2.5536 F120.00
G01 X14.5552 Y-2.5522 F120.00
G01 X14.5525 Y-2.5505 F120.00
G01 X14.5498 Y-2.5479 F120.00
G01 X14.5041 Y-2.4951 F120.00
G01 X14.5011 Y-2.4903 F120.00
G01 X14.4924 Y-2.4652 F120.00
G01 X14.4632 Y-2.3436 F120.00
G01 X14.3679 Y-2.1136 F120.00
G01 X14.2378 Y-1.9013 F120.00
G01 X14.0761 Y-1.7119 F120.00
G01 X13.8868 Y-1.5502 F120.00
G01 X13.6744 Y-1.4201 F120.00
G01 X13.4444 Y-1.3248 F120.00
G01 X13.2022 Y-1.2666 F120.00
G01 X12.9540 Y-1.2471 F120.00
G01 X12.7058 Y-1.2666 F120.00
G01 X12.4636 Y-1.3248 F120.00
G01 X12.2336 Y-1.4201 F120.00
G01 X12.0213 Y-1.5502 F120.00
G01 X11.8319 Y-1.7119 F120.00
G01 X11.6702 Y-1.9012 F120.00
G01 X11.5401 Y-2.1136 F120.00
G01 X11.4448 Y-2.3436 F120.00
G01 X11.3866 Y-2.5858 F120.00
G01 X11.3671 Y-2.8340 F120.00
G01 X11.3866 Y-3.0822 F120.00
G01 X11.4448 Y-3.3244 F120.00
G01 X11.5401 Y-3.5544 F120.00
G01 X11.6702 Y-3.7667 F120.00
G01 X11.8319 Y-3.9561 F120.00
G01 X12.0020 Y-4.1015 F120.00
G01 X12.0428 Y-4.1637 F120.00
G01 X12.0445 Y-4.1679 F120.00
G01 X12.0451 Y-4.1720 F120.00
G01 X12.0456 Y-4.2423 F120.00
G01 X12.0450 Y-4.2469 F120.00
G01 X12.0427 Y-4.2523 F120.00
G01 X12.0046 Y-4.3125 F120.00
G01 X12.0018 Y-4.3156 F120.00
G01 X11.9979 Y-4.3181 F120.00
G01 X11.9342 Y-4.3478 F120.00
G01 X11.9307 Y-4.3490 F120.00
G01 X11.9051 Y-4.3508 F120.00
G01 X11.8630 Y-4.3498 F120.00
G01 X11.8068 Y-4.3599 F120.00
G01 X11.7968 Y-4.3613 F120.00
G01 X11.7393 Y-4.3671 F120.00
G01 X11.7109 Y-4.3760 F120.00
G01 X11.6949 Y-4.3799 F120.00
G01 X11.6665 Y-4.3850 F120.00
G01 X11.6128 Y-4.4065 F120.00
G01 X11.6032 Y-4.4098 F120.00
G01 X11.5487 Y-4.4269 F120.00
G01 X11.5234 Y-4.4410 F120.00
G01 X11.5086 Y-4.4480 F120.00
G01 X11.4810 Y-4.4591 F120.00
G01 X11.4333 Y-4.4905 F120.00
G01 X11.4247 Y-4.4958 F120.00
G01 X11.3741 Y-4.5239 F120.00
G01 X11.3516 Y-4.5432 F120.00
G01 X11.3384 Y-4.5531 F120.00
G01 X11.3142 Y-4.5690 F120.00
G01 X11.2739 Y-4.6094 F120.00
G01 X11.2664 Y-4.6163 F120.00
G01 X11.2226 Y-4.6539 F120.00
G01 X11.2049 Y-4.6768 F120.00
G01 X11.1932 Y-4.6901 F120.00
G01 X7.1897 Y-8.6935 F120.00
G01 X7.1251 Y-8.7551 F120.00
G01 X7.0920 Y-8.8025 F120.00
G01 X7.0859 Y-8.8106 F120.00
G01 X7.0498 Y-8.8548 F120.00
G01 X7.0364 Y-8.8805 F120.00
G01 X7.0279 Y-8.8946 F120.00
G01 X7.0110 Y-8.9190 F120.00
G01 X6.9881 Y-8.9721 F120.00
G01 X6.9838 Y-8.9812 F120.00
G01 X6.9574 Y-9.0318 F120.00
G01 X6.9494 Y-9.0597 F120.00
G01 X6.9439 Y-9.0752 F120.00
G01 X6.9322 Y-9.1025 F120.00
G01 X6.9206 Y-9.1591 F120.00
G01 X6.9181 Y-9.1689 F120.00
G01 X6.9024 Y-9.2239 F120.00
G01 X6.9001 Y-9.2535 F120.00
G01 X6.8978 Y-9.2698 F120.00
G01 X6.8920 Y-9.2981 F120.00
G01 X6.8920 Y-9.3552 F120.00
G01 X6.8916 Y-9.3654 F120.00
G01 X6.8873 Y-9.4230 F120.00
G01 X6.8909 Y-9.4517 F120.00
G01 X6.8920 Y-9.4689 F120.00
G01 X6.8920 Y-9.6159 F120.00
G01 X6.8913 Y-9.6198 F120.00
G01 X6.8710 Y-9.6885 F120.00
G01 X6.8680 Y-9.6934 F120.00
G01 X6.8427 Y-9.7223 F120.00
G01 X6.7519 Y-9.7999 F120.00
G01 X6.5902 Y-9.9892 F120.00
G01 X6.4601 Y-10.2016 F120.00
G01 X6.3648 Y-10.4316 F120.00
G01 X6.3066 Y-10.6738 F120.00
G01 X6.2871 Y-10.9220 F120.00
G01 X6.3066 Y-11.1702 F120.00
G01 X6.3648 Y-11.4124 F120.00
G01 X6.4601 Y-11.6424 F120.00
G01 X6.5413 Y-11.7750 F120.00
G01 X6.5433 Y-11.7795 F120.00
G01 X6.5618 Y-11.8478 F120.00
G01 X6.5623 Y-11.8532 F120.00
G01 X6.5614 Y-11.8577 F120.00
G01 X6.5402 Y-11.9248 F120.00
G01 X6.5384 Y-11.9285 F120.00
G01 X6.5359 Y-11.9318 F120.00
G01 X6.4807 Y-11.9776 F120.00
G01 X6.4773 Y-11.9798 F120.00
G01 X6.4727 Y-11.9815 F120.00
G01 X6.4208 Y-11.9920 F120.00
G01 X5.8131 Y-11.9920 F120.00
G01 X5.8083 Y-11.9913 F120.00
G01 X5.7395 Y-11.9710 F120.00
G01 X5.7359 Y-11.9690 F120.00
G01 X5.7325 Y-11.9659 F120.00
G01 X5.6864 Y-11.9128 F120.00
G01 X5.6834 Y-11.9076 F120.00
G01 X5.6712 Y-11.8521 F120.00
G01 X5.6710 Y-11.8271 F120.00
G01 X5.6649 Y-11.7708 F120.00
G01 X5.6164 Y-11.6406 F120.00
G01 X5.5333 Y-11.5297 F120.00
G01 X5.4224 Y-11.4466 F120.00
G01 X5.2922 Y-11.3981 F120.00
G01 X5.2359 Y-11.3920 F120.00
G01 X2.9421 Y-11.3920 F120.00
G01 X2.8858 Y-11.3981 F120.00
G01 X2.7556 Y-11.4466 F120.00
G01 X2.6447 Y-11.5297 F120.00
G01 X2.5616 Y-11.6406 F120.00
G01 X2.5131 Y-11.7708 F120.00
G01 X2.5070 Y-11.8271 F120.00
G01 X2.5070 Y-14.1209 F120.00
G01 X2.5131 Y-14.1772 F120.00
G01 X2.5195 Y-14.1946 F120.00
G01 X2.5204 Y-14.1985 F120.00
G01 X2.5255 Y-14.2704 F120.00
G01 X2.5249 Y-14.2751 F120.00
G01 X2.5197 Y-14.2930 F120.00
G01 X2.5131 Y-14.3108 F120.00
G01 X2.5070 Y-14.3671 F120.00
G01 X2.5070 Y-16.6609 F120.00
G00 Z2.0000
G00 X2.9705 Y-14.4140
G01 F60.00
G01 Z-0.1046
G01 F120.00
G01 X2.9705 Y-16.6140 F120.00
G01 X2.9708 Y-16.6172 F120.00
G01 X2.9717 Y-16.6207 F120.00
G01 X2.9731 Y-16.6235 F120.00
G01 X2.9753 Y-16.6264 F120.00
G01 X2.9776 Y-16.6286 F120.00
G01 X2.9803 Y-16.6303 F120.00
G01 X2.9832 Y-16.6316 F120.00
G01 X2.9867 Y-16.6324 F120.00
G01 X5.1890 Y-16.6325 F120.00
G01 X5.1939 Y-16.6318 F120.00
G01 X5.1993 Y-16.6294 F120.00
G01 X5.2036 Y-16.6254 F120.00
G01 X5.2064 Y-16.6202 F120.00
G01 X5.2075 Y-16.6145 F120.00
G01 X5.2075 Y-16.0328 F120.00
G01 X16.3391 Y-16.0328 F120.00
G01 X17.5152 Y-17.2089 F120.00
G01 X17.5152 Y-17.2355 F120.00
G01 X16.9335 Y-17.2355 F120.00
G01 X16.9278 Y-17.2366 F120.00
G01 X16.9249 Y-17.2379 F120.00
G01 X16.9223 Y-17.2397 F120.00
G01 X16.9184 Y-17.2441 F120.00
G01 X16.9161 Y-17.2495 F120.00
G01 X16.9155 Y-17.2540 F120.00
G01 X16.9155 Y-19.4540 F120.00
G01 X16.9158 Y-19.4572 F120.00
G01 X16.9166 Y-19.4602 F120.00
G01 X16.9181 Y-19.4635 F120.00
G01 X16.9200 Y-19.4661 F120.00
G01 X16.9223 Y-19.4683 F120.00
G01 X16.9249 Y-19.4701 F120.00
G01 X16.9278 Y-19.4714 F120.00
G01 X16.9313 Y-19.4723 F120.00
G01 X19.1340 Y-19.4725 F120.00
G01 X19.1394 Y-19.4717 F120.00
G01 X19.1439 Y-19.4696 F120.00
G01 X19.1480 Y-19.4661 F120.00
G01 X19.1507 Y-19.4619 F120.00
G01 X19.1521 Y-19.4581 F120.00
G01 X19.1525 Y-19.4540 F120.00
G01 X19.1525 Y-17.2540 F120.00
G01 X19.1517 Y-17.2486 F120.00
G01 X19.1494 Y-17.2437 F120.00
G01 X19.1454 Y-17.2394 F120.00
G01 X19.1402 Y-17.2366 F120.00
G01 X19.1345 Y-17.2355 F120.00
G01 X18.5528 Y-17.2355 F120.00
G01 X18.5528 Y-16.9940 F120.00
G01 X18.5503 Y-16.9432 F120.00
G01 X18.5426 Y-16.8919 F120.00
G01 X18.5304 Y-16.8434 F120.00
G01 X18.5136 Y-16.7963 F120.00
G01 X18.4910 Y-16.7487 F120.00
G01 X18.4653 Y-16.7058 F120.00
G01 X18.4353 Y-16.6653 F120.00
G01 X18.4011 Y-16.6275 F120.00
G01 X18.2944 Y-16.5208 F120.00
G01 X31.5951 Y-16.5208 F120.00
G01 X32.2439 Y-17.1695 F120.00
G01 X31.8355 Y-17.1695 F120.00
G01 X31.8324 Y-17.1699 F120.00
G01 X31.8293 Y-17.1707 F120.00
G01 X31.8265 Y-17.1721 F120.00
G01 X31.8239 Y-17.1740 F120.00
G01 X31.8217 Y-17.1763 F120.00
G01 X31.8199 Y-17.1789 F120.00
G01 X31.8179 Y-17.1844 F120.00
G01 X31.8175 Y-17.1880 F120.00
G01 X31.8175 Y-19.3880 F120.00
G01 X31.8178 Y-19.3912 F120.00
G01 X31.8186 Y-19.3942 F120.00
G01 X31.8201 Y-19.3975 F120.00
G01 X31.8220 Y-19.4001 F120.00
G01 X31.8250 Y-19.4029 F120.00
G01 X31.8285 Y-19.4049 F120.00
G01 X31.8319 Y-19.4061 F120.00
G01 X31.8360 Y-19.4065 F120.00
G01 X34.0360 Y-19.4065 F120.00
G01 X34.0396 Y-19.4061 F120.00
G01 X34.0427 Y-19.4053 F120.00
G01 X34.0455 Y-19.4039 F120.00
G01 X34.0481 Y-19.4020 F120.00
G01 X34.0506 Y-19.3994 F120.00
G01 X34.0523 Y-19.3967 F120.00
G01 X34.0536 Y-19.3938 F120.00
G01 X34.0543 Y-19.3907 F120.00
G01 X34.0545 Y-17.1880 F120.00
G01 X34.0539 Y-17.1835 F120.00
G01 X34.0523 Y-17.1793 F120.00
G01 X34.0494 Y-17.1752 F120.00
G01 X34.0455 Y-17.1721 F120.00
G01 X34.0409 Y-17.1702 F120.00
G01 X34.0365 Y-17.1695 F120.00
G01 X33.4548 Y-17.1695 F120.00
G01 X33.4547 Y-17.1275 F120.00
G01 X33.4523 Y-17.0776 F120.00
G01 X33.4449 Y-17.0272 F120.00
G01 X33.4324 Y-16.9774 F120.00
G01 X33.4156 Y-16.9303 F120.00
G01 X33.3935 Y-16.8835 F120.00
G01 X33.3673 Y-16.8398 F120.00
G01 X33.3370 Y-16.7989 F120.00
G01 X33.3034 Y-16.7618 F120.00
G01 X32.1762 Y-15.6346 F120.00
G01 X32.1391 Y-15.6010 F120.00
G01 X32.0989 Y-15.5712 F120.00
G01 X32.0545 Y-15.5445 F120.00
G01 X32.0085 Y-15.5227 F120.00
G01 X31.9614 Y-15.5059 F120.00
G01 X31.9103 Y-15.4931 F120.00
G01 X31.8608 Y-15.4857 F120.00
G01 X31.8100 Y-15.4832 F120.00
G01 X17.2569 Y-15.4832 F120.00
G01 X16.9208 Y-15.1472 F120.00
G01 X16.8824 Y-15.1124 F120.00
G01 X16.8422 Y-15.0827 F120.00
G01 X16.7993 Y-15.0570 F120.00
G01 X16.7525 Y-15.0347 F120.00
G01 X16.7046 Y-15.0176 F120.00
G01 X16.6561 Y-15.0054 F120.00
G01 X16.6044 Y-14.9977 F120.00
G01 X16.5540 Y-14.9952 F120.00
G01 X5.2075 Y-14.9952 F120.00
G01 X5.2075 Y-14.4135 F120.00
G01 X5.2064 Y-14.4078 F120.00
G01 X5.2036 Y-14.4026 F120.00
G01 X5.2014 Y-14.4003 F120.00
G01 X5.1989 Y-14.3984 F120.00
G01 X5.1935 Y-14.3961 F120.00
G01 X5.1890 Y-14.3955 F120.00
G01 X2.9890 Y-14.3955 F120.00
G01 X2.9854 Y-14.3959 F120.00
G01 X2.9819 Y-14.3969 F120.00
G01 X2.9787 Y-14.3986 F120.00
G01 X2.9759 Y-14.4009 F120.00
G01 X2.9736 Y-14.4037 F120.00
G01 X2.9719 Y-14.4069 F120.00
G01 X2.9709 Y-14.4104 F120.00
G01 X2.9705 Y-14.4140 F120.00
G00 Z2.0000
G00 X2.9890 Y-14.0925
G01 F60.00
G01 Z-0.1046
G01 F120.00
G01 X5.1890 Y-14.0925 F120.00
G01 X5.1939 Y-14.0918 F120.00
G01 X5.1993 Y-14.0894 F120.00
G01 X5.2036 Y-14.0854 F120.00
G01 X5.2064 Y-14.0802 F120.00
G01 X5.2075 Y-14.0745 F120.00
G01 X5.2075 Y-13.4928 F120.00
G01 X14.2940 Y-13.4928 F120.00
G01 X14.3457 Y-13.4901 F120.00
G01 X14.3952 Y-13.4828 F120.00
G01 X14.4446 Y-13.4704 F120.00
G01 X14.4925 Y-13.4533 F120.00
G01 X14.5393 Y-13.4310 F120.00
G01 X14.5822 Y-13.4053 F120.00
G01 X14.6224 Y-13.3756 F120.00
G01 X14.6605 Y-13.3411 F120.00
G01 X15.8608 Y-12.1408 F120.00
G01 X15.8950 Y-12.1031 F120.00
G01 X15.9253 Y-12.0622 F120.00
G01 X15.9519 Y-12.0177 F120.00
G01 X15.9733 Y-11.9725 F120.00
G01 X15.9901 Y-11.9254 F120.00
G01 X16.0028 Y-11.8752 F120.00
G01 X16.0103 Y-11.8248 F120.00
G01 X16.0127 Y-11.7745 F120.00
G01 X16.0128 Y-11.5325 F120.00
G01 X16.5945 Y-11.5325 F120.00
G01 X16.5998 Y-11.5316 F120.00
G01 X16.6043 Y-11.5294 F120.00
G01 X16.6083 Y-11.5257 F120.00
G01 X16.6109 Y-11.5215 F120.00
G01 X16.6121 Y-11.5181 F120.00
G01 X16.6125 Y-11.5140 F120.00
G01 X16.6125 Y-9.3140 F120.00
G01 X16.6118 Y-9.3091 F120.00
G01 X16.6094 Y-9.3037 F120.00
G01 X16.6054 Y-9.2994 F120.00
G01 X16.6002 Y-9.2966 F120.00
G01 X16.5945 Y-9.2955 F120.00
G01 X16.0128 Y-9.2955 F120.00
G01 X16.0128 Y-9.2689 F120.00
G01 X16.6349 Y-8.6468 F120.00
G01 X21.1211 Y-8.6468 F120.00
G01 X25.7952 Y-13.3208 F120.00
G01 X25.8329 Y-13.3550 F120.00
G01 X25.8746 Y-13.3858 F120.00
G01 X25.9175 Y-13.4115 F120.00
G01 X25.9627 Y-13.4329 F120.00
G01 X26.0114 Y-13.4504 F120.00
G01 X26.0608 Y-13.4628 F120.00
G01 X26.1103 Y-13.4701 F120.00
G01 X26.1620 Y-13.4728 F120.00
G01 X37.3071 Y-13.4728 F120.00
G01 X40.0372 Y-16.2029 F120.00
G01 X40.0372 Y-17.1695 F120.00
G01 X39.4555 Y-17.1695 F120.00
G01 X39.4498 Y-17.1706 F120.00
G01 X39.4469 Y-17.1719 F120.00
G01 X39.4443 Y-17.1737 F120.00
G01 X39.4420 Y-17.1759 F120.00
G01 X39.4401 Y-17.1785 F120.00
G01 X39.4387 Y-17.1813 F120.00
G01 X39.4379 Y-17.1844 F120.00
G01 X39.4375 Y-17.1880 F120.00
G01 X39.4375 Y-19.3880 F120.00
G01 X39.4384 Y-19.3938 F120.00
G01 X39.4411 Y-19.3990 F120.00
G01 X39.4439 Y-19.4020 F120.00
G01 X39.4477 Y-19.4045 F120.00
G01 X39.4519 Y-19.4061 F120.00
G01 X39.4560 Y-19.4065 F120.00
G01 X41.6560 Y-19.4065 F120.00
G01 X41.6596 Y-19.4061 F120.00
G01 X41.6627 Y-19.4053 F120.00
G01 X41.6655 Y-19.4039 F120.00
G01 X41.6681 Y-19.4020 F120.00
G01 X41.6706 Y-19.3994 F120.00
G01 X41.6723 Y-19.3967 F120.00
G01 X41.6736 Y-19.3938 F120.00
G01 X41.6743 Y-19.3907 F120.00
G01 X41.6745 Y-17.1880 F120.00
G01 X41.6742 Y-17.1848 F120.00
G01 X41.6734 Y-17.1818 F120.00
G01 X41.6721 Y-17.1789 F120.00
G01 X41.6703 Y-17.1763 F120.00
G01 X41.6681 Y-17.1740 F120.00
G01 X41.6655 Y-17.1721 F120.00
G01 X41.6627 Y-17.1707 F120.00
G01 X41.6596 Y-17.1699 F120.00
G01 X41.6565 Y-17.1695 F120.00
G01 X41.0748 Y-17.1695 F120.00
G01 X41.0747 Y-15.9871 F120.00
G01 X41.0721 Y-15.9363 F120.00
G01 X41.0648 Y-15.8868 F120.00
G01 X41.0527 Y-15.8383 F120.00
G01 X41.0353 Y-15.7895 F120.00
G01 X41.0133 Y-15.7431 F120.00
G01 X40.9873 Y-15.6998 F120.00
G01 X40.9576 Y-15.6596 F120.00
G01 X40.9228 Y-15.6212 F120.00
G01 X37.8888 Y-12.5872 F120.00
G01 X37.8504 Y-12.5524 F120.00
G01 X37.8102 Y-12.5227 F120.00
G01 X37.7669 Y-12.4967 F120.00
G01 X37.7205 Y-12.4747 F120.00
G01 X37.6717 Y-12.4573 F120.00
G01 X37.6232 Y-12.4452 F120.00
G01 X37.5737 Y-12.4379 F120.00
G01 X37.5220 Y-12.4352 F120.00
G01 X26.3769 Y-12.4352 F120.00
G01 X21.7025 Y-7.7609 F120.00
G01 X21.6651 Y-7.7270 F120.00
G01 X21.6249 Y-7.6972 F120.00
G01 X21.5797 Y-7.6701 F120.00
G01 X21.5345 Y-7.6487 F120.00
G01 X21.4866 Y-7.6316 F120.00
G01 X21.4372 Y-7.6192 F120.00
G01 X21.3877 Y-7.6119 F120.00
G01 X21.3360 Y-7.6092 F120.00
G01 X16.4195 Y-7.6093 F120.00
G01 X16.3692 Y-7.6117 F120.00
G01 X16.3197 Y-7.6191 F120.00
G01 X16.2694 Y-7.6316 F120.00
G01 X16.2215 Y-7.6487 F120.00
G01 X16.1763 Y-7.6701 F120.00
G01 X16.1318 Y-7.6967 F120.00
G01 X16.0909 Y-7.7270 F120.00
G01 X16.0532 Y-7.7612 F120.00
G01 X15.1272 Y-8.6872 F120.00
G01 X15.0930 Y-8.7249 F120.00
G01 X15.0632 Y-8.7651 F120.00
G01 X15.0365 Y-8.8095 F120.00
G01 X15.0147 Y-8.8555 F120.00
G01 X14.9976 Y-8.9034 F120.00
G01 X14.9851 Y-8.9532 F120.00
G01 X14.9777 Y-9.0032 F120.00
G01 X14.9753 Y-9.0535 F120.00
G01 X14.9752 Y-9.2955 F120.00
G01 X14.3935 Y-9.2955 F120.00
G01 X14.3882 Y-9.2964 F120.00
G01 X14.3837 Y-9.2986 F120.00
G01 X14.3800 Y-9.3019 F120.00
G01 X14.3771 Y-9.3065 F120.00
G01 X14.3759 Y-9.3104 F120.00
G01 X14.3755 Y-9.3140 F120.00
G01 X14.3755 Y-11.5140 F120.00
G01 X14.3762 Y-11.5189 F120.00
G01 X14.3786 Y-11.5243 F120.00
G01 X14.3826 Y-11.5286 F120.00
G01 X14.3878 Y-11.5314 F120.00
G01 X14.3935 Y-11.5325 F120.00
G01 X14.9752 Y-11.5325 F120.00
G01 X14.9752 Y-11.5591 F120.00
G01 X14.0791 Y-12.4552 F120.00
G01 X5.2075 Y-12.4552 F120.00
G01 X5.2075 Y-11.8735 F120.00
G01 X5.2064 Y-11.8678 F120.00
G01 X5.2036 Y-11.8626 F120.00
G01 X5.1993 Y-11.8586 F120.00
G01 X5.1939 Y-11.8562 F120.00
G01 X5.1890 Y-11.8555 F120.00
G01 X2.9863 Y-11.8557 F120.00
G01 X2.9828 Y-11.8566 F120.00
G01 X2.9799 Y-11.8579 F120.00
G01 X2.9773 Y-11.8597 F120.00
G01 X2.9750 Y-11.8619 F120.00
G01 X2.9731 Y-11.8645 F120.00
G01 X2.9717 Y-11.8673 F120.00
G01 X2.9709 Y-11.8704 F120.00
G01 X2.9705 Y-11.8740 F120.00
G01 X2.9705 Y-14.0740 F120.00
G01 X2.9709 Y-14.0776 F120.00
G01 X2.9719 Y-14.0811 F120.00
G01 X2.9736 Y-14.0843 F120.00
G01 X2.9759 Y-14.0871 F120.00
G01 X2.9787 Y-14.0894 F120.00
G01 X2.9819 Y-14.0911 F120.00
G01 X2.9854 Y-14.0921 F120.00
G01 X2.9890 Y-14.0925 F120.00
G00 Z2.0000
G00 X16.9340 Y-11.5325
G01 F60.00
G01 Z-0.1046
G01 F120.00
G01 X18.4189 Y-11.5325 F120.00
G01 X20.1029 Y-13.2165 F120.00
G01 X20.0952 Y-13.2296 F120.00
G01 X20.0486 Y-13.3280 F120.00
G01 X20.0117 Y-13.4313 F120.00
G01 X19.9850 Y-13.5378 F120.00
G01 X19.9688 Y-13.6473 F120.00
G01 X19.9635 Y-13.7569 F120.00
G01 X19.9689 Y-13.8656 F120.00
G01 X19.9848 Y-13.9733 F120.00
G01 X20.0117 Y-14.0807 F120.00
G01 X20.0490 Y-14.1849 F120.00
G01 X20.0960 Y-14.2840 F120.00
G01 X20.1520 Y-14.3774 F120.00
G01 X20.2168 Y-14.4649 F120.00
G01 X20.2911 Y-14.5469 F120.00
G01 X20.3724 Y-14.6206 F120.00
G01 X20.4614 Y-14.6865 F120.00
G01 X20.5547 Y-14.7424 F120.00
G01 X20.6531 Y-14.7890 F120.00
G01 X20.7573 Y-14.8263 F120.00
G01 X20.8638 Y-14.8530 F120.00
G01 X20.9724 Y-14.8691 F120.00
G01 X21.0811 Y-14.8745 F120.00
G01 X21.1925 Y-14.8690 F120.00
G01 X21.3002 Y-14.8530 F120.00
G01 X21.4067 Y-14.8263 F120.00
G01 X21.5100 Y-14.7894 F120.00
G01 X21.6089 Y-14.7426 F120.00
G01 X21.7034 Y-14.6860 F120.00
G01 X21.7909 Y-14.6212 F120.00
G01 X21.8732 Y-14.5466 F120.00
G01 X21.9466 Y-14.4656 F120.00
G01 X22.0117 Y-14.3778 F120.00
G01 X22.0682 Y-14.2837 F120.00
G01 X22.0914 Y-14.2348 F120.00
G01 X22.8855 Y-14.2348 F120.00
G01 X22.8900 Y-14.2440 F120.00
G01 X22.9465 Y-14.3381 F120.00
G01 X23.0114 Y-14.4256 F120.00
G01 X23.0858 Y-14.5075 F120.00
G01 X23.1664 Y-14.5806 F120.00
G01 X23.2546 Y-14.6460 F120.00
G01 X23.3487 Y-14.7024 F120.00
G01 X23.4476 Y-14.7492 F120.00
G01 X23.5513 Y-14.7863 F120.00
G01 X23.6578 Y-14.8130 F120.00
G01 X23.7664 Y-14.8291 F120.00
G01 X23.8751 Y-14.8345 F120.00
G01 X23.9856 Y-14.8291 F120.00
G01 X24.0933 Y-14.8132 F120.00
G01 X24.1998 Y-14.7866 F120.00
G01 X24.2096 Y-14.7832 F120.00
G01 X24.2715 Y-14.8451 F120.00
G01 X24.3089 Y-14.8790 F120.00
G01 X24.3498 Y-14.9093 F120.00
G01 X24.3931 Y-14.9353 F120.00
G01 X24.4395 Y-14.9573 F120.00
G01 X24.4874 Y-14.9744 F120.00
G01 X24.5368 Y-14.9868 F120.00
G01 X24.5876 Y-14.9943 F120.00
G01 X24.6380 Y-14.9968 F120.00
G01 X35.1511 Y-14.9968 F120.00
G01 X37.3239 Y-17.1695 F120.00
G01 X36.9155 Y-17.1695 F120.00
G01 X36.9124 Y-17.1699 F120.00
G01 X36.9093 Y-17.1707 F120.00
G01 X36.9065 Y-17.1721 F120.00
G01 X36.9039 Y-17.1740 F120.00
G01 X36.9001 Y-17.1785 F120.00
G01 X36.8987 Y-17.1813 F120.00
G01 X36.8979 Y-17.1844 F120.00
G01 X36.8975 Y-17.1880 F120.00
G01 X36.8975 Y-19.3880 F120.00
G01 X36.8984 Y-19.3938 F120.00
G01 X36.9011 Y-19.3990 F120.00
G01 X36.9043 Y-19.4023 F120.00
G01 X36.9077 Y-19.4045 F120.00
G01 X36.9115 Y-19.4059 F120.00
G01 X36.9155 Y-19.4065 F120.00
G01 X37.4972 Y-19.4065 F120.00
G01 X37.4973 Y-19.4485 F120.00
G01 X37.4998 Y-19.4993 F120.00
G01 X37.5072 Y-19.5492 F120.00
G01 X37.5197 Y-19.5990 F120.00
G01 X37.5367 Y-19.6465 F120.00
G01 X37.5585 Y-19.6925 F120.00
G01 X37.5847 Y-19.7362 F120.00
G01 X37.6153 Y-19.7774 F120.00
G01 X37.6492 Y-19.8148 F120.00
G01 X39.2838 Y-21.4494 F120.00
G01 X39.3209 Y-21.4830 F120.00
G01 X39.3618 Y-21.5133 F120.00
G01 X39.4055 Y-21.5395 F120.00
G01 X39.4515 Y-21.5613 F120.00
G01 X39.4994 Y-21.5784 F120.00
G01 X39.5488 Y-21.5908 F120.00
G01 X39.5992 Y-21.5983 F120.00
G01 X39.6495 Y-21.6007 F120.00
G01 X39.6540 Y-21.6100 F120.00
G01 X39.7105 Y-21.7041 F120.00
G01 X39.7754 Y-21.7916 F120.00
G01 X39.8491 Y-21.8729 F120.00
G01 X39.9311 Y-21.9472 F120.00
G01 X40.0186 Y-22.0120 F120.00
G01 X40.1120 Y-22.0680 F120.00
G01 X40.2120 Y-22.1154 F120.00
G01 X40.3153 Y-22.1523 F120.00
G01 X40.4218 Y-22.1790 F120.00
G01 X40.5299 Y-22.1951 F120.00
G01 X40.6409 Y-22.2005 F120.00
G01 X40.7496 Y-22.1951 F120.00
G01 X40.8582 Y-22.1790 F120.00
G01 X40.9647 Y-22.1523 F120.00
G01 X41.0672 Y-22.1157 F120.00
G01 X41.1673 Y-22.0684 F120.00
G01 X41.2614 Y-22.0120 F120.00
G01 X41.3489 Y-21.9472 F120.00
G01 X41.4309 Y-21.8729 F120.00
G01 X41.5046 Y-21.7916 F120.00
G01 X41.5695 Y-21.7041 F120.00
G01 X41.6260 Y-21.6100 F120.00
G01 X41.6305 Y-21.6008 F120.00
G01 X44.3414 Y-21.6008 F120.00
G01 X44.3459 Y-21.6100 F120.00
G01 X44.4019 Y-21.7034 F120.00
G01 X44.4678 Y-21.7923 F120.00
G01 X44.5410 Y-21.8729 F120.00
G01 X44.6216 Y-21.9460 F120.00
G01 X44.7112 Y-22.0125 F120.00
G01 X44.8046 Y-22.0684 F120.00
G01 X44.9030 Y-22.1150 F120.00
G01 X45.0072 Y-22.1523 F120.00
G01 X45.1137 Y-22.1790 F120.00
G01 X45.2213 Y-22.1950 F120.00
G01 X45.3319 Y-22.2005 F120.00
G01 X45.4424 Y-22.1950 F120.00
G01 X45.5501 Y-22.1790 F120.00
G01 X45.6565 Y-22.1523 F120.00
G01 X45.7607 Y-22.1150 F120.00
G01 X45.8591 Y-22.0684 F120.00
G01 X45.9525 Y-22.0125 F120.00
G01 X46.0421 Y-21.9460 F120.00
G01 X46.1228 Y-21.8729 F120.00
G01 X46.1959 Y-21.7923 F120.00
G01 X46.2619 Y-21.7034 F120.00
G01 X46.3178 Y-21.6100 F120.00
G01 X46.3223 Y-21.6008 F120.00
G01 X47.2440 Y-21.6008 F120.00
G01 X47.2939 Y-21.5983 F120.00
G01 X47.3452 Y-21.5908 F120.00
G01 X47.3946 Y-21.5784 F120.00
G01 X47.4425 Y-21.5613 F120.00
G01 X47.4881 Y-21.5397 F120.00
G01 X47.5329 Y-21.5128 F120.00
G01 X47.5731 Y-21.4830 F120.00
G01 X47.6108 Y-21.4488 F120.00
G01 X53.5549 Y-15.5048 F120.00
G01 X55.5235 Y-15.5048 F120.00
G01 X55.5235 Y-16.0865 F120.00
G01 X55.5239 Y-16.0896 F120.00
G01 X55.5249 Y-16.0931 F120.00
G01 X55.5264 Y-16.0959 F120.00
G01 X55.5283 Y-16.0984 F120.00
G01 X55.5306 Y-16.1006 F120.00
G01 X55.5333 Y-16.1023 F120.00
G01 X55.5362 Y-16.1036 F120.00
G01 X55.5393 Y-16.1043 F120.00
G01 X57.7420 Y-16.1045 F120.00
G01 X57.7456 Y-16.1041 F120.00
G01 X57.7487 Y-16.1033 F120.00
G01 X57.7515 Y-16.1019 F120.00
G01 X57.7541 Y-16.1000 F120.00
G01 X57.7566 Y-16.0974 F120.00
G01 X57.7583 Y-16.0947 F120.00
G01 X57.7596 Y-16.0918 F120.00
G01 X57.7604 Y-16.0883 F120.00
G01 X57.7605 Y-13.8860 F120.00
G01 X57.7601 Y-13.8824 F120.00
G01 X57.7591 Y-13.8789 F120.00
G01 X57.7574 Y-13.8757 F120.00
G01 X57.7551 Y-13.8729 F120.00
G01 X57.7523 Y-13.8706 F120.00
G01 X57.7491 Y-13.8689 F120.00
G01 X57.7456 Y-13.8679 F120.00
G01 X57.7420 Y-13.8675 F120.00
G01 X55.5420 Y-13.8675 F120.00
G01 X55.5375 Y-13.8681 F120.00
G01 X55.5321 Y-13.8704 F120.00
G01 X55.5277 Y-13.8743 F120.00
G01 X55.5259 Y-13.8769 F120.00
G01 X55.5246 Y-13.8798 F120.00
G01 X55.5235 Y-13.8855 F120.00
G01 X55.5235 Y-14.4672 F120.00
G01 X53.3391 Y-14.4673 F120.00
G01 X53.2892 Y-14.4697 F120.00
G01 X53.2388 Y-14.4772 F120.00
G01 X53.1894 Y-14.4896 F120.00
G01 X53.1423 Y-14.5064 F120.00
G01 X53.0947 Y-14.5290 F120.00
G01 X53.0518 Y-14.5547 F120.00
G01 X53.0113 Y-14.5847 F120.00
G01 X52.9732 Y-14.6192 F120.00
G01 X47.0291 Y-20.5632 F120.00
G01 X46.3223 Y-20.5632 F120.00
G01 X46.3178 Y-20.5540 F120.00
G01 X46.2619 Y-20.4606 F120.00
G01 X46.1959 Y-20.3717 F120.00
G01 X46.1228 Y-20.2911 F120.00
G01 X46.0421 Y-20.2180 F120.00
G01 X45.9525 Y-20.1515 F120.00
G01 X45.8591 Y-20.0956 F120.00
G01 X45.7607 Y-20.0490 F120.00
G01 X45.6565 Y-20.0117 F120.00
G01 X45.5492 Y-19.9848 F120.00
G01 X45.4415 Y-19.9689 F120.00
G01 X45.3323 Y-19.9635 F120.00
G01 X45.2213 Y-19.9690 F120.00
G01 X45.1137 Y-19.9850 F120.00
G01 X45.0072 Y-20.0117 F120.00
G01 X44.9030 Y-20.0490 F120.00
G01 X44.8046 Y-20.0956 F120.00
G01 X44.7112 Y-20.1515 F120.00
G01 X44.6216 Y-20.2180 F120.00
G01 X44.5410 Y-20.2911 F120.00
G01 X44.4678 Y-20.3717 F120.00
G01 X44.4019 Y-20.4606 F120.00
G01 X44.3459 Y-20.5540 F120.00
G01 X44.3414 Y-20.5632 F120.00
G01 X41.6305 Y-20.5632 F120.00
G01 X41.6260 Y-20.5540 F120.00
G01 X41.5700 Y-20.4606 F120.00
G01 X41.5040 Y-20.3717 F120.00
G01 X41.4309 Y-20.2911 F120.00
G01 X41.3503 Y-20.2180 F120.00
G01 X41.2606 Y-20.1515 F120.00
G01 X41.1673 Y-20.0956 F120.00
G01 X41.0689 Y-20.0490 F120.00
G01 X40.9647 Y-20.0117 F120.00
G01 X40.8573 Y-19.9848 F120.00
G01 X40.7496 Y-19.9689 F120.00
G01 X40.6405 Y-19.9635 F120.00
G01 X40.5304 Y-19.9689 F120.00
G01 X40.4209 Y-19.9852 F120.00
G01 X40.3153 Y-20.0117 F120.00
G01 X40.2128 Y-20.0483 F120.00
G01 X40.1131 Y-20.0954 F120.00
G01 X40.0186 Y-20.1520 F120.00
G01 X39.9301 Y-20.2177 F120.00
G01 X39.8488 Y-20.2914 F120.00
G01 X39.7754 Y-20.3724 F120.00
G01 X39.7322 Y-20.4306 F120.00
G01 X38.7081 Y-19.4065 F120.00
G01 X39.1165 Y-19.4065 F120.00
G01 X39.1196 Y-19.4061 F120.00
G01 X39.1227 Y-19.4053 F120.00
G01 X39.1255 Y-19.4039 F120.00
G01 X39.1281 Y-19.4020 F120.00
G01 X39.1303 Y-19.3997 F120.00
G01 X39.1321 Y-19.3971 F120.00
G01 X39.1341 Y-19.3916 F120.00
G01 X39.1345 Y-19.3880 F120.00
G01 X39.1345 Y-17.1880 F120.00
G01 X39.1337 Y-17.1826 F120.00
G01 X39.1316 Y-17.1781 F120.00
G01 X39.1288 Y-17.1746 F120.00
G01 X39.1251 Y-17.1719 F120.00
G01 X39.1209 Y-17.1702 F120.00
G01 X39.1165 Y-17.1695 F120.00
G01 X38.5348 Y-17.1695 F120.00
G01 X38.5347 Y-17.1275 F120.00
G01 X38.5323 Y-17.0776 F120.00
G01 X38.5249 Y-17.0272 F120.00
G01 X38.5124 Y-16.9774 F120.00
G01 X38.4956 Y-16.9303 F120.00
G01 X38.4735 Y-16.8835 F120.00
G01 X38.4473 Y-16.8398 F120.00
G01 X38.4170 Y-16.7989 F120.00
G01 X38.3831 Y-16.7615 F120.00
G01 X35.7328 Y-14.1112 F120.00
G01 X35.6951 Y-14.0770 F120.00
G01 X35.6542 Y-14.0467 F120.00
G01 X35.6105 Y-14.0205 F120.00
G01 X35.5641 Y-13.9986 F120.00
G01 X35.5166 Y-13.9816 F120.00
G01 X35.4672 Y-13.9692 F120.00
G01 X35.4168 Y-13.9617 F120.00
G01 X35.3660 Y-13.9592 F120.00
G01 X24.9668 Y-13.9592 F120.00
G01 X24.9731 Y-13.9338 F120.00
G01 X24.9891 Y-13.8261 F120.00
G01 X24.9945 Y-13.7165 F120.00
G01 X24.9891 Y-13.6064 F120.00
G01 X24.9730 Y-13.4978 F120.00
G01 X24.9463 Y-13.3913 F120.00
G01 X24.9094 Y-13.2880 F120.00
G01 X24.8624 Y-13.1887 F120.00
G01 X24.8055 Y-13.0939 F120.00
G01 X24.7400 Y-13.0057 F120.00
G01 X24.6669 Y-12.9251 F120.00
G01 X24.5863 Y-12.8520 F120.00
G01 X24.4974 Y-12.7860 F120.00
G01 X24.4040 Y-12.7300 F120.00
G01 X24.3040 Y-12.6826 F120.00
G01 X24.2007 Y-12.6457 F120.00
G01 X24.0942 Y-12.6190 F120.00
G01 X23.9847 Y-12.6028 F120.00
G01 X23.8760 Y-12.5975 F120.00
G01 X23.7673 Y-12.6028 F120.00
G01 X23.6578 Y-12.6190 F120.00
G01 X23.5513 Y-12.6457 F120.00
G01 X23.4488 Y-12.6823 F120.00
G01 X23.3487 Y-12.7296 F120.00
G01 X23.2546 Y-12.7860 F120.00
G01 X23.1671 Y-12.8508 F120.00
G01 X23.0851 Y-12.9251 F120.00
G01 X23.0114 Y-13.0064 F120.00
G01 X22.9465 Y-13.0939 F120.00
G01 X22.8900 Y-13.1880 F120.00
G01 X22.8855 Y-13.1972 F120.00
G01 X22.0496 Y-13.1972 F120.00
G01 X22.0120 Y-13.1346 F120.00
G01 X21.9469 Y-13.0468 F120.00
G01 X21.8726 Y-12.9648 F120.00
G01 X21.7916 Y-12.8914 F120.00
G01 X21.7041 Y-12.8265 F120.00
G01 X21.6093 Y-12.7696 F120.00
G01 X21.5092 Y-12.7223 F120.00
G01 X21.4067 Y-12.6857 F120.00
G01 X21.3002 Y-12.6590 F120.00
G01 X21.1907 Y-12.6428 F120.00
G01 X21.0820 Y-12.6375 F120.00
G01 X20.9954 Y-12.6417 F120.00
G01 X19.1525 Y-10.7989 F120.00
G01 X19.1525 Y-9.3140 F120.00
G01 X19.1521 Y-9.3104 F120.00
G01 X19.1513 Y-9.3073 F120.00
G01 X19.1499 Y-9.3045 F120.00
G01 X19.1477 Y-9.3016 F120.00
G01 X19.1454 Y-9.2994 F120.00
G01 X19.1427 Y-9.2977 F120.00
G01 X19.1394 Y-9.2963 F120.00
G01 X19.1363 Y-9.2956 F120.00
G01 X16.9340 Y-9.2955 F120.00
G01 X16.9304 Y-9.2959 F120.00
G01 X16.9269 Y-9.2969 F120.00
G01 X16.9237 Y-9.2986 F120.00
G01 X16.9209 Y-9.3009 F120.00
G01 X16.9186 Y-9.3037 F120.00
G01 X16.9169 Y-9.3069 F120.00
G01 X16.9159 Y-9.3104 F120.00
G01 X16.9155 Y-9.3140 F120.00
G01 X16.9155 Y-11.5140 F120.00
G01 X16.9159 Y-11.5176 F120.00
G01 X16.9169 Y-11.5211 F120.00
G01 X16.9186 Y-11.5243 F120.00
G01 X16.9209 Y-11.5271 F120.00
G01 X16.9237 Y-11.5294 F120.00
G01 X16.9269 Y-11.5311 F120.00
G01 X16.9304 Y-11.5321 F120.00
G01 X16.9340 Y-11.5325 F120.00
G00 Z2.0000
G00 X13.2876 Y-3.9012
G01 F60.00
G01 Z-0.1046
G01 F120.00
G01 X13.3095 Y-3.9231 F120.00
G01 X13.3473 Y-3.9573 F120.00
G01 X13.3878 Y-3.9873 F120.00
G01 X13.4319 Y-4.0137 F120.00
G01 X13.4775 Y-4.0353 F120.00
G01 X13.5254 Y-4.0524 F120.00
G01 X13.5748 Y-4.0648 F120.00
G01 X13.6247 Y-4.0722 F120.00
G01 X13.6760 Y-4.0748 F120.00
G01 X14.7711 Y-4.0748 F120.00
G01 X15.6352 Y-4.9388 F120.00
G01 X15.6729 Y-4.9730 F120.00
G01 X15.7138 Y-5.0033 F120.00
G01 X15.7567 Y-5.0290 F120.00
G01 X15.8043 Y-5.0516 F120.00
G01 X15.8514 Y-5.0684 F120.00
G01 X15.9008 Y-5.0808 F120.00
G01 X15.9512 Y-5.0883 F120.00
G01 X16.0011 Y-5.0907 F120.00
G01 X22.8991 Y-5.0908 F120.00
G01 X23.0015 Y-5.1931 F120.00
G01 X23.0386 Y-5.2267 F120.00
G01 X23.0798 Y-5.2573 F120.00
G01 X23.1235 Y-5.2835 F120.00
G01 X23.1703 Y-5.3056 F120.00
G01 X23.2174 Y-5.3224 F120.00
G01 X23.2659 Y-5.3346 F120.00
G01 X23.3172 Y-5.3423 F120.00
G01 X23.3680 Y-5.3448 F120.00
G01 X55.5235 Y-5.3448 F120.00
G01 X55.5235 Y-5.9265 F120.00
G01 X55.5246 Y-5.9322 F120.00
G01 X55.5259 Y-5.9351 F120.00
G01 X55.5277 Y-5.9377 F120.00
G01 X55.5321 Y-5.9416 F120.00
G01 X55.5375 Y-5.9439 F120.00
G01 X55.5420 Y-5.9445 F120.00
G01 X57.7420 Y-5.9445 F120.00
G01 X57.7452 Y-5.9442 F120.00
G01 X57.7487 Y-5.9433 F120.00
G01 X57.7519 Y-5.9416 F120.00
G01 X57.7548 Y-5.9394 F120.00
G01 X57.7571 Y-5.9367 F120.00
G01 X57.7587 Y-5.9339 F120.00
G01 X57.7599 Y-5.9305 F120.00
G01 X57.7605 Y-5.9269 F120.00
G01 X57.7605 Y-3.7260 F120.00
G01 X57.7602 Y-3.7228 F120.00
G01 X57.7593 Y-3.7193 F120.00
G01 X57.7576 Y-3.7161 F120.00
G01 X57.7557 Y-3.7136 F120.00
G01 X57.7530 Y-3.7111 F120.00
G01 X57.7503 Y-3.7095 F120.00
G01 X57.7474 Y-3.7083 F120.00
G01 X57.7438 Y-3.7076 F120.00
G01 X55.5420 Y-3.7075 F120.00
G01 X55.5371 Y-3.7082 F120.00
G01 X55.5317 Y-3.7106 F120.00
G01 X55.5274 Y-3.7146 F120.00
G01 X55.5246 Y-3.7198 F120.00
G01 X55.5235 Y-3.7255 F120.00
G01 X55.5235 Y-4.3072 F120.00
G01 X23.5829 Y-4.3072 F120.00
G01 X23.4805 Y-4.2049 F120.00
G01 X23.4434 Y-4.1713 F120.00
G01 X23.4022 Y-4.1407 F120.00
G01 X23.3585 Y-4.1145 F120.00
G01 X23.3125 Y-4.0927 F120.00
G01 X23.2637 Y-4.0753 F120.00
G01 X23.2152 Y-4.0632 F120.00
G01 X23.1657 Y-4.0559 F120.00
G01 X23.1145 Y-4.0533 F120.00
G01 X16.2169 Y-4.0532 F120.00
G01 X15.3525 Y-3.1889 F120.00
G01 X15.3151 Y-3.1550 F120.00
G01 X15.2742 Y-3.1247 F120.00
G01 X15.2305 Y-3.0985 F120.00
G01 X15.1853 Y-3.0771 F120.00
G01 X15.1366 Y-3.0596 F120.00
G01 X15.0872 Y-3.0472 F120.00
G01 X15.0368 Y-3.0397 F120.00
G01 X14.9865 Y-3.0373 F120.00
G01 X14.0532 Y-3.0372 F120.00
G01 X14.0671 Y-2.9436 F120.00
G01 X14.0725 Y-2.8349 F120.00
G01 X14.0671 Y-2.7244 F120.00
G01 X14.0510 Y-2.6158 F120.00
G01 X14.0246 Y-2.5102 F120.00
G01 X13.9874 Y-2.4060 F120.00
G01 X13.9400 Y-2.3060 F120.00
G01 X13.8840 Y-2.2126 F120.00
G01 X13.8186 Y-2.1244 F120.00
G01 X13.7449 Y-2.0431 F120.00
G01 X13.6643 Y-1.9700 F120.00
G01 X13.5750 Y-1.9038 F120.00
G01 X13.4813 Y-1.8476 F120.00
G01 X13.3812 Y-1.8003 F120.00
G01 X13.2778 Y-1.7634 F120.00
G01 X13.1722 Y-1.7370 F120.00
G01 X13.0645 Y-1.7210 F120.00
G01 X12.9540 Y-1.7155 F120.00
G01 X12.8444 Y-1.7209 F120.00
G01 X12.7358 Y-1.7370 F120.00
G01 X12.6293 Y-1.7637 F120.00
G01 X12.5260 Y-1.8006 F120.00
G01 X12.4267 Y-1.8476 F120.00
G01 X12.3326 Y-1.9040 F120.00
G01 X12.2444 Y-1.9694 F120.00
G01 X12.1631 Y-2.0431 F120.00
G01 X12.0894 Y-2.1244 F120.00
G01 X12.0240 Y-2.2126 F120.00
G01 X11.9676 Y-2.3067 F120.00
G01 X11.9206 Y-2.4060 F120.00
G01 X11.8837 Y-2.5093 F120.00
G01 X11.8570 Y-2.6158 F120.00
G01 X11.8409 Y-2.7244 F120.00
G01 X11.8355 Y-2.8340 F120.00
G01 X11.8409 Y-2.9436 F120.00
G01 X11.8570 Y-3.0522 F120.00
G01 X11.8837 Y-3.1587 F120.00
G01 X11.9206 Y-3.2620 F120.00
G01 X11.9676 Y-3.3613 F120.00
G01 X12.0240 Y-3.4554 F120.00
G01 X12.0894 Y-3.5436 F120.00
G01 X12.1631 Y-3.6249 F120.00
G01 X12.2444 Y-3.6986 F120.00
G01 X12.3326 Y-3.7640 F120.00
G01 X12.4267 Y-3.8204 F120.00
G01 X12.5260 Y-3.8674 F120.00
G01 X12.6293 Y-3.9043 F120.00
G01 X12.7358 Y-3.9310 F120.00
G01 X12.8444 Y-3.9471 F120.00
G01 X12.9540 Y-3.9525 F120.00
G01 X13.0636 Y-3.9471 F120.00
G01 X13.1722 Y-3.9310 F120.00
G01 X13.2778 Y-3.9046 F120.00
G01 X13.2876 Y-3.9012 F120.00
G00 Z2.0000
G00 X26.7560 Y-11.7865
G01 F60.00
G01 Z-0.1046
G01 F120.00
G01 X28.9560 Y-11.7865 F120.00
G01 X28.9596 Y-11.7861 F120.00
G01 X28.9631 Y-11.7851 F120.00
G01 X28.9663 Y-11.7834 F120.00
G01 X28.9691 Y-11.7811 F120.00
G01 X28.9714 Y-11.7783 F120.00
G01 X28.9731 Y-11.7751 F120.00
G01 X28.9741 Y-11.7716 F120.00
G01 X28.9745 Y-11.7680 F120.00
G01 X28.9745 Y-9.5680 F120.00
G01 X28.9741 Y-9.5644 F120.00
G01 X28.9731 Y-9.5609 F120.00
G01 X28.9714 Y-9.5577 F120.00
G01 X28.9691 Y-9.5549 F120.00
G01 X28.9663 Y-9.5526 F120.00
G01 X28.9631 Y-9.5509 F120.00
G01 X28.9596 Y-9.5499 F120.00
G01 X28.9560 Y-9.5495 F120.00
G01 X26.7560 Y-9.5495 F120.00
G01 X26.7524 Y-9.5499 F120.00
G01 X26.7489 Y-9.5509 F120.00
G01 X26.7457 Y-9.5526 F120.00
G01 X26.7429 Y-9.5549 F120.00
G01 X26.7406 Y-9.5577 F120.00
G01 X26.7389 Y-9.5609 F120.00
G01 X26.7379 Y-9.5644 F120.00
G01 X26.7375 Y-9.5680 F120.00
G01 X26.7375 Y-11.7680 F120.00
G01 X26.7379 Y-11.7716 F120.00
G01 X26.7389 Y-11.7751 F120.00
G01 X26.7406 Y-11.7783 F120.00
G01 X26.7429 Y-11.7811 F120.00
G01 X26.7457 Y-11.7834 F120.00
G01 X26.7489 Y-11.7851 F120.00
G01 X26.7524 Y-11.7861 F120.00
G01 X26.7560 Y-11.7865 F120.00
G00 Z2.0000
G00 X29.2960 Y-11.7865
G01 F60.00
G01 Z-0.1046
G01 F120.00
G01 X31.4960 Y-11.7865 F120.00
G01 X31.4996 Y-11.7861 F120.00
G01 X31.5031 Y-11.7851 F120.00
G01 X31.5063 Y-11.7834 F120.00
G01 X31.5091 Y-11.7811 F120.00
G01 X31.5114 Y-11.7783 F120.00
G01 X31.5131 Y-11.7751 F120.00
G01 X31.5141 Y-11.7716 F120.00
G01 X31.5145 Y-11.7680 F120.00
G01 X31.5145 Y-9.5680 F120.00
G01 X31.5141 Y-9.5644 F120.00
G01 X31.5131 Y-9.5609 F120.00
G01 X31.5114 Y-9.5577 F120.00
G01 X31.5091 Y-9.5549 F120.00
G01 X31.5063 Y-9.5526 F120.00
G01 X31.5031 Y-9.5509 F120.00
G01 X31.4996 Y-9.5499 F120.00
G01 X31.4960 Y-9.5495 F120.00
G01 X29.2960 Y-9.5495 F120.00
G01 X29.2924 Y-9.5499 F120.00
G01 X29.2889 Y-9.5509 F120.00
G01 X29.2857 Y-9.5526 F120.00
G01 X29.2829 Y-9.5549 F120.00
G01 X29.2806 Y-9.5577 F120.00
G01 X29.2789 Y-9.5609 F120.00
G01 X29.2779 Y-9.5644 F120.00
G01 X29.2775 Y-9.5680 F120.00
G01 X29.2775 Y-11.7680 F120.00
G01 X29.2779 Y-11.7716 F120.00
G01 X29.2789 Y-11.7751 F120.00
G01 X29.2806 Y-11.7783 F120.00
G01 X29.2829 Y-11.7811 F120.00
G01 X29.2857 Y-11.7834 F120.00
G01 X29.2889 Y-11.7851 F120.00
G01 X29.2924 Y-11.7861 F120.00
G01 X29.2960 Y-11.7865 F120.00
G00 Z2.0000
G00 X31.8360 Y-11.7865
G01 F60.00
G01 Z-0.1046
G01 F120.00
G01 X34.0360 Y-11.7865 F120.00
G01 X34.0396 Y-11.7861 F120.00
G01 X34.0431 Y-11.7851 F120.00
G01 X34.0463 Y-11.7834 F120.00
G01 X34.0491 Y-11.7811 F120.00
G01 X34.0514 Y-11.7783 F120.00
G01 X34.0531 Y-11.7751 F120.00
G01 X34.0541 Y-11.7716 F120.00
G01 X34.0545 Y-11.7680 F120.00
G01 X34.0545 Y-9.5680 F120.00
G01 X34.0541 Y-9.5644 F120.00
G01 X34.0531 Y-9.5609 F120.00
G01 X34.0514 Y-9.5577 F120.00
G01 X34.0491 Y-9.5549 F120.00
G01 X34.0463 Y-9.5526 F120.00
G01 X34.0431 Y-9.5509 F120.00
G01 X34.0396 Y-9.5499 F120.00
G01 X34.0360 Y-9.5495 F120.00
G01 X31.8360 Y-9.5495 F120.00
G01 X31.8324 Y-9.5499 F120.00
G01 X31.8289 Y-9.5509 F120.00
G01 X31.8257 Y-9.5526 F120.00
G01 X31.8229 Y-9.5549 F120.00
G01 X31.8206 Y-9.5577 F120.00
G01 X31.8189 Y-9.5609 F120.00
G01 X31.8179 Y-9.5644 F120.00
G01 X31.8175 Y-9.5680 F120.00
G01 X31.8175 Y-11.7680 F120.00
G01 X31.8179 Y-11.7716 F120.00
G01 X31.8189 Y-11.7751 F120.00
G01 X31.8206 Y-11.7783 F120.00
G01 X31.8229 Y-11.7811 F120.00
G01 X31.8257 Y-11.7834 F120.00
G01 X31.8289 Y-11.7851 F120.00
G01 X31.8324 Y-11.7861 F120.00
G01 X31.8360 Y-11.7865 F120.00
G00 Z2.0000
G00 X34.3760 Y-11.7865
G01 F60.00
G01 Z-0.1046
G01 F120.00
G01 X36.5760 Y-11.7865 F120.00
G01 X36.5796 Y-11.7861 F120.00
G01 X36.5831 Y-11.7851 F120.00
G01 X36.5863 Y-11.7834 F120.00
G01 X36.5891 Y-11.7811 F120.00
G01 X36.5914 Y-11.7783 F120.00
G01 X36.5931 Y-11.7751 F120.00
G01 X36.5941 Y-11.7716 F120.00
G01 X36.5945 Y-11.7680 F120.00
G01 X36.5945 Y-9.5680 F120.00
G01 X36.5941 Y-9.5644 F120.00
G01 X36.5931 Y-9.5609 F120.00
G01 X36.5914 Y-9.5577 F120.00
G01 X36.5891 Y-9.5549 F120.00
G01 X36.5863 Y-9.5526 F120.00
G01 X36.5831 Y-9.5509 F120.00
G01 X36.5796 Y-9.5499 F120.00
G01 X36.5760 Y-9.5495 F120.00
G01 X34.3760 Y-9.5495 F120.00
G01 X34.3724 Y-9.5499 F120.00
G01 X34.3689 Y-9.5509 F120.00
G01 X34.3657 Y-9.5526 F120.00
G01 X34.3629 Y-9.5549 F120.00
G01 X34.3606 Y-9.5577 F120.00
G01 X34.3589 Y-9.5609 F120.00
G01 X34.3579 Y-9.5644 F120.00
G01 X34.3575 Y-9.5680 F120.00
G01 X34.3575 Y-11.7680 F120.00
G01 X34.3579 Y-11.7716 F120.00
G01 X34.3589 Y-11.7751 F120.00
G01 X34.3606 Y-11.7783 F120.00
G01 X34.3629 Y-11.7811 F120.00
G01 X34.3657 Y-11.7834 F120.00
G01 X34.3689 Y-11.7851 F120.00
G01 X34.3724 Y-11.7861 F120.00
G01 X34.3760 Y-11.7865 F120.00
G00 Z2.0000
G00 X39.4560 Y-11.7865
G01 F60.00
G01 Z-0.1046
G01 F120.00
G01 X41.6560 Y-11.7865 F120.00
G01 X41.6596 Y-11.7861 F120.00
G01 X41.6631 Y-11.7851 F120.00
G01 X41.6663 Y-11.7834 F120.00
G01 X41.6691 Y-11.7811 F120.00
G01 X41.6714 Y-11.7783 F120.00
G01 X41.6731 Y-11.7751 F120.00
G01 X41.6741 Y-11.7716 F120.00
G01 X41.6745 Y-11.7680 F120.00
