(G-CODE GENERATED BY FLATCAM v8.994 - www.flatcam.org - Version Date: 2020/11/7)

(Name: Active_Electrode-F_Cu.gbr_iso_combined_cnc)
(Type: G-code from Geometry)
(Units: MM)

(Created on Sunday, 10 March 2024 at 21:14)

(This preprocessor is used with a motion controller loaded with GRBL firmware.)
(It is configured to be compatible with almost any version of GRBL firmware.)

(TOOL DIAMETER: 0.023 mm)
(Feedrate_XY: 120.0 mm/min)
(Feedrate_Z: 60.0 mm/min)
(Feedrate rapids 1500.0 mm/min)

(Z_Cut: -0.087 mm)
(Z_Move: 2.0 mm)
(Z Start: None mm)
(Z End: 15.0 mm)
(X,Y End: 0.0000, 0.0000 mm)
(Steps per circle: 64)
(Steps per circle: 64)
(Preprocessor Geometry: GRBL_11_no_M6)

(X range:   -0.0115 ...   30.2375  mm)
(Y range:  -59.7015 ...    0.0115  mm)

(Spindle Speed: 0.0 RPM)
G21
G90
G17
G94


G01 F120.00

M5             
G00 Z15.0000
G00 X0.0000 Y0.0000                
T1
(MSG, Change to Tool Dia = 0.0230)
M0
G00 Z15.0000
        
M03
G01 F120.00
G00 X5.5956 Y-5.1103
G01 F60.00
G01 Z-0.0870
G01 F120.00
G01 X5.2149 Y-4.7297 F120.00
G01 X5.1686 Y-4.8416 F120.00
G01 X5.1102 Y-5.0847 F120.00
G01 X5.0906 Y-5.3340 F120.00
G01 X5.1102 Y-5.5833 F120.00
G01 X5.1686 Y-5.8264 F120.00
G01 X5.2149 Y-5.9383 F120.00
G01 X5.5956 Y-5.5577 F120.00
G01 X5.5938 Y-5.5503 F120.00
G01 X5.5779 Y-5.4429 F120.00
G01 X5.5725 Y-5.3340 F120.00
G01 X5.5779 Y-5.2251 F120.00
G01 X5.5938 Y-5.1177 F120.00
G01 X5.5956 Y-5.1103 F120.00
G00 Z2.0000
G00 X6.4603 Y-6.4224
G01 F60.00
G01 Z-0.0870
G01 F120.00
G01 X6.0797 Y-6.8031 F120.00
G01 X6.1916 Y-6.8494 F120.00
G01 X6.4347 Y-6.9078 F120.00
G01 X6.6840 Y-6.9274 F120.00
G01 X6.9333 Y-6.9078 F120.00
G01 X7.1764 Y-6.8494 F120.00
G01 X7.2883 Y-6.8031 F120.00
G01 X6.9077 Y-6.4224 F120.00
G01 X6.9003 Y-6.4242 F120.00
G01 X6.7929 Y-6.4401 F120.00
G01 X6.6840 Y-6.4455 F120.00
G01 X6.5751 Y-6.4401 F120.00
G01 X6.4677 Y-6.4242 F120.00
G01 X6.4603 Y-6.4224 F120.00
G00 Z2.0000
G00 X7.7725 Y-5.5577
G01 F60.00
G01 Z-0.0870
G01 F120.00
G01 X8.1531 Y-5.9383 F120.00
G01 X8.1994 Y-5.8264 F120.00
G01 X8.2578 Y-5.5833 F120.00
G01 X8.2774 Y-5.3340 F120.00
G01 X8.2578 Y-5.0847 F120.00
G01 X8.1994 Y-4.8416 F120.00
G01 X8.1531 Y-4.7297 F120.00
G01 X7.7725 Y-5.1103 F120.00
G01 X7.7742 Y-5.1177 F120.00
G01 X7.7901 Y-5.2251 F120.00
G01 X7.7955 Y-5.3340 F120.00
G01 X7.7901 Y-5.4429 F120.00
G01 X7.7742 Y-5.5503 F120.00
G01 X7.7725 Y-5.5577 F120.00
G00 Z2.0000
G00 X6.6840 Y-3.7406
G01 F60.00
G01 Z-0.0870
G01 F120.00
G01 X6.4347 Y-3.7602 F120.00
G01 X6.1916 Y-3.8186 F120.00
G01 X6.0797 Y-3.8649 F120.00
G01 X6.4603 Y-4.2455 F120.00
G01 X6.4677 Y-4.2438 F120.00
G01 X6.5751 Y-4.2279 F120.00
G01 X6.6840 Y-4.2225 F120.00
G01 X6.7929 Y-4.2279 F120.00
G01 X6.9003 Y-4.2438 F120.00
G01 X6.9077 Y-4.2455 F120.00
G01 X7.2883 Y-3.8649 F120.00
G01 X7.1764 Y-3.8186 F120.00
G01 X6.9333 Y-3.7602 F120.00
G01 X6.6840 Y-3.7406 F120.00
G00 Z2.0000
G00 X4.1440 Y-6.5346
G01 F60.00
G01 Z-0.0870
G01 F120.00
G01 X3.8947 Y-6.5542 F120.00
G01 X3.6516 Y-6.6126 F120.00
G01 X3.5397 Y-6.6589 F120.00
G01 X3.9203 Y-7.0395 F120.00
G01 X3.9277 Y-7.0378 F120.00
G01 X4.0351 Y-7.0219 F120.00
G01 X4.1440 Y-7.0165 F120.00
G01 X4.2529 Y-7.0219 F120.00
G01 X4.3603 Y-7.0378 F120.00
G01 X4.3677 Y-7.0395 F120.00
G01 X4.7483 Y-6.6589 F120.00
G01 X4.6364 Y-6.6126 F120.00
G01 X4.3933 Y-6.5542 F120.00
G01 X4.1440 Y-6.5346 F120.00
G00 Z2.0000
G00 X3.0556 Y-7.9043
G01 F60.00
G01 Z-0.0870
G01 F120.00
G01 X2.6749 Y-7.5237 F120.00
G01 X2.6286 Y-7.6356 F120.00
G01 X2.5702 Y-7.8787 F120.00
G01 X2.5506 Y-8.1280 F120.00
G01 X2.5702 Y-8.3773 F120.00
G01 X2.6286 Y-8.6204 F120.00
G01 X2.6749 Y-8.7323 F120.00
G01 X3.0556 Y-8.3517 F120.00
G01 X3.0538 Y-8.3443 F120.00
G01 X3.0379 Y-8.2369 F120.00
G01 X3.0325 Y-8.1280 F120.00
G01 X3.0379 Y-8.0191 F120.00
G01 X3.0538 Y-7.9117 F120.00
G01 X3.0556 Y-7.9043 F120.00
G00 Z2.0000
G00 X3.9203 Y-9.2164
G01 F60.00
G01 Z-0.0870
G01 F120.00
G01 X3.5397 Y-9.5971 F120.00
G01 X3.6516 Y-9.6434 F120.00
G01 X3.8947 Y-9.7018 F120.00
G01 X4.1440 Y-9.7214 F120.00
G01 X4.3933 Y-9.7018 F120.00
G01 X4.6364 Y-9.6434 F120.00
G01 X4.7483 Y-9.5971 F120.00
G01 X4.3677 Y-9.2164 F120.00
G01 X4.3603 Y-9.2182 F120.00
G01 X4.2529 Y-9.2341 F120.00
G01 X4.1440 Y-9.2395 F120.00
G01 X4.0351 Y-9.2341 F120.00
G01 X3.9277 Y-9.2182 F120.00
G01 X3.9203 Y-9.2164 F120.00
G00 Z2.0000
G00 X5.2325 Y-8.3517
G01 F60.00
G01 Z-0.0870
G01 F120.00
G01 X5.6131 Y-8.7323 F120.00
G01 X5.6594 Y-8.6204 F120.00
G01 X5.7178 Y-8.3773 F120.00
G01 X5.7374 Y-8.1280 F120.00
G01 X5.7178 Y-7.8787 F120.00
G01 X5.6594 Y-7.6356 F120.00
G01 X5.6131 Y-7.5237 F120.00
G01 X5.2325 Y-7.9043 F120.00
G01 X5.2342 Y-7.9117 F120.00
G01 X5.2501 Y-8.0191 F120.00
G01 X5.2555 Y-8.1280 F120.00
G01 X5.2501 Y-8.2369 F120.00
G01 X5.2342 Y-8.3443 F120.00
G01 X5.2325 Y-8.3517 F120.00
G00 Z2.0000
G00 X11.1722 Y-6.3200
G01 F60.00
G01 Z-0.0870
G01 F120.00
G01 X11.1722 Y-7.0108 F120.00
G01 X11.1664 Y-7.0152 F120.00
G01 X11.0861 Y-7.0881 F120.00
G01 X11.0128 Y-7.1689 F120.00
G01 X10.9478 Y-7.2565 F120.00
G01 X10.8920 Y-7.3496 F120.00
G01 X10.8860 Y-7.3622 F120.00
G01 X9.9483 Y-7.3622 F120.00
G01 X9.9297 Y-7.3419 F120.00
G01 X9.8489 Y-7.2686 F120.00
G01 X9.7615 Y-7.2038 F120.00
G01 X9.6677 Y-7.1476 F120.00
G01 X9.5694 Y-7.1011 F120.00
G01 X9.4667 Y-7.0644 F120.00
G01 X9.3608 Y-7.0379 F120.00
G01 X9.2527 Y-7.0218 F120.00
G01 X9.1440 Y-7.0165 F120.00
G01 X9.0351 Y-7.0219 F120.00
G01 X8.9272 Y-7.0379 F120.00
G01 X8.8219 Y-7.0642 F120.00
G01 X8.7181 Y-7.1013 F120.00
G01 X8.6200 Y-7.1477 F120.00
G01 X8.5263 Y-7.2040 F120.00
G01 X8.4389 Y-7.2688 F120.00
G01 X8.3585 Y-7.3417 F120.00
G01 X8.2845 Y-7.4233 F120.00
G01 X8.2198 Y-7.5105 F120.00
G01 X8.1637 Y-7.6040 F120.00
G01 X8.1171 Y-7.7026 F120.00
G01 X8.0805 Y-7.8048 F120.00
G01 X8.0538 Y-7.9117 F120.00
G01 X8.0379 Y-8.0191 F120.00
G01 X8.0325 Y-8.1280 F120.00
G01 X8.0379 Y-8.2369 F120.00
G01 X8.0538 Y-8.3443 F120.00
G01 X8.0805 Y-8.4512 F120.00
G01 X8.1171 Y-8.5534 F120.00
G01 X8.1637 Y-8.6520 F120.00
G01 X8.2198 Y-8.7455 F120.00
G01 X8.2845 Y-8.8327 F120.00
G01 X8.3585 Y-8.9143 F120.00
G01 X8.4389 Y-8.9872 F120.00
G01 X8.5260 Y-9.0519 F120.00
G01 X8.6205 Y-9.1085 F120.00
G01 X8.7186 Y-9.1549 F120.00
G01 X8.8213 Y-9.1916 F120.00
G01 X8.9272 Y-9.2181 F120.00
G01 X9.0345 Y-9.2341 F120.00
G01 X9.1443 Y-9.2395 F120.00
G01 X9.2529 Y-9.2341 F120.00
G01 X9.3608 Y-9.2181 F120.00
G01 X9.4667 Y-9.1916 F120.00
G01 X9.5688 Y-9.1551 F120.00
G01 X9.6684 Y-9.1080 F120.00
G01 X9.7615 Y-9.0522 F120.00
G01 X9.8489 Y-8.9874 F120.00
G01 X9.9299 Y-8.9139 F120.00
G01 X10.0028 Y-8.8336 F120.00
G01 X10.0683 Y-8.7453 F120.00
G01 X10.1243 Y-8.6520 F120.00
G01 X10.1708 Y-8.5536 F120.00
G01 X10.2076 Y-8.4507 F120.00
G01 X10.2239 Y-8.3858 F120.00
G01 X10.8860 Y-8.3858 F120.00
G01 X10.8920 Y-8.3984 F120.00
G01 X10.9481 Y-8.4920 F120.00
G01 X11.0128 Y-8.5791 F120.00
G01 X11.0861 Y-8.6599 F120.00
G01 X11.1669 Y-8.7332 F120.00
G01 X11.2540 Y-8.7979 F120.00
G01 X11.3476 Y-8.8540 F120.00
G01 X11.3602 Y-8.8600 F120.00
G01 X11.3602 Y-9.3025 F120.00
G01 X10.7717 Y-9.3025 F120.00
G01 X10.7681 Y-9.3032 F120.00
G01 X10.7649 Y-9.3049 F120.00
G01 X10.7624 Y-9.3076 F120.00
G01 X10.7609 Y-9.3109 F120.00
G01 X10.7605 Y-9.3140 F120.00
G01 X10.7605 Y-11.5140 F120.00
G01 X10.7610 Y-11.5173 F120.00
G01 X10.7624 Y-11.5204 F120.00
G01 X10.7643 Y-11.5225 F120.00
G01 X10.7666 Y-11.5241 F120.00
G01 X10.7692 Y-11.5252 F120.00
G01 X10.7720 Y-11.5255 F120.00
G01 X12.9720 Y-11.5255 F120.00
G01 X12.9759 Y-11.5248 F120.00
G01 X12.9789 Y-11.5232 F120.00
G01 X12.9814 Y-11.5206 F120.00
G01 X12.9830 Y-11.5173 F120.00
G01 X12.9835 Y-11.5140 F120.00
G01 X12.9835 Y-9.3140 F120.00
G01 X12.9831 Y-9.3109 F120.00
G01 X12.9816 Y-9.3076 F120.00
G01 X12.9791 Y-9.3049 F120.00
G01 X12.9759 Y-9.3032 F120.00
G01 X12.9723 Y-9.3025 F120.00
G01 X12.3838 Y-9.3025 F120.00
G01 X12.3838 Y-8.8600 F120.00
G01 X12.3964 Y-8.8540 F120.00
G01 X12.4895 Y-8.7982 F120.00
G01 X12.5771 Y-8.7332 F120.00
G01 X12.6579 Y-8.6599 F120.00
G01 X12.7312 Y-8.5791 F120.00
G01 X12.7962 Y-8.4915 F120.00
G01 X12.8523 Y-8.3980 F120.00
G01 X12.8989 Y-8.2994 F120.00
G01 X12.9355 Y-8.1972 F120.00
G01 X12.9621 Y-8.0908 F120.00
G01 X12.9782 Y-7.9824 F120.00
G01 X12.9835 Y-7.8740 F120.00
G01 X12.9782 Y-7.7656 F120.00
G01 X12.9622 Y-7.6574 F120.00
G01 X12.9355 Y-7.5508 F120.00
G01 X12.8989 Y-7.4486 F120.00
G01 X12.8525 Y-7.3505 F120.00
G01 X12.7962 Y-7.2565 F120.00
G01 X12.7308 Y-7.1684 F120.00
G01 X12.6579 Y-7.0881 F120.00
G01 X12.5776 Y-7.0152 F120.00
G01 X12.4895 Y-6.9498 F120.00
G01 X12.3955 Y-6.8935 F120.00
G01 X12.2974 Y-6.8471 F120.00
G01 X12.1958 Y-6.8107 F120.00
G01 X12.1958 Y-6.3200 F120.00
G01 X12.2084 Y-6.3140 F120.00
G01 X12.3020 Y-6.2579 F120.00
G01 X12.3891 Y-6.1932 F120.00
G01 X12.4699 Y-6.1199 F120.00
G01 X12.5435 Y-6.0387 F120.00
G01 X12.6082 Y-5.9515 F120.00
G01 X12.6643 Y-5.8580 F120.00
G01 X12.7111 Y-5.7588 F120.00
G01 X12.7476 Y-5.6567 F120.00
G01 X12.7741 Y-5.5508 F120.00
G01 X12.7901 Y-5.4429 F120.00
G01 X12.7955 Y-5.3346 F120.00
G01 X12.7901 Y-5.2251 F120.00
G01 X12.7740 Y-5.1166 F120.00
G01 X12.7476 Y-5.0113 F120.00
G01 X12.7111 Y-4.9092 F120.00
G01 X12.6643 Y-4.8100 F120.00
G01 X12.6082 Y-4.7165 F120.00
G01 X12.5428 Y-4.6284 F120.00
G01 X12.4699 Y-4.5481 F120.00
G01 X12.3896 Y-4.4752 F120.00
G01 X12.3015 Y-4.4098 F120.00
G01 X12.2080 Y-4.3537 F120.00
G01 X12.1094 Y-4.3071 F120.00
G01 X12.0067 Y-4.2704 F120.00
G01 X11.9008 Y-4.2439 F120.00
G01 X11.7929 Y-4.2279 F120.00
G01 X11.6840 Y-4.2225 F120.00
G01 X11.5751 Y-4.2279 F120.00
G01 X11.4672 Y-4.2439 F120.00
G01 X11.3613 Y-4.2704 F120.00
G01 X11.2586 Y-4.3071 F120.00
G01 X11.1600 Y-4.3537 F120.00
G01 X11.0665 Y-4.4098 F120.00
G01 X10.9789 Y-4.4748 F120.00
G01 X10.8981 Y-4.5481 F120.00
G01 X10.8248 Y-4.6289 F120.00
G01 X10.7598 Y-4.7165 F120.00
G01 X10.7037 Y-4.8100 F120.00
G01 X10.6571 Y-4.9086 F120.00
G01 X10.6204 Y-5.0113 F120.00
G01 X10.5939 Y-5.1172 F120.00
G01 X10.5779 Y-5.2251 F120.00
G01 X10.5725 Y-5.3340 F120.00
G01 X10.5779 Y-5.4429 F120.00
G01 X10.5939 Y-5.5508 F120.00
G01 X10.6204 Y-5.6567 F120.00
G01 X10.6571 Y-5.7594 F120.00
G01 X10.7037 Y-5.8580 F120.00
G01 X10.7598 Y-5.9515 F120.00
G01 X10.8248 Y-6.0391 F120.00
G01 X10.8981 Y-6.1199 F120.00
G01 X10.9789 Y-6.1932 F120.00
G01 X11.0665 Y-6.2582 F120.00
G01 X11.1596 Y-6.3140 F120.00
G01 X11.1722 Y-6.3200 F120.00
G00 Z2.0000
G00 X15.8120 Y-2.9775
G01 F60.00
G01 Z-0.0870
G01 F120.00
G01 X13.6120 Y-2.9775 F120.00
G01 X13.6079 Y-2.9783 F120.00
G01 X13.6045 Y-2.9803 F120.00
G01 X13.6019 Y-2.9836 F120.00
G01 X13.6006 Y-2.9876 F120.00
G01 X13.6005 Y-5.1890 F120.00
G01 X13.6009 Y-5.1921 F120.00
G01 X13.6024 Y-5.1954 F120.00
G01 X13.6049 Y-5.1981 F120.00
G01 X13.6081 Y-5.1998 F120.00
G01 X13.6117 Y-5.2005 F120.00
G01 X14.2002 Y-5.2005 F120.00
G01 X14.2002 Y-16.3420 F120.00
G01 X13.0200 Y-17.5222 F120.00
G01 X12.9835 Y-17.5222 F120.00
G01 X12.9835 Y-16.9337 F120.00
G01 X12.9828 Y-16.9301 F120.00
G01 X12.9809 Y-16.9267 F120.00
G01 X12.9782 Y-16.9243 F120.00
G01 X12.9748 Y-16.9228 F120.00
G01 X12.9720 Y-16.9225 F120.00
G01 X10.7720 Y-16.9225 F120.00
G01 X10.7681 Y-16.9232 F120.00
G01 X10.7645 Y-16.9253 F120.00
G01 X10.7620 Y-16.9283 F120.00
G01 X10.7606 Y-16.9323 F120.00
G01 X10.7605 Y-19.1340 F120.00
G01 X10.7610 Y-19.1373 F120.00
G01 X10.7624 Y-19.1404 F120.00
G01 X10.7645 Y-19.1427 F120.00
G01 X10.7673 Y-19.1445 F120.00
G01 X10.7720 Y-19.1455 F120.00
G01 X12.9720 Y-19.1455 F120.00
G01 X12.9753 Y-19.1450 F120.00
G01 X12.9786 Y-19.1434 F120.00
G01 X12.9812 Y-19.1409 F120.00
G01 X12.9828 Y-19.1379 F120.00
G01 X12.9835 Y-19.1343 F120.00
G01 X12.9835 Y-18.5458 F120.00
G01 X13.2320 Y-18.5458 F120.00
G01 X13.2822 Y-18.5433 F120.00
G01 X13.3324 Y-18.5358 F120.00
G01 X13.3806 Y-18.5237 F120.00
G01 X13.4273 Y-18.5070 F120.00
G01 X13.4737 Y-18.4850 F120.00
G01 X13.5163 Y-18.4595 F120.00
G01 X13.5567 Y-18.4296 F120.00
G01 X13.5939 Y-18.3959 F120.00
G01 X13.7122 Y-18.2775 F120.00
G01 X13.7122 Y-31.5980 F120.00
G01 X13.0495 Y-32.2608 F120.00
G01 X13.0495 Y-31.8357 F120.00
G01 X13.0487 Y-31.8319 F120.00
G01 X13.0467 Y-31.8285 F120.00
G01 X13.0439 Y-31.8261 F120.00
G01 X13.0402 Y-31.8247 F120.00
G01 X10.8380 Y-31.8245 F120.00
G01 X10.8341 Y-31.8252 F120.00
G01 X10.8305 Y-31.8273 F120.00
G01 X10.8288 Y-31.8291 F120.00
G01 X10.8275 Y-31.8313 F120.00
G01 X10.8265 Y-31.8360 F120.00
G01 X10.8265 Y-34.0360 F120.00
G01 X10.8272 Y-34.0399 F120.00
G01 X10.8293 Y-34.0435 F120.00
G01 X10.8323 Y-34.0460 F120.00
G01 X10.8363 Y-34.0474 F120.00
G01 X13.0380 Y-34.0475 F120.00
G01 X13.0408 Y-34.0472 F120.00
G01 X13.0434 Y-34.0461 F120.00
G01 X13.0459 Y-34.0443 F120.00
G01 X13.0479 Y-34.0419 F120.00
G01 X13.0491 Y-34.0391 F120.00
G01 X13.0495 Y-34.0360 F120.00
G01 X13.0495 Y-33.4478 F120.00
G01 X13.0983 Y-33.4477 F120.00
G01 X13.1479 Y-33.4453 F120.00
G01 X13.1973 Y-33.4380 F120.00
G01 X13.2466 Y-33.4257 F120.00
G01 X13.2933 Y-33.4090 F120.00
G01 X13.3392 Y-33.3873 F120.00
G01 X13.3823 Y-33.3615 F120.00
G01 X13.4227 Y-33.3316 F120.00
G01 X13.4595 Y-33.2983 F120.00
G01 X14.5863 Y-32.1715 F120.00
G01 X14.6196 Y-32.1347 F120.00
G01 X14.6492 Y-32.0948 F120.00
G01 X14.6753 Y-32.0512 F120.00
G01 X14.6968 Y-32.0058 F120.00
G01 X14.7135 Y-31.9591 F120.00
G01 X14.7260 Y-31.9093 F120.00
G01 X14.7333 Y-31.8602 F120.00
G01 X14.7358 Y-31.8100 F120.00
G01 X14.7358 Y-17.2540 F120.00
G01 X15.0739 Y-16.9159 F120.00
G01 X15.1079 Y-16.8782 F120.00
G01 X15.1375 Y-16.8383 F120.00
G01 X15.1630 Y-16.7957 F120.00
G01 X15.1848 Y-16.7498 F120.00
G01 X15.2017 Y-16.7026 F120.00
G01 X15.2138 Y-16.6544 F120.00
G01 X15.2213 Y-16.6039 F120.00
G01 X15.2238 Y-16.5540 F120.00
G01 X15.2238 Y-5.2005 F120.00
G01 X15.8123 Y-5.2005 F120.00
G01 X15.8159 Y-5.1998 F120.00
G01 X15.8191 Y-5.1981 F120.00
G01 X15.8216 Y-5.1954 F120.00
G01 X15.8231 Y-5.1921 F120.00
G01 X15.8235 Y-5.1890 F120.00
G01 X15.8235 Y-2.9890 F120.00
G01 X15.8226 Y-2.9846 F120.00
G01 X15.8201 Y-2.9809 F120.00
G01 X15.8164 Y-2.9784 F120.00
G01 X15.8120 Y-2.9775 F120.00
G00 Z2.0000
G00 X16.1405 Y-2.9890
G01 F60.00
G01 Z-0.0870
G01 F120.00
G01 X16.1405 Y-5.1890 F120.00
G01 X16.1409 Y-5.1921 F120.00
G01 X16.1424 Y-5.1954 F120.00
G01 X16.1449 Y-5.1981 F120.00
G01 X16.1481 Y-5.1998 F120.00
G01 X16.1517 Y-5.2005 F120.00
G01 X16.7402 Y-5.2005 F120.00
G01 X16.7402 Y-14.2940 F120.00
G01 X16.7428 Y-14.3447 F120.00
G01 X16.7501 Y-14.3938 F120.00
G01 X16.7623 Y-14.4426 F120.00
G01 X16.7792 Y-14.4898 F120.00
G01 X16.8010 Y-14.5357 F120.00
G01 X16.8265 Y-14.5783 F120.00
G01 X16.8561 Y-14.6182 F120.00
G01 X16.8899 Y-14.6557 F120.00
G01 X18.0901 Y-15.8559 F120.00
G01 X18.1273 Y-15.8896 F120.00
G01 X18.1677 Y-15.9195 F120.00
G01 X18.2113 Y-15.9456 F120.00
G01 X18.2562 Y-15.9668 F120.00
G01 X18.3029 Y-15.9835 F120.00
G01 X18.3522 Y-15.9959 F120.00
G01 X18.4018 Y-16.0033 F120.00
G01 X18.4517 Y-16.0057 F120.00
G01 X18.7005 Y-16.0058 F120.00
G01 X18.7005 Y-16.5940 F120.00
G01 X18.7009 Y-16.5971 F120.00
G01 X18.7023 Y-16.6002 F120.00
G01 X18.7045 Y-16.6027 F120.00
G01 X18.7073 Y-16.6045 F120.00
G01 X18.7120 Y-16.6055 F120.00
G01 X20.9120 Y-16.6055 F120.00
G01 X20.9151 Y-16.6051 F120.00
G01 X20.9184 Y-16.6036 F120.00
G01 X20.9211 Y-16.6011 F120.00
G01 X20.9228 Y-16.5979 F120.00
G01 X20.9235 Y-16.5943 F120.00
G01 X20.9235 Y-16.0058 F120.00
G01 X20.9600 Y-16.0058 F120.00
G01 X21.5862 Y-16.6320 F120.00
G01 X21.5862 Y-21.1240 F120.00
G01 X16.9101 Y-25.8001 F120.00
G01 X16.8764 Y-25.8373 F120.00
G01 X16.8462 Y-25.8782 F120.00
G01 X16.8207 Y-25.9208 F120.00
G01 X16.7994 Y-25.9656 F120.00
G01 X16.7823 Y-26.0134 F120.00
G01 X16.7701 Y-26.0622 F120.00
G01 X16.7628 Y-26.1113 F120.00
G01 X16.7602 Y-26.1620 F120.00
G01 X16.7602 Y-37.3100 F120.00
G01 X14.0260 Y-40.0442 F120.00
G01 X13.0495 Y-40.0442 F120.00
G01 X13.0495 Y-39.4557 F120.00
G01 X13.0487 Y-39.4519 F120.00
G01 X13.0469 Y-39.4487 F120.00
G01 X13.0439 Y-39.4461 F120.00
G01 X13.0402 Y-39.4447 F120.00
G01 X10.8380 Y-39.4445 F120.00
G01 X10.8344 Y-39.4451 F120.00
G01 X10.8311 Y-39.4468 F120.00
G01 X10.8293 Y-39.4485 F120.00
G01 X10.8277 Y-39.4508 F120.00
G01 X10.8268 Y-39.4535 F120.00
G01 X10.8265 Y-39.4560 F120.00
G01 X10.8265 Y-41.6560 F120.00
G01 X10.8272 Y-41.6599 F120.00
G01 X10.8293 Y-41.6635 F120.00
G01 X10.8323 Y-41.6660 F120.00
G01 X10.8363 Y-41.6674 F120.00
G01 X13.0400 Y-41.6673 F120.00
G01 X13.0437 Y-41.6660 F120.00
G01 X13.0467 Y-41.6635 F120.00
G01 X13.0487 Y-41.6601 F120.00
G01 X13.0495 Y-41.6563 F120.00
G01 X13.0495 Y-41.0678 F120.00
G01 X14.2386 Y-41.0677 F120.00
G01 X14.2887 Y-41.0652 F120.00
G01 X14.3378 Y-41.0579 F120.00
G01 X14.3860 Y-41.0459 F120.00
G01 X14.4338 Y-41.0288 F120.00
G01 X14.4795 Y-41.0072 F120.00
G01 X14.5223 Y-40.9815 F120.00
G01 X14.5622 Y-40.9519 F120.00
G01 X14.5999 Y-40.9179 F120.00
G01 X17.6339 Y-37.8839 F120.00
G01 X17.6679 Y-37.8462 F120.00
G01 X17.6975 Y-37.8063 F120.00
G01 X17.7232 Y-37.7635 F120.00
G01 X17.7448 Y-37.7178 F120.00
G01 X17.7619 Y-37.6700 F120.00
G01 X17.7739 Y-37.6218 F120.00
G01 X17.7812 Y-37.5727 F120.00
G01 X17.7838 Y-37.5220 F120.00
G01 X17.7838 Y-26.3740 F120.00
G01 X22.4601 Y-21.6977 F120.00
G01 X22.4936 Y-21.6607 F120.00
G01 X22.5232 Y-21.6208 F120.00
G01 X22.5496 Y-21.5767 F120.00
G01 X22.5708 Y-21.5318 F120.00
G01 X22.5877 Y-21.4846 F120.00
G01 X22.5999 Y-21.4358 F120.00
G01 X22.6072 Y-21.3867 F120.00
G01 X22.6098 Y-21.3360 F120.00
G01 X22.6097 Y-16.4197 F120.00
G01 X22.6073 Y-16.3698 F120.00
G01 X22.6000 Y-16.3207 F120.00
G01 X22.5877 Y-16.2714 F120.00
G01 X22.5708 Y-16.2242 F120.00
G01 X22.5496 Y-16.1793 F120.00
G01 X22.5235 Y-16.1357 F120.00
G01 X22.4936 Y-16.0953 F120.00
G01 X22.4599 Y-16.0581 F120.00
G01 X21.5339 Y-15.1321 F120.00
G01 X21.4967 Y-15.0984 F120.00
G01 X21.4565 Y-15.0687 F120.00
G01 X21.4132 Y-15.0427 F120.00
G01 X21.3678 Y-15.0212 F120.00
G01 X21.3206 Y-15.0043 F120.00
G01 X21.2716 Y-14.9920 F120.00
G01 X21.2222 Y-14.9847 F120.00
G01 X21.1723 Y-14.9823 F120.00
G01 X20.9235 Y-14.9822 F120.00
G01 X20.9235 Y-14.3940 F120.00
G01 X20.9230 Y-14.3907 F120.00
G01 X20.9216 Y-14.3876 F120.00
G01 X20.9195 Y-14.3853 F120.00
G01 X20.9167 Y-14.3835 F120.00
G01 X20.9120 Y-14.3825 F120.00
G01 X18.7120 Y-14.3825 F120.00
G01 X18.7089 Y-14.3829 F120.00
G01 X18.7056 Y-14.3844 F120.00
G01 X18.7029 Y-14.3869 F120.00
G01 X18.7012 Y-14.3901 F120.00
G01 X18.7005 Y-14.3937 F120.00
G01 X18.7005 Y-14.9822 F120.00
G01 X18.6640 Y-14.9822 F120.00
G01 X17.7638 Y-14.0820 F120.00
G01 X17.7638 Y-5.2005 F120.00
G01 X18.3523 Y-5.2005 F120.00
G01 X18.3559 Y-5.1998 F120.00
G01 X18.3591 Y-5.1981 F120.00
G01 X18.3616 Y-5.1954 F120.00
G01 X18.3631 Y-5.1921 F120.00
G01 X18.3635 Y-5.1890 F120.00
G01 X18.3634 Y-2.9873 F120.00
G01 X18.3621 Y-2.9836 F120.00
G01 X18.3595 Y-2.9803 F120.00
G01 X18.3561 Y-2.9783 F120.00
G01 X18.3520 Y-2.9775 F120.00
G01 X16.1520 Y-2.9775 F120.00
G01 X16.1476 Y-2.9784 F120.00
G01 X16.1439 Y-2.9809 F120.00
G01 X16.1414 Y-2.9846 F120.00
G01 X16.1405 Y-2.9890 F120.00
G00 Z2.0000
G00 X20.2900 Y-7.3622
G01 F60.00
G01 Z-0.0870
G01 F120.00
G01 X20.2840 Y-7.3496 F120.00
G01 X20.2282 Y-7.2565 F120.00
G01 X20.1632 Y-7.1689 F120.00
G01 X20.0899 Y-7.0881 F120.00
G01 X20.0091 Y-7.0148 F120.00
G01 X19.9215 Y-6.9498 F120.00
G01 X19.8280 Y-6.8937 F120.00
G01 X19.7294 Y-6.8471 F120.00
G01 X19.6267 Y-6.8104 F120.00
G01 X19.5208 Y-6.7839 F120.00
G01 X19.4129 Y-6.7679 F120.00
G01 X19.3040 Y-6.7625 F120.00
G01 X19.1951 Y-6.7679 F120.00
G01 X19.0872 Y-6.7839 F120.00
G01 X18.9813 Y-6.8104 F120.00
G01 X18.8786 Y-6.8471 F120.00
G01 X18.7800 Y-6.8937 F120.00
G01 X18.6865 Y-6.9498 F120.00
G01 X18.5989 Y-7.0148 F120.00
G01 X18.5181 Y-7.0881 F120.00
G01 X18.4448 Y-7.1689 F120.00
G01 X18.3798 Y-7.2565 F120.00
G01 X18.3237 Y-7.3500 F120.00
G01 X18.2771 Y-7.4486 F120.00
G01 X18.2404 Y-7.5513 F120.00
G01 X18.2139 Y-7.6572 F120.00
G01 X18.1979 Y-7.7651 F120.00
G01 X18.1925 Y-7.8740 F120.00
G01 X18.1979 Y-7.9829 F120.00
G01 X18.2139 Y-8.0908 F120.00
G01 X18.2404 Y-8.1967 F120.00
G01 X18.2771 Y-8.2994 F120.00
G01 X18.3237 Y-8.3980 F120.00
G01 X18.3798 Y-8.4915 F120.00
G01 X18.4445 Y-8.5787 F120.00
G01 X18.5181 Y-8.6599 F120.00
G01 X18.5993 Y-8.7335 F120.00
G01 X18.6865 Y-8.7982 F120.00
G01 X18.7796 Y-8.8540 F120.00
G01 X18.8786 Y-8.9009 F120.00
G01 X18.9819 Y-8.9378 F120.00
G01 X19.0872 Y-8.9641 F120.00
G01 X19.1945 Y-8.9801 F120.00
G01 X19.3040 Y-8.9855 F120.00
G01 X19.4135 Y-8.9801 F120.00
G01 X19.5208 Y-8.9641 F120.00
G01 X19.6267 Y-8.9376 F120.00
G01 X19.7299 Y-8.9007 F120.00
G01 X19.8280 Y-8.8543 F120.00
G01 X19.9210 Y-8.7985 F120.00
G01 X20.0096 Y-8.7328 F120.00
G01 X20.0899 Y-8.6599 F120.00
G01 X20.1628 Y-8.5796 F120.00
G01 X20.2282 Y-8.4915 F120.00
G01 X20.2840 Y-8.3984 F120.00
G01 X20.2900 Y-8.3858 F120.00
G01 X20.6160 Y-8.3858 F120.00
G01 X24.3802 Y-12.1500 F120.00
G01 X24.3802 Y-13.7580 F120.00
G01 X23.5141 Y-14.6241 F120.00
G01 X23.4808 Y-14.6609 F120.00
G01 X23.4505 Y-14.7017 F120.00
G01 X23.4244 Y-14.7453 F120.00
G01 X23.4032 Y-14.7902 F120.00
G01 X23.3865 Y-14.8369 F120.00
G01 X23.3741 Y-14.8862 F120.00
G01 X23.3667 Y-14.9358 F120.00
G01 X23.3642 Y-14.9860 F120.00
G01 X23.3642 Y-22.1400 F120.00
G01 X22.5381 Y-22.9661 F120.00
G01 X22.5046 Y-23.0031 F120.00
G01 X22.4742 Y-23.0442 F120.00
G01 X22.4487 Y-23.0868 F120.00
G01 X22.4272 Y-23.1322 F120.00
G01 X22.4103 Y-23.1794 F120.00
G01 X22.3982 Y-23.2276 F120.00
G01 X22.3907 Y-23.2781 F120.00
G01 X22.3882 Y-23.3280 F120.00
G01 X22.3882 Y-38.7625 F120.00
G01 X21.2799 Y-37.6541 F120.00
G01 X21.2427 Y-37.6204 F120.00
G01 X21.2028 Y-37.5908 F120.00
G01 X21.1592 Y-37.5647 F120.00
G01 X21.1138 Y-37.5432 F120.00
G01 X21.0666 Y-37.5263 F120.00
G01 X21.0176 Y-37.5140 F120.00
G01 X20.9682 Y-37.5067 F120.00
G01 X20.9183 Y-37.5043 F120.00
G01 X20.6695 Y-37.5042 F120.00
G01 X20.6695 Y-36.9160 F120.00
G01 X20.6690 Y-36.9127 F120.00
G01 X20.6677 Y-36.9098 F120.00
G01 X20.6655 Y-36.9073 F120.00
G01 X20.6629 Y-36.9056 F120.00
G01 X20.6605 Y-36.9048 F120.00
G01 X20.6580 Y-36.9045 F120.00
G01 X18.4569 Y-36.9046 F120.00
G01 X18.4528 Y-36.9057 F120.00
G01 X18.4495 Y-36.9083 F120.00
G01 X18.4473 Y-36.9119 F120.00
G01 X18.4465 Y-36.9160 F120.00
G01 X18.4465 Y-39.1168 F120.00
G01 X18.4476 Y-39.1209 F120.00
G01 X18.4503 Y-39.1245 F120.00
G01 X18.4539 Y-39.1267 F120.00
G01 X18.4580 Y-39.1275 F120.00
G01 X20.6580 Y-39.1275 F120.00
G01 X20.6608 Y-39.1272 F120.00
G01 X20.6642 Y-39.1257 F120.00
G01 X20.6671 Y-39.1231 F120.00
G01 X20.6688 Y-39.1199 F120.00
G01 X20.6695 Y-39.1163 F120.00
G01 X20.6695 Y-38.5278 F120.00
G01 X20.7060 Y-38.5278 F120.00
G01 X22.0752 Y-39.8969 F120.00
G01 X22.0406 Y-39.9351 F120.00
G01 X21.9760 Y-40.0223 F120.00
G01 X21.9199 Y-40.1158 F120.00
G01 X21.8731 Y-40.2146 F120.00
G01 X21.8364 Y-40.3171 F120.00
G01 X21.8099 Y-40.4232 F120.00
G01 X21.7939 Y-40.5311 F120.00
G01 X21.7885 Y-40.6400 F120.00
G01 X21.7939 Y-40.7492 F120.00
G01 X21.8100 Y-40.8574 F120.00
G01 X21.8364 Y-40.9627 F120.00
G01 X21.8729 Y-41.0648 F120.00
G01 X21.9197 Y-41.1640 F120.00
G01 X21.9758 Y-41.2575 F120.00
G01 X22.0412 Y-41.3456 F120.00
G01 X22.1141 Y-41.4259 F120.00
G01 X22.1944 Y-41.4988 F120.00
G01 X22.2825 Y-41.5642 F120.00
G01 X22.3756 Y-41.6200 F120.00
G01 X22.3882 Y-41.6260 F120.00
G01 X22.3882 Y-42.4480 F120.00
G01 X22.3756 Y-42.4540 F120.00
G01 X22.2825 Y-42.5098 F120.00
G01 X22.1944 Y-42.5752 F120.00
G01 X22.1141 Y-42.6481 F120.00
G01 X22.0412 Y-42.7284 F120.00
G01 X21.9755 Y-42.8170 F120.00
G01 X21.9197 Y-42.9100 F120.00
G01 X21.8733 Y-43.0081 F120.00
G01 X21.8364 Y-43.1113 F120.00
G01 X21.8099 Y-43.2172 F120.00
G01 X21.7939 Y-43.3245 F120.00
G01 X21.7885 Y-43.4343 F120.00
G01 X21.7939 Y-43.5429 F120.00
G01 X21.8098 Y-43.6503 F120.00
G01 X21.8364 Y-43.7567 F120.00
G01 X21.8733 Y-43.8599 F120.00
G01 X21.9197 Y-43.9580 F120.00
G01 X21.9755 Y-44.0510 F120.00
G01 X22.0412 Y-44.1396 F120.00
G01 X22.1141 Y-44.2199 F120.00
G01 X22.1944 Y-44.2928 F120.00
G01 X22.2825 Y-44.3582 F120.00
G01 X22.3756 Y-44.4140 F120.00
G01 X22.3882 Y-44.4200 F120.00
G01 X22.3882 Y-55.5305 F120.00
G01 X21.7597 Y-55.5305 F120.00
G01 X21.7561 Y-55.5312 F120.00
G01 X21.7529 Y-55.5329 F120.00
G01 X21.7504 Y-55.5356 F120.00
G01 X21.7489 Y-55.5389 F120.00
G01 X21.7485 Y-55.5420 F120.00
G01 X21.7486 Y-57.7431 F120.00
G01 X21.7497 Y-57.7472 F120.00
G01 X21.7523 Y-57.7505 F120.00
G01 X21.7559 Y-57.7527 F120.00
G01 X21.7600 Y-57.7535 F120.00
G01 X23.9608 Y-57.7535 F120.00
G01 X23.9649 Y-57.7524 F120.00
G01 X23.9685 Y-57.7497 F120.00
G01 X23.9707 Y-57.7461 F120.00
G01 X23.9715 Y-57.7420 F120.00
G01 X23.9715 Y-55.5420 F120.00
G01 X23.9712 Y-55.5392 F120.00
G01 X23.9696 Y-55.5356 F120.00
G01 X23.9671 Y-55.5329 F120.00
G01 X23.9639 Y-55.5312 F120.00
G01 X23.9603 Y-55.5305 F120.00
G01 X23.4118 Y-55.5305 F120.00
G01 X23.4118 Y-44.4200 F120.00
G01 X23.4244 Y-44.4140 F120.00
G01 X23.5175 Y-44.3582 F120.00
G01 X23.6056 Y-44.2928 F120.00
G01 X23.6859 Y-44.2199 F120.00
G01 X23.7588 Y-44.1396 F120.00
G01 X23.8245 Y-44.0510 F120.00
G01 X23.8803 Y-43.9580 F120.00
G01 X23.9267 Y-43.8599 F120.00
G01 X23.9636 Y-43.7567 F120.00
G01 X23.9901 Y-43.6508 F120.00
G01 X24.0061 Y-43.5435 F120.00
G01 X24.0115 Y-43.4340 F120.00
G01 X24.0061 Y-43.3245 F120.00
G01 X23.9901 Y-43.2172 F120.00
G01 X23.9636 Y-43.1113 F120.00
G01 X23.9267 Y-43.0081 F120.00
G01 X23.8803 Y-42.9100 F120.00
G01 X23.8245 Y-42.8170 F120.00
G01 X23.7588 Y-42.7284 F120.00
G01 X23.6859 Y-42.6481 F120.00
G01 X23.6056 Y-42.5752 F120.00
G01 X23.5175 Y-42.5098 F120.00
G01 X23.4244 Y-42.4540 F120.00
G01 X23.4118 Y-42.4480 F120.00
G01 X23.4118 Y-41.6260 F120.00
G01 X23.4244 Y-41.6200 F120.00
G01 X23.5175 Y-41.5642 F120.00
G01 X23.6056 Y-41.4988 F120.00
G01 X23.6859 Y-41.4259 F120.00
G01 X23.7588 Y-41.3456 F120.00
G01 X23.8245 Y-41.2570 F120.00
G01 X23.8803 Y-41.1640 F120.00
G01 X23.9267 Y-41.0659 F120.00
G01 X23.9636 Y-40.9627 F120.00
G01 X23.9901 Y-40.8568 F120.00
G01 X24.0061 Y-40.7495 F120.00
G01 X24.0115 Y-40.6400 F120.00
G01 X24.0061 Y-40.5305 F120.00
G01 X23.9901 Y-40.4232 F120.00
G01 X23.9636 Y-40.3173 F120.00
G01 X23.9267 Y-40.2141 F120.00
G01 X23.8803 Y-40.1160 F120.00
G01 X23.8245 Y-40.0230 F120.00
G01 X23.7588 Y-39.9344 F120.00
G01 X23.6859 Y-39.8541 F120.00
G01 X23.6056 Y-39.7812 F120.00
G01 X23.5175 Y-39.7158 F120.00
G01 X23.4244 Y-39.6600 F120.00
G01 X23.4118 Y-39.6540 F120.00
G01 X23.4118 Y-23.5400 F120.00
G01 X24.2379 Y-22.7139 F120.00
G01 X24.2712 Y-22.6771 F120.00
G01 X24.3015 Y-22.6363 F120.00
G01 X24.3276 Y-22.5927 F120.00
G01 X24.3488 Y-22.5478 F120.00
G01 X24.3655 Y-22.5011 F120.00
G01 X24.3780 Y-22.4516 F120.00
G01 X24.3853 Y-22.4022 F120.00
G01 X24.3878 Y-22.3520 F120.00
G01 X24.3878 Y-15.1980 F120.00
G01 X25.2543 Y-14.3315 F120.00
G01 X25.2879 Y-14.2942 F120.00
G01 X25.3175 Y-14.2543 F120.00
G01 X25.3430 Y-14.2117 F120.00
G01 X25.3648 Y-14.1658 F120.00
G01 X25.3817 Y-14.1186 F120.00
G01 X25.3939 Y-14.0698 F120.00
G01 X25.4012 Y-14.0207 F120.00
G01 X25.4038 Y-13.9700 F120.00
G01 X25.4038 Y-11.9380 F120.00
G01 X25.4013 Y-11.8881 F120.00
G01 X25.3939 Y-11.8382 F120.00
G01 X25.3819 Y-11.7900 F120.00
G01 X25.3646 Y-11.7416 F120.00
G01 X25.3433 Y-11.6968 F120.00
G01 X25.3175 Y-11.6537 F120.00
G01 X25.2876 Y-11.6133 F120.00
G01 X25.2541 Y-11.5763 F120.00
G01 X21.1899 Y-7.5121 F120.00
G01 X21.1531 Y-7.4788 F120.00
G01 X21.1118 Y-7.4482 F120.00
G01 X21.0692 Y-7.4227 F120.00
G01 X21.0238 Y-7.4012 F120.00
G01 X20.9760 Y-7.3841 F120.00
G01 X20.9278 Y-7.3721 F120.00
G01 X20.8784 Y-7.3647 F120.00
G01 X20.8280 Y-7.3622 F120.00
G01 X20.2900 Y-7.3622 F120.00
G00 Z2.0000
G00 X18.7005 Y-9.3140
G01 F60.00
G01 Z-0.0870
G01 F120.00
G01 X18.7005 Y-11.5140 F120.00
G01 X18.7009 Y-11.5171 F120.00
G01 X18.7024 Y-11.5204 F120.00
G01 X18.7049 Y-11.5231 F120.00
G01 X18.7081 Y-11.5248 F120.00
G01 X18.7117 Y-11.5255 F120.00
G01 X19.3002 Y-11.5255 F120.00
G01 X19.3002 Y-11.8425 F120.00
G01 X18.7117 Y-11.8425 F120.00
G01 X18.7081 Y-11.8432 F120.00
G01 X18.7047 Y-11.8451 F120.00
G01 X18.7021 Y-11.8481 F120.00
G01 X18.7008 Y-11.8515 F120.00
G01 X18.7005 Y-11.8540 F120.00
G01 X18.7005 Y-14.0540 F120.00
G01 X18.7014 Y-14.0584 F120.00
G01 X18.7039 Y-14.0621 F120.00
G01 X18.7076 Y-14.0646 F120.00
G01 X18.7120 Y-14.0655 F120.00
G01 X20.9120 Y-14.0655 F120.00
G01 X20.9151 Y-14.0651 F120.00
G01 X20.9184 Y-14.0636 F120.00
G01 X20.9211 Y-14.0611 F120.00
G01 X20.9228 Y-14.0579 F120.00
G01 X20.9235 Y-14.0543 F120.00
G01 X20.9235 Y-13.4658 F120.00
G01 X21.4060 Y-13.4658 F120.00
G01 X21.4120 Y-13.4784 F120.00
G01 X21.4678 Y-13.5715 F120.00
G01 X21.5332 Y-13.6596 F120.00
G01 X21.6061 Y-13.7399 F120.00
G01 X21.6864 Y-13.8128 F120.00
G01 X21.7745 Y-13.8782 F120.00
G01 X21.8680 Y-13.9343 F120.00
G01 X21.9672 Y-13.9811 F120.00
G01 X22.0693 Y-14.0176 F120.00
G01 X22.1746 Y-14.0440 F120.00
G01 X22.2828 Y-14.0601 F120.00
G01 X22.3920 Y-14.0655 F120.00
G01 X22.5009 Y-14.0601 F120.00
G01 X22.6088 Y-14.0441 F120.00
G01 X22.7152 Y-14.0175 F120.00
G01 X22.8174 Y-13.9809 F120.00
G01 X22.9155 Y-13.9345 F120.00
G01 X23.0090 Y-13.8785 F120.00
G01 X23.0971 Y-13.8132 F120.00
G01 X23.1779 Y-13.7399 F120.00
G01 X23.2512 Y-13.6591 F120.00
G01 X23.3162 Y-13.5715 F120.00
G01 X23.3723 Y-13.4780 F120.00
G01 X23.4191 Y-13.3788 F120.00
G01 X23.4558 Y-13.2761 F120.00
G01 X23.4821 Y-13.1708 F120.00
G01 X23.4981 Y-13.0635 F120.00
G01 X23.5035 Y-12.9540 F120.00
G01 X23.4981 Y-12.8451 F120.00
G01 X23.4821 Y-12.7372 F120.00
G01 X23.4556 Y-12.6313 F120.00
G01 X23.4189 Y-12.5286 F120.00
G01 X23.3720 Y-12.4296 F120.00
G01 X23.3162 Y-12.3365 F120.00
G01 X23.2515 Y-12.2493 F120.00
G01 X23.1783 Y-12.1685 F120.00
G01 X23.0971 Y-12.0948 F120.00
G01 X23.0095 Y-12.0298 F120.00
G01 X22.9160 Y-11.9737 F120.00
G01 X22.8174 Y-11.9271 F120.00
G01 X22.7147 Y-11.8904 F120.00
G01 X22.6088 Y-11.8639 F120.00
G01 X22.5009 Y-11.8479 F120.00
G01 X22.3920 Y-11.8425 F120.00
G01 X22.2831 Y-11.8479 F120.00
G01 X22.1752 Y-11.8639 F120.00
G01 X22.0693 Y-11.8904 F120.00
G01 X21.9661 Y-11.9273 F120.00
G01 X21.8676 Y-11.9740 F120.00
G01 X21.7745 Y-12.0298 F120.00
G01 X21.6873 Y-12.0945 F120.00
G01 X21.6061 Y-12.1681 F120.00
G01 X21.5328 Y-12.2489 F120.00
G01 X21.4678 Y-12.3365 F120.00
G01 X21.4120 Y-12.4296 F120.00
G01 X21.4060 Y-12.4422 F120.00
G01 X20.9235 Y-12.4422 F120.00
G01 X20.9235 Y-11.8540 F120.00
G01 X20.9226 Y-11.8496 F120.00
G01 X20.9201 Y-11.8459 F120.00
G01 X20.9164 Y-11.8434 F120.00
G01 X20.9120 Y-11.8425 F120.00
G01 X20.3238 Y-11.8425 F120.00
G01 X20.3238 Y-11.5255 F120.00
G01 X20.9123 Y-11.5255 F120.00
G01 X20.9159 Y-11.5248 F120.00
G01 X20.9193 Y-11.5229 F120.00
G01 X20.9219 Y-11.5199 F120.00
G01 X20.9232 Y-11.5165 F120.00
G01 X20.9235 Y-11.5140 F120.00
G01 X20.9235 Y-9.3140 F120.00
G01 X20.9226 Y-9.3096 F120.00
G01 X20.9201 Y-9.3059 F120.00
G01 X20.9164 Y-9.3034 F120.00
G01 X20.9120 Y-9.3025 F120.00
G01 X18.7120 Y-9.3025 F120.00
G01 X18.7076 Y-9.3034 F120.00
G01 X18.7039 Y-9.3059 F120.00
G01 X18.7014 Y-9.3096 F120.00
G01 X18.7005 Y-9.3140 F120.00
G00 Z2.0000
G00 X12.9720 Y-11.8425
G01 F60.00
G01 Z-0.0870
G01 F120.00
G01 X10.7720 Y-11.8425 F120.00
G01 X10.7695 Y-11.8428 F120.00
G01 X10.7671 Y-11.8436 F120.00
G01 X10.7649 Y-11.8449 F120.00
G01 X10.7631 Y-11.8467 F120.00
G01 X10.7612 Y-11.8501 F120.00
G01 X10.7605 Y-11.8540 F120.00
G01 X10.7605 Y-14.0540 F120.00
G01 X10.7608 Y-14.0565 F120.00
G01 X10.7623 Y-14.0602 F120.00
G01 X10.7647 Y-14.0629 F120.00
G01 X10.7679 Y-14.0647 F120.00
G01 X10.7717 Y-14.0655 F120.00
G01 X11.3602 Y-14.0655 F120.00
G01 X11.3602 Y-14.3825 F120.00
G01 X10.7720 Y-14.3825 F120.00
G01 X10.7676 Y-14.3834 F120.00
G01 X10.7641 Y-14.3857 F120.00
G01 X10.7614 Y-14.3896 F120.00
G01 X10.7605 Y-14.3940 F120.00
G01 X10.7605 Y-14.9822 F120.00
G01 X10.7117 Y-14.9823 F120.00
G01 X10.6621 Y-14.9847 F120.00
G01 X10.6127 Y-14.9920 F120.00
G01 X10.5634 Y-15.0043 F120.00
G01 X10.5167 Y-15.0210 F120.00
G01 X10.4708 Y-15.0427 F120.00
G01 X10.4277 Y-15.0685 F120.00
G01 X10.3873 Y-15.0984 F120.00
G01 X10.3503 Y-15.1319 F120.00
G01 X6.7075 Y-18.7747 F120.00
G01 X6.6621 Y-18.7585 F120.00
G01 X6.5569 Y-18.7321 F120.00
G01 X6.4484 Y-18.7161 F120.00
G01 X6.3398 Y-18.7107 F120.00
G01 X6.2314 Y-18.7160 F120.00
G01 X6.1226 Y-18.7321 F120.00
G01 X6.0171 Y-18.7586 F120.00
G01 X5.9149 Y-18.7951 F120.00
G01 X5.8158 Y-18.8420 F120.00
G01 X5.7223 Y-18.8981 F120.00
G01 X5.6351 Y-18.9627 F120.00
G01 X5.5534 Y-19.0367 F120.00
G01 X5.4806 Y-19.1171 F120.00
G01 X5.4156 Y-19.2047 F120.00
G01 X5.3595 Y-19.2983 F120.00
G01 X5.3127 Y-19.3974 F120.00
G01 X5.2760 Y-19.5001 F120.00
G01 X5.2496 Y-19.6054 F120.00
G01 X5.2337 Y-19.7127 F120.00
G01 X5.2283 Y-19.8222 F120.00
G01 X5.2336 Y-19.9306 F120.00
G01 X5.2496 Y-20.0391 F120.00
G01 X5.2761 Y-20.1449 F120.00
G01 X5.3129 Y-20.2476 F120.00
G01 X5.3595 Y-20.3462 F120.00
G01 X5.4156 Y-20.4397 F120.00
G01 X5.4806 Y-20.5274 F120.00
G01 X5.5538 Y-20.6082 F120.00
G01 X5.6346 Y-20.6814 F120.00
G01 X5.7223 Y-20.7464 F120.00
G01 X5.8153 Y-20.8022 F120.00
G01 X5.9149 Y-20.8493 F120.00
G01 X6.0171 Y-20.8859 F120.00
G01 X6.1229 Y-20.9124 F120.00
G01 X6.2308 Y-20.9284 F120.00
G01 X6.3398 Y-20.9337 F120.00
G01 X6.4487 Y-20.9284 F120.00
G01 X6.5566 Y-20.9124 F120.00
G01 X6.6624 Y-20.8859 F120.00
G01 X6.7646 Y-20.8493 F120.00
G01 X6.8642 Y-20.8022 F120.00
G01 X6.9573 Y-20.7464 F120.00
G01 X7.0451 Y-20.6813 F120.00
G01 X7.1257 Y-20.6082 F120.00
G01 X7.1986 Y-20.5278 F120.00
G01 X7.2639 Y-20.4397 F120.00
G01 X7.3200 Y-20.3462 F120.00
G01 X7.3664 Y-20.2481 F120.00
G01 X7.4034 Y-20.1449 F120.00
G01 X7.4299 Y-20.0391 F120.00
G01 X7.4458 Y-19.9317 F120.00
G01 X7.4513 Y-19.8222 F120.00
G01 X7.4458 Y-19.7127 F120.00
G01 X7.4299 Y-19.6054 F120.00
G01 X7.4088 Y-19.5210 F120.00
G01 X10.7605 Y-16.1692 F120.00
G01 X10.7605 Y-16.5943 F120.00
G01 X10.7613 Y-16.5981 F120.00
G01 X10.7633 Y-16.6015 F120.00
G01 X10.7661 Y-16.6039 F120.00
G01 X10.7698 Y-16.6053 F120.00
G01 X12.9720 Y-16.6055 F120.00
G01 X12.9745 Y-16.6052 F120.00
G01 X12.9769 Y-16.6044 F120.00
G01 X12.9791 Y-16.6031 F120.00
G01 X12.9809 Y-16.6013 F120.00
G01 X12.9828 Y-16.5979 F120.00
G01 X12.9835 Y-16.5940 F120.00
G01 X12.9835 Y-14.3940 F120.00
G01 X12.9831 Y-14.3909 F120.00
G01 X12.9816 Y-14.3876 F120.00
G01 X12.9791 Y-14.3849 F120.00
G01 X12.9759 Y-14.3832 F120.00
G01 X12.9723 Y-14.3825 F120.00
G01 X12.3838 Y-14.3825 F120.00
G01 X12.3838 Y-14.0655 F120.00
G01 X12.9723 Y-14.0655 F120.00
G01 X12.9759 Y-14.0648 F120.00
G01 X12.9793 Y-14.0629 F120.00
G01 X12.9817 Y-14.0602 F120.00
G01 X12.9832 Y-14.0565 F120.00
G01 X12.9835 Y-14.0540 F120.00
G01 X12.9835 Y-11.8540 F120.00
G01 X12.9826 Y-11.8496 F120.00
G01 X12.9801 Y-11.8459 F120.00
G01 X12.9764 Y-11.8434 F120.00
G01 X12.9720 Y-11.8425 F120.00
G00 Z2.0000
G00 X18.7005 Y-16.9340
G01 F60.00
G01 Z-0.0870
G01 F120.00
G01 X18.7005 Y-18.4218 F120.00
G01 X17.0106 Y-20.1117 F120.00
G01 X16.9937 Y-20.1016 F120.00
G01 X16.8954 Y-20.0551 F120.00
G01 X16.7927 Y-20.0184 F120.00
G01 X16.6868 Y-19.9919 F120.00
G01 X16.5784 Y-19.9758 F120.00
G01 X16.4694 Y-19.9705 F120.00
G01 X16.3611 Y-19.9759 F120.00
G01 X16.2537 Y-19.9918 F120.00
G01 X16.1473 Y-20.0184 F120.00
G01 X16.0441 Y-20.0553 F120.00
G01 X15.9456 Y-20.1020 F120.00
G01 X15.8525 Y-20.1578 F120.00
G01 X15.7653 Y-20.2225 F120.00
G01 X15.6841 Y-20.2961 F120.00
G01 X15.6108 Y-20.3769 F120.00
G01 X15.5455 Y-20.4650 F120.00
G01 X15.4897 Y-20.5580 F120.00
G01 X15.4433 Y-20.6561 F120.00
G01 X15.4064 Y-20.7593 F120.00
G01 X15.3799 Y-20.8652 F120.00
G01 X15.3639 Y-20.9731 F120.00
G01 X15.3585 Y-21.0814 F120.00
G01 X15.3639 Y-21.1915 F120.00
G01 X15.3799 Y-21.2988 F120.00
G01 X15.4064 Y-21.4047 F120.00
G01 X15.4431 Y-21.5074 F120.00
G01 X15.4896 Y-21.6057 F120.00
G01 X15.5458 Y-21.6995 F120.00
G01 X15.6105 Y-21.7867 F120.00
G01 X15.6843 Y-21.8681 F120.00
G01 X15.7649 Y-21.9412 F120.00
G01 X15.8523 Y-22.0060 F120.00
G01 X15.9458 Y-22.0621 F120.00
G01 X15.9982 Y-22.0870 F120.00
G01 X15.9982 Y-22.8900 F120.00
G01 X15.9856 Y-22.8960 F120.00
G01 X15.8920 Y-22.9521 F120.00
G01 X15.8049 Y-23.0168 F120.00
G01 X15.7237 Y-23.0905 F120.00
G01 X15.6508 Y-23.1709 F120.00
G01 X15.5858 Y-23.2585 F120.00
G01 X15.5297 Y-23.3520 F120.00
G01 X15.4832 Y-23.4504 F120.00
G01 X15.4464 Y-23.5533 F120.00
G01 X15.4199 Y-23.6592 F120.00
G01 X15.4039 Y-23.7671 F120.00
G01 X15.3985 Y-23.8754 F120.00
G01 X15.4039 Y-23.9849 F120.00
G01 X15.4198 Y-24.0923 F120.00
G01 X15.4462 Y-24.1981 F120.00
G01 X15.4509 Y-24.2114 F120.00
G01 X15.3859 Y-24.2763 F120.00
G01 X15.3524 Y-24.3133 F120.00
G01 X15.3225 Y-24.3537 F120.00
G01 X15.2968 Y-24.3965 F120.00
G01 X15.2752 Y-24.4422 F120.00
G01 X15.2583 Y-24.4894 F120.00
G01 X15.2461 Y-24.5382 F120.00
G01 X15.2387 Y-24.5881 F120.00
G01 X15.2362 Y-24.6380 F120.00
G01 X15.2362 Y-35.1540 F120.00
G01 X13.0495 Y-37.3408 F120.00
G01 X13.0495 Y-36.9157 F120.00
G01 X13.0488 Y-36.9121 F120.00
G01 X13.0469 Y-36.9087 F120.00
G01 X13.0439 Y-36.9061 F120.00
G01 X13.0402 Y-36.9047 F120.00
G01 X10.8380 Y-36.9045 F120.00
G01 X10.8344 Y-36.9051 F120.00
G01 X10.8311 Y-36.9068 F120.00
G01 X10.8293 Y-36.9085 F120.00
G01 X10.8277 Y-36.9108 F120.00
G01 X10.8268 Y-36.9135 F120.00
G01 X10.8265 Y-36.9160 F120.00
G01 X10.8265 Y-37.5042 F120.00
G01 X10.7777 Y-37.5043 F120.00
G01 X10.7276 Y-37.5067 F120.00
G01 X10.6782 Y-37.5141 F120.00
G01 X10.6294 Y-37.5263 F120.00
G01 X10.5822 Y-37.5432 F120.00
G01 X10.5368 Y-37.5647 F120.00
G01 X10.4937 Y-37.5905 F120.00
G01 X10.4531 Y-37.6206 F120.00
G01 X10.4161 Y-37.6541 F120.00
G01 X8.7817 Y-39.2885 F120.00
G01 X8.7484 Y-39.3253 F120.00
G01 X8.7185 Y-39.3657 F120.00
G01 X8.6927 Y-39.4088 F120.00
G01 X8.6712 Y-39.4542 F120.00
G01 X8.6543 Y-39.5014 F120.00
G01 X8.6421 Y-39.5502 F120.00
G01 X8.6347 Y-39.5998 F120.00
G01 X8.6322 Y-39.6540 F120.00
G01 X8.6196 Y-39.6600 F120.00
G01 X8.5260 Y-39.7161 F120.00
G01 X8.4389 Y-39.7808 F120.00
G01 X8.3581 Y-39.8541 F120.00
G01 X8.2845 Y-39.9353 F120.00
G01 X8.2198 Y-40.0225 F120.00
G01 X8.1640 Y-40.1156 F120.00
G01 X8.1171 Y-40.2146 F120.00
G01 X8.0804 Y-40.3173 F120.00
G01 X8.0539 Y-40.4232 F120.00
G01 X8.0379 Y-40.5308 F120.00
G01 X8.0325 Y-40.6406 F120.00
G01 X8.0379 Y-40.7489 F120.00
G01 X8.0539 Y-40.8568 F120.00
G01 X8.0805 Y-40.9632 F120.00
G01 X8.1171 Y-41.0654 F120.00
G01 X8.1637 Y-41.1640 F120.00
G01 X8.2198 Y-41.2575 F120.00
G01 X8.2845 Y-41.3447 F120.00
G01 X8.3581 Y-41.4259 F120.00
G01 X8.4389 Y-41.4992 F120.00
G01 X8.5260 Y-41.5639 F120.00
G01 X8.6196 Y-41.6200 F120.00
G01 X8.6322 Y-41.6260 F120.00
G01 X8.6322 Y-44.3458 F120.00
G01 X8.6196 Y-44.3519 F120.00
G01 X8.5265 Y-44.4077 F120.00
G01 X8.4384 Y-44.4730 F120.00
G01 X8.3581 Y-44.5459 F120.00
G01 X8.2852 Y-44.6263 F120.00
G01 X8.2195 Y-44.7148 F120.00
G01 X8.1637 Y-44.8079 F120.00
G01 X8.1173 Y-44.9060 F120.00
G01 X8.0804 Y-45.0092 F120.00
G01 X8.0539 Y-45.1150 F120.00
G01 X8.0379 Y-45.2224 F120.00
G01 X8.0325 Y-45.3319 F120.00
G01 X8.0379 Y-45.4414 F120.00
G01 X8.0539 Y-45.5487 F120.00
G01 X8.0804 Y-45.6545 F120.00
G01 X8.1173 Y-45.7577 F120.00
G01 X8.1637 Y-45.8558 F120.00
G01 X8.2195 Y-45.9489 F120.00
G01 X8.2852 Y-46.0374 F120.00
G01 X8.3581 Y-46.1178 F120.00
G01 X8.4384 Y-46.1907 F120.00
G01 X8.5265 Y-46.2560 F120.00
G01 X8.6196 Y-46.3118 F120.00
G01 X8.6322 Y-46.3179 F120.00
G01 X8.6322 Y-47.2440 F120.00
G01 X8.6347 Y-47.2936 F120.00
G01 X8.6421 Y-47.3438 F120.00
G01 X8.6543 Y-47.3926 F120.00
G01 X8.6712 Y-47.4398 F120.00
G01 X8.6925 Y-47.4850 F120.00
G01 X8.7188 Y-47.5288 F120.00
G01 X8.7484 Y-47.5687 F120.00
G01 X8.7821 Y-47.6059 F120.00
G01 X14.7282 Y-53.5520 F120.00
G01 X14.7282 Y-55.5305 F120.00
G01 X14.1397 Y-55.5305 F120.00
G01 X14.1359 Y-55.5313 F120.00
G01 X14.1323 Y-55.5335 F120.00
G01 X14.1299 Y-55.5366 F120.00
G01 X14.1286 Y-55.5403 F120.00
G01 X14.1285 Y-57.7420 F120.00
G01 X14.1292 Y-57.7459 F120.00
G01 X14.1313 Y-57.7495 F120.00
G01 X14.1346 Y-57.7521 F120.00
G01 X14.1386 Y-57.7534 F120.00
G01 X16.3400 Y-57.7535 F120.00
G01 X16.3444 Y-57.7526 F120.00
G01 X16.3481 Y-57.7501 F120.00
G01 X16.3506 Y-57.7464 F120.00
G01 X16.3515 Y-57.7420 F120.00
G01 X16.3515 Y-55.5420 F120.00
G01 X16.3512 Y-55.5392 F120.00
G01 X16.3497 Y-55.5358 F120.00
G01 X16.3473 Y-55.5331 F120.00
G01 X16.3439 Y-55.5312 F120.00
G01 X16.3403 Y-55.5305 F120.00
G01 X15.7518 Y-55.5305 F120.00
G01 X15.7517 Y-53.3394 F120.00
G01 X15.7493 Y-53.2898 F120.00
G01 X15.7419 Y-53.2402 F120.00
G01 X15.7297 Y-53.1914 F120.00
G01 X15.7130 Y-53.1447 F120.00
G01 X15.6910 Y-53.0983 F120.00
G01 X15.6655 Y-53.0557 F120.00
G01 X15.6358 Y-53.0156 F120.00
G01 X15.6019 Y-52.9781 F120.00
G01 X9.6558 Y-47.0320 F120.00
G01 X9.6558 Y-46.3179 F120.00
G01 X9.6684 Y-46.3118 F120.00
G01 X9.7615 Y-46.2560 F120.00
G01 X9.8496 Y-46.1907 F120.00
G01 X9.9299 Y-46.1178 F120.00
G01 X10.0028 Y-46.0374 F120.00
G01 X10.0685 Y-45.9489 F120.00
G01 X10.1243 Y-45.8558 F120.00
G01 X10.1707 Y-45.7577 F120.00
G01 X10.2076 Y-45.6545 F120.00
G01 X10.2342 Y-45.5481 F120.00
G01 X10.2501 Y-45.4408 F120.00
G01 X10.2555 Y-45.3321 F120.00
G01 X10.2501 Y-45.2224 F120.00
G01 X10.2341 Y-45.1150 F120.00
G01 X10.2076 Y-45.0092 F120.00
G01 X10.1707 Y-44.9060 F120.00
G01 X10.1243 Y-44.8079 F120.00
G01 X10.0685 Y-44.7148 F120.00
G01 X10.0028 Y-44.6263 F120.00
G01 X9.9299 Y-44.5459 F120.00
G01 X9.8496 Y-44.4730 F120.00
G01 X9.7615 Y-44.4077 F120.00
G01 X9.6684 Y-44.3519 F120.00
G01 X9.6558 Y-44.3458 F120.00
G01 X9.6558 Y-41.6260 F120.00
G01 X9.6684 Y-41.6200 F120.00
G01 X9.7615 Y-41.5642 F120.00
G01 X9.8496 Y-41.4988 F120.00
G01 X9.9299 Y-41.4259 F120.00
G01 X10.0028 Y-41.3456 F120.00
G01 X10.0685 Y-41.2570 F120.00
G01 X10.1243 Y-41.1640 F120.00
G01 X10.1707 Y-41.0659 F120.00
G01 X10.2076 Y-40.9627 F120.00
G01 X10.2342 Y-40.8563 F120.00
G01 X10.2501 Y-40.7489 F120.00
G01 X10.2555 Y-40.6403 F120.00
G01 X10.2501 Y-40.5311 F120.00
G01 X10.2340 Y-40.4226 F120.00
G01 X10.2076 Y-40.3173 F120.00
G01 X10.1711 Y-40.2152 F120.00
G01 X10.1243 Y-40.1160 F120.00
G01 X10.0682 Y-40.0225 F120.00
G01 X10.0028 Y-39.9344 F120.00
G01 X9.9295 Y-39.8537 F120.00
G01 X9.8491 Y-39.7808 F120.00
G01 X9.7847 Y-39.7330 F120.00
G01 X10.8265 Y-38.6912 F120.00
G01 X10.8265 Y-39.1163 F120.00
G01 X10.8272 Y-39.1199 F120.00
G01 X10.8291 Y-39.1233 F120.00
G01 X10.8321 Y-39.1259 F120.00
G01 X10.8358 Y-39.1273 F120.00
G01 X13.0380 Y-39.1275 F120.00
G01 X13.0413 Y-39.1270 F120.00
G01 X13.0442 Y-39.1257 F120.00
G01 X13.0463 Y-39.1239 F120.00
G01 X13.0480 Y-39.1217 F120.00
G01 X13.0491 Y-39.1191 F120.00
G01 X13.0495 Y-39.1160 F120.00
G01 X13.0495 Y-38.5278 F120.00
G01 X13.0983 Y-38.5277 F120.00
G01 X13.1479 Y-38.5253 F120.00
G01 X13.1973 Y-38.5180 F120.00
G01 X13.2466 Y-38.5057 F120.00
G01 X13.2933 Y-38.4890 F120.00
G01 X13.3392 Y-38.4673 F120.00
G01 X13.3823 Y-38.4415 F120.00
G01 X13.4227 Y-38.4116 F120.00
G01 X13.4597 Y-38.3781 F120.00
G01 X16.1099 Y-35.7279 F120.00
G01 X16.1436 Y-35.6907 F120.00
G01 X16.1735 Y-35.6503 F120.00
G01 X16.1993 Y-35.6072 F120.00
G01 X16.2209 Y-35.5616 F120.00
G01 X16.2377 Y-35.5146 F120.00
G01 X16.2499 Y-35.4658 F120.00
G01 X16.2573 Y-35.4162 F120.00
G01 X16.2598 Y-35.3660 F120.00
G01 X16.2598 Y-24.9578 F120.00
G01 X16.2934 Y-24.9662 F120.00
G01 X16.4008 Y-24.9821 F120.00
G01 X16.5097 Y-24.9875 F120.00
G01 X16.6189 Y-24.9821 F120.00
G01 X16.7266 Y-24.9662 F120.00
G01 X16.8327 Y-24.9396 F120.00
G01 X16.9354 Y-24.9029 F120.00
G01 X17.0340 Y-24.8563 F120.00
G01 X17.1277 Y-24.8000 F120.00
G01 X17.2151 Y-24.7352 F120.00
G01 X17.2963 Y-24.6615 F120.00
G01 X17.3695 Y-24.5807 F120.00
G01 X17.4342 Y-24.4935 F120.00
G01 X17.4900 Y-24.4004 F120.00
G01 X17.5369 Y-24.3014 F120.00
G01 X17.5736 Y-24.1987 F120.00
G01 X17.6001 Y-24.0928 F120.00
G01 X17.6162 Y-23.9844 F120.00
G01 X17.6215 Y-23.8760 F120.00
G01 X17.6162 Y-23.7676 F120.00
G01 X17.6001 Y-23.6592 F120.00
G01 X17.5735 Y-23.5528 F120.00
G01 X17.5369 Y-23.4506 F120.00
G01 X17.4903 Y-23.3520 F120.00
G01 X17.4342 Y-23.2585 F120.00
G01 X17.3695 Y-23.1713 F120.00
G01 X17.2959 Y-23.0901 F120.00
G01 X17.2151 Y-23.0168 F120.00
G01 X17.1280 Y-22.9521 F120.00
G01 X17.0344 Y-22.8960 F120.00
G01 X17.0218 Y-22.8900 F120.00
G01 X17.0218 Y-22.0456 F120.00
G01 X17.0875 Y-22.0062 F120.00
G01 X17.1747 Y-21.9415 F120.00
G01 X17.2561 Y-21.8677 F120.00
G01 X17.3292 Y-21.7871 F120.00
G01 X17.3939 Y-21.7000 F120.00
G01 X17.4503 Y-21.6060 F120.00
G01 X17.4971 Y-21.5068 F120.00
G01 X17.5336 Y-21.4047 F120.00
G01 X17.5601 Y-21.2988 F120.00
G01 X17.5762 Y-21.1904 F120.00
G01 X17.5815 Y-21.0820 F120.00
G01 X17.5771 Y-20.9926 F120.00
G01 X19.4242 Y-19.1455 F120.00
G01 X20.9120 Y-19.1455 F120.00
G01 X20.9159 Y-19.1448 F120.00
G01 X20.9195 Y-19.1427 F120.00
G01 X20.9221 Y-19.1394 F120.00
G01 X20.9234 Y-19.1354 F120.00
G01 X20.9235 Y-16.9340 F120.00
G01 X20.9226 Y-16.9296 F120.00
G01 X20.9201 Y-16.9259 F120.00
G01 X20.9164 Y-16.9234 F120.00
G01 X20.9120 Y-16.9225 F120.00
G01 X18.7120 Y-16.9225 F120.00
G01 X18.7076 Y-16.9234 F120.00
G01 X18.7039 Y-16.9259 F120.00
G01 X18.7014 Y-16.9296 F120.00
G01 X18.7005 Y-16.9340 F120.00
G00 Z2.0000
G00 X26.3329 Y-13.2894
G01 F60.00
G01 Z-0.0870
G01 F120.00
G01 X26.3079 Y-13.3143 F120.00
G01 X26.2742 Y-13.3516 F120.00
G01 X26.2445 Y-13.3917 F120.00
G01 X26.2185 Y-13.4350 F120.00
G01 X26.1972 Y-13.4802 F120.00
G01 X26.1803 Y-13.5274 F120.00
G01 X26.1681 Y-13.5762 F120.00
G01 X26.1607 Y-13.6256 F120.00
G01 X26.1582 Y-13.6760 F120.00
G01 X26.1582 Y-14.7740 F120.00
G01 X25.2921 Y-15.6401 F120.00
G01 X25.2584 Y-15.6773 F120.00
G01 X25.2285 Y-15.7177 F120.00
G01 X25.2030 Y-15.7603 F120.00
G01 X25.1810 Y-15.8067 F120.00
G01 X25.1643 Y-15.8534 F120.00
G01 X25.1521 Y-15.9022 F120.00
G01 X25.1447 Y-15.9518 F120.00
G01 X25.1423 Y-16.0014 F120.00
G01 X25.1422 Y-22.9020 F120.00
G01 X25.0379 Y-23.0063 F120.00
G01 X25.0046 Y-23.0431 F120.00
G01 X24.9745 Y-23.0837 F120.00
G01 X24.9487 Y-23.1268 F120.00
G01 X24.9270 Y-23.1727 F120.00
G01 X24.9103 Y-23.2194 F120.00
G01 X24.8982 Y-23.2676 F120.00
G01 X24.8907 Y-23.3178 F120.00
G01 X24.8882 Y-23.3680 F120.00
G01 X24.8882 Y-55.5305 F120.00
G01 X24.2997 Y-55.5305 F120.00
G01 X24.2961 Y-55.5312 F120.00
G01 X24.2929 Y-55.5329 F120.00
G01 X24.2904 Y-55.5356 F120.00
G01 X24.2889 Y-55.5389 F120.00
G01 X24.2885 Y-55.5420 F120.00
G01 X24.2885 Y-57.7420 F120.00
G01 X24.2893 Y-57.7461 F120.00
G01 X24.2917 Y-57.7499 F120.00
G01 X24.2953 Y-57.7525 F120.00
G01 X24.2994 Y-57.7535 F120.00
G01 X26.5000 Y-57.7535 F120.00
G01 X26.5041 Y-57.7527 F120.00
G01 X26.5077 Y-57.7505 F120.00
G01 X26.5103 Y-57.7472 F120.00
G01 X26.5114 Y-57.7431 F120.00
G01 X26.5115 Y-55.5420 F120.00
G01 X26.5111 Y-55.5389 F120.00
G01 X26.5096 Y-55.5356 F120.00
G01 X26.5071 Y-55.5329 F120.00
G01 X26.5039 Y-55.5312 F120.00
G01 X26.5003 Y-55.5305 F120.00
G01 X25.9118 Y-55.5305 F120.00
G01 X25.9118 Y-23.5800 F120.00
G01 X26.0161 Y-23.4757 F120.00
G01 X26.0494 Y-23.4389 F120.00
G01 X26.0795 Y-23.3983 F120.00
G01 X26.1053 Y-23.3552 F120.00
G01 X26.1268 Y-23.3098 F120.00
G01 X26.1439 Y-23.2620 F120.00
G01 X26.1559 Y-23.2138 F120.00
G01 X26.1632 Y-23.1647 F120.00
G01 X26.1657 Y-23.1143 F120.00
G01 X26.1658 Y-16.2140 F120.00
G01 X27.0321 Y-15.3477 F120.00
G01 X27.0656 Y-15.3107 F120.00
G01 X27.0955 Y-15.2703 F120.00
G01 X27.1213 Y-15.2272 F120.00
G01 X27.1426 Y-15.1824 F120.00
G01 X27.1597 Y-15.1346 F120.00
G01 X27.1719 Y-15.0858 F120.00
G01 X27.1793 Y-15.0362 F120.00
G01 X27.1817 Y-14.9863 F120.00
G01 X27.1818 Y-14.0451 F120.00
G01 X27.2831 Y-14.0601 F120.00
G01 X27.3914 Y-14.0655 F120.00
G01 X27.5009 Y-14.0601 F120.00
G01 X27.6088 Y-14.0441 F120.00
G01 X27.7141 Y-14.0178 F120.00
G01 X27.8174 Y-13.9809 F120.00
G01 X27.9164 Y-13.9340 F120.00
G01 X28.0095 Y-13.8782 F120.00
G01 X28.0971 Y-13.8132 F120.00
G01 X28.1779 Y-13.7399 F120.00
G01 X28.2508 Y-13.6596 F120.00
G01 X28.3163 Y-13.5713 F120.00
G01 X28.3723 Y-13.4780 F120.00
G01 X28.4191 Y-13.3788 F120.00
G01 X28.4558 Y-13.2761 F120.00
G01 X28.4821 Y-13.1708 F120.00
G01 X28.4981 Y-13.0635 F120.00
G01 X28.5035 Y-12.9540 F120.00
G01 X28.4981 Y-12.8451 F120.00
G01 X28.4821 Y-12.7372 F120.00
G01 X28.4556 Y-12.6313 F120.00
G01 X28.4189 Y-12.5286 F120.00
G01 X28.3723 Y-12.4300 F120.00
G01 X28.3162 Y-12.3365 F120.00
G01 X28.2512 Y-12.2489 F120.00
G01 X28.1779 Y-12.1681 F120.00
G01 X28.0971 Y-12.0948 F120.00
G01 X28.0095 Y-12.0298 F120.00
G01 X27.9160 Y-11.9737 F120.00
G01 X27.8174 Y-11.9271 F120.00
G01 X27.7147 Y-11.8904 F120.00
G01 X27.6088 Y-11.8639 F120.00
G01 X27.5009 Y-11.8479 F120.00
G01 X27.3920 Y-11.8425 F120.00
G01 X27.2831 Y-11.8479 F120.00
G01 X27.1752 Y-11.8639 F120.00
G01 X27.0693 Y-11.8904 F120.00
G01 X26.9666 Y-11.9271 F120.00
G01 X26.8680 Y-11.9737 F120.00
G01 X26.7745 Y-12.0298 F120.00
G01 X26.6869 Y-12.0948 F120.00
G01 X26.6061 Y-12.1681 F120.00
G01 X26.5328 Y-12.2489 F120.00
G01 X26.4678 Y-12.3365 F120.00
G01 X26.4117 Y-12.4300 F120.00
G01 X26.3651 Y-12.5286 F120.00
G01 X26.3284 Y-12.6313 F120.00
G01 X26.3019 Y-12.7372 F120.00
G01 X26.2859 Y-12.8451 F120.00
G01 X26.2805 Y-12.9540 F120.00
G01 X26.2859 Y-13.0629 F120.00
G01 X26.3019 Y-13.1708 F120.00
G01 X26.3282 Y-13.2761 F120.00
G01 X26.3329 Y-13.2894 F120.00
G00 Z2.0000
G00 X30.0520 Y0.0115
G01 F60.00
G01 Z-0.0870
G01 F120.00
G01 X0.1740 Y0.0115 F120.00
G01 X0.1520 Y0.0102 F120.00
G01 X0.1495 Y0.0097 F120.00
G01 X0.0691 Y-0.0210 F120.00
G01 X0.0665 Y-0.0232 F120.00
G01 X0.0113 Y-0.0855 F120.00
G01 X0.0096 Y-0.0880 F120.00
G01 X0.0088 Y-0.0904 F120.00
G01 X-0.0112 Y-0.1712 F120.00
G01 X-0.0115 Y-0.1740 F120.00
G01 X-0.0115 Y-59.5160 F120.00
G01 X-0.0102 Y-59.5380 F120.00
G01 X-0.0097 Y-59.5405 F120.00
G01 X0.0210 Y-59.6209 F120.00
G01 X0.0232 Y-59.6235 F120.00
G01 X0.0855 Y-59.6787 F120.00
G01 X0.0880 Y-59.6804 F120.00
G01 X0.0904 Y-59.6812 F120.00
G01 X0.1712 Y-59.7012 F120.00
G01 X0.1740 Y-59.7015 F120.00
G01 X30.0520 Y-59.7015 F120.00
G01 X30.0740 Y-59.7002 F120.00
G01 X30.0765 Y-59.6997 F120.00
G01 X30.1569 Y-59.6690 F120.00
G01 X30.1595 Y-59.6668 F120.00
G01 X30.2147 Y-59.6045 F120.00
G01 X30.2164 Y-59.6020 F120.00
G01 X30.2172 Y-59.5996 F120.00
G01 X30.2372 Y-59.5188 F120.00
G01 X30.2375 Y-59.5160 F120.00
G01 X30.2375 Y-0.1740 F120.00
G01 X30.2362 Y-0.1520 F120.00
G01 X30.2357 Y-0.1495 F120.00
G01 X30.2060 Y-0.0711 F120.00
G01 X30.2048 Y-0.0689 F120.00
G01 X30.2032 Y-0.0669 F120.00
G01 X30.1405 Y-0.0113 F120.00
G01 X30.1382 Y-0.0097 F120.00
G01 X30.1356 Y-0.0088 F120.00
G01 X30.0548 Y0.0112 F120.00
G01 X30.0520 Y0.0115 F120.00
G00 Z2.0000
G00 X10.3816 Y-20.8583
G01 F60.00
G01 Z-0.0870
G01 F120.00
G01 X10.0009 Y-20.4777 F120.00
G01 X9.9546 Y-20.5896 F120.00
G01 X9.8962 Y-20.8327 F120.00
G01 X9.8766 Y-21.0820 F120.00
G01 X9.8962 Y-21.3313 F120.00
G01 X9.9546 Y-21.5744 F120.00
G01 X10.0009 Y-21.6863 F120.00
G01 X10.3816 Y-21.3057 F120.00
G01 X10.3798 Y-21.2983 F120.00
G01 X10.3639 Y-21.1909 F120.00
G01 X10.3585 Y-21.0820 F120.00
G01 X10.3639 Y-20.9731 F120.00
G01 X10.3798 Y-20.8657 F120.00
G01 X10.3816 Y-20.8583 F120.00
G00 Z2.0000
G00 X11.2463 Y-22.1705
G01 F60.00
G01 Z-0.0870
G01 F120.00
G01 X10.9578 Y-22.4590 F120.00
G01 X11.2863 Y-22.7875 F120.00
G01 X11.2937 Y-22.7858 F120.00
G01 X11.4011 Y-22.7699 F120.00
G01 X11.5100 Y-22.7645 F120.00
G01 X11.6189 Y-22.7699 F120.00
G01 X11.7263 Y-22.7858 F120.00
G01 X11.7337 Y-22.7876 F120.00
G01 X12.0222 Y-22.4990 F120.00
G01 X11.6937 Y-22.1704 F120.00
G01 X11.6863 Y-22.1722 F120.00
G01 X11.5789 Y-22.1881 F120.00
G01 X11.4700 Y-22.1935 F120.00
G01 X11.3611 Y-22.1881 F120.00
G01 X11.2537 Y-22.1722 F120.00
G01 X11.2463 Y-22.1705 F120.00
G00 Z2.0000
G00 X10.4216 Y-23.6523
G01 F60.00
G01 Z-0.0870
G01 F120.00
G01 X10.0409 Y-23.2717 F120.00
G01 X9.9946 Y-23.3836 F120.00
G01 X9.9362 Y-23.6267 F120.00
G01 X9.9166 Y-23.8760 F120.00
G01 X9.9362 Y-24.1253 F120.00
G01 X9.9946 Y-24.3684 F120.00
G01 X10.0409 Y-24.4803 F120.00
G01 X10.4216 Y-24.0997 F120.00
G01 X10.4198 Y-24.0923 F120.00
G01 X10.4039 Y-23.9849 F120.00
G01 X10.3985 Y-23.8760 F120.00
G01 X10.4039 Y-23.7671 F120.00
G01 X10.4198 Y-23.6597 F120.00
G01 X10.4216 Y-23.6523 F120.00
G00 Z2.0000
G00 X11.2863 Y-24.9644
G01 F60.00
G01 Z-0.0870
G01 F120.00
G01 X10.9057 Y-25.3451 F120.00
G01 X11.0176 Y-25.3914 F120.00
G01 X11.2607 Y-25.4498 F120.00
G01 X11.5100 Y-25.4694 F120.00
G01 X11.7593 Y-25.4498 F120.00
G01 X12.0024 Y-25.3914 F120.00
G01 X12.1143 Y-25.3451 F120.00
G01 X11.7337 Y-24.9644 F120.00
G01 X11.7263 Y-24.9662 F120.00
G01 X11.6189 Y-24.9821 F120.00
G01 X11.5100 Y-24.9875 F120.00
G01 X11.4011 Y-24.9821 F120.00
G01 X11.2937 Y-24.9662 F120.00
G01 X11.2863 Y-24.9644 F120.00
G00 Z2.0000
G00 X10.8265 Y-26.7560
G01 F60.00
G01 Z-0.0870
G01 F120.00
G01 X10.8265 Y-27.3442 F120.00
G01 X9.7360 Y-27.3442 F120.00
G01 X9.6858 Y-27.3467 F120.00
G01 X9.6362 Y-27.3541 F120.00
G01 X9.5880 Y-27.3661 F120.00
G01 X9.5396 Y-27.3834 F120.00
G01 X9.4948 Y-27.4047 F120.00
G01 X9.4517 Y-27.4305 F120.00
G01 X9.4113 Y-27.4604 F120.00
G01 X9.3745 Y-27.4937 F120.00
G01 X3.4479 Y-33.4203 F120.00
G01 X3.4144 Y-33.4573 F120.00
G01 X3.3848 Y-33.4972 F120.00
G01 X3.3584 Y-33.5413 F120.00
G01 X3.3372 Y-33.5862 F120.00
G01 X3.3203 Y-33.6334 F120.00
G01 X3.3081 Y-33.6822 F120.00
G01 X3.3008 Y-33.7313 F120.00
G01 X3.2982 Y-33.7820 F120.00
G01 X3.2982 Y-51.3080 F120.00
G01 X3.3007 Y-51.3584 F120.00
G01 X3.3081 Y-51.4078 F120.00
G01 X3.3203 Y-51.4566 F120.00
G01 X3.3372 Y-51.5038 F120.00
G01 X3.3584 Y-51.5487 F120.00
G01 X3.3848 Y-51.5928 F120.00
G01 X3.4144 Y-51.6327 F120.00
G01 X3.4479 Y-51.6697 F120.00
G01 X7.1082 Y-55.3300 F120.00
G01 X7.1082 Y-55.5305 F120.00
G01 X6.5197 Y-55.5305 F120.00
G01 X6.5161 Y-55.5312 F120.00
G01 X6.5129 Y-55.5329 F120.00
G01 X6.5104 Y-55.5356 F120.00
G01 X6.5088 Y-55.5392 F120.00
G01 X6.5085 Y-55.5420 F120.00
G01 X6.5085 Y-57.7420 F120.00
G01 X6.5092 Y-57.7459 F120.00
G01 X6.5113 Y-57.7495 F120.00
G01 X6.5143 Y-57.7520 F120.00
G01 X6.5183 Y-57.7534 F120.00
G01 X8.7200 Y-57.7535 F120.00
G01 X8.7244 Y-57.7526 F120.00
G01 X8.7281 Y-57.7501 F120.00
G01 X8.7306 Y-57.7464 F120.00
G01 X8.7315 Y-57.7420 F120.00
G01 X8.7314 Y-55.5409 F120.00
G01 X8.7303 Y-55.5368 F120.00
G01 X8.7279 Y-55.5337 F120.00
G01 X8.7244 Y-55.5314 F120.00
G01 X8.7203 Y-55.5305 F120.00
G01 X8.1318 Y-55.5305 F120.00
G01 X8.1317 Y-55.1177 F120.00
G01 X8.1293 Y-55.0678 F120.00
G01 X8.1220 Y-55.0187 F120.00
G01 X8.1097 Y-54.9694 F120.00
G01 X8.0926 Y-54.9216 F120.00
G01 X8.0713 Y-54.8768 F120.00
G01 X8.0458 Y-54.8342 F120.00
G01 X8.0154 Y-54.7931 F120.00
G01 X7.9819 Y-54.7561 F120.00
G01 X4.3218 Y-51.0960 F120.00
G01 X4.3218 Y-33.9940 F120.00
G01 X9.9480 Y-28.3678 F120.00
G01 X10.8265 Y-28.3678 F120.00
G01 X10.8265 Y-28.9563 F120.00
G01 X10.8272 Y-28.9599 F120.00
G01 X10.8291 Y-28.9633 F120.00
G01 X10.8321 Y-28.9659 F120.00
G01 X10.8358 Y-28.9673 F120.00
G01 X13.0380 Y-28.9675 F120.00
G01 X13.0427 Y-28.9665 F120.00
G01 X13.0465 Y-28.9637 F120.00
G01 X13.0487 Y-28.9601 F120.00
G01 X13.0495 Y-28.9560 F120.00
G01 X13.0495 Y-26.7560 F120.00
G01 X13.0486 Y-26.7516 F120.00
G01 X13.0461 Y-26.7479 F120.00
G01 X13.0424 Y-26.7454 F120.00
G01 X13.0380 Y-26.7445 F120.00
G01 X10.8380 Y-26.7445 F120.00
G01 X10.8336 Y-26.7454 F120.00
G01 X10.8299 Y-26.7479 F120.00
G01 X10.8274 Y-26.7516 F120.00
G01 X10.8265 Y-26.7560 F120.00
G00 Z2.0000
G00 X10.8265 Y-29.2960
G01 F60.00
G01 Z-0.0870
G01 F120.00
G01 X10.8265 Y-29.8842 F120.00
G01 X10.2440 Y-29.8842 F120.00
G01 X10.1936 Y-29.8867 F120.00
G01 X10.1442 Y-29.8941 F120.00
G01 X10.0960 Y-29.9061 F120.00
G01 X10.0482 Y-29.9232 F120.00
G01 X10.0028 Y-29.9447 F120.00
G01 X9.9602 Y-29.9702 F120.00
G01 X9.9189 Y-30.0008 F120.00
G01 X9.8821 Y-30.0341 F120.00
G01 X5.2259 Y-34.6903 F120.00
G01 X5.1924 Y-34.7273 F120.00
G01 X5.1625 Y-34.7677 F120.00
G01 X5.1367 Y-34.8108 F120.00
G01 X5.1154 Y-34.8556 F120.00
G01 X5.0981 Y-34.9040 F120.00
G01 X5.0861 Y-34.9522 F120.00
G01 X5.0787 Y-35.0021 F120.00
G01 X5.0762 Y-35.0520 F120.00
G01 X5.0762 Y-50.6466 F120.00
G01 X5.0787 Y-50.6968 F120.00
G01 X5.0860 Y-50.7462 F120.00
G01 X5.0985 Y-50.7957 F120.00
G01 X5.1152 Y-50.8424 F120.00
G01 X5.1367 Y-50.8878 F120.00
G01 X5.1628 Y-50.9314 F120.00
G01 X5.1924 Y-50.9713 F120.00
G01 X5.2259 Y-51.0083 F120.00
G01 X9.6482 Y-55.4306 F120.00
G01 X9.6482 Y-55.5305 F120.00
G01 X9.0597 Y-55.5305 F120.00
G01 X9.0561 Y-55.5312 F120.00
G01 X9.0529 Y-55.5329 F120.00
G01 X9.0504 Y-55.5356 F120.00
G01 X9.0488 Y-55.5392 F120.00
G01 X9.0485 Y-55.5420 F120.00
G01 X9.0485 Y-57.7420 F120.00
G01 X9.0493 Y-57.7461 F120.00
G01 X9.0515 Y-57.7497 F120.00
G01 X9.0551 Y-57.7524 F120.00
G01 X9.0592 Y-57.7535 F120.00
G01 X11.2600 Y-57.7535 F120.00
G01 X11.2644 Y-57.7526 F120.00
G01 X11.2681 Y-57.7501 F120.00
G01 X11.2706 Y-57.7464 F120.00
G01 X11.2715 Y-57.7420 F120.00
G01 X11.2714 Y-55.5406 F120.00
G01 X11.2701 Y-55.5366 F120.00
G01 X11.2677 Y-55.5335 F120.00
G01 X11.2644 Y-55.5314 F120.00
G01 X11.2603 Y-55.5305 F120.00
G01 X10.6718 Y-55.5305 F120.00
G01 X10.6717 Y-55.2183 F120.00
G01 X10.6693 Y-55.1684 F120.00
G01 X10.6620 Y-55.1190 F120.00
G01 X10.6495 Y-55.0695 F120.00
G01 X10.6328 Y-55.0228 F120.00
G01 X10.6116 Y-54.9779 F120.00
G01 X10.5855 Y-54.9343 F120.00
G01 X10.5552 Y-54.8935 F120.00
G01 X10.5219 Y-54.8567 F120.00
G01 X6.0998 Y-50.4346 F120.00
G01 X6.0998 Y-35.2640 F120.00
G01 X10.4560 Y-30.9078 F120.00
G01 X10.8265 Y-30.9078 F120.00
G01 X10.8265 Y-31.4963 F120.00
G01 X10.8272 Y-31.4999 F120.00
G01 X10.8291 Y-31.5033 F120.00
G01 X10.8321 Y-31.5059 F120.00
G01 X10.8355 Y-31.5072 F120.00
G01 X10.8380 Y-31.5075 F120.00
G01 X13.0380 Y-31.5075 F120.00
G01 X13.0405 Y-31.5072 F120.00
G01 X13.0432 Y-31.5063 F120.00
G01 X13.0453 Y-31.5049 F120.00
G01 X13.0471 Y-31.5031 F120.00
G01 X13.0489 Y-31.4996 F120.00
G01 X13.0495 Y-31.4960 F120.00
G01 X13.0495 Y-29.2960 F120.00
G01 X13.0486 Y-29.2916 F120.00
G01 X13.0461 Y-29.2879 F120.00
G01 X13.0424 Y-29.2854 F120.00
G01 X13.0380 Y-29.2845 F120.00
G01 X10.8380 Y-29.2845 F120.00
G01 X10.8336 Y-29.2854 F120.00
G01 X10.8299 Y-29.2879 F120.00
G01 X10.8274 Y-29.2916 F120.00
G01 X10.8265 Y-29.2960 F120.00
G00 Z2.0000
G00 X8.0556 Y-35.4163
G01 F60.00
G01 Z-0.0870
G01 F120.00
G01 X7.6749 Y-35.0357 F120.00
G01 X7.6286 Y-35.1476 F120.00
G01 X7.5702 Y-35.3907 F120.00
G01 X7.5506 Y-35.6400 F120.00
G01 X7.5702 Y-35.8893 F120.00
G01 X7.6286 Y-36.1324 F120.00
G01 X7.6749 Y-36.2443 F120.00
G01 X8.0556 Y-35.8637 F120.00
G01 X8.0538 Y-35.8563 F120.00
G01 X8.0379 Y-35.7489 F120.00
G01 X8.0325 Y-35.6400 F120.00
G01 X8.0379 Y-35.5311 F120.00
G01 X8.0538 Y-35.4237 F120.00
G01 X8.0556 Y-35.4163 F120.00
G00 Z2.0000
G00 X10.8265 Y-41.9960
G01 F60.00
G01 Z-0.0870
G01 F120.00
G01 X10.8265 Y-44.1960 F120.00
G01 X10.8272 Y-44.1999 F120.00
G01 X10.8289 Y-44.2031 F120.00
G01 X10.8307 Y-44.2049 F120.00
G01 X10.8328 Y-44.2063 F120.00
G01 X10.8352 Y-44.2072 F120.00
G01 X10.8380 Y-44.2075 F120.00
G01 X13.0380 Y-44.2075 F120.00
G01 X13.0408 Y-44.2072 F120.00
G01 X13.0442 Y-44.2057 F120.00
G01 X13.0469 Y-44.2033 F120.00
G01 X13.0488 Y-44.1999 F120.00
G01 X13.0495 Y-44.1963 F120.00
G01 X13.0495 Y-43.6078 F120.00
G01 X13.1200 Y-43.6078 F120.00
G01 X13.9662 Y-44.4540 F120.00
G01 X13.9663 Y-47.2443 F120.00
G01 X13.9687 Y-47.2942 F120.00
G01 X13.9760 Y-47.3433 F120.00
G01 X13.9883 Y-47.3926 F120.00
G01 X14.0052 Y-47.4398 F120.00
G01 X14.0264 Y-47.4847 F120.00
G01 X14.0525 Y-47.5283 F120.00
G01 X14.0824 Y-47.5687 F120.00
G01 X14.1161 Y-47.6059 F120.00
G01 X19.8082 Y-53.2980 F120.00
G01 X19.8082 Y-55.5305 F120.00
G01 X19.2197 Y-55.5305 F120.00
G01 X19.2161 Y-55.5312 F120.00
G01 X19.2129 Y-55.5329 F120.00
G01 X19.2104 Y-55.5356 F120.00
G01 X19.2089 Y-55.5389 F120.00
G01 X19.2085 Y-55.5420 F120.00
G01 X19.2085 Y-57.7420 F120.00
G01 X19.2090 Y-57.7453 F120.00
G01 X19.2104 Y-57.7484 F120.00
G01 X19.2123 Y-57.7505 F120.00
G01 X19.2146 Y-57.7521 F120.00
G01 X19.2172 Y-57.7532 F120.00
G01 X19.2200 Y-57.7535 F120.00
G01 X21.4200 Y-57.7535 F120.00
G01 X21.4233 Y-57.7530 F120.00
G01 X21.4264 Y-57.7516 F120.00
G01 X21.4285 Y-57.7497 F120.00
G01 X21.4301 Y-57.7474 F120.00
G01 X21.4312 Y-57.7448 F120.00
G01 X21.4315 Y-57.7420 F120.00
G01 X21.4315 Y-55.5420 F120.00
G01 X21.4311 Y-55.5389 F120.00
G01 X21.4296 Y-55.5356 F120.00
G01 X21.4271 Y-55.5329 F120.00
G01 X21.4239 Y-55.5312 F120.00
G01 X21.4203 Y-55.5305 F120.00
G01 X20.8318 Y-55.5305 F120.00
G01 X20.8317 Y-53.0857 F120.00
G01 X20.8293 Y-53.0358 F120.00
G01 X20.8219 Y-52.9862 F120.00
G01 X20.8097 Y-52.9374 F120.00
G01 X20.7926 Y-52.8896 F120.00
G01 X20.7713 Y-52.8448 F120.00
G01 X20.7455 Y-52.8017 F120.00
G01 X20.7156 Y-52.7613 F120.00
G01 X20.6819 Y-52.7241 F120.00
G01 X14.9898 Y-47.0320 F120.00
G01 X14.9897 Y-44.2417 F120.00
G01 X14.9873 Y-44.1918 F120.00
G01 X14.9800 Y-44.1427 F120.00
G01 X14.9677 Y-44.0934 F120.00
G01 X14.9508 Y-44.0462 F120.00
G01 X14.9296 Y-44.0013 F120.00
G01 X14.9035 Y-43.9577 F120.00
G01 X14.8736 Y-43.9173 F120.00
G01 X14.8399 Y-43.8801 F120.00
G01 X13.6939 Y-42.7341 F120.00
G01 X13.6567 Y-42.7004 F120.00
G01 X13.6168 Y-42.6708 F120.00
G01 X13.5732 Y-42.6447 F120.00
G01 X13.5278 Y-42.6232 F120.00
G01 X13.4806 Y-42.6063 F120.00
G01 X13.4313 Y-42.5940 F120.00
G01 X13.3822 Y-42.5867 F120.00
G01 X13.3323 Y-42.5843 F120.00
G01 X13.0495 Y-42.5842 F120.00
G01 X13.0495 Y-41.9960 F120.00
G01 X13.0491 Y-41.9929 F120.00
G01 X13.0477 Y-41.9898 F120.00
G01 X13.0457 Y-41.9875 F120.00
G01 X13.0429 Y-41.9856 F120.00
G01 X13.0405 Y-41.9848 F120.00
G01 X13.0380 Y-41.9845 F120.00
G01 X10.8380 Y-41.9845 F120.00
G01 X10.8336 Y-41.9854 F120.00
G01 X10.8299 Y-41.9879 F120.00
G01 X10.8274 Y-41.9916 F120.00
G01 X10.8265 Y-41.9960 F120.00
G00 Z2.0000
G00 X10.8265 Y-44.5360
G01 F60.00
G01 Z-0.0870
G01 F120.00
G01 X10.8267 Y-46.7382 F120.00
G01 X10.8281 Y-46.7419 F120.00
G01 X10.8307 Y-46.7449 F120.00
G01 X10.8341 Y-46.7468 F120.00
G01 X10.8377 Y-46.7475 F120.00
G01 X11.4262 Y-46.7475 F120.00
G01 X11.4262 Y-47.4980 F120.00
G01 X11.4287 Y-47.5479 F120.00
G01 X11.4362 Y-47.5984 F120.00
G01 X11.4483 Y-47.6466 F120.00
G01 X11.4650 Y-47.6933 F120.00
G01 X11.4867 Y-47.7392 F120.00
G01 X11.5127 Y-47.7825 F120.00
G01 X11.5424 Y-47.8227 F120.00
G01 X11.5761 Y-47.8599 F120.00
G01 X17.2682 Y-53.5520 F120.00
G01 X17.2682 Y-55.5305 F120.00
G01 X16.6797 Y-55.5305 F120.00
G01 X16.6759 Y-55.5313 F120.00
G01 X16.6723 Y-55.5335 F120.00
G01 X16.6699 Y-55.5366 F120.00
G01 X16.6686 Y-55.5403 F120.00
G01 X16.6685 Y-57.7420 F120.00
G01 X16.6689 Y-57.7451 F120.00
G01 X16.6701 Y-57.7479 F120.00
G01 X16.6719 Y-57.7501 F120.00
G01 X16.6743 Y-57.7520 F120.00
G01 X16.6772 Y-57.7532 F120.00
G01 X16.6800 Y-57.7535 F120.00
G01 X18.8800 Y-57.7535 F120.00
G01 X18.8831 Y-57.7531 F120.00
G01 X18.8859 Y-57.7519 F120.00
G01 X18.8883 Y-57.7499 F120.00
G01 X18.8900 Y-57.7477 F120.00
G01 X18.8912 Y-57.7448 F120.00
G01 X18.8915 Y-57.7420 F120.00
G01 X18.8914 Y-55.5403 F120.00
G01 X18.8901 Y-55.5366 F120.00
G01 X18.8877 Y-55.5335 F120.00
G01 X18.8844 Y-55.5314 F120.00
G01 X18.8803 Y-55.5305 F120.00
G01 X18.2918 Y-55.5305 F120.00
G01 X18.2917 Y-53.3397 F120.00
G01 X18.2893 Y-53.2898 F120.00
G01 X18.2820 Y-53.2407 F120.00
G01 X18.2697 Y-53.1914 F120.00
G01 X18.2526 Y-53.1436 F120.00
G01 X18.2313 Y-53.0988 F120.00
G01 X18.2058 Y-53.0562 F120.00
G01 X18.1756 Y-53.0153 F120.00
G01 X18.1419 Y-52.9781 F120.00
G01 X12.4498 Y-47.2860 F120.00
G01 X12.4498 Y-46.7475 F120.00
G01 X13.0383 Y-46.7475 F120.00
G01 X13.0421 Y-46.7467 F120.00
G01 X13.0453 Y-46.7449 F120.00
G01 X13.0479 Y-46.7419 F120.00
G01 X13.0492 Y-46.7385 F120.00
G01 X13.0495 Y-46.7360 F120.00
G01 X13.0495 Y-44.5360 F120.00
G01 X13.0491 Y-44.5329 F120.00
G01 X13.0479 Y-44.5301 F120.00
G01 X13.0461 Y-44.5279 F120.00
G01 X13.0437 Y-44.5260 F120.00
G01 X13.0408 Y-44.5248 F120.00
G01 X13.0380 Y-44.5245 F120.00
G01 X10.8380 Y-44.5245 F120.00
G01 X10.8336 Y-44.5254 F120.00
G01 X10.8299 Y-44.5279 F120.00
G01 X10.8274 Y-44.5316 F120.00
G01 X10.8265 Y-44.5360 F120.00
G00 Z2.0000
G00 X18.4465 Y-44.5360
G01 F60.00
G01 Z-0.0870
G01 F120.00
G01 X18.4465 Y-46.7360 F120.00
G01 X18.4474 Y-46.7404 F120.00
G01 X18.4499 Y-46.7441 F120.00
G01 X18.4536 Y-46.7466 F120.00
G01 X18.4580 Y-46.7475 F120.00
G01 X20.6580 Y-46.7475 F120.00
G01 X20.6624 Y-46.7466 F120.00
G01 X20.6661 Y-46.7441 F120.00
G01 X20.6686 Y-46.7404 F120.00
G01 X20.6695 Y-46.7360 F120.00
G01 X20.6695 Y-44.5360 F120.00
G01 X20.6686 Y-44.5316 F120.00
G01 X20.6661 Y-44.5279 F120.00
G01 X20.6624 Y-44.5254 F120.00
G01 X20.6580 Y-44.5245 F120.00
G01 X18.4580 Y-44.5245 F120.00
G01 X18.4536 Y-44.5254 F120.00
G01 X18.4499 Y-44.5279 F120.00
G01 X18.4474 Y-44.5316 F120.00
G01 X18.4465 Y-44.5360 F120.00
G00 Z2.0000
G00 X18.4465 Y-41.9960
G01 F60.00
G01 Z-0.0870
G01 F120.00
G01 X18.4465 Y-44.1960 F120.00
G01 X18.4474 Y-44.2004 F120.00
G01 X18.4499 Y-44.2041 F120.00
G01 X18.4536 Y-44.2066 F120.00
G01 X18.4580 Y-44.2075 F120.00
G01 X20.6580 Y-44.2075 F120.00
G01 X20.6624 Y-44.2066 F120.00
G01 X20.6661 Y-44.2041 F120.00
G01 X20.6686 Y-44.2004 F120.00
G01 X20.6695 Y-44.1960 F120.00
G01 X20.6695 Y-41.9960 F120.00
G01 X20.6686 Y-41.9916 F120.00
G01 X20.6661 Y-41.9879 F120.00
G01 X20.6624 Y-41.9854 F120.00
G01 X20.6580 Y-41.9845 F120.00
G01 X18.4580 Y-41.9845 F120.00
G01 X18.4536 Y-41.9854 F120.00
G01 X18.4499 Y-41.9879 F120.00
G01 X18.4474 Y-41.9916 F120.00
G01 X18.4465 Y-41.9960 F120.00
G00 Z2.0000
G00 X18.4465 Y-39.4560
G01 F60.00
G01 Z-0.0870
G01 F120.00
G01 X18.4465 Y-41.6560 F120.00
G01 X18.4474 Y-41.6604 F120.00
G01 X18.4499 Y-41.6641 F120.00
G01 X18.4536 Y-41.6666 F120.00
G01 X18.4580 Y-41.6675 F120.00
G01 X20.6580 Y-41.6675 F120.00
G01 X20.6624 Y-41.6666 F120.00
G01 X20.6661 Y-41.6641 F120.00
G01 X20.6686 Y-41.6604 F120.00
G01 X20.6695 Y-41.6560 F120.00
G01 X20.6695 Y-39.4560 F120.00
G01 X20.6686 Y-39.4516 F120.00
G01 X20.6661 Y-39.4479 F120.00
G01 X20.6624 Y-39.4454 F120.00
G01 X20.6580 Y-39.4445 F120.00
G01 X18.4580 Y-39.4445 F120.00
G01 X18.4536 Y-39.4454 F120.00
G01 X18.4499 Y-39.4479 F120.00
G01 X18.4474 Y-39.4516 F120.00
G01 X18.4465 Y-39.4560 F120.00
G00 Z2.0000
G00 X18.4465 Y-34.3760
G01 F60.00
G01 Z-0.0870
G01 F120.00
G01 X18.4465 Y-36.5760 F120.00
G01 X18.4474 Y-36.5804 F120.00
G01 X18.4499 Y-36.5841 F120.00
G01 X18.4536 Y-36.5866 F120.00
G01 X18.4580 Y-36.5875 F120.00
G01 X20.6580 Y-36.5875 F120.00
G01 X20.6624 Y-36.5866 F120.00
G01 X20.6661 Y-36.5841 F120.00
G01 X20.6686 Y-36.5804 F120.00
G01 X20.6695 Y-36.5760 F120.00
G01 X20.6695 Y-34.3760 F120.00
G01 X20.6686 Y-34.3716 F120.00
G01 X20.6661 Y-34.3679 F120.00
G01 X20.6624 Y-34.3654 F120.00
G01 X20.6580 Y-34.3645 F120.00
G01 X18.4580 Y-34.3645 F120.00
G01 X18.4536 Y-34.3654 F120.00
G01 X18.4499 Y-34.3679 F120.00
G01 X18.4474 Y-34.3716 F120.00
G01 X18.4465 Y-34.3760 F120.00
G00 Z2.0000
G00 X18.4465 Y-31.8360
G01 F60.00
G01 Z-0.0870
G01 F120.00
G01 X18.4465 Y-34.0360 F120.00
G01 X18.4474 Y-34.0404 F120.00
G01 X18.4499 Y-34.0441 F120.00
G01 X18.4536 Y-34.0466 F120.00
G01 X18.4580 Y-34.0475 F120.00
G01 X20.6580 Y-34.0475 F120.00
G01 X20.6624 Y-34.0466 F120.00
G01 X20.6661 Y-34.0441 F120.00
G01 X20.6686 Y-34.0404 F120.00
G01 X20.6695 Y-34.0360 F120.00
G01 X20.6695 Y-31.8360 F120.00
G01 X20.6686 Y-31.8316 F120.00
G01 X20.6661 Y-31.8279 F120.00
G01 X20.6624 Y-31.8254 F120.00
G01 X20.6580 Y-31.8245 F120.00
G01 X18.4580 Y-31.8245 F120.00
G01 X18.4536 Y-31.8254 F120.00
G01 X18.4499 Y-31.8279 F120.00
G01 X18.4474 Y-31.8316 F120.00
G01 X18.4465 Y-31.8360 F120.00
G00 Z2.0000
G00 X18.4465 Y-29.2960
G01 F60.00
G01 Z-0.0870
G01 F120.00
G01 X18.4465 Y-31.4960 F120.00
G01 X18.4474 Y-31.5004 F120.00
G01 X18.4499 Y-31.5041 F120.00
G01 X18.4536 Y-31.5066 F120.00
G01 X18.4580 Y-31.5075 F120.00
G01 X20.6580 Y-31.5075 F120.00
G01 X20.6624 Y-31.5066 F120.00
G01 X20.6661 Y-31.5041 F120.00
G01 X20.6686 Y-31.5004 F120.00
G01 X20.6695 Y-31.4960 F120.00
G01 X20.6695 Y-29.2960 F120.00
G01 X20.6686 Y-29.2916 F120.00
G01 X20.6661 Y-29.2879 F120.00
G01 X20.6624 Y-29.2854 F120.00
G01 X20.6580 Y-29.2845 F120.00
G01 X18.4580 Y-29.2845 F120.00
G01 X18.4536 Y-29.2854 F120.00
G01 X18.4499 Y-29.2879 F120.00
G01 X18.4474 Y-29.2916 F120.00
G01 X18.4465 Y-29.2960 F120.00
G00 Z2.0000
G00 X18.4465 Y-26.7560
G01 F60.00
G01 Z-0.0870
G01 F120.00
G01 X18.4465 Y-28.9560 F120.00
G01 X18.4474 Y-28.9604 F120.00
G01 X18.4499 Y-28.9641 F120.00
G01 X18.4536 Y-28.9666 F120.00
G01 X18.4580 Y-28.9675 F120.00
G01 X20.6580 Y-28.9675 F120.00
G01 X20.6624 Y-28.9666 F120.00
G01 X20.6661 Y-28.9641 F120.00
G01 X20.6686 Y-28.9604 F120.00
G01 X20.6695 Y-28.9560 F120.00
G01 X20.6695 Y-26.7560 F120.00
G01 X20.6686 Y-26.7516 F120.00
G01 X20.6661 Y-26.7479 F120.00
G01 X20.6624 Y-26.7454 F120.00
G01 X20.6580 Y-26.7445 F120.00
G01 X18.4580 Y-26.7445 F120.00
G01 X18.4536 Y-26.7454 F120.00
G01 X18.4499 Y-26.7479 F120.00
G01 X18.4474 Y-26.7516 F120.00
G01 X18.4465 Y-26.7560 F120.00
G00 Z2.0000
G00 X27.6763 Y-39.5515
G01 F60.00
G01 Z-0.0870
G01 F120.00
G01 X27.6837 Y-39.5498 F120.00
G01 X27.7911 Y-39.5339 F120.00
G01 X27.9000 Y-39.5285 F120.00
G01 X28.0089 Y-39.5339 F120.00
G01 X28.1163 Y-39.5498 F120.00
G01 X28.1237 Y-39.5515 F120.00
G01 X28.5043 Y-39.1709 F120.00
G01 X28.3924 Y-39.1246 F120.00
G01 X28.1493 Y-39.0662 F120.00
G01 X27.9000 Y-39.0466 F120.00
G01 X27.6507 Y-39.0662 F120.00
G01 X27.4076 Y-39.1246 F120.00
G01 X27.2957 Y-39.1709 F120.00
G01 X27.6763 Y-39.5515 F120.00
G00 Z2.0000
G00 X28.9885 Y-40.4163
G01 F60.00
G01 Z-0.0870
G01 F120.00
G01 X28.9902 Y-40.4237 F120.00
G01 X29.0061 Y-40.5311 F120.00
G01 X29.0115 Y-40.6400 F120.00
G01 X29.0061 Y-40.7489 F120.00
G01 X28.9902 Y-40.8563 F120.00
G01 X28.9885 Y-40.8637 F120.00
G01 X29.3691 Y-41.2443 F120.00
G01 X29.4154 Y-41.1324 F120.00
G01 X29.4738 Y-40.8893 F120.00
G01 X29.4934 Y-40.6400 F120.00
G01 X29.4738 Y-40.3907 F120.00
G01 X29.4154 Y-40.1476 F120.00
G01 X29.3691 Y-40.0357 F120.00
G01 X28.9885 Y-40.4163 F120.00
G00 Z2.0000
G00 X28.1237 Y-41.7284
G01 F60.00
G01 Z-0.0870
G01 F120.00
G01 X28.1163 Y-41.7302 F120.00
G01 X28.0089 Y-41.7461 F120.00
G01 X27.9000 Y-41.7515 F120.00
G01 X27.7911 Y-41.7461 F120.00
G01 X27.6837 Y-41.7302 F120.00
G01 X27.6763 Y-41.7284 F120.00
G01 X27.3678 Y-42.0370 F120.00
G01 X27.6763 Y-42.3455 F120.00
G01 X27.6837 Y-42.3438 F120.00
G01 X27.7911 Y-42.3279 F120.00
G01 X27.9000 Y-42.3225 F120.00
G01 X28.0089 Y-42.3279 F120.00
G01 X28.1163 Y-42.3438 F120.00
G01 X28.1237 Y-42.3456 F120.00
G01 X28.4322 Y-42.0370 F120.00
G01 X28.1237 Y-41.7284 F120.00
G00 Z2.0000
G00 X28.9885 Y-43.2103
G01 F60.00
G01 Z-0.0870
G01 F120.00
G01 X28.9902 Y-43.2177 F120.00
G01 X29.0061 Y-43.3251 F120.00
G01 X29.0115 Y-43.4340 F120.00
G01 X29.0061 Y-43.5429 F120.00
G01 X28.9902 Y-43.6503 F120.00
G01 X28.9885 Y-43.6577 F120.00
G01 X29.3691 Y-44.0383 F120.00
G01 X29.4154 Y-43.9264 F120.00
G01 X29.4738 Y-43.6833 F120.00
G01 X29.4934 Y-43.4340 F120.00
G01 X29.4738 Y-43.1847 F120.00
G01 X29.4154 Y-42.9416 F120.00
G01 X29.3691 Y-42.8297 F120.00
G01 X28.9885 Y-43.2103 F120.00
G00 Z2.0000
G00 X28.1237 Y-44.5224
G01 F60.00
G01 Z-0.0870
G01 F120.00
G01 X28.1163 Y-44.5242 F120.00
G01 X28.0089 Y-44.5401 F120.00
G01 X27.9000 Y-44.5455 F120.00
G01 X27.7911 Y-44.5401 F120.00
G01 X27.6837 Y-44.5242 F120.00
G01 X27.6763 Y-44.5224 F120.00
G01 X27.2957 Y-44.9031 F120.00
G01 X27.4076 Y-44.9494 F120.00
G01 X27.6507 Y-45.0078 F120.00
G01 X27.9000 Y-45.0274 F120.00
G01 X28.1493 Y-45.0078 F120.00
G01 X28.3924 Y-44.9494 F120.00
G01 X28.5043 Y-44.9031 F120.00
G01 X28.1237 Y-44.5224 F120.00
G00 Z2.0000
G00 X1.1884 Y-52.0928
G01 F60.00
G01 Z-0.0870
G01 F120.00
G01 X1.1988 Y-52.1697 F120.00
G01 X1.2079 Y-52.2520 F120.00
G01 X1.2100 Y-52.2626 F120.00
G01 X1.2128 Y-52.2731 F120.00
G01 X1.2413 Y-52.3508 F120.00
G01 X1.2663 Y-52.4250 F120.00
G01 X1.2706 Y-52.4348 F120.00
G01 X1.2756 Y-52.4444 F120.00
G01 X1.3177 Y-52.5104 F120.00
G01 X1.3605 Y-52.5813 F120.00
G01 X1.3669 Y-52.5900 F120.00
G01 X1.3738 Y-52.5983 F120.00
G01 X1.4291 Y-52.6536 F120.00
G01 X1.4861 Y-52.7137 F120.00
G01 X1.4946 Y-52.7213 F120.00
G01 X1.5076 Y-52.7321 F120.00
G01 X3.7779 Y-55.0024 F120.00
G01 X3.7796 Y-55.0046 F120.00
G01 X3.8233 Y-55.0771 F120.00
G01 X3.8243 Y-55.0811 F120.00
G01 X3.8293 Y-55.1642 F120.00
G01 X3.8292 Y-55.1670 F120.00
G01 X3.8284 Y-55.1694 F120.00
G01 X3.7941 Y-55.2456 F120.00
G01 X3.7928 Y-55.2478 F120.00
G01 X3.7779 Y-55.2647 F120.00
G01 X3.7003 Y-55.3423 F120.00
G01 X3.6505 Y-55.4440 F120.00
G01 X3.6410 Y-55.5096 F120.00
G01 X3.6410 Y-57.7744 F120.00
G01 X3.6505 Y-57.8400 F120.00
G01 X3.7003 Y-57.9417 F120.00
G01 X3.7803 Y-58.0217 F120.00
G01 X3.8820 Y-58.0715 F120.00
G01 X3.9476 Y-58.0810 F120.00
G01 X6.2124 Y-58.0810 F120.00
G01 X6.2788 Y-58.0713 F120.00
G01 X6.2928 Y-58.0672 F120.00
G01 X6.2968 Y-58.0674 F120.00
G01 X6.3004 Y-58.0688 F120.00
G01 X6.3525 Y-58.0575 F120.00
G01 X6.3550 Y-58.0573 F120.00
G01 X6.3577 Y-58.0576 F120.00
G01 X6.4007 Y-58.0682 F120.00
G01 X6.4041 Y-58.0672 F120.00
G01 X6.4074 Y-58.0672 F120.00
G01 X6.4211 Y-58.0713 F120.00
G01 X6.4876 Y-58.0810 F120.00
G01 X8.7524 Y-58.0810 F120.00
G01 X8.8188 Y-58.0713 F120.00
G01 X8.8328 Y-58.0672 F120.00
G01 X8.8368 Y-58.0674 F120.00
G01 X8.8404 Y-58.0688 F120.00
G01 X8.8925 Y-58.0575 F120.00
G01 X8.8950 Y-58.0573 F120.00
G01 X8.8977 Y-58.0576 F120.00
G01 X8.9407 Y-58.0682 F120.00
G01 X8.9441 Y-58.0672 F120.00
G01 X8.9474 Y-58.0672 F120.00
G01 X8.9611 Y-58.0713 F120.00
G01 X9.0276 Y-58.0810 F120.00
G01 X11.1762 Y-58.0810 F120.00
G01 X11.1787 Y-58.0813 F120.00
G01 X11.2615 Y-58.1019 F120.00
G01 X11.2869 Y-58.1178 F120.00
G01 X11.3635 Y-58.1752 F120.00
G01 X11.4953 Y-58.2243 F120.00
G01 X11.5528 Y-58.2305 F120.00
G01 X12.0885 Y-58.2305 F120.00
G01 X12.0885 Y-57.7535 F120.00
G01 X11.5997 Y-57.7535 F120.00
G01 X11.5959 Y-57.7527 F120.00
G01 X11.5925 Y-57.7507 F120.00
G01 X11.5900 Y-57.7477 F120.00
G01 X11.5887 Y-57.7440 F120.00
G01 X11.5885 Y-55.5420 F120.00
G01 X11.5894 Y-55.5376 F120.00
G01 X11.5917 Y-55.5341 F120.00
G01 X11.5953 Y-55.5315 F120.00
G01 X11.5997 Y-55.5305 F120.00
G01 X12.0885 Y-55.5305 F120.00
G01 X12.0885 Y-55.0535 F120.00
G01 X11.5528 Y-55.0535 F120.00
G01 X11.4953 Y-55.0597 F120.00
G01 X11.3635 Y-55.1088 F120.00
G01 X11.2860 Y-55.1668 F120.00
G01 X11.2067 Y-55.2004 F120.00
G01 X11.1766 Y-55.2030 F120.00
G01 X11.1670 Y-55.2029 F120.00
G01 X11.0851 Y-55.1827 F120.00
G01 X11.0808 Y-55.1807 F120.00
G01 X11.0178 Y-55.1250 F120.00
G01 X11.0153 Y-55.1217 F120.00
G01 X10.9883 Y-55.0507 F120.00
G01 X10.9867 Y-55.0477 F120.00
G01 X10.9848 Y-55.0412 F120.00
G01 X10.9820 Y-55.0260 F120.00
G01 X10.9792 Y-55.0155 F120.00
G01 X10.9523 Y-54.9422 F120.00
G01 X10.9257 Y-54.8637 F120.00
G01 X10.9214 Y-54.8538 F120.00
G01 X10.9164 Y-54.8442 F120.00
G01 X10.8718 Y-54.7743 F120.00
G01 X10.8315 Y-54.7073 F120.00
G01 X10.8251 Y-54.6986 F120.00
G01 X10.8182 Y-54.6903 F120.00
G01 X10.7630 Y-54.6350 F120.00
G01 X10.7059 Y-54.5749 F120.00
G01 X10.6974 Y-54.5673 F120.00
G01 X10.6844 Y-54.5565 F120.00
G01 X8.1307 Y-52.0027 F120.00
G01 X8.0866 Y-51.9300 F120.00
G01 X8.0855 Y-51.9275 F120.00
G01 X8.0850 Y-51.9248 F120.00
G01 X8.0799 Y-51.8416 F120.00
G01 X8.0801 Y-51.8389 F120.00
G01 X8.0809 Y-51.8362 F120.00
G01 X8.1151 Y-51.7603 F120.00
G01 X8.1165 Y-51.7579 F120.00
G01 X8.1185 Y-51.7560 F120.00
G01 X8.1841 Y-51.7046 F120.00
G01 X8.1864 Y-51.7032 F120.00
G01 X8.1888 Y-51.7024 F120.00
G01 X8.2716 Y-51.6872 F120.00
G01 X8.2740 Y-51.6872 F120.00
G01 X8.2765 Y-51.6877 F120.00
G01 X8.3571 Y-51.7128 F120.00
G01 X8.4206 Y-51.7516 F120.00
G01 X8.6516 Y-51.8473 F120.00
G01 X8.8947 Y-51.9057 F120.00
G01 X9.1440 Y-51.9253 F120.00
G01 X9.3933 Y-51.9057 F120.00
G01 X9.6364 Y-51.8473 F120.00
G01 X9.7483 Y-51.8009 F120.00
G01 X9.3677 Y-51.4203 F120.00
G01 X9.3603 Y-51.4221 F120.00
G01 X9.2529 Y-51.4380 F120.00
G01 X9.1434 Y-51.4433 F120.00
G01 X9.0351 Y-51.4380 F120.00
G01 X8.9277 Y-51.4221 F120.00
G01 X8.8213 Y-51.3955 F120.00
G01 X8.7186 Y-51.3588 F120.00
G01 X8.6196 Y-51.3118 F120.00
G01 X8.5265 Y-51.2560 F120.00
G01 X8.4393 Y-51.1914 F120.00
G01 X8.3581 Y-51.1178 F120.00
G01 X8.2845 Y-51.0365 F120.00
G01 X8.2198 Y-50.9494 F120.00
G01 X8.1640 Y-50.8563 F120.00
G01 X8.1171 Y-50.7572 F120.00
G01 X8.0804 Y-50.6545 F120.00
G01 X8.0538 Y-50.5481 F120.00
G01 X8.0379 Y-50.4408 F120.00
G01 X8.0325 Y-50.3324 F120.00
G01 X8.0379 Y-50.2229 F120.00
G01 X8.0538 Y-50.1156 F120.00
G01 X8.0556 Y-50.1082 F120.00
G01 X7.6749 Y-49.7276 F120.00
G01 X7.6286 Y-49.8395 F120.00
G01 X7.5702 Y-50.0826 F120.00
G01 X7.5506 Y-50.3319 F120.00
G01 X7.5702 Y-50.5811 F120.00
G01 X7.6286 Y-50.8242 F120.00
G01 X7.7243 Y-51.0552 F120.00
G01 X7.7625 Y-51.1178 F120.00
G01 X7.7881 Y-51.1982 F120.00
G01 X7.7887 Y-51.2021 F120.00
G01 X7.7739 Y-51.2860 F120.00
G01 X7.7732 Y-51.2884 F120.00
G01 X7.7717 Y-51.2908 F120.00
G01 X7.7208 Y-51.3566 F120.00
G01 X7.7188 Y-51.3586 F120.00
G01 X7.7165 Y-51.3601 F120.00
G01 X7.6407 Y-51.3947 F120.00
G01 X7.6381 Y-51.3955 F120.00
G01 X7.6353 Y-51.3957 F120.00
G01 X7.5522 Y-51.3912 F120.00
G01 X7.5494 Y-51.3907 F120.00
G01 X7.5469 Y-51.3896 F120.00
G01 X7.4754 Y-51.3469 F120.00
G01 X7.4734 Y-51.3454 F120.00
G01 X6.4811 Y-50.3532 F120.00
G01 X6.4796 Y-50.3512 F120.00
G01 X6.4365 Y-50.2800 F120.00
G01 X6.4352 Y-50.2768 F120.00
G01 X6.4270 Y-50.2222 F120.00
G01 X6.4271 Y-35.4753 F120.00
G01 X6.4478 Y-35.3911 F120.00
G01 X6.4492 Y-35.3887 F120.00
G01 X6.4813 Y-35.3452 F120.00
G01 X10.1849 Y-31.6417 F120.00
G01 X10.1870 Y-31.6400 F120.00
G01 X10.2583 Y-31.5969 F120.00
G01 X10.2606 Y-31.5958 F120.00
G01 X10.2636 Y-31.5952 F120.00
G01 X10.3467 Y-31.5902 F120.00
G01 X10.3495 Y-31.5904 F120.00
G01 X10.3521 Y-31.5912 F120.00
G01 X10.4280 Y-31.6254 F120.00
G01 X10.4304 Y-31.6268 F120.00
G01 X10.4324 Y-31.6288 F120.00
G01 X10.4837 Y-31.6943 F120.00
G01 X10.4852 Y-31.6967 F120.00
G01 X10.4860 Y-31.6994 F120.00
G01 X10.5012 Y-31.7829 F120.00
G01 X10.4990 Y-31.8036 F120.00
G01 X10.4990 Y-33.9525 F120.00
G01 X10.4781 Y-34.0375 F120.00
G01 X10.4622 Y-34.0629 F120.00
G01 X10.4048 Y-34.1395 F120.00
G01 X10.3590 Y-34.2624 F120.00
G01 X10.3577 Y-34.2649 F120.00
G01 X10.3108 Y-34.3337 F120.00
G01 X10.3090 Y-34.3357 F120.00
G01 X10.3067 Y-34.3373 F120.00
G01 X10.2332 Y-34.3764 F120.00
G01 X10.2308 Y-34.3774 F120.00
G01 X10.2281 Y-34.3778 F120.00
G01 X10.1423 Y-34.3780 F120.00
G01 X10.1397 Y-34.3772 F120.00
G01 X10.0948 Y-34.3565 F120.00
G01 X10.0911 Y-34.3565 F120.00
G01 X10.0874 Y-34.3551 F120.00
G01 X9.8674 Y-34.2203 F120.00
G01 X9.6364 Y-34.1246 F120.00
G01 X9.3933 Y-34.0662 F120.00
G01 X9.1440 Y-34.0466 F120.00
G01 X8.8947 Y-34.0662 F120.00
G01 X8.6516 Y-34.1246 F120.00
G01 X8.5397 Y-34.1709 F120.00
G01 X8.9203 Y-34.5515 F120.00
G01 X8.9277 Y-34.5498 F120.00
G01 X9.0356 Y-34.5338 F120.00
G01 X9.1440 Y-34.5285 F120.00
G01 X9.2529 Y-34.5339 F120.00
G01 X9.3614 Y-34.5500 F120.00
G01 X9.4667 Y-34.5764 F120.00
G01 X9.5691 Y-34.6130 F120.00
G01 X9.6684 Y-34.6600 F120.00
G01 X9.7615 Y-34.7158 F120.00
G01 X9.8489 Y-34.7806 F120.00
G01 X9.9301 Y-34.8543 F120.00
G01 X10.0030 Y-34.9347 F120.00
G01 X10.0250 Y-34.9642 F120.00
G01 X10.8265 Y-34.9642 F120.00
G01 X10.8265 Y-34.3757 F120.00
G01 X10.8274 Y-34.3716 F120.00
G01 X10.8299 Y-34.3679 F120.00
G01 X10.8336 Y-34.3654 F120.00
G01 X10.8377 Y-34.3645 F120.00
G01 X13.0400 Y-34.3647 F120.00
G01 X13.0437 Y-34.3660 F120.00
G01 X13.0467 Y-34.3685 F120.00
G01 X13.0487 Y-34.3719 F120.00
G01 X13.0495 Y-34.3757 F120.00
G01 X13.0495 Y-34.8645 F120.00
G01 X13.5265 Y-34.8645 F120.00
G01 X13.5265 Y-34.3288 F120.00
G01 X13.5203 Y-34.2713 F120.00
G01 X13.4712 Y-34.1395 F120.00
G01 X13.4132 Y-34.0620 F120.00
G01 X13.3795 Y-33.9822 F120.00
G01 X13.3770 Y-33.9523 F120.00
G01 X13.3771 Y-33.8537 F120.00
G01 X13.3973 Y-33.7712 F120.00
G01 X13.3982 Y-33.7686 F120.00
G01 X13.3998 Y-33.7663 F120.00
G01 X13.4567 Y-33.7025 F120.00
G01 X13.5383 Y-33.6503 F120.00
G01 X13.6093 Y-33.6075 F120.00
G01 X13.6180 Y-33.6011 F120.00
G01 X13.6263 Y-33.5942 F120.00
G01 X13.6816 Y-33.5390 F120.00
G01 X13.7417 Y-33.4819 F120.00
G01 X13.7493 Y-33.4734 F120.00
G01 X13.7601 Y-33.4604 F120.00
G01 X14.5929 Y-32.6276 F120.00
G01 X14.6658 Y-32.5834 F120.00
G01 X14.6683 Y-32.5823 F120.00
G01 X14.6710 Y-32.5818 F120.00
G01 X14.7542 Y-32.5767 F120.00
G01 X14.7575 Y-32.5770 F120.00
G01 X14.8355 Y-32.6119 F120.00
G01 X14.8377 Y-32.6132 F120.00
G01 X14.8397 Y-32.6151 F120.00
G01 X14.8912 Y-32.6809 F120.00
G01 X14.8926 Y-32.6831 F120.00
G01 X14.8934 Y-32.6855 F120.00
G01 X14.9090 Y-32.7588 F120.00
G01 X14.9090 Y-34.9416 F120.00
G01 X14.9087 Y-34.9444 F120.00
G01 X14.8887 Y-35.0255 F120.00
G01 X14.8868 Y-35.0293 F120.00
G01 X14.8547 Y-35.0728 F120.00
G01 X13.8165 Y-36.1108 F120.00
G01 X13.7443 Y-36.1545 F120.00
G01 X13.7418 Y-36.1556 F120.00
G01 X13.7391 Y-36.1561 F120.00
G01 X13.6548 Y-36.1612 F120.00
G01 X13.6505 Y-36.1602 F120.00
G01 X13.5733 Y-36.1253 F120.00
G01 X13.5557 Y-36.1099 F120.00
G01 X13.5332 Y-36.0875 F120.00
G01 X13.0495 Y-36.0875 F120.00
G01 X13.0495 Y-36.5763 F120.00
G01 X13.0487 Y-36.5801 F120.00
G01 X13.0467 Y-36.5835 F120.00
G01 X13.0434 Y-36.5861 F120.00
G01 X13.0397 Y-36.5874 F120.00
G01 X10.8377 Y-36.5875 F120.00
G01 X10.8333 Y-36.5865 F120.00
G01 X10.8299 Y-36.5841 F120.00
G01 X10.8275 Y-36.5807 F120.00
G01 X10.8265 Y-36.5763 F120.00
G01 X10.8265 Y-35.9878 F120.00
G01 X10.1987 Y-35.9878 F120.00
G01 X10.1709 Y-36.0654 F120.00
G01 X10.1243 Y-36.1640 F120.00
G01 X10.0682 Y-36.2575 F120.00
G01 X10.0035 Y-36.3447 F120.00
G01 X9.9295 Y-36.4263 F120.00
G01 X9.8491 Y-36.4992 F120.00
G01 X9.7615 Y-36.5642 F120.00
G01 X9.6680 Y-36.6203 F120.00
G01 X9.5694 Y-36.6669 F120.00
G01 X9.4667 Y-36.7036 F120.00
G01 X9.3608 Y-36.7301 F120.00
G01 X9.2529 Y-36.7461 F120.00
G01 X9.1440 Y-36.7515 F120.00
G01 X9.0351 Y-36.7461 F120.00
G01 X8.9277 Y-36.7302 F120.00
G01 X8.9203 Y-36.7284 F120.00
G01 X8.5397 Y-37.1091 F120.00
G01 X8.6516 Y-37.1554 F120.00
G01 X8.8947 Y-37.2138 F120.00
G01 X9.1440 Y-37.2334 F120.00
G01 X9.3933 Y-37.2138 F120.00
G01 X9.6364 Y-37.1554 F120.00
G01 X9.8674 Y-37.0597 F120.00
G01 X10.0806 Y-36.9291 F120.00
G01 X10.1823 Y-36.8423 F120.00
G01 X10.2579 Y-36.8043 F120.00
G01 X10.2625 Y-36.8031 F120.00
G01 X10.3466 Y-36.8046 F120.00
G01 X10.3493 Y-36.8049 F120.00
G01 X10.3519 Y-36.8060 F120.00
G01 X10.4267 Y-36.8472 F120.00
G01 X10.4498 Y-36.8726 F120.00
G01 X10.4632 Y-36.8908 F120.00
G01 X10.4962 Y-36.9688 F120.00
G01 X10.4968 Y-36.9715 F120.00
G01 X10.4990 Y-36.9994 F120.00
G01 X10.4989 Y-37.0986 F120.00
G01 X10.4785 Y-37.1816 F120.00
G01 X10.4762 Y-37.1857 F120.00
G01 X10.4208 Y-37.2482 F120.00
G01 X10.4186 Y-37.2500 F120.00
G01 X10.3377 Y-37.3017 F120.00
G01 X10.2667 Y-37.3445 F120.00
G01 X10.2580 Y-37.3509 F120.00
G01 X10.2497 Y-37.3578 F120.00
G01 X10.1944 Y-37.4130 F120.00
G01 X10.1343 Y-37.4701 F120.00
G01 X10.1267 Y-37.4786 F120.00
G01 X10.1159 Y-37.4916 F120.00
G01 X8.5802 Y-39.0273 F120.00
G01 X8.5691 Y-39.0375 F120.00
G01 X8.5313 Y-39.0696 F120.00
G01 X8.4844 Y-39.1314 F120.00
G01 X8.4325 Y-39.1960 F120.00
G01 X8.4265 Y-39.2050 F120.00
G01 X8.4211 Y-39.2143 F120.00
G01 X8.3863 Y-39.2895 F120.00
G01 X8.3515 Y-39.3595 F120.00
G01 X8.3476 Y-39.3696 F120.00
G01 X8.3406 Y-39.3908 F120.00
G01 X8.3393 Y-39.3929 F120.00
G01 X8.3375 Y-39.3947 F120.00
G01 X8.3054 Y-39.4594 F120.00
G01 X8.2657 Y-39.4948 F120.00
G01 X8.2571 Y-39.5005 F120.00
G01 X8.0817 Y-39.6620 F120.00
G01 X7.9352 Y-39.8502 F120.00
G01 X7.8217 Y-40.0600 F120.00
G01 X7.7443 Y-40.2855 F120.00
G01 X7.7050 Y-40.5208 F120.00
G01 X7.7050 Y-40.7592 F120.00
G01 X7.7443 Y-40.9945 F120.00
G01 X7.8217 Y-41.2200 F120.00
G01 X7.9352 Y-41.4297 F120.00
G01 X8.0817 Y-41.6179 F120.00
G01 X8.2451 Y-41.7684 F120.00
G01 X8.2468 Y-41.7703 F120.00
G01 X8.2939 Y-41.8417 F120.00
G01 X8.2947 Y-41.8444 F120.00
G01 X8.3050 Y-41.9049 F120.00
G01 X8.3049 Y-44.0686 F120.00
G01 X8.2847 Y-44.1506 F120.00
G01 X8.2830 Y-44.1544 F120.00
G01 X8.2455 Y-44.2030 F120.00
G01 X8.0817 Y-44.3539 F120.00
G01 X7.9352 Y-44.5421 F120.00
G01 X7.8217 Y-44.7518 F120.00
G01 X7.7443 Y-44.9774 F120.00
G01 X7.7050 Y-45.2126 F120.00
G01 X7.7050 Y-45.4511 F120.00
G01 X7.7443 Y-45.6863 F120.00
G01 X7.8217 Y-45.9119 F120.00
G01 X7.9352 Y-46.1216 F120.00
G01 X8.0817 Y-46.3098 F120.00
G01 X8.2457 Y-46.4609 F120.00
G01 X8.2929 Y-46.5318 F120.00
G01 X8.2943 Y-46.5346 F120.00
G01 X8.3050 Y-46.5968 F120.00
G01 X8.3050 Y-47.2024 F120.00
G01 X8.3044 Y-47.2174 F120.00
G01 X8.3004 Y-47.2668 F120.00
G01 X8.3108 Y-47.3437 F120.00
G01 X8.3199 Y-47.4260 F120.00
G01 X8.3220 Y-47.4366 F120.00
G01 X8.3248 Y-47.4471 F120.00
G01 X8.3533 Y-47.5248 F120.00
G01 X8.3783 Y-47.5990 F120.00
G01 X8.3826 Y-47.6088 F120.00
G01 X8.3876 Y-47.6184 F120.00
G01 X8.4297 Y-47.6844 F120.00
G01 X8.4725 Y-47.7553 F120.00
G01 X8.4789 Y-47.7640 F120.00
G01 X8.4858 Y-47.7723 F120.00
G01 X8.5411 Y-47.8276 F120.00
G01 X8.5981 Y-47.8877 F120.00
G01 X8.6066 Y-47.8953 F120.00
G01 X8.6196 Y-47.9061 F120.00
G01 X9.1451 Y-48.4317 F120.00
G01 X9.1466 Y-48.4336 F120.00
G01 X9.1897 Y-48.5049 F120.00
G01 X9.1908 Y-48.5072 F120.00
G01 X9.1913 Y-48.5096 F120.00
G01 X9.1964 Y-48.5933 F120.00
G01 X9.1962 Y-48.5961 F120.00
G01 X9.1954 Y-48.5987 F120.00
G01 X9.1612 Y-48.6747 F120.00
G01 X9.1598 Y-48.6770 F120.00
G01 X9.1580 Y-48.6788 F120.00
G01 X9.0906 Y-48.7314 F120.00
G01 X9.0880 Y-48.7324 F120.00
G01 X9.0289 Y-48.7475 F120.00
G01 X8.8947 Y-48.7581 F120.00
G01 X8.6516 Y-48.8164 F120.00
G01 X8.5397 Y-48.8628 F120.00
G01 X8.9203 Y-49.2434 F120.00
G01 X8.9277 Y-49.2416 F120.00
G01 X9.0351 Y-49.2257 F120.00
G01 X9.1446 Y-49.2204 F120.00
G01 X9.2529 Y-49.2257 F120.00
G01 X9.3603 Y-49.2416 F120.00
G01 X9.4667 Y-49.2682 F120.00
G01 X9.5694 Y-49.3050 F120.00
G01 X9.6684 Y-49.3519 F120.00
G01 X9.7615 Y-49.4077 F120.00
G01 X9.8487 Y-49.4723 F120.00
G01 X9.9299 Y-49.5459 F120.00
G01 X10.0035 Y-49.6272 F120.00
G01 X10.0682 Y-49.7143 F120.00
G01 X10.1240 Y-49.8074 F120.00
G01 X10.1709 Y-49.9065 F120.00
G01 X10.2076 Y-50.0092 F120.00
G01 X10.2342 Y-50.1156 F120.00
G01 X10.2501 Y-50.2229 F120.00
G01 X10.2555 Y-50.3313 F120.00
G01 X10.2501 Y-50.4408 F120.00
G01 X10.2342 Y-50.5481 F120.00
G01 X10.2324 Y-50.5555 F120.00
G01 X10.6131 Y-50.9361 F120.00
G01 X10.6594 Y-50.8243 F120.00
G01 X10.7178 Y-50.5811 F120.00
G01 X10.7285 Y-50.4462 F120.00
G01 X10.7551 Y-50.3658 F120.00
G01 X10.7566 Y-50.3628 F120.00
G01 X10.8180 Y-50.3033 F120.00
G01 X10.8202 Y-50.3016 F120.00
G01 X10.8227 Y-50.3005 F120.00
G01 X10.9046 Y-50.2768 F120.00
G01 X10.9082 Y-50.2770 F120.00
G01 X10.9917 Y-50.2940 F120.00
G01 X10.9941 Y-50.2953 F120.00
G01 X11.0436 Y-50.3302 F120.00
G01 X14.3467 Y-53.6332 F120.00
G01 X14.3484 Y-53.6354 F120.00
G01 X14.3919 Y-53.7074 F120.00
G01 X14.3930 Y-53.7109 F120.00
G01 X14.4010 Y-53.7644 F120.00
G01 X14.4010 Y-55.0111 F120.00
G01 X14.4007 Y-55.0139 F120.00
G01 X14.3807 Y-55.0947 F120.00
G01 X14.3799 Y-55.0971 F120.00
G01 X14.3785 Y-55.0992 F120.00
G01 X14.3230 Y-55.1619 F120.00
G01 X14.3209 Y-55.1638 F120.00
G01 X14.3184 Y-55.1651 F120.00
G01 X14.2406 Y-55.1946 F120.00
G01 X14.2359 Y-55.1953 F120.00
G01 X14.1524 Y-55.1852 F120.00
G01 X14.1495 Y-55.1845 F120.00
G01 X14.1048 Y-55.1599 F120.00
G01 X14.0365 Y-55.1088 F120.00
G01 X13.9047 Y-55.0597 F120.00
G01 X13.8472 Y-55.0535 F120.00
G01 X13.3115 Y-55.0535 F120.00
G01 X13.3115 Y-55.5305 F120.00
G01 X13.8003 Y-55.5305 F120.00
G01 X13.8041 Y-55.5313 F120.00
G01 X13.8075 Y-55.5333 F120.00
G01 X13.8100 Y-55.5363 F120.00
G01 X13.8113 Y-55.5400 F120.00
G01 X13.8115 Y-57.7420 F120.00
G01 X13.8106 Y-57.7464 F120.00
G01 X13.8083 Y-57.7499 F120.00
G01 X13.8047 Y-57.7525 F120.00
G01 X13.8003 Y-57.7535 F120.00
G01 X13.3115 Y-57.7535 F120.00
G01 X13.3115 Y-58.2305 F120.00
G01 X13.8472 Y-58.2305 F120.00
G01 X13.9047 Y-58.2243 F120.00
G01 X14.0365 Y-58.1752 F120.00
G01 X14.1129 Y-58.1180 F120.00
G01 X14.1150 Y-58.1167 F120.00
G01 X14.1927 Y-58.0838 F120.00
G01 X14.1955 Y-58.0832 F120.00
G01 X14.2240 Y-58.0810 F120.00
G01 X16.3724 Y-58.0810 F120.00
G01 X16.4389 Y-58.0713 F120.00
G01 X16.4528 Y-58.0672 F120.00
G01 X16.4568 Y-58.0674 F120.00
G01 X16.4604 Y-58.0688 F120.00
G01 X16.5125 Y-58.0575 F120.00
G01 X16.5150 Y-58.0573 F120.00
G01 X16.5177 Y-58.0576 F120.00
G01 X16.5607 Y-58.0682 F120.00
G01 X16.5641 Y-58.0672 F120.00
G01 X16.5674 Y-58.0672 F120.00
G01 X16.5811 Y-58.0713 F120.00
G01 X16.6476 Y-58.0810 F120.00
G01 X18.9124 Y-58.0810 F120.00
G01 X18.9788 Y-58.0713 F120.00
G01 X18.9928 Y-58.0672 F120.00
G01 X18.9968 Y-58.0674 F120.00
G01 X19.0004 Y-58.0688 F120.00
G01 X19.0525 Y-58.0575 F120.00
G01 X19.0550 Y-58.0573 F120.00
G01 X19.0577 Y-58.0576 F120.00
G01 X19.1007 Y-58.0682 F120.00
G01 X19.1041 Y-58.0672 F120.00
G01 X19.1074 Y-58.0672 F120.00
G01 X19.1211 Y-58.0713 F120.00
G01 X19.1876 Y-58.0810 F120.00
G01 X21.4524 Y-58.0810 F120.00
G01 X21.5188 Y-58.0713 F120.00
G01 X21.5328 Y-58.0672 F120.00
G01 X21.5368 Y-58.0674 F120.00
G01 X21.5404 Y-58.0688 F120.00
G01 X21.5925 Y-58.0575 F120.00
G01 X21.5950 Y-58.0573 F120.00
G01 X21.5977 Y-58.0576 F120.00
G01 X21.6407 Y-58.0682 F120.00
G01 X21.6441 Y-58.0672 F120.00
G01 X21.6474 Y-58.0672 F120.00
G01 X21.6611 Y-58.0713 F120.00
G01 X21.7276 Y-58.0810 F120.00
G01 X23.9924 Y-58.0810 F120.00
G01 X24.0588 Y-58.0713 F120.00
G01 X24.0728 Y-58.0672 F120.00
G01 X24.0768 Y-58.0674 F120.00
G01 X24.0804 Y-58.0688 F120.00
G01 X24.1325 Y-58.0575 F120.00
G01 X24.1350 Y-58.0573 F120.00
G01 X24.1377 Y-58.0576 F120.00
G01 X24.1807 Y-58.0682 F120.00
G01 X24.1841 Y-58.0672 F120.00
G01 X24.1874 Y-58.0672 F120.00
G01 X24.2011 Y-58.0713 F120.00
G01 X24.2676 Y-58.0810 F120.00
G01 X26.5324 Y-58.0810 F120.00
G01 X26.5980 Y-58.0715 F120.00
G01 X26.6997 Y-58.0217 F120.00
G01 X26.7797 Y-57.9417 F120.00
G01 X26.8295 Y-57.8400 F120.00
G01 X26.8390 Y-57.7744 F120.00
G01 X26.8390 Y-55.5096 F120.00
G01 X26.8295 Y-55.4440 F120.00
G01 X26.7797 Y-55.3423 F120.00
G01 X26.6997 Y-55.2623 F120.00
G01 X26.5980 Y-55.2125 F120.00
G01 X26.5324 Y-55.2030 F120.00
G01 X26.4231 Y-55.2029 F120.00
G01 X26.3409 Y-55.1827 F120.00
G01 X26.3369 Y-55.1809 F120.00
G01 X26.2737 Y-55.1250 F120.00
G01 X26.2714 Y-55.1222 F120.00
G01 X26.2408 Y-55.0420 F120.00
G01 X26.2403 Y-55.0395 F120.00
G01 X26.2390 Y-55.0175 F120.00
G01 X26.2390 Y-44.2350 F120.00
G01 X26.2593 Y-44.1519 F120.00
G01 X26.2602 Y-44.1493 F120.00
G01 X26.2618 Y-44.1470 F120.00
G01 X26.3174 Y-44.0843 F120.00
G01 X26.3194 Y-44.0827 F120.00
G01 X26.3216 Y-44.0816 F120.00
G01 X26.4000 Y-44.0518 F120.00
G01 X26.4034 Y-44.0513 F120.00
G01 X26.4174 Y-44.0518 F120.00
G01 X26.8116 Y-43.6577 F120.00
G01 X26.8098 Y-43.6503 F120.00
G01 X26.7939 Y-43.5429 F120.00
G01 X26.7885 Y-43.4340 F120.00
G01 X26.7939 Y-43.3251 F120.00
G01 X26.8098 Y-43.2177 F120.00
G01 X26.8116 Y-43.2103 F120.00
G01 X26.4138 Y-42.8126 F120.00
G01 X26.3745 Y-42.8108 F120.00
G01 X26.3709 Y-42.8100 F120.00
G01 X26.2975 Y-42.7673 F120.00
G01 X26.2951 Y-42.7654 F120.00
G01 X26.2936 Y-42.7635 F120.00
G01 X26.2486 Y-42.6913 F120.00
G01 X26.2478 Y-42.6886 F120.00
G01 X26.2390 Y-42.6325 F120.00
G01 X26.2390 Y-41.4412 F120.00
G01 X26.2393 Y-41.4388 F120.00
G01 X26.2595 Y-41.3571 F120.00
G01 X26.2618 Y-41.3530 F120.00
G01 X26.3170 Y-41.2907 F120.00
G01 X26.3196 Y-41.2886 F120.00
G01 X26.4000 Y-41.2578 F120.00
G01 X26.4034 Y-41.2573 F120.00
G01 X26.4174 Y-41.2578 F120.00
G01 X26.8116 Y-40.8637 F120.00
G01 X26.8098 Y-40.8563 F120.00
G01 X26.7939 Y-40.7489 F120.00
G01 X26.7885 Y-40.6400 F120.00
G01 X26.7939 Y-40.5311 F120.00
G01 X26.8098 Y-40.4237 F120.00
G01 X26.8116 Y-40.4163 F120.00
G01 X26.4138 Y-40.0186 F120.00
G01 X26.3745 Y-40.0168 F120.00
G01 X26.3709 Y-40.0160 F120.00
G01 X26.2975 Y-39.9733 F120.00
G01 X26.2951 Y-39.9714 F120.00
G01 X26.2936 Y-39.9695 F120.00
G01 X26.2486 Y-39.8973 F120.00
G01 X26.2478 Y-39.8946 F120.00
G01 X26.2390 Y-39.8385 F120.00
G01 X26.2390 Y-23.7933 F120.00
G01 X26.2393 Y-23.7906 F120.00
G01 X26.2593 Y-23.7097 F120.00
G01 X26.2603 Y-23.7070 F120.00
G01 X26.2768 Y-23.6811 F120.00
G01 X26.3165 Y-23.6290 F120.00
G01 X26.3655 Y-23.5680 F120.00
G01 X26.3715 Y-23.5590 F120.00
G01 X26.3769 Y-23.5497 F120.00
G01 X26.4117 Y-23.4745 F120.00
G01 X26.4465 Y-23.4045 F120.00
G01 X26.4504 Y-23.3944 F120.00
G01 X26.4536 Y-23.3841 F120.00
G01 X26.4704 Y-23.3077 F120.00
G01 X26.4904 Y-23.2273 F120.00
G01 X26.4920 Y-23.2166 F120.00
G01 X26.4930 Y-23.2059 F120.00
G01 X26.4930 Y-23.1277 F120.00
G01 X26.4952 Y-23.0449 F120.00
G01 X26.4946 Y-23.0335 F120.00
G01 X26.4930 Y-23.0166 F120.00
G01 X26.4930 Y-16.4258 F120.00
G01 X26.5138 Y-16.3411 F120.00
G01 X26.5152 Y-16.3387 F120.00
G01 X26.5469 Y-16.2956 F120.00
G01 X27.2338 Y-15.6087 F120.00
G01 X27.2449 Y-15.5985 F120.00
G01 X27.2827 Y-15.5664 F120.00
G01 X27.3325 Y-15.5010 F120.00
G01 X27.3815 Y-15.4400 F120.00
G01 X27.3875 Y-15.4310 F120.00
G01 X27.3929 Y-15.4217 F120.00
G01 X27.4277 Y-15.3465 F120.00
G01 X27.4625 Y-15.2765 F120.00
G01 X27.4664 Y-15.2664 F120.00
G01 X27.4696 Y-15.2561 F120.00
G01 X27.4864 Y-15.1797 F120.00
G01 X27.5064 Y-15.0993 F120.00
G01 X27.5080 Y-15.0886 F120.00
G01 X27.5090 Y-15.0779 F120.00
G01 X27.5090 Y-14.9997 F120.00
G01 X27.5112 Y-14.9169 F120.00
G01 X27.5106 Y-14.9055 F120.00
G01 X27.5090 Y-14.8886 F120.00
G01 X27.5090 Y-14.5526 F120.00
G01 X27.5293 Y-14.4696 F120.00
G01 X27.5301 Y-14.4672 F120.00
G01 X27.5315 Y-14.4651 F120.00
G01 X27.5870 Y-14.4023 F120.00
G01 X27.5906 Y-14.3996 F120.00
G01 X27.6484 Y-14.3735 F120.00
G01 X27.8608 Y-14.3197 F120.00
G01 X28.0792 Y-14.2239 F120.00
G01 X28.2789 Y-14.0935 F120.00
G01 X28.4543 Y-13.9320 F120.00
G01 X28.6008 Y-13.7438 F120.00
G01 X28.7143 Y-13.5340 F120.00
G01 X28.7917 Y-13.3085 F120.00
G01 X28.8310 Y-13.0732 F120.00
G01 X28.8310 Y-12.8348 F120.00
G01 X28.7917 Y-12.5995 F120.00
G01 X28.7143 Y-12.3740 F120.00
G01 X28.6008 Y-12.1642 F120.00
G01 X28.4543 Y-11.9761 F120.00
G01 X28.2789 Y-11.8145 F120.00
G01 X28.0792 Y-11.6841 F120.00
G01 X27.8608 Y-11.5883 F120.00
G01 X27.6297 Y-11.5298 F120.00
G01 X27.3920 Y-11.5101 F120.00
G01 X27.1543 Y-11.5298 F120.00
G01 X26.9232 Y-11.5883 F120.00
G01 X26.7048 Y-11.6841 F120.00
G01 X26.5051 Y-11.8145 F120.00
G01 X26.3297 Y-11.9760 F120.00
G01 X26.1832 Y-12.1642 F120.00
G01 X26.0792 Y-12.3563 F120.00
G01 X26.0204 Y-12.4210 F120.00
G01 X26.0175 Y-12.4225 F120.00
G01 X25.9392 Y-12.4511 F120.00
G01 X25.9365 Y-12.4517 F120.00
G01 X25.9337 Y-12.4517 F120.00
G01 X25.8512 Y-12.4406 F120.00
G01 X25.8485 Y-12.4399 F120.00
G01 X25.8461 Y-12.4386 F120.00
G01 X25.7779 Y-12.3902 F120.00
G01 X25.7761 Y-12.3885 F120.00
G01 X25.7747 Y-12.3865 F120.00
G01 X25.7363 Y-12.3110 F120.00
G01 X25.7356 Y-12.3081 F120.00
G01 X25.7310 Y-12.2683 F120.00
G01 X25.7310 Y-11.9794 F120.00
G01 X25.7316 Y-11.9646 F120.00
G01 X25.7356 Y-11.9151 F120.00
G01 X25.7246 Y-11.8337 F120.00
G01 X25.7161 Y-11.7560 F120.00
G01 X25.7140 Y-11.7454 F120.00
G01 X25.7112 Y-11.7349 F120.00
G01 X25.6843 Y-11.6616 F120.00
G01 X25.6577 Y-11.5830 F120.00
G01 X25.6534 Y-11.5732 F120.00
G01 X25.6484 Y-11.5635 F120.00
G01 X25.6038 Y-11.4937 F120.00
G01 X25.5635 Y-11.4267 F120.00
G01 X25.5571 Y-11.4180 F120.00
G01 X25.5502 Y-11.4097 F120.00
G01 X25.4949 Y-11.3544 F120.00
G01 X25.4379 Y-11.2943 F120.00
G01 X25.4294 Y-11.2867 F120.00
G01 X25.4164 Y-11.2759 F120.00
G01 X21.4507 Y-7.3102 F120.00
G01 X21.4405 Y-7.2991 F120.00
G01 X21.4084 Y-7.2613 F120.00
G01 X21.3430 Y-7.2115 F120.00
G01 X21.2820 Y-7.1625 F120.00
G01 X21.2730 Y-7.1565 F120.00
G01 X21.2637 Y-7.1511 F120.00
G01 X21.1927 Y-7.1183 F120.00
G01 X21.1185 Y-7.0815 F120.00
G01 X21.1084 Y-7.0776 F120.00
G01 X21.0981 Y-7.0744 F120.00
G01 X21.0172 Y-7.0565 F120.00
G01 X20.9413 Y-7.0376 F120.00
G01 X20.9306 Y-7.0360 F120.00
G01 X20.9199 Y-7.0350 F120.00
G01 X20.8417 Y-7.0350 F120.00
G01 X20.7589 Y-7.0328 F120.00
G01 X20.7475 Y-7.0334 F120.00
G01 X20.7306 Y-7.0350 F120.00
G01 X20.5646 Y-7.0350 F120.00
G01 X20.4800 Y-7.0142 F120.00
G01 X20.4769 Y-7.0124 F120.00
G01 X20.4199 Y-6.9647 F120.00
G01 X20.3663 Y-6.8961 F120.00
G01 X20.1909 Y-6.7345 F120.00
G01 X19.9912 Y-6.6041 F120.00
G01 X19.7728 Y-6.5083 F120.00
G01 X19.5417 Y-6.4498 F120.00
G01 X19.3040 Y-6.4301 F120.00
G01 X19.0663 Y-6.4498 F120.00
G01 X18.8352 Y-6.5083 F120.00
G01 X18.6168 Y-6.6041 F120.00
G01 X18.4171 Y-6.7345 F120.00
G01 X18.4006 Y-6.7495 F120.00
G01 X18.3249 Y-6.7909 F120.00
G01 X18.3216 Y-6.7915 F120.00
G01 X18.2383 Y-6.7931 F120.00
G01 X18.2355 Y-6.7928 F120.00
G01 X18.2329 Y-6.7918 F120.00
G01 X18.1585 Y-6.7546 F120.00
G01 X18.1555 Y-6.7525 F120.00
G01 X18.1046 Y-6.6814 F120.00
G01 X18.1037 Y-6.6788 F120.00
G01 X18.0910 Y-6.6124 F120.00
G01 X18.0910 Y-5.7132 F120.00
G01 X18.0913 Y-5.7107 F120.00
G01 X18.1116 Y-5.6288 F120.00
G01 X18.1138 Y-5.6250 F120.00
G01 X18.1690 Y-5.5627 F120.00
G01 X18.1711 Y-5.5608 F120.00
G01 X18.1736 Y-5.5595 F120.00
G01 X18.2517 Y-5.5299 F120.00
G01 X18.2545 Y-5.5293 F120.00
G01 X18.2765 Y-5.5280 F120.00
G01 X18.3844 Y-5.5280 F120.00
G01 X18.4500 Y-5.5185 F120.00
G01 X18.5517 Y-5.4687 F120.00
G01 X18.6317 Y-5.3887 F120.00
G01 X18.6815 Y-5.2870 F120.00
G01 X18.6910 Y-5.2214 F120.00
G01 X18.6910 Y-2.9566 F120.00
G01 X18.6815 Y-2.8910 F120.00
G01 X18.6317 Y-2.7893 F120.00
G01 X18.5517 Y-2.7093 F120.00
G01 X18.4500 Y-2.6595 F120.00
G01 X18.3844 Y-2.6500 F120.00
G01 X16.1196 Y-2.6500 F120.00
G01 X16.0532 Y-2.6597 F120.00
G01 X16.0392 Y-2.6638 F120.00
G01 X16.0352 Y-2.6636 F120.00
G01 X16.0316 Y-2.6622 F120.00
G01 X15.9794 Y-2.6735 F120.00
G01 X15.9770 Y-2.6737 F120.00
G01 X15.9742 Y-2.6734 F120.00
G01 X15.9313 Y-2.6628 F120.00
G01 X15.9279 Y-2.6638 F120.00
G01 X15.9246 Y-2.6638 F120.00
G01 X15.9108 Y-2.6597 F120.00
G01 X15.8444 Y-2.6500 F120.00
G01 X13.5796 Y-2.6500 F120.00
G01 X13.5140 Y-2.6595 F120.00
G01 X13.4123 Y-2.7093 F120.00
G01 X13.3323 Y-2.7893 F120.00
G01 X13.2825 Y-2.8910 F120.00
G01 X13.2730 Y-2.9566 F120.00
G01 X13.2730 Y-4.5148 F120.00
G01 X13.2527 Y-4.5979 F120.00
G01 X13.2518 Y-4.6005 F120.00
G01 X13.2502 Y-4.6027 F120.00
G01 X13.1950 Y-4.6651 F120.00
G01 X13.1924 Y-4.6672 F120.00
G01 X13.1123 Y-4.6978 F120.00
G01 X13.1096 Y-4.6984 F120.00
G01 X13.1071 Y-4.6984 F120.00
G01 X13.0244 Y-4.6884 F120.00
G01 X13.0217 Y-4.6877 F120.00
G01 X13.0193 Y-4.6864 F120.00
G01 X12.9505 Y-4.6389 F120.00
G01 X12.9480 Y-4.6364 F120.00
G01 X12.9246 Y-4.6030 F120.00
G01 X12.8928 Y-4.5442 F120.00
G01 X12.7463 Y-4.3561 F120.00
G01 X12.5709 Y-4.1945 F120.00
G01 X12.3712 Y-4.0641 F120.00
G01 X12.1528 Y-3.9683 F120.00
G01 X11.9217 Y-3.9098 F120.00
G01 X11.6840 Y-3.8901 F120.00
G01 X11.4463 Y-3.9098 F120.00
G01 X11.2152 Y-3.9683 F120.00
G01 X10.9968 Y-4.0641 F120.00
G01 X10.7971 Y-4.1945 F120.00
G01 X10.6217 Y-4.3560 F120.00
G01 X10.4752 Y-4.5442 F120.00
G01 X10.3617 Y-4.7540 F120.00
G01 X10.2843 Y-4.9795 F120.00
G01 X10.2450 Y-5.2148 F120.00
G01 X10.2450 Y-5.4532 F120.00
G01 X10.2843 Y-5.6885 F120.00
G01 X10.2968 Y-5.7250 F120.00
G01 X10.3617 Y-5.9140 F120.00
G01 X10.4752 Y-6.1237 F120.00
G01 X10.6217 Y-6.3119 F120.00
G01 X10.7857 Y-6.4630 F120.00
G01 X10.8329 Y-6.5340 F120.00
G01 X10.8343 Y-6.5367 F120.00
G01 X10.8450 Y-6.5983 F120.00
G01 X10.8448 Y-6.7892 F120.00
G01 X10.8247 Y-6.8706 F120.00
G01 X10.8238 Y-6.8730 F120.00
G01 X10.8060 Y-6.9007 F120.00
G01 X10.7572 Y-6.9634 F120.00
G01 X10.7555 Y-6.9652 F120.00
G01 X10.6899 Y-7.0170 F120.00
G01 X10.6878 Y-7.0183 F120.00
G01 X10.6852 Y-7.0192 F120.00
G01 X10.6122 Y-7.0349 F120.00
G01 X10.1518 Y-7.0348 F120.00
G01 X10.0701 Y-7.0147 F120.00
G01 X10.0677 Y-7.0138 F120.00
G01 X10.0407 Y-6.9950 F120.00
G01 X10.0373 Y-6.9934 F120.00
G01 X10.0313 Y-6.9888 F120.00
G01 X9.8312 Y-6.8581 F120.00
G01 X9.6128 Y-6.7623 F120.00
G01 X9.3817 Y-6.7038 F120.00
G01 X9.1440 Y-6.6841 F120.00
G01 X8.9063 Y-6.7038 F120.00
G01 X8.6752 Y-6.7623 F120.00
G01 X8.4568 Y-6.8581 F120.00
G01 X8.2571 Y-6.9885 F120.00
G01 X8.0817 Y-7.1500 F120.00
G01 X7.9352 Y-7.3382 F120.00
G01 X7.8217 Y-7.5480 F120.00
G01 X7.7443 Y-7.7735 F120.00
G01 X7.7050 Y-8.0088 F120.00
G01 X7.7050 Y-8.2472 F120.00
G01 X7.7443 Y-8.4825 F120.00
G01 X7.8217 Y-8.7080 F120.00
G01 X7.9352 Y-8.9177 F120.00
G01 X8.0817 Y-9.1059 F120.00
G01 X8.2571 Y-9.2675 F120.00
G01 X8.4568 Y-9.3979 F120.00
G01 X8.6752 Y-9.4937 F120.00
G01 X8.9063 Y-9.5522 F120.00
G01 X9.1440 Y-9.5719 F120.00
G01 X9.3817 Y-9.5522 F120.00
G01 X9.6128 Y-9.4937 F120.00
G01 X9.8312 Y-9.3979 F120.00
G01 X10.0309 Y-9.2675 F120.00
G01 X10.1232 Y-9.1827 F120.00
G01 X10.1971 Y-9.1420 F120.00
G01 X10.1999 Y-9.1409 F120.00
G01 X10.2024 Y-9.1406 F120.00
G01 X10.2857 Y-9.1390 F120.00
G01 X10.2884 Y-9.1393 F120.00
G01 X10.2911 Y-9.1402 F120.00
G01 X10.3655 Y-9.1775 F120.00
G01 X10.3678 Y-9.1790 F120.00
G01 X10.3697 Y-9.1811 F120.00
G01 X10.4183 Y-9.2487 F120.00
G01 X10.4199 Y-9.2519 F120.00
G01 X10.4330 Y-9.3202 F120.00
G01 X10.4330 Y-11.5464 F120.00
G01 X10.4427 Y-11.6128 F120.00
G01 X10.4468 Y-11.6268 F120.00
G01 X10.4466 Y-11.6308 F120.00
G01 X10.4452 Y-11.6344 F120.00
G01 X10.4565 Y-11.6865 F120.00
G01 X10.4567 Y-11.6890 F120.00
G01 X10.4564 Y-11.6917 F120.00
G01 X10.4458 Y-11.7347 F120.00
G01 X10.4468 Y-11.7381 F120.00
G01 X10.4468 Y-11.7414 F120.00
G01 X10.4427 Y-11.7551 F120.00
G01 X10.4330 Y-11.8216 F120.00
G01 X10.4330 Y-14.0864 F120.00
G01 X10.4427 Y-14.1528 F120.00
G01 X10.4468 Y-14.1668 F120.00
G01 X10.4466 Y-14.1708 F120.00
G01 X10.4452 Y-14.1744 F120.00
G01 X10.4565 Y-14.2265 F120.00
G01 X10.4567 Y-14.2290 F120.00
G01 X10.4564 Y-14.2317 F120.00
G01 X10.4458 Y-14.2747 F120.00
G01 X10.4468 Y-14.2781 F120.00
