(G-CODE GENERATED BY FLATCAM v8.994 - www.flatcam.org - Version Date: 2020/11/7)

(Name: Combo_Gerber_iso_combined_cnc)
(Type: G-code from Geometry)
(Units: MM)

(Created on Monday, 18 March 2024 at 23:42)

(This preprocessor is used with a motion controller loaded with GRBL firmware.)
(It is configured to be compatible with almost any version of GRBL firmware.)

(TOOL DIAMETER: 0.4 mm)
(Feedrate_XY: 75.0 mm/min)
(Feedrate_Z: 45.0 mm/min)
(Feedrate rapids 1500.0 mm/min)

(Z_Cut: -0.09 mm)
(Z_Move: 2.0 mm)
(Z Start: None mm)
(Z End: 15.0 mm)
(X,Y End: 0.0000, 0.0000 mm)
(Steps per circle: 64)
(Steps per circle: 64)
(Preprocessor Geometry: GRBL_11_no_M6)

(X range:   -0.2000 ...   80.1375  mm)
(Y range:  -58.8810 ...    0.2000  mm)

(Spindle Speed: 0.0 RPM)
G21
G90
G17
G94


G01 F75.00

M5             
G00 Z15.0000
G00 X0.0000 Y0.0000                
T1
(MSG, Change to Tool Dia = 0.4000)
M0
G00 Z15.0000
        
M03
G01 F75.00
G00 X4.8600 Y-5.5626
G01 F45.00
G01 Z-0.0900
G01 F75.00
G01 X2.7151 Y-5.5627 F75.00
G01 X2.6955 Y-5.5641 F75.00
G01 X2.6810 Y-5.5664 F75.00
G01 X2.6714 Y-5.5686 F75.00
G01 X2.6526 Y-5.5743 F75.00
G01 X2.6345 Y-5.5818 F75.00
G01 X2.6172 Y-5.5911 F75.00
G01 X2.6009 Y-5.6020 F75.00
G01 X2.5857 Y-5.6144 F75.00
G01 X2.5718 Y-5.6283 F75.00
G01 X2.5594 Y-5.6435 F75.00
G01 X2.5510 Y-5.6556 F75.00
G01 X2.5414 Y-5.6727 F75.00
G01 X2.5334 Y-5.6906 F75.00
G01 X2.5286 Y-5.7045 F75.00
G01 X2.5238 Y-5.7236 F75.00
G01 X2.5210 Y-5.7430 F75.00
G01 X2.5201 Y-5.7577 F75.00
G01 X2.5200 Y-7.9026 F75.00
G01 X2.5210 Y-7.9222 F75.00
G01 X2.5222 Y-7.9319 F75.00
G01 X2.5249 Y-7.9464 F75.00
G01 X2.5301 Y-7.9653 F75.00
G01 X2.5372 Y-7.9836 F75.00
G01 X2.5460 Y-8.0012 F75.00
G01 X2.5565 Y-8.0178 F75.00
G01 X2.5654 Y-8.0295 F75.00
G01 X2.5718 Y-8.0369 F75.00
G01 X2.5857 Y-8.0508 F75.00
G01 X2.5970 Y-8.0603 F75.00
G01 X2.6130 Y-8.0716 F75.00
G01 X2.6257 Y-8.0790 F75.00
G01 X2.6435 Y-8.0874 F75.00
G01 X2.6619 Y-8.0940 F75.00
G01 X2.6810 Y-8.0988 F75.00
G01 X2.7004 Y-8.1016 F75.00
G01 X2.7151 Y-8.1025 F75.00
G01 X4.8600 Y-8.1026 F75.00
G01 X4.8796 Y-8.1016 F75.00
G01 X4.8942 Y-8.0997 F75.00
G01 X4.9038 Y-8.0977 F75.00
G01 X4.9181 Y-8.0940 F75.00
G01 X4.9320 Y-8.0892 F75.00
G01 X4.9455 Y-8.0834 F75.00
G01 X4.9586 Y-8.0766 F75.00
G01 X4.9711 Y-8.0689 F75.00
G01 X4.9830 Y-8.0603 F75.00
G01 X4.9943 Y-8.0508 F75.00
G01 X5.0048 Y-8.0405 F75.00
G01 X5.0146 Y-8.0295 F75.00
G01 X5.0206 Y-8.0217 F75.00
G01 X5.0290 Y-8.0096 F75.00
G01 X5.0364 Y-7.9969 F75.00
G01 X5.0408 Y-7.9881 F75.00
G01 X5.0466 Y-7.9746 F75.00
G01 X5.0514 Y-7.9607 F75.00
G01 X5.0551 Y-7.9464 F75.00
G01 X5.0578 Y-7.9319 F75.00
G01 X5.0595 Y-7.9173 F75.00
G01 X5.0599 Y-7.9075 F75.00
G01 X5.0600 Y-7.5329 F75.00
G01 X5.7436 Y-7.5329 F75.00
G01 X5.7544 Y-7.5507 F75.00
G01 X5.7599 Y-7.5589 F75.00
G01 X5.8331 Y-7.6573 F75.00
G01 X5.9120 Y-7.7447 F75.00
G01 X5.9259 Y-7.7586 F75.00
G01 X6.0133 Y-7.8375 F75.00
G01 X6.1077 Y-7.9079 F75.00
G01 X6.1241 Y-7.9188 F75.00
G01 X6.2166 Y-7.9743 F75.00
G01 X6.2340 Y-7.9835 F75.00
G01 X6.3405 Y-8.0336 F75.00
G01 X6.4513 Y-8.0735 F75.00
G01 X6.4701 Y-8.0792 F75.00
G01 X6.5844 Y-8.1076 F75.00
G01 X6.7008 Y-8.1251 F75.00
G01 X6.7204 Y-8.1271 F75.00
G01 X6.8380 Y-8.1326 F75.00
G01 X6.9605 Y-8.1268 F75.00
G01 X6.9752 Y-8.1251 F75.00
G01 X7.0916 Y-8.1076 F75.00
G01 X7.2059 Y-8.0792 F75.00
G01 X7.2247 Y-8.0735 F75.00
G01 X7.3355 Y-8.0336 F75.00
G01 X7.4420 Y-7.9835 F75.00
G01 X7.4594 Y-7.9743 F75.00
G01 X7.5519 Y-7.9188 F75.00
G01 X7.5683 Y-7.9079 F75.00
G01 X7.6627 Y-7.8375 F75.00
G01 X7.7572 Y-7.7518 F75.00
G01 X7.8365 Y-7.6647 F75.00
G01 X7.8460 Y-7.6535 F75.00
G01 X7.9161 Y-7.5589 F75.00
G01 X7.9216 Y-7.5507 F75.00
G01 X7.9333 Y-7.5313 F75.00
G01 X8.7796 Y-7.5313 F75.00
G01 X8.7904 Y-7.5491 F75.00
G01 X8.7959 Y-7.5573 F75.00
G01 X8.8660 Y-7.6519 F75.00
G01 X8.8755 Y-7.6631 F75.00
G01 X8.9513 Y-7.7467 F75.00
G01 X8.9619 Y-7.7570 F75.00
G01 X9.0493 Y-7.8359 F75.00
G01 X9.1397 Y-7.9033 F75.00
G01 X9.1397 Y-8.1350 F75.00
G01 X8.7651 Y-8.1351 F75.00
G01 X8.7504 Y-8.1360 F75.00
G01 X8.7407 Y-8.1372 F75.00
G01 X8.7262 Y-8.1399 F75.00
G01 X8.7167 Y-8.1422 F75.00
G01 X8.7073 Y-8.1451 F75.00
G01 X8.6935 Y-8.1502 F75.00
G01 X8.6801 Y-8.1564 F75.00
G01 X8.6672 Y-8.1635 F75.00
G01 X8.6589 Y-8.1687 F75.00
G01 X8.6470 Y-8.1773 F75.00
G01 X8.6357 Y-8.1868 F75.00
G01 X8.6252 Y-8.1971 F75.00
G01 X8.6154 Y-8.2081 F75.00
G01 X8.6065 Y-8.2198 F75.00
G01 X8.5985 Y-8.2322 F75.00
G01 X8.5936 Y-8.2407 F75.00
G01 X8.5872 Y-8.2540 F75.00
G01 X8.5817 Y-8.2676 F75.00
G01 X8.5786 Y-8.2769 F75.00
G01 X8.5749 Y-8.2912 F75.00
G01 X8.5729 Y-8.3008 F75.00
G01 X8.5710 Y-8.3154 F75.00
G01 X8.5700 Y-8.3350 F75.00
G01 X8.5701 Y-10.4799 F75.00
G01 X8.5710 Y-10.4946 F75.00
G01 X8.5729 Y-10.5092 F75.00
G01 X8.5760 Y-10.5236 F75.00
G01 X8.5801 Y-10.5377 F75.00
G01 X8.5872 Y-10.5560 F75.00
G01 X8.5936 Y-10.5693 F75.00
G01 X8.6010 Y-10.5820 F75.00
G01 X8.6094 Y-10.5941 F75.00
G01 X8.6154 Y-10.6019 F75.00
G01 X8.6252 Y-10.6129 F75.00
G01 X8.6357 Y-10.6232 F75.00
G01 X8.6431 Y-10.6296 F75.00
G01 X8.6509 Y-10.6356 F75.00
G01 X8.6630 Y-10.6440 F75.00
G01 X8.6801 Y-10.6536 F75.00
G01 X8.6980 Y-10.6616 F75.00
G01 X8.7119 Y-10.6664 F75.00
G01 X8.7214 Y-10.6690 F75.00
G01 X8.7358 Y-10.6721 F75.00
G01 X8.7455 Y-10.6735 F75.00
G01 X8.7602 Y-10.6748 F75.00
G01 X8.7700 Y-10.6750 F75.00
G01 X10.9149 Y-10.6749 F75.00
G01 X10.9345 Y-10.6735 F75.00
G01 X10.9538 Y-10.6701 F75.00
G01 X10.9727 Y-10.6649 F75.00
G01 X10.9865 Y-10.6598 F75.00
G01 X10.9955 Y-10.6558 F75.00
G01 X11.0128 Y-10.6465 F75.00
G01 X11.0252 Y-10.6385 F75.00
G01 X11.0330 Y-10.6327 F75.00
G01 X11.0479 Y-10.6198 F75.00
G01 X11.0582 Y-10.6093 F75.00
G01 X11.0646 Y-10.6019 F75.00
G01 X11.0735 Y-10.5902 F75.00
G01 X11.0815 Y-10.5778 F75.00
G01 X11.0886 Y-10.5649 F75.00
G01 X11.0966 Y-10.5470 F75.00
G01 X11.1014 Y-10.5331 F75.00
G01 X11.1062 Y-10.5140 F75.00
G01 X11.1085 Y-10.4995 F75.00
G01 X11.1099 Y-10.4799 F75.00
G01 X11.1100 Y-8.3350 F75.00
G01 X11.1090 Y-8.3154 F75.00
G01 X11.1062 Y-8.2960 F75.00
G01 X11.1028 Y-8.2817 F75.00
G01 X11.0983 Y-8.2676 F75.00
G01 X11.0948 Y-8.2585 F75.00
G01 X11.0886 Y-8.2451 F75.00
G01 X11.0840 Y-8.2364 F75.00
G01 X11.0763 Y-8.2239 F75.00
G01 X11.0677 Y-8.2120 F75.00
G01 X11.0582 Y-8.2007 F75.00
G01 X11.0479 Y-8.1902 F75.00
G01 X11.0369 Y-8.1804 F75.00
G01 X11.0291 Y-8.1744 F75.00
G01 X11.0170 Y-8.1660 F75.00
G01 X11.0043 Y-8.1586 F75.00
G01 X10.9910 Y-8.1522 F75.00
G01 X10.9774 Y-8.1467 F75.00
G01 X10.9633 Y-8.1422 F75.00
G01 X10.9538 Y-8.1399 F75.00
G01 X10.9393 Y-8.1372 F75.00
G01 X10.9296 Y-8.1360 F75.00
G01 X10.9149 Y-8.1351 F75.00
G01 X10.5403 Y-8.1350 F75.00
G01 X10.5403 Y-7.9458 F75.00
G01 X10.5879 Y-7.9172 F75.00
G01 X10.6003 Y-7.9091 F75.00
G01 X10.6949 Y-7.8390 F75.00
G01 X10.7061 Y-7.8295 F75.00
G01 X10.7861 Y-7.7570 F75.00
G01 X10.7967 Y-7.7467 F75.00
G01 X10.8789 Y-7.6557 F75.00
G01 X10.9493 Y-7.5613 F75.00
G01 X10.9602 Y-7.5449 F75.00
G01 X11.0157 Y-7.4524 F75.00
G01 X11.0228 Y-7.4395 F75.00
G01 X11.0750 Y-7.3285 F75.00
G01 X11.1149 Y-7.2177 F75.00
G01 X11.1206 Y-7.1989 F75.00
G01 X11.1490 Y-7.0846 F75.00
G01 X11.1665 Y-6.9682 F75.00
G01 X11.1685 Y-6.9486 F75.00
G01 X11.1740 Y-6.8310 F75.00
G01 X11.1682 Y-6.7085 F75.00
G01 X11.1665 Y-6.6938 F75.00
G01 X11.1490 Y-6.5774 F75.00
G01 X11.1180 Y-6.4536 F75.00
G01 X11.0750 Y-6.3335 F75.00
G01 X11.0205 Y-6.2182 F75.00
G01 X10.9549 Y-6.1088 F75.00
G01 X10.8789 Y-6.0063 F75.00
G01 X10.7932 Y-5.9118 F75.00
G01 X10.6987 Y-5.8261 F75.00
G01 X10.5962 Y-5.7501 F75.00
G01 X10.4868 Y-5.6845 F75.00
G01 X10.3715 Y-5.6300 F75.00
G01 X10.2514 Y-5.5870 F75.00
G01 X10.1276 Y-5.5560 F75.00
G01 X10.0014 Y-5.5373 F75.00
G01 X9.8740 Y-5.5310 F75.00
G01 X9.7466 Y-5.5373 F75.00
G01 X9.6204 Y-5.5560 F75.00
G01 X9.5061 Y-5.5844 F75.00
G01 X9.4873 Y-5.5901 F75.00
G01 X9.3765 Y-5.6300 F75.00
G01 X9.2700 Y-5.6801 F75.00
G01 X9.2526 Y-5.6893 F75.00
G01 X9.1601 Y-5.7448 F75.00
G01 X9.1437 Y-5.7557 F75.00
G01 X9.0493 Y-5.8261 F75.00
G01 X8.9548 Y-5.9118 F75.00
G01 X8.8755 Y-5.9989 F75.00
G01 X8.8660 Y-6.0101 F75.00
G01 X8.7959 Y-6.1047 F75.00
G01 X8.7904 Y-6.1129 F75.00
G01 X8.7796 Y-6.1307 F75.00
G01 X7.9314 Y-6.1307 F75.00
G01 X7.9216 Y-6.1145 F75.00
G01 X7.9161 Y-6.1063 F75.00
G01 X7.8429 Y-6.0079 F75.00
G01 X7.7640 Y-5.9205 F75.00
G01 X7.7501 Y-5.9066 F75.00
G01 X7.6627 Y-5.8277 F75.00
G01 X7.5683 Y-5.7573 F75.00
G01 X7.5519 Y-5.7464 F75.00
G01 X7.4594 Y-5.6909 F75.00
G01 X7.4465 Y-5.6838 F75.00
G01 X7.3355 Y-5.6316 F75.00
G01 X7.2247 Y-5.5917 F75.00
G01 X7.2059 Y-5.5860 F75.00
G01 X7.0916 Y-5.5576 F75.00
G01 X6.9752 Y-5.5401 F75.00
G01 X6.9556 Y-5.5381 F75.00
G01 X6.8380 Y-5.5326 F75.00
G01 X6.7204 Y-5.5381 F75.00
G01 X6.7008 Y-5.5401 F75.00
G01 X6.5844 Y-5.5576 F75.00
G01 X6.4701 Y-5.5860 F75.00
G01 X6.4513 Y-5.5917 F75.00
G01 X6.3405 Y-5.6316 F75.00
G01 X6.2340 Y-5.6817 F75.00
G01 X6.2166 Y-5.6909 F75.00
G01 X6.1241 Y-5.7464 F75.00
G01 X6.1077 Y-5.7573 F75.00
G01 X6.0133 Y-5.8277 F75.00
G01 X5.9188 Y-5.9134 F75.00
G01 X5.8395 Y-6.0005 F75.00
G01 X5.8300 Y-6.0117 F75.00
G01 X5.7599 Y-6.1063 F75.00
G01 X5.7544 Y-6.1145 F75.00
G01 X5.7436 Y-6.1323 F75.00
G01 X5.0600 Y-6.1323 F75.00
G01 X5.0599 Y-5.7577 F75.00
G01 X5.0590 Y-5.7430 F75.00
G01 X5.0562 Y-5.7236 F75.00
G01 X5.0528 Y-5.7093 F75.00
G01 X5.0483 Y-5.6952 F75.00
G01 X5.0428 Y-5.6816 F75.00
G01 X5.0340 Y-5.6640 F75.00
G01 X5.0263 Y-5.6515 F75.00
G01 X5.0177 Y-5.6396 F75.00
G01 X5.0082 Y-5.6283 F75.00
G01 X4.9979 Y-5.6178 F75.00
G01 X4.9869 Y-5.6080 F75.00
G01 X4.9752 Y-5.5991 F75.00
G01 X4.9586 Y-5.5886 F75.00
G01 X4.9455 Y-5.5818 F75.00
G01 X4.9320 Y-5.5760 F75.00
G01 X4.9181 Y-5.5712 F75.00
G01 X4.9038 Y-5.5675 F75.00
G01 X4.8893 Y-5.5648 F75.00
G01 X4.8747 Y-5.5631 F75.00
G01 X4.8600 Y-5.5626 F75.00
G00 Z2.0000
G00 X3.5099 Y-10.5625
G01 F45.00
G01 Z-0.0900
G01 F75.00
G01 X3.5110 Y-10.5637 F75.00
G01 X3.5316 Y-10.5586 F75.00
G01 X3.5412 Y-10.5567 F75.00
G01 X3.6626 Y-10.5389 F75.00
G01 X3.7900 Y-10.5326 F75.00
G01 X3.9174 Y-10.5389 F75.00
G01 X4.0388 Y-10.5567 F75.00
G01 X4.0484 Y-10.5586 F75.00
G01 X4.0690 Y-10.5637 F75.00
G01 X4.0701 Y-10.5625 F75.00
G01 X4.0047 Y-10.5459 F75.00
G01 X3.7900 Y-10.5281 F75.00
G01 X3.5753 Y-10.5459 F75.00
G01 X3.5099 Y-10.5625 F75.00
G00 Z2.0000
G00 X2.4900 Y-11.8326
G01 F45.00
G01 Z-0.0900
G01 F75.00
G01 X2.4963 Y-11.7052 F75.00
G01 X2.5141 Y-11.5838 F75.00
G01 X2.5160 Y-11.5742 F75.00
G01 X2.5211 Y-11.5536 F75.00
G01 X2.5189 Y-11.5515 F75.00
G01 X2.4900 Y-11.7249 F75.00
G01 X2.4900 Y-11.8326 F75.00
G00 Z2.0000
G00 X2.4900 Y-11.9403
G01 F45.00
G01 Z-0.0900
G01 F75.00
G01 X2.5189 Y-12.1137 F75.00
G01 X2.5211 Y-12.1116 F75.00
G01 X2.5160 Y-12.0910 F75.00
G01 X2.5141 Y-12.0814 F75.00
G01 X2.4963 Y-11.9600 F75.00
G01 X2.4900 Y-11.8326 F75.00
G01 X2.4900 Y-11.9403 F75.00
G00 Z2.0000
G00 X3.5099 Y-13.1027
G01 F45.00
G01 Z-0.0900
G01 F75.00
G01 X3.5753 Y-13.1193 F75.00
G01 X3.7900 Y-13.1371 F75.00
G01 X4.0047 Y-13.1193 F75.00
G01 X4.0701 Y-13.1027 F75.00
G01 X4.0690 Y-13.1015 F75.00
G01 X4.0484 Y-13.1066 F75.00
G01 X4.0388 Y-13.1085 F75.00
G01 X3.9174 Y-13.1263 F75.00
G01 X3.7900 Y-13.1326 F75.00
G01 X3.6626 Y-13.1263 F75.00
G01 X3.5412 Y-13.1085 F75.00
G01 X3.5316 Y-13.1066 F75.00
G01 X3.5110 Y-13.1015 F75.00
G01 X3.5099 Y-13.1027 F75.00
G00 Z2.0000
G00 X5.0589 Y-11.5536
G01 F45.00
G01 Z-0.0900
G01 F75.00
G01 X5.0640 Y-11.5742 F75.00
G01 X5.0659 Y-11.5838 F75.00
G01 X5.0832 Y-11.7003 F75.00
G01 X5.0845 Y-11.7150 F75.00
G01 X5.0900 Y-11.8326 F75.00
G01 X5.0845 Y-11.9502 F75.00
G01 X5.0832 Y-11.9649 F75.00
G01 X5.0659 Y-12.0814 F75.00
G01 X5.0640 Y-12.0910 F75.00
G01 X5.0589 Y-12.1116 F75.00
G01 X5.1677 Y-12.2203 F75.00
G01 X5.2054 Y-12.2044 F75.00
G01 X5.2195 Y-12.1994 F75.00
G01 X5.2291 Y-12.1966 F75.00
G01 X5.2388 Y-12.1944 F75.00
G01 X5.2535 Y-12.1920 F75.00
G01 X5.2684 Y-12.1906 F75.00
G01 X5.2784 Y-12.1903 F75.00
G01 X5.3768 Y-12.1947 F75.00
G01 X5.3967 Y-12.1967 F75.00
G01 X5.4162 Y-12.2006 F75.00
G01 X5.4306 Y-12.2048 F75.00
G01 X5.4446 Y-12.2100 F75.00
G01 X5.4622 Y-12.2184 F75.00
G01 X5.5691 Y-12.1116 F75.00
G01 X5.5640 Y-12.0910 F75.00
G01 X5.5621 Y-12.0814 F75.00
G01 X5.5448 Y-11.9649 F75.00
G01 X5.5435 Y-11.9502 F75.00
G01 X5.5380 Y-11.8326 F75.00
G01 X5.5435 Y-11.7150 F75.00
G01 X5.5448 Y-11.7003 F75.00
G01 X5.5621 Y-11.5838 F75.00
G01 X5.5640 Y-11.5742 F75.00
G01 X5.5691 Y-11.5536 F75.00
G01 X5.4603 Y-11.4449 F75.00
G01 X5.4226 Y-11.4608 F75.00
G01 X5.4085 Y-11.4658 F75.00
G01 X5.3989 Y-11.4686 F75.00
G01 X5.3843 Y-11.4717 F75.00
G01 X5.3745 Y-11.4732 F75.00
G01 X5.3596 Y-11.4746 F75.00
G01 X5.3496 Y-11.4749 F75.00
G01 X5.2512 Y-11.4705 F75.00
G01 X5.2313 Y-11.4685 F75.00
G01 X5.2118 Y-11.4646 F75.00
G01 X5.1974 Y-11.4604 F75.00
G01 X5.1834 Y-11.4552 F75.00
G01 X5.1658 Y-11.4468 F75.00
G01 X5.0589 Y-11.5536 F75.00
G00 Z2.0000
G00 X6.5579 Y-10.5625
G01 F45.00
G01 Z-0.0900
G01 F75.00
G01 X6.5590 Y-10.5637 F75.00
G01 X6.5796 Y-10.5586 F75.00
G01 X6.5892 Y-10.5567 F75.00
G01 X6.7106 Y-10.5389 F75.00
G01 X6.8380 Y-10.5326 F75.00
G01 X6.9654 Y-10.5389 F75.00
G01 X7.0868 Y-10.5567 F75.00
G01 X7.0964 Y-10.5586 F75.00
G01 X7.1170 Y-10.5637 F75.00
G01 X7.1181 Y-10.5625 F75.00
G01 X7.0527 Y-10.5459 F75.00
G01 X6.8380 Y-10.5281 F75.00
G01 X6.6233 Y-10.5459 F75.00
G01 X6.5579 Y-10.5625 F75.00
G00 Z2.0000
G00 X6.5579 Y-13.1027
G01 F45.00
G01 Z-0.0900
G01 F75.00
G01 X6.6233 Y-13.1193 F75.00
G01 X6.8380 Y-13.1371 F75.00
G01 X7.0527 Y-13.1193 F75.00
G01 X7.1181 Y-13.1027 F75.00
G01 X7.1170 Y-13.1015 F75.00
G01 X7.0964 Y-13.1066 F75.00
G01 X7.0868 Y-13.1085 F75.00
G01 X6.9654 Y-13.1263 F75.00
G01 X6.8380 Y-13.1326 F75.00
G01 X6.7106 Y-13.1263 F75.00
G01 X6.5892 Y-13.1085 F75.00
G01 X6.5796 Y-13.1066 F75.00
G01 X6.5590 Y-13.1015 F75.00
G01 X6.5579 Y-13.1027 F75.00
G00 Z2.0000
G00 X5.1563 Y-17.9956
G01 F45.00
G01 Z-0.0900
G01 F75.00
G01 X5.1385 Y-18.0064 F75.00
G01 X5.1263 Y-18.0147 F75.00
G01 X5.0396 Y-18.0790 F75.00
G01 X5.0245 Y-18.0915 F75.00
G01 X4.9374 Y-18.1708 F75.00
G01 X4.8581 Y-18.2579 F75.00
G01 X4.8456 Y-18.2730 F75.00
G01 X4.7757 Y-18.3678 F75.00
G01 X4.7101 Y-18.4772 F75.00
G01 X4.6556 Y-18.5925 F75.00
G01 X4.6157 Y-18.7033 F75.00
G01 X4.6100 Y-18.7221 F75.00
G01 X4.5816 Y-18.8364 F75.00
G01 X4.5629 Y-18.9626 F75.00
G01 X4.5566 Y-19.0900 F75.00
G01 X4.5629 Y-19.2174 F75.00
G01 X4.5816 Y-19.3436 F75.00
G01 X4.6126 Y-19.4674 F75.00
G01 X4.6556 Y-19.5875 F75.00
G01 X4.7101 Y-19.7028 F75.00
G01 X4.7757 Y-19.8122 F75.00
G01 X4.8517 Y-19.9147 F75.00
G01 X4.9374 Y-20.0092 F75.00
G01 X5.0245 Y-20.0885 F75.00
G01 X5.0396 Y-20.1010 F75.00
G01 X5.1344 Y-20.1709 F75.00
G01 X5.2352 Y-20.2317 F75.00
G01 X5.2526 Y-20.2409 F75.00
G01 X5.3501 Y-20.2871 F75.00
G01 X5.3683 Y-20.2946 F75.00
G01 X5.4792 Y-20.3340 F75.00
G01 X5.6030 Y-20.3650 F75.00
G01 X5.7292 Y-20.3837 F75.00
G01 X5.8566 Y-20.3900 F75.00
G01 X5.9840 Y-20.3837 F75.00
G01 X6.1102 Y-20.3650 F75.00
G01 X6.2340 Y-20.3340 F75.00
G01 X6.3495 Y-20.2929 F75.00
G01 X6.3631 Y-20.2871 F75.00
G01 X6.4606 Y-20.2409 F75.00
G01 X6.4780 Y-20.2317 F75.00
G01 X6.5788 Y-20.1709 F75.00
G01 X6.6736 Y-20.1010 F75.00
G01 X6.6887 Y-20.0885 F75.00
G01 X6.7758 Y-20.0092 F75.00
G01 X6.8551 Y-19.9221 F75.00
G01 X6.8676 Y-19.9070 F75.00
G01 X6.9375 Y-19.8122 F75.00
G01 X6.9983 Y-19.7114 F75.00
G01 X7.0075 Y-19.6940 F75.00
G01 X7.0576 Y-19.5875 F75.00
G01 X7.1006 Y-19.4674 F75.00
G01 X7.1295 Y-19.3532 F75.00
G01 X7.1333 Y-19.3339 F75.00
G01 X7.1491 Y-19.2272 F75.00
G01 X7.1508 Y-19.2125 F75.00
G01 X7.1566 Y-19.0900 F75.00
G01 X7.1511 Y-18.9724 F75.00
G01 X7.1491 Y-18.9528 F75.00
G01 X7.1316 Y-18.8364 F75.00
G01 X7.1032 Y-18.7221 F75.00
G01 X7.0975 Y-18.7033 F75.00
G01 X7.0576 Y-18.5925 F75.00
G01 X7.0075 Y-18.4860 F75.00
G01 X6.9983 Y-18.4686 F75.00
G01 X6.9428 Y-18.3761 F75.00
G01 X6.9319 Y-18.3597 F75.00
G01 X6.8615 Y-18.2653 F75.00
G01 X6.7826 Y-18.1779 F75.00
G01 X6.7687 Y-18.1640 F75.00
G01 X6.6813 Y-18.0851 F75.00
G01 X6.5829 Y-18.0119 F75.00
G01 X6.5747 Y-18.0064 F75.00
G01 X6.5569 Y-17.9956 F75.00
G01 X6.5569 Y-17.3585 F75.00
G01 X8.5700 Y-15.3453 F75.00
G01 X8.5702 Y-15.5648 F75.00
G01 X8.5715 Y-15.5795 F75.00
G01 X8.5749 Y-15.5988 F75.00
G01 X8.5801 Y-15.6177 F75.00
G01 X8.5872 Y-15.6360 F75.00
G01 X8.5914 Y-15.6449 F75.00
G01 X8.5985 Y-15.6578 F75.00
G01 X8.6037 Y-15.6661 F75.00
G01 X8.6123 Y-15.6780 F75.00
G01 X8.6218 Y-15.6893 F75.00
G01 X8.6286 Y-15.6964 F75.00
G01 X8.6394 Y-15.7064 F75.00
G01 X8.6509 Y-15.7156 F75.00
G01 X8.6630 Y-15.7240 F75.00
G01 X8.6714 Y-15.7290 F75.00
G01 X8.6845 Y-15.7358 F75.00
G01 X8.6980 Y-15.7416 F75.00
G01 X8.7073 Y-15.7449 F75.00
G01 X8.7214 Y-15.7490 F75.00
G01 X8.7358 Y-15.7521 F75.00
G01 X8.7455 Y-15.7535 F75.00
G01 X8.7602 Y-15.7548 F75.00
G01 X8.7700 Y-15.7550 F75.00
G01 X10.9149 Y-15.7549 F75.00
G01 X10.9247 Y-15.7545 F75.00
G01 X10.9393 Y-15.7528 F75.00
G01 X10.9586 Y-15.7490 F75.00
G01 X10.9774 Y-15.7433 F75.00
G01 X10.9955 Y-15.7358 F75.00
G01 X11.0128 Y-15.7265 F75.00
G01 X11.0252 Y-15.7185 F75.00
G01 X11.0330 Y-15.7127 F75.00
G01 X11.0479 Y-15.6998 F75.00
G01 X11.0582 Y-15.6893 F75.00
G01 X11.0646 Y-15.6819 F75.00
G01 X11.0735 Y-15.6702 F75.00
G01 X11.0815 Y-15.6578 F75.00
G01 X11.0886 Y-15.6449 F75.00
G01 X11.0966 Y-15.6270 F75.00
G01 X11.1014 Y-15.6131 F75.00
G01 X11.1062 Y-15.5940 F75.00
G01 X11.1085 Y-15.5795 F75.00
G01 X11.1099 Y-15.5599 F75.00
G01 X11.1100 Y-13.4150 F75.00
G01 X11.1090 Y-13.3954 F75.00
G01 X11.1078 Y-13.3857 F75.00
G01 X11.1051 Y-13.3712 F75.00
G01 X11.1014 Y-13.3569 F75.00
G01 X11.0966 Y-13.3430 F75.00
G01 X11.0908 Y-13.3295 F75.00
G01 X11.0864 Y-13.3207 F75.00
G01 X11.0790 Y-13.3080 F75.00
G01 X11.0706 Y-13.2959 F75.00
G01 X11.0646 Y-13.2881 F75.00
G01 X11.0548 Y-13.2771 F75.00
G01 X11.0443 Y-13.2668 F75.00
G01 X11.0330 Y-13.2573 F75.00
G01 X11.0211 Y-13.2487 F75.00
G01 X11.0128 Y-13.2435 F75.00
G01 X10.9999 Y-13.2364 F75.00
G01 X10.9865 Y-13.2302 F75.00
G01 X10.9727 Y-13.2251 F75.00
G01 X10.9633 Y-13.2222 F75.00
G01 X10.9538 Y-13.2199 F75.00
G01 X10.9393 Y-13.2172 F75.00
G01 X10.9296 Y-13.2160 F75.00
G01 X10.9149 Y-13.2151 F75.00
G01 X10.5403 Y-13.2150 F75.00
G01 X10.9149 Y-13.2149 F75.00
G01 X10.9296 Y-13.2140 F75.00
G01 X10.9393 Y-13.2128 F75.00
G01 X10.9538 Y-13.2101 F75.00
G01 X10.9633 Y-13.2078 F75.00
G01 X10.9774 Y-13.2033 F75.00
G01 X10.9865 Y-13.1998 F75.00
G01 X10.9999 Y-13.1936 F75.00
G01 X11.0128 Y-13.1865 F75.00
G01 X11.0252 Y-13.1785 F75.00
G01 X11.0369 Y-13.1696 F75.00
G01 X11.0443 Y-13.1632 F75.00
G01 X11.0548 Y-13.1529 F75.00
G01 X11.0646 Y-13.1419 F75.00
G01 X11.0735 Y-13.1302 F75.00
G01 X11.0790 Y-13.1220 F75.00
G01 X11.0864 Y-13.1093 F75.00
G01 X11.0928 Y-13.0960 F75.00
G01 X11.0983 Y-13.0824 F75.00
G01 X11.1028 Y-13.0683 F75.00
G01 X11.1062 Y-13.0540 F75.00
G01 X11.1090 Y-13.0346 F75.00
G01 X11.1100 Y-13.0150 F75.00
G01 X11.1099 Y-10.8701 F75.00
G01 X11.1085 Y-10.8505 F75.00
G01 X11.1071 Y-10.8408 F75.00
G01 X11.1040 Y-10.8264 F75.00
G01 X11.0999 Y-10.8123 F75.00
G01 X11.0966 Y-10.8030 F75.00
G01 X11.0886 Y-10.7851 F75.00
G01 X11.0790 Y-10.7680 F75.00
G01 X11.0706 Y-10.7559 F75.00
G01 X11.0646 Y-10.7481 F75.00
G01 X11.0514 Y-10.7336 F75.00
G01 X11.0369 Y-10.7204 F75.00
G01 X11.0252 Y-10.7115 F75.00
G01 X11.0128 Y-10.7035 F75.00
G01 X10.9999 Y-10.6964 F75.00
G01 X10.9820 Y-10.6884 F75.00
G01 X10.9681 Y-10.6836 F75.00
G01 X10.9490 Y-10.6788 F75.00
G01 X10.9296 Y-10.6760 F75.00
G01 X10.9149 Y-10.6751 F75.00
G01 X8.7700 Y-10.6750 F75.00
G01 X8.7504 Y-10.6760 F75.00
G01 X8.7407 Y-10.6772 F75.00
G01 X8.7262 Y-10.6799 F75.00
G01 X8.7073 Y-10.6851 F75.00
G01 X8.6935 Y-10.6902 F75.00
G01 X8.6845 Y-10.6942 F75.00
G01 X8.6672 Y-10.7035 F75.00
G01 X8.6548 Y-10.7115 F75.00
G01 X8.6470 Y-10.7173 F75.00
G01 X8.6321 Y-10.7302 F75.00
G01 X8.6252 Y-10.7371 F75.00
G01 X8.6154 Y-10.7481 F75.00
G01 X8.6037 Y-10.7639 F75.00
G01 X8.5960 Y-10.7764 F75.00
G01 X8.5892 Y-10.7895 F75.00
G01 X8.5817 Y-10.8076 F75.00
G01 X8.5772 Y-10.8217 F75.00
G01 X8.5729 Y-10.8408 F75.00
G01 X8.5710 Y-10.8554 F75.00
G01 X8.5701 Y-10.8701 F75.00
G01 X8.5700 Y-13.0150 F75.00
G01 X8.5710 Y-13.0346 F75.00
G01 X8.5722 Y-13.0443 F75.00
G01 X8.5749 Y-13.0588 F75.00
G01 X8.5786 Y-13.0731 F75.00
G01 X8.5834 Y-13.0870 F75.00
G01 X8.5892 Y-13.1005 F75.00
G01 X8.5936 Y-13.1093 F75.00
G01 X8.6010 Y-13.1220 F75.00
G01 X8.6094 Y-13.1341 F75.00
G01 X8.6154 Y-13.1419 F75.00
G01 X8.6252 Y-13.1529 F75.00
G01 X8.6357 Y-13.1632 F75.00
G01 X8.6470 Y-13.1727 F75.00
G01 X8.6589 Y-13.1813 F75.00
G01 X8.6672 Y-13.1865 F75.00
G01 X8.6801 Y-13.1936 F75.00
G01 X8.6935 Y-13.1998 F75.00
G01 X8.7073 Y-13.2049 F75.00
G01 X8.7167 Y-13.2078 F75.00
G01 X8.7262 Y-13.2101 F75.00
G01 X8.7407 Y-13.2128 F75.00
G01 X8.7504 Y-13.2140 F75.00
G01 X8.7651 Y-13.2149 F75.00
G01 X9.1397 Y-13.2150 F75.00
G01 X8.7700 Y-13.2150 F75.00
G01 X8.7504 Y-13.2160 F75.00
G01 X8.7358 Y-13.2179 F75.00
G01 X8.7167 Y-13.2222 F75.00
G01 X8.7026 Y-13.2267 F75.00
G01 X8.6890 Y-13.2322 F75.00
G01 X8.6757 Y-13.2386 F75.00
G01 X8.6589 Y-13.2487 F75.00
G01 X8.6470 Y-13.2573 F75.00
G01 X8.6357 Y-13.2668 F75.00
G01 X8.6218 Y-13.2807 F75.00
G01 X8.6123 Y-13.2920 F75.00
G01 X8.6010 Y-13.3080 F75.00
G01 X8.5914 Y-13.3251 F75.00
G01 X8.5834 Y-13.3430 F75.00
G01 X8.5786 Y-13.3569 F75.00
G01 X8.5749 Y-13.3712 F75.00
G01 X8.5715 Y-13.3905 F75.00
G01 X8.5702 Y-13.4052 F75.00
G01 X8.5700 Y-13.4150 F75.00
G01 X8.5700 Y-13.7847 F75.00
G01 X8.4351 Y-13.7848 F75.00
G01 X8.3714 Y-13.7881 F75.00
G01 X8.3034 Y-13.7982 F75.00
G01 X8.2414 Y-13.8135 F75.00
G01 X8.2274 Y-13.8180 F75.00
G01 X8.1720 Y-13.8381 F75.00
G01 X8.1099 Y-13.8674 F75.00
G01 X8.0510 Y-13.9028 F75.00
G01 X8.0035 Y-13.9377 F75.00
G01 X7.9920 Y-13.9469 F75.00
G01 X7.9448 Y-13.9898 F75.00
G01 X5.3614 Y-16.5732 F75.00
G01 X5.3153 Y-16.6242 F75.00
G01 X5.2744 Y-16.6794 F75.00
G01 X5.2439 Y-16.7298 F75.00
G01 X5.2346 Y-16.7471 F75.00
G01 X5.2097 Y-16.8004 F75.00
G01 X5.1896 Y-16.8558 F75.00
G01 X5.1839 Y-16.8746 F75.00
G01 X5.1698 Y-16.9318 F75.00
G01 X5.1603 Y-16.9949 F75.00
G01 X5.1590 Y-17.0096 F75.00
G01 X5.1563 Y-17.0684 F75.00
G01 X5.1563 Y-17.9956 F75.00
G00 Z2.0000
G00 X7.8840 Y-20.5740
G01 F45.00
G01 Z-0.0900
G01 F75.00
G01 X7.8903 Y-20.4466 F75.00
G01 X7.9081 Y-20.3252 F75.00
G01 X7.9100 Y-20.3156 F75.00
G01 X7.9151 Y-20.2950 F75.00
G01 X7.9129 Y-20.2929 F75.00
G01 X7.8840 Y-20.4663 F75.00
G01 X7.8840 Y-20.5740 F75.00
G00 Z2.0000
G00 X7.8840 Y-20.6817
G01 F45.00
G01 Z-0.0900
G01 F75.00
G01 X7.9129 Y-20.8551 F75.00
G01 X7.9151 Y-20.8530 F75.00
G01 X7.9100 Y-20.8324 F75.00
G01 X7.9081 Y-20.8228 F75.00
G01 X7.8903 Y-20.7014 F75.00
G01 X7.8840 Y-20.5740 F75.00
G01 X7.8840 Y-20.6817 F75.00
G00 Z2.0000
G00 X8.9050 Y-21.8429
G01 F45.00
G01 Z-0.0900
G01 F75.00
G01 X8.8885 Y-21.8594 F75.00
G01 X8.9250 Y-21.8959 F75.00
G01 X8.9456 Y-21.8908 F75.00
G01 X8.9601 Y-21.8881 F75.00
G01 X9.0717 Y-21.8716 F75.00
G01 X9.0815 Y-21.8706 F75.00
G01 X9.0955 Y-21.8699 F75.00
G01 X9.0615 Y-21.8682 F75.00
G01 X9.0468 Y-21.8665 F75.00
G01 X8.9352 Y-21.8499 F75.00
G01 X8.9256 Y-21.8480 F75.00
G01 X8.9050 Y-21.8429 F75.00
G00 Z2.0000
G00 X9.2925 Y-21.8689
G01 F45.00
G01 Z-0.0900
G01 F75.00
G01 X9.3265 Y-21.8706 F75.00
G01 X9.3412 Y-21.8723 F75.00
G01 X9.4528 Y-21.8889 F75.00
G01 X9.4624 Y-21.8908 F75.00
G01 X9.4830 Y-21.8959 F75.00
G01 X9.4995 Y-21.8794 F75.00
G01 X9.4630 Y-21.8429 F75.00
G01 X9.4424 Y-21.8480 F75.00
G01 X9.4279 Y-21.8507 F75.00
G01 X9.3163 Y-21.8672 F75.00
G01 X9.3065 Y-21.8682 F75.00
G01 X9.2925 Y-21.8689 F75.00
G00 Z2.0000
G00 X10.4551 Y-20.8551
G01 F45.00
G01 Z-0.0900
G01 F75.00
G01 X10.4840 Y-20.6817 F75.00
G01 X10.4840 Y-20.4663 F75.00
G01 X10.4551 Y-20.2929 F75.00
G01 X10.4529 Y-20.2950 F75.00
G01 X10.4580 Y-20.3156 F75.00
G01 X10.4599 Y-20.3252 F75.00
G01 X10.4777 Y-20.4466 F75.00
G01 X10.4840 Y-20.5740 F75.00
G01 X10.4777 Y-20.7014 F75.00
G01 X10.4599 Y-20.8228 F75.00
G01 X10.4580 Y-20.8324 F75.00
G01 X10.4529 Y-20.8530 F75.00
G01 X10.4551 Y-20.8551 F75.00
G00 Z2.0000
G00 X8.9039 Y-19.3039
G01 F45.00
G01 Z-0.0900
G01 F75.00
G01 X8.9050 Y-19.3051 F75.00
G01 X8.9256 Y-19.3000 F75.00
G01 X8.9352 Y-19.2981 F75.00
G01 X9.0566 Y-19.2803 F75.00
G01 X9.1840 Y-19.2740 F75.00
G01 X9.3114 Y-19.2803 F75.00
G01 X9.4328 Y-19.2981 F75.00
G01 X9.4424 Y-19.3000 F75.00
G01 X9.4630 Y-19.3051 F75.00
G01 X9.4641 Y-19.3039 F75.00
G01 X9.3987 Y-19.2873 F75.00
G01 X9.1840 Y-19.2695 F75.00
G01 X8.9693 Y-19.2873 F75.00
G01 X8.9039 Y-19.3039 F75.00
G00 Z2.0000
G00 X7.9040 Y-23.1648
G01 F45.00
G01 Z-0.0900
G01 F75.00
G01 X7.9103 Y-23.0374 F75.00
G01 X7.9281 Y-22.9160 F75.00
G01 X7.9300 Y-22.9064 F75.00
G01 X7.9351 Y-22.8858 F75.00
G01 X7.9329 Y-22.8837 F75.00
G01 X7.9040 Y-23.0571 F75.00
G01 X7.9040 Y-23.1648 F75.00
G00 Z2.0000
G00 X7.9040 Y-23.2725
G01 F45.00
G01 Z-0.0900
G01 F75.00
G01 X7.9329 Y-23.4459 F75.00
G01 X7.9351 Y-23.4438 F75.00
G01 X7.9300 Y-23.4232 F75.00
G01 X7.9281 Y-23.4136 F75.00
G01 X7.9103 Y-23.2922 F75.00
G01 X7.9040 Y-23.1648 F75.00
G01 X7.9040 Y-23.2725 F75.00
G00 Z2.0000
G00 X8.9250 Y-24.4337
G01 F45.00
G01 Z-0.0900
G01 F75.00
G01 X8.9239 Y-24.4349 F75.00
G01 X8.9893 Y-24.4515 F75.00
G01 X9.2040 Y-24.4693 F75.00
G01 X9.4187 Y-24.4515 F75.00
G01 X9.4841 Y-24.4349 F75.00
G01 X9.4830 Y-24.4337 F75.00
G01 X9.4624 Y-24.4388 F75.00
G01 X9.4528 Y-24.4407 F75.00
G01 X9.3314 Y-24.4585 F75.00
G01 X9.2040 Y-24.4648 F75.00
G01 X9.0864 Y-24.4593 F75.00
G01 X9.0717 Y-24.4580 F75.00
G01 X8.9552 Y-24.4407 F75.00
G01 X8.9456 Y-24.4388 F75.00
G01 X8.9250 Y-24.4337 F75.00
G00 Z2.0000
G00 X8.6360 Y-26.2201
G01 F45.00
G01 Z-0.0900
G01 F75.00
G01 X8.6213 Y-26.2272 F75.00
G01 X8.6126 Y-26.2318 F75.00
G01 X8.5663 Y-26.2595 F75.00
G01 X8.5539 Y-26.2675 F75.00
G01 X8.5028 Y-26.3057 F75.00
G01 X8.4518 Y-26.3518 F75.00
G01 X2.8280 Y-31.9758 F75.00
G01 X2.7853 Y-32.0232 F75.00
G01 X2.7500 Y-32.0703 F75.00
G01 X2.7417 Y-32.0825 F75.00
G01 X2.7139 Y-32.1288 F75.00
G01 X2.7046 Y-32.1461 F75.00
G01 X2.6797 Y-32.1994 F75.00
G01 X2.6565 Y-32.2641 F75.00
G01 X2.6398 Y-32.3308 F75.00
G01 X2.6303 Y-32.3939 F75.00
G01 X2.6290 Y-32.4086 F75.00
G01 X2.6263 Y-32.4674 F75.00
G01 X2.6263 Y-48.7709 F75.00
G01 X2.6293 Y-48.8346 F75.00
G01 X2.6309 Y-48.8492 F75.00
G01 X2.6381 Y-48.8978 F75.00
G01 X2.6420 Y-48.9170 F75.00
G01 X2.6565 Y-48.9741 F75.00
G01 X2.6797 Y-49.0388 F75.00
G01 X2.7090 Y-49.1010 F75.00
G01 X2.7391 Y-49.1516 F75.00
G01 X2.7471 Y-49.1639 F75.00
G01 X2.7793 Y-49.2074 F75.00
G01 X2.7917 Y-49.2225 F75.00
G01 X2.8314 Y-49.2660 F75.00
G01 X3.8902 Y-50.3253 F75.00
G01 X3.9107 Y-50.3529 F75.00
G01 X3.9199 Y-50.3644 F75.00
G01 X3.9628 Y-50.4116 F75.00
G01 X4.8877 Y-51.3365 F75.00
G01 X4.8877 Y-54.3630 F75.00
G01 X4.5131 Y-54.3631 F75.00
G01 X4.4984 Y-54.3640 F75.00
G01 X4.4838 Y-54.3659 F75.00
G01 X4.4694 Y-54.3690 F75.00
G01 X4.4553 Y-54.3731 F75.00
G01 X4.4415 Y-54.3782 F75.00
G01 X4.4281 Y-54.3844 F75.00
G01 X4.4152 Y-54.3915 F75.00
G01 X4.4028 Y-54.3995 F75.00
G01 X4.3911 Y-54.4084 F75.00
G01 X4.3801 Y-54.4182 F75.00
G01 X4.3698 Y-54.4287 F75.00
G01 X4.3603 Y-54.4400 F75.00
G01 X4.3517 Y-54.4519 F75.00
G01 X4.3440 Y-54.4644 F75.00
G01 X4.3372 Y-54.4775 F75.00
G01 X4.3314 Y-54.4910 F75.00
G01 X4.3266 Y-54.5049 F75.00
G01 X4.3229 Y-54.5192 F75.00
G01 X4.3202 Y-54.5337 F75.00
G01 X4.3185 Y-54.5483 F75.00
G01 X4.3180 Y-54.5630 F75.00
G01 X4.3180 Y-56.7030 F75.00
G01 X4.3185 Y-56.7177 F75.00
G01 X4.3202 Y-56.7323 F75.00
G01 X4.3240 Y-56.7516 F75.00
G01 X4.3297 Y-56.7704 F75.00
G01 X4.3352 Y-56.7840 F75.00
G01 X4.3440 Y-56.8016 F75.00
G01 X4.3517 Y-56.8141 F75.00
G01 X4.3634 Y-56.8299 F75.00
G01 X4.3732 Y-56.8409 F75.00
G01 X4.3837 Y-56.8512 F75.00
G01 X4.3989 Y-56.8636 F75.00
G01 X4.4110 Y-56.8720 F75.00
G01 X4.4281 Y-56.8816 F75.00
G01 X4.4415 Y-56.8878 F75.00
G01 X4.4599 Y-56.8944 F75.00
G01 X4.4742 Y-56.8981 F75.00
G01 X4.4935 Y-56.9015 F75.00
G01 X4.5033 Y-56.9025 F75.00
G01 X4.5180 Y-56.9030 F75.00
G01 X6.6629 Y-56.9029 F75.00
G01 X6.6825 Y-56.9015 F75.00
G01 X6.7018 Y-56.8981 F75.00
G01 X6.7207 Y-56.8929 F75.00
G01 X6.7390 Y-56.8858 F75.00
G01 X6.7523 Y-56.8794 F75.00
G01 X6.7691 Y-56.8693 F75.00
G01 X6.7849 Y-56.8576 F75.00
G01 X6.7994 Y-56.8444 F75.00
G01 X6.8126 Y-56.8299 F75.00
G01 X6.8215 Y-56.8182 F75.00
G01 X6.8320 Y-56.8016 F75.00
G01 X6.8408 Y-56.7840 F75.00
G01 X6.8479 Y-56.7657 F75.00
G01 X6.8531 Y-56.7468 F75.00
G01 X6.8565 Y-56.7275 F75.00
G01 X6.8579 Y-56.7079 F75.00
G01 X6.8579 Y-54.5581 F75.00
G01 X6.8565 Y-54.5385 F75.00
G01 X6.8542 Y-54.5240 F75.00
G01 X6.8508 Y-54.5097 F75.00
G01 X6.8463 Y-54.4956 F75.00
G01 X6.8408 Y-54.4820 F75.00
G01 X6.8344 Y-54.4687 F75.00
G01 X6.8270 Y-54.4560 F75.00
G01 X6.8186 Y-54.4439 F75.00
G01 X6.8094 Y-54.4324 F75.00
G01 X6.7994 Y-54.4216 F75.00
G01 X6.7886 Y-54.4116 F75.00
G01 X6.7771 Y-54.4024 F75.00
G01 X6.7650 Y-54.3940 F75.00
G01 X6.7523 Y-54.3866 F75.00
G01 X6.7390 Y-54.3802 F75.00
G01 X6.7207 Y-54.3731 F75.00
G01 X6.7066 Y-54.3690 F75.00
G01 X6.6922 Y-54.3659 F75.00
G01 X6.6776 Y-54.3640 F75.00
G01 X6.6629 Y-54.3631 F75.00
G01 X6.2883 Y-54.3630 F75.00
G01 X6.2882 Y-51.0415 F75.00
G01 X6.2849 Y-50.9778 F75.00
G01 X6.2748 Y-50.9098 F75.00
G01 X6.2581 Y-50.8431 F75.00
G01 X6.2385 Y-50.7876 F75.00
G01 X6.2310 Y-50.7695 F75.00
G01 X6.2056 Y-50.7163 F75.00
G01 X6.1702 Y-50.6574 F75.00
G01 X6.1293 Y-50.6022 F75.00
G01 X6.0866 Y-50.5548 F75.00
G01 X5.0258 Y-49.4934 F75.00
G01 X5.0053 Y-49.4658 F75.00
G01 X4.9961 Y-49.4543 F75.00
G01 X4.9532 Y-49.4071 F75.00
G01 X4.0269 Y-48.4808 F75.00
G01 X4.0269 Y-32.7575 F75.00
G01 X8.7111 Y-28.0732 F75.00
G01 X8.7249 Y-28.0833 F75.00
G01 X8.7374 Y-28.0910 F75.00
G01 X8.7505 Y-28.0978 F75.00
G01 X8.7686 Y-28.1053 F75.00
G01 X8.7827 Y-28.1098 F75.00
G01 X8.7970 Y-28.1132 F75.00
G01 X8.8115 Y-28.1155 F75.00
G01 X8.8311 Y-28.1169 F75.00
G01 X10.9809 Y-28.1169 F75.00
G01 X10.9907 Y-28.1165 F75.00
G01 X11.0053 Y-28.1148 F75.00
G01 X11.0198 Y-28.1121 F75.00
G01 X11.0293 Y-28.1098 F75.00
G01 X11.0480 Y-28.1036 F75.00
G01 X11.0570 Y-28.0998 F75.00
G01 X11.0703 Y-28.0934 F75.00
G01 X11.0830 Y-28.0860 F75.00
G01 X11.0912 Y-28.0805 F75.00
G01 X11.1029 Y-28.0716 F75.00
G01 X11.1103 Y-28.0652 F75.00
G01 X11.1174 Y-28.0584 F75.00
G01 X11.1274 Y-28.0476 F75.00
G01 X11.1395 Y-28.0322 F75.00
G01 X11.1475 Y-28.0198 F75.00
G01 X11.1546 Y-28.0069 F75.00
G01 X11.1608 Y-27.9935 F75.00
G01 X11.1659 Y-27.9797 F75.00
G01 X11.1700 Y-27.9656 F75.00
G01 X11.1731 Y-27.9512 F75.00
G01 X11.1750 Y-27.9366 F75.00
G01 X11.1759 Y-27.9219 F75.00
G01 X11.1759 Y-25.7721 F75.00
G01 X11.1755 Y-25.7623 F75.00
G01 X11.1738 Y-25.7477 F75.00
G01 X11.1722 Y-25.7380 F75.00
G01 X11.1688 Y-25.7237 F75.00
G01 X11.1659 Y-25.7143 F75.00
G01 X11.1608 Y-25.7005 F75.00
G01 X11.1524 Y-25.6827 F75.00
G01 X11.1475 Y-25.6742 F75.00
G01 X11.1395 Y-25.6618 F75.00
G01 X11.1274 Y-25.6464 F75.00
G01 X11.1174 Y-25.6356 F75.00
G01 X11.1103 Y-25.6288 F75.00
G01 X11.0951 Y-25.6164 F75.00
G01 X11.0830 Y-25.6080 F75.00
G01 X11.0703 Y-25.6006 F75.00
G01 X11.0570 Y-25.5942 F75.00
G01 X11.0434 Y-25.5887 F75.00
G01 X11.0293 Y-25.5842 F75.00
G01 X11.0150 Y-25.5808 F75.00
G01 X11.0005 Y-25.5785 F75.00
G01 X10.9809 Y-25.5771 F75.00
G01 X8.8360 Y-25.5770 F75.00
G01 X8.8262 Y-25.5772 F75.00
G01 X8.8115 Y-25.5785 F75.00
G01 X8.7970 Y-25.5808 F75.00
G01 X8.7874 Y-25.5830 F75.00
G01 X8.7779 Y-25.5856 F75.00
G01 X8.7640 Y-25.5904 F75.00
G01 X8.7505 Y-25.5962 F75.00
G01 X8.7374 Y-25.6030 F75.00
G01 X8.7249 Y-25.6107 F75.00
G01 X8.7130 Y-25.6193 F75.00
G01 X8.7017 Y-25.6288 F75.00
G01 X8.6946 Y-25.6356 F75.00
G01 X8.6878 Y-25.6427 F75.00
G01 X8.6783 Y-25.6540 F75.00
G01 X8.6697 Y-25.6659 F75.00
G01 X8.6620 Y-25.6784 F75.00
G01 X8.6552 Y-25.6915 F75.00
G01 X8.6494 Y-25.7050 F75.00
G01 X8.6446 Y-25.7189 F75.00
G01 X8.6420 Y-25.7284 F75.00
G01 X8.6398 Y-25.7380 F75.00
G01 X8.6375 Y-25.7525 F75.00
G01 X8.6365 Y-25.7623 F75.00
G01 X8.6360 Y-25.7770 F75.00
G01 X8.6360 Y-26.2201 F75.00
G00 Z2.0000
G00 X10.9760 Y-28.1170
G01 F45.00
G01 Z-0.0900
G01 F75.00
G01 X8.8311 Y-28.1171 F75.00
G01 X8.8164 Y-28.1180 F75.00
G01 X8.8018 Y-28.1199 F75.00
G01 X8.7874 Y-28.1230 F75.00
G01 X8.7733 Y-28.1271 F75.00
G01 X8.7595 Y-28.1322 F75.00
G01 X8.7417 Y-28.1406 F75.00
G01 X8.7290 Y-28.1480 F75.00
G01 X8.7169 Y-28.1564 F75.00
G01 X8.7017 Y-28.1688 F75.00
G01 X8.6878 Y-28.1827 F75.00
G01 X8.6754 Y-28.1979 F75.00
G01 X8.6645 Y-28.2142 F75.00
G01 X8.6552 Y-28.2315 F75.00
G01 X8.6477 Y-28.2496 F75.00
G01 X8.6420 Y-28.2684 F75.00
G01 X8.6382 Y-28.2877 F75.00
G01 X8.6365 Y-28.3023 F75.00
G01 X8.6360 Y-28.3170 F75.00
G01 X8.6360 Y-28.6867 F75.00
G01 X8.6188 Y-28.6870 F75.00
G01 X8.5600 Y-28.6901 F75.00
G01 X8.4920 Y-28.7002 F75.00
G01 X8.4253 Y-28.7169 F75.00
G01 X8.3606 Y-28.7401 F75.00
G01 X8.2985 Y-28.7694 F75.00
G01 X8.2396 Y-28.8048 F75.00
G01 X8.1844 Y-28.8457 F75.00
G01 X8.1334 Y-28.8918 F75.00
G01 X4.2380 Y-32.7874 F75.00
G01 X4.1953 Y-32.8348 F75.00
G01 X4.1600 Y-32.8819 F75.00
G01 X4.1517 Y-32.8941 F75.00
G01 X4.1239 Y-32.9404 F75.00
G01 X4.1146 Y-32.9577 F75.00
G01 X4.0897 Y-33.0110 F75.00
G01 X4.0665 Y-33.0757 F75.00
G01 X4.0498 Y-33.1424 F75.00
G01 X4.0409 Y-33.2006 F75.00
G01 X4.0390 Y-33.2202 F75.00
G01 X4.0363 Y-33.2790 F75.00
G01 X4.0363 Y-48.1630 F75.00
G01 X4.0390 Y-48.2218 F75.00
G01 X4.0403 Y-48.2365 F75.00
G01 X4.0498 Y-48.2996 F75.00
G01 X4.0665 Y-48.3663 F75.00
G01 X4.0897 Y-48.4310 F75.00
G01 X4.1146 Y-48.4843 F75.00
G01 X4.1239 Y-48.5016 F75.00
G01 X4.1517 Y-48.5479 F75.00
G01 X4.1600 Y-48.5601 F75.00
G01 X4.1953 Y-48.6072 F75.00
G01 X4.2380 Y-48.6546 F75.00
G01 X7.4277 Y-51.8445 F75.00
G01 X7.4277 Y-54.3630 F75.00
G01 X7.0531 Y-54.3631 F75.00
G01 X7.0384 Y-54.3640 F75.00
G01 X7.0238 Y-54.3659 F75.00
G01 X7.0094 Y-54.3690 F75.00
G01 X6.9953 Y-54.3731 F75.00
G01 X6.9815 Y-54.3782 F75.00
G01 X6.9681 Y-54.3844 F75.00
G01 X6.9552 Y-54.3915 F75.00
G01 X6.9428 Y-54.3995 F75.00
G01 X6.9311 Y-54.4084 F75.00
G01 X6.9201 Y-54.4182 F75.00
G01 X6.9098 Y-54.4287 F75.00
G01 X6.9003 Y-54.4400 F75.00
G01 X6.8917 Y-54.4519 F75.00
G01 X6.8840 Y-54.4644 F75.00
G01 X6.8772 Y-54.4775 F75.00
G01 X6.8714 Y-54.4910 F75.00
G01 X6.8666 Y-54.5049 F75.00
G01 X6.8629 Y-54.5192 F75.00
G01 X6.8602 Y-54.5337 F75.00
G01 X6.8585 Y-54.5483 F75.00
G01 X6.8580 Y-54.5630 F75.00
G01 X6.8580 Y-56.7030 F75.00
G01 X6.8585 Y-56.7177 F75.00
G01 X6.8602 Y-56.7323 F75.00
G01 X6.8640 Y-56.7516 F75.00
G01 X6.8697 Y-56.7704 F75.00
G01 X6.8752 Y-56.7840 F75.00
G01 X6.8840 Y-56.8016 F75.00
G01 X6.8917 Y-56.8141 F75.00
G01 X6.9034 Y-56.8299 F75.00
G01 X6.9132 Y-56.8409 F75.00
G01 X6.9237 Y-56.8512 F75.00
G01 X6.9389 Y-56.8636 F75.00
G01 X6.9510 Y-56.8720 F75.00
G01 X6.9681 Y-56.8816 F75.00
G01 X6.9815 Y-56.8878 F75.00
G01 X6.9953 Y-56.8929 F75.00
G01 X7.0142 Y-56.8981 F75.00
G01 X7.0287 Y-56.9008 F75.00
G01 X7.0433 Y-56.9025 F75.00
G01 X7.0580 Y-56.9030 F75.00
G01 X9.2029 Y-56.9029 F75.00
G01 X9.2225 Y-56.9015 F75.00
G01 X9.2418 Y-56.8981 F75.00
G01 X9.2607 Y-56.8929 F75.00
G01 X9.2790 Y-56.8858 F75.00
G01 X9.2923 Y-56.8794 F75.00
G01 X9.3091 Y-56.8693 F75.00
G01 X9.3249 Y-56.8576 F75.00
G01 X9.3394 Y-56.8444 F75.00
G01 X9.3526 Y-56.8299 F75.00
G01 X9.3615 Y-56.8182 F75.00
G01 X9.3720 Y-56.8016 F75.00
G01 X9.3808 Y-56.7840 F75.00
G01 X9.3879 Y-56.7657 F75.00
G01 X9.3931 Y-56.7468 F75.00
G01 X9.3965 Y-56.7275 F75.00
G01 X9.3979 Y-56.7079 F75.00
G01 X9.3980 Y-54.5630 F75.00
G01 X9.3975 Y-54.5483 F75.00
G01 X9.3958 Y-54.5337 F75.00
G01 X9.3931 Y-54.5192 F75.00
G01 X9.3894 Y-54.5049 F75.00
G01 X9.3846 Y-54.4910 F75.00
G01 X9.3788 Y-54.4775 F75.00
G01 X9.3720 Y-54.4644 F75.00
G01 X9.3643 Y-54.4519 F75.00
G01 X9.3557 Y-54.4400 F75.00
G01 X9.3462 Y-54.4287 F75.00
G01 X9.3359 Y-54.4182 F75.00
G01 X9.3249 Y-54.4084 F75.00
G01 X9.3132 Y-54.3995 F75.00
G01 X9.3008 Y-54.3915 F75.00
G01 X9.2879 Y-54.3844 F75.00
G01 X9.2745 Y-54.3782 F75.00
G01 X9.2607 Y-54.3731 F75.00
G01 X9.2466 Y-54.3690 F75.00
G01 X9.2322 Y-54.3659 F75.00
G01 X9.2176 Y-54.3640 F75.00
G01 X9.2029 Y-54.3631 F75.00
G01 X8.8283 Y-54.3630 F75.00
G01 X8.8282 Y-51.5495 F75.00
G01 X8.8256 Y-51.4956 F75.00
G01 X8.8237 Y-51.4760 F75.00
G01 X8.8148 Y-51.4178 F75.00
G01 X8.8007 Y-51.3606 F75.00
G01 X8.7950 Y-51.3418 F75.00
G01 X8.7749 Y-51.2864 F75.00
G01 X8.7500 Y-51.2331 F75.00
G01 X8.7407 Y-51.2158 F75.00
G01 X8.7102 Y-51.1654 F75.00
G01 X8.6753 Y-51.1179 F75.00
G01 X8.6629 Y-51.1027 F75.00
G01 X8.6232 Y-51.0592 F75.00
G01 X5.4369 Y-47.8729 F75.00
G01 X5.4369 Y-33.5691 F75.00
G01 X8.6360 Y-30.3701 F75.00
G01 X8.6361 Y-30.4619 F75.00
G01 X8.6365 Y-30.4717 F75.00
G01 X8.6382 Y-30.4863 F75.00
G01 X8.6420 Y-30.5056 F75.00
G01 X8.6461 Y-30.5197 F75.00
G01 X8.6494 Y-30.5290 F75.00
G01 X8.6574 Y-30.5469 F75.00
G01 X8.6670 Y-30.5640 F75.00
G01 X8.6754 Y-30.5761 F75.00
G01 X8.6814 Y-30.5839 F75.00
G01 X8.6946 Y-30.5984 F75.00
G01 X8.7017 Y-30.6052 F75.00
G01 X8.7130 Y-30.6147 F75.00
G01 X8.7290 Y-30.6260 F75.00
G01 X8.7374 Y-30.6310 F75.00
G01 X8.7505 Y-30.6378 F75.00
G01 X8.7686 Y-30.6453 F75.00
G01 X8.7827 Y-30.6498 F75.00
G01 X8.7922 Y-30.6521 F75.00
G01 X8.8067 Y-30.6548 F75.00
G01 X8.8164 Y-30.6560 F75.00
G01 X8.8360 Y-30.6570 F75.00
G01 X10.9809 Y-30.6569 F75.00
G01 X11.0005 Y-30.6555 F75.00
G01 X11.0198 Y-30.6521 F75.00
G01 X11.0387 Y-30.6469 F75.00
G01 X11.0570 Y-30.6398 F75.00
G01 X11.0703 Y-30.6334 F75.00
G01 X11.0871 Y-30.6233 F75.00
G01 X11.1029 Y-30.6116 F75.00
G01 X11.1174 Y-30.5984 F75.00
G01 X11.1274 Y-30.5876 F75.00
G01 X11.1395 Y-30.5722 F75.00
G01 X11.1500 Y-30.5556 F75.00
G01 X11.1588 Y-30.5380 F75.00
G01 X11.1659 Y-30.5197 F75.00
G01 X11.1711 Y-30.5008 F75.00
G01 X11.1745 Y-30.4815 F75.00
G01 X11.1759 Y-30.4619 F75.00
G01 X11.1758 Y-28.3072 F75.00
G01 X11.1738 Y-28.2877 F75.00
G01 X11.1700 Y-28.2684 F75.00
G01 X11.1643 Y-28.2496 F75.00
G01 X11.1568 Y-28.2315 F75.00
G01 X11.1475 Y-28.2142 F75.00
G01 X11.1395 Y-28.2018 F75.00
G01 X11.1274 Y-28.1864 F75.00
G01 X11.1139 Y-28.1722 F75.00
G01 X11.0990 Y-28.1593 F75.00
G01 X11.0830 Y-28.1480 F75.00
G01 X11.0659 Y-28.1384 F75.00
G01 X11.0480 Y-28.1304 F75.00
G01 X11.0293 Y-28.1242 F75.00
G01 X11.0150 Y-28.1208 F75.00
G01 X10.9956 Y-28.1180 F75.00
G01 X10.9760 Y-28.1170 F75.00
G00 Z2.0000
G00 X10.4729 Y-23.4438
G01 F45.00
G01 Z-0.0900
G01 F75.00
G01 X10.4751 Y-23.4459 F75.00
G01 X10.5040 Y-23.2725 F75.00
G01 X10.5040 Y-23.0571 F75.00
G01 X10.4751 Y-22.8837 F75.00
G01 X10.4729 Y-22.8858 F75.00
G01 X10.4780 Y-22.9064 F75.00
G01 X10.4799 Y-22.9160 F75.00
G01 X10.4977 Y-23.0374 F75.00
G01 X10.5040 Y-23.1648 F75.00
G01 X10.4985 Y-23.2824 F75.00
G01 X10.4972 Y-23.2971 F75.00
G01 X10.4799 Y-23.4136 F75.00
G01 X10.4780 Y-23.4232 F75.00
G01 X10.4729 Y-23.4438 F75.00
G00 Z2.0000
G00 X5.1563 Y-25.1844
G01 F45.00
G01 Z-0.0900
G01 F75.00
G01 X5.1563 Y-27.6153 F75.00
G01 X1.4180 Y-31.3538 F75.00
G01 X1.3753 Y-31.4012 F75.00
G01 X1.3344 Y-31.4564 F75.00
G01 X1.2990 Y-31.5153 F75.00
G01 X1.2736 Y-31.5685 F75.00
G01 X1.2661 Y-31.5866 F75.00
G01 X1.2480 Y-31.6374 F75.00
G01 X1.2439 Y-31.6516 F75.00
G01 X1.2298 Y-31.7088 F75.00
G01 X1.2197 Y-31.7768 F75.00
G01 X1.2163 Y-31.8454 F75.00
G01 X1.2163 Y-49.3549 F75.00
G01 X1.2190 Y-49.4137 F75.00
G01 X1.2203 Y-49.4284 F75.00
G01 X1.2281 Y-49.4818 F75.00
G01 X1.2320 Y-49.5011 F75.00
G01 X1.2465 Y-49.5582 F75.00
G01 X1.2697 Y-49.6229 F75.00
G01 X1.2946 Y-49.6762 F75.00
G01 X1.3039 Y-49.6935 F75.00
G01 X1.3344 Y-49.7439 F75.00
G01 X1.3753 Y-49.7991 F75.00
G01 X1.4214 Y-49.8500 F75.00
G01 X2.3477 Y-50.7764 F75.00
G01 X2.3477 Y-54.3630 F75.00
G01 X1.9731 Y-54.3631 F75.00
G01 X1.9584 Y-54.3640 F75.00
G01 X1.9438 Y-54.3659 F75.00
G01 X1.9294 Y-54.3690 F75.00
G01 X1.9153 Y-54.3731 F75.00
G01 X1.9015 Y-54.3782 F75.00
G01 X1.8881 Y-54.3844 F75.00
G01 X1.8752 Y-54.3915 F75.00
G01 X1.8628 Y-54.3995 F75.00
G01 X1.8511 Y-54.4084 F75.00
G01 X1.8401 Y-54.4182 F75.00
G01 X1.8298 Y-54.4287 F75.00
G01 X1.8203 Y-54.4400 F75.00
G01 X1.8117 Y-54.4519 F75.00
G01 X1.8040 Y-54.4644 F75.00
G01 X1.7972 Y-54.4775 F75.00
G01 X1.7914 Y-54.4910 F75.00
G01 X1.7866 Y-54.5049 F75.00
G01 X1.7829 Y-54.5192 F75.00
G01 X1.7802 Y-54.5337 F75.00
G01 X1.7785 Y-54.5483 F75.00
G01 X1.7780 Y-54.5630 F75.00
G01 X1.7780 Y-56.7030 F75.00
G01 X1.7785 Y-56.7177 F75.00
G01 X1.7809 Y-56.7372 F75.00
G01 X1.7840 Y-56.7516 F75.00
G01 X1.7881 Y-56.7657 F75.00
G01 X1.7952 Y-56.7840 F75.00
G01 X1.8040 Y-56.8016 F75.00
G01 X1.8117 Y-56.8141 F75.00
G01 X1.8234 Y-56.8299 F75.00
G01 X1.8332 Y-56.8409 F75.00
G01 X1.8474 Y-56.8544 F75.00
G01 X1.8628 Y-56.8665 F75.00
G01 X1.8752 Y-56.8745 F75.00
G01 X1.8925 Y-56.8838 F75.00
G01 X1.9106 Y-56.8913 F75.00
G01 X1.9247 Y-56.8958 F75.00
G01 X1.9390 Y-56.8992 F75.00
G01 X1.9584 Y-56.9020 F75.00
G01 X1.9780 Y-56.9030 F75.00
G01 X4.1180 Y-56.9030 F75.00
G01 X4.1327 Y-56.9025 F75.00
G01 X4.1522 Y-56.9001 F75.00
G01 X4.1713 Y-56.8958 F75.00
G01 X4.1854 Y-56.8913 F75.00
G01 X4.2035 Y-56.8838 F75.00
G01 X4.2208 Y-56.8745 F75.00
G01 X4.2371 Y-56.8636 F75.00
G01 X4.2523 Y-56.8512 F75.00
G01 X4.2628 Y-56.8409 F75.00
G01 X4.2757 Y-56.8260 F75.00
G01 X4.2870 Y-56.8100 F75.00
G01 X4.2944 Y-56.7973 F75.00
G01 X4.3028 Y-56.7795 F75.00
G01 X4.3094 Y-56.7611 F75.00
G01 X4.3131 Y-56.7468 F75.00
G01 X4.3165 Y-56.7275 F75.00
G01 X4.3179 Y-56.7079 F75.00
G01 X4.3180 Y-54.5630 F75.00
G01 X4.3175 Y-54.5483 F75.00
G01 X4.3165 Y-54.5385 F75.00
G01 X4.3142 Y-54.5240 F75.00
G01 X4.3120 Y-54.5144 F75.00
G01 X4.3079 Y-54.5003 F75.00
G01 X4.3028 Y-54.4865 F75.00
G01 X4.2988 Y-54.4775 F75.00
G01 X4.2920 Y-54.4644 F75.00
G01 X4.2843 Y-54.4519 F75.00
G01 X4.2757 Y-54.4400 F75.00
G01 X4.2662 Y-54.4287 F75.00
G01 X4.2594 Y-54.4216 F75.00
G01 X4.2523 Y-54.4148 F75.00
G01 X4.2410 Y-54.4053 F75.00
G01 X4.2291 Y-54.3967 F75.00
G01 X4.2166 Y-54.3890 F75.00
G01 X4.2035 Y-54.3822 F75.00
G01 X4.1945 Y-54.3782 F75.00
G01 X4.1854 Y-54.3747 F75.00
G01 X4.1713 Y-54.3702 F75.00
G01 X4.1618 Y-54.3679 F75.00
G01 X4.1473 Y-54.3652 F75.00
G01 X4.1376 Y-54.3640 F75.00
G01 X4.1229 Y-54.3631 F75.00
G01 X3.7483 Y-54.3630 F75.00
G01 X3.7483 Y-50.4863 F75.00
G01 X3.7449 Y-50.4177 F75.00
G01 X3.7365 Y-50.3594 F75.00
G01 X3.7338 Y-50.3449 F75.00
G01 X3.7207 Y-50.2925 F75.00
G01 X3.7150 Y-50.2737 F75.00
G01 X3.6949 Y-50.2183 F75.00
G01 X3.6700 Y-50.1650 F75.00
G01 X3.6607 Y-50.1477 F75.00
G01 X3.6302 Y-50.0973 F75.00
G01 X3.5953 Y-50.0498 F75.00
G01 X3.5861 Y-50.0383 F75.00
G01 X3.5432 Y-49.9911 F75.00
G01 X2.6169 Y-49.0648 F75.00
G01 X2.6169 Y-32.1355 F75.00
G01 X6.3518 Y-28.4006 F75.00
G01 X6.3979 Y-28.3496 F75.00
G01 X6.4388 Y-28.2944 F75.00
G01 X6.4742 Y-28.2355 F75.00
G01 X6.5016 Y-28.1779 F75.00
G01 X6.5071 Y-28.1642 F75.00
G01 X6.5267 Y-28.1087 F75.00
G01 X6.5434 Y-28.0420 F75.00
G01 X6.5535 Y-27.9740 F75.00
G01 X6.5568 Y-27.9103 F75.00
G01 X6.5569 Y-25.1844 F75.00
G01 X6.5747 Y-25.1736 F75.00
G01 X6.5829 Y-25.1681 F75.00
G01 X6.6813 Y-25.0949 F75.00
G01 X6.7687 Y-25.0160 F75.00
G01 X6.7793 Y-25.0057 F75.00
G01 X6.8551 Y-24.9221 F75.00
G01 X6.8676 Y-24.9070 F75.00
G01 X6.9375 Y-24.8122 F75.00
G01 X7.0007 Y-24.7071 F75.00
G01 X7.0075 Y-24.6940 F75.00
G01 X7.0576 Y-24.5875 F75.00
G01 X7.0975 Y-24.4767 F75.00
G01 X7.1032 Y-24.4579 F75.00
G01 X7.1316 Y-24.3436 F75.00
G01 X7.1491 Y-24.2272 F75.00
G01 X7.1511 Y-24.2076 F75.00
G01 X7.1565 Y-24.0949 F75.00
G01 X7.1564 Y-24.0802 F75.00
G01 X7.1503 Y-23.9626 F75.00
G01 X7.1333 Y-23.8461 F75.00
G01 X7.1295 Y-23.8268 F75.00
G01 X7.1006 Y-23.7126 F75.00
G01 X7.0612 Y-23.6017 F75.00
G01 X7.0537 Y-23.5835 F75.00
G01 X7.0031 Y-23.4772 F75.00
G01 X6.9375 Y-23.3678 F75.00
G01 X6.8676 Y-23.2730 F75.00
G01 X6.8551 Y-23.2579 F75.00
G01 X6.7758 Y-23.1708 F75.00
G01 X6.6887 Y-23.0915 F75.00
G01 X6.6736 Y-23.0790 F75.00
G01 X6.5788 Y-23.0091 F75.00
G01 X6.4694 Y-22.9435 F75.00
G01 X6.3541 Y-22.8890 F75.00
G01 X6.2340 Y-22.8460 F75.00
G01 X6.1102 Y-22.8150 F75.00
G01 X5.9840 Y-22.7963 F75.00
G01 X5.8566 Y-22.7900 F75.00
G01 X5.7292 Y-22.7963 F75.00
G01 X5.6030 Y-22.8150 F75.00
G01 X5.4792 Y-22.8460 F75.00
G01 X5.3591 Y-22.8890 F75.00
G01 X5.2438 Y-22.9435 F75.00
G01 X5.1344 Y-23.0091 F75.00
G01 X5.0319 Y-23.0851 F75.00
G01 X4.9374 Y-23.1708 F75.00
G01 X4.8517 Y-23.2653 F75.00
G01 X4.7757 Y-23.3678 F75.00
G01 X4.7101 Y-23.4772 F75.00
G01 X4.6556 Y-23.5925 F75.00
G01 X4.6126 Y-23.7126 F75.00
G01 X4.5816 Y-23.8364 F75.00
G01 X4.5629 Y-23.9626 F75.00
G01 X4.5566 Y-24.0900 F75.00
G01 X4.5629 Y-24.2174 F75.00
G01 X4.5816 Y-24.3436 F75.00
G01 X4.6126 Y-24.4674 F75.00
G01 X4.6556 Y-24.5875 F75.00
G01 X4.7101 Y-24.7028 F75.00
G01 X4.7757 Y-24.8122 F75.00
G01 X4.8517 Y-24.9147 F75.00
G01 X4.9374 Y-25.0092 F75.00
G01 X5.0245 Y-25.0885 F75.00
G01 X5.0357 Y-25.0980 F75.00
G01 X5.1303 Y-25.1681 F75.00
G01 X5.1385 Y-25.1736 F75.00
G01 X5.1563 Y-25.1844 F75.00
G00 Z2.0000
G00 X1.2030 Y-31.8857
G01 F45.00
G01 Z-0.0900
G01 F75.00
G01 X1.2055 Y-31.9170 F75.00
G01 X1.2061 Y-31.9327 F75.00
G01 X1.2061 Y-49.2676 F75.00
G01 X1.2055 Y-49.2833 F75.00
G01 X1.2030 Y-49.3146 F75.00
G01 X1.2056 Y-49.3631 F75.00
G01 X1.2061 Y-49.3921 F75.00
G01 X1.2086 Y-49.4211 F75.00
G01 X1.2111 Y-49.4696 F75.00
G01 X1.2169 Y-49.5007 F75.00
G01 X1.2319 Y-49.5468 F75.00
G01 X1.2364 Y-49.5618 F75.00
G01 X1.2504 Y-49.6137 F75.00
G01 X1.2625 Y-49.6430 F75.00
G01 X1.2893 Y-49.6896 F75.00
G01 X1.2967 Y-49.7033 F75.00
G01 X1.3188 Y-49.7466 F75.00
G01 X1.3367 Y-49.7727 F75.00
G01 X1.3692 Y-49.8087 F75.00
G01 X1.3879 Y-49.8310 F75.00
G01 X1.4080 Y-49.8519 F75.00
G01 X1.4405 Y-49.8880 F75.00
G01 X1.4644 Y-49.9084 F75.00
G01 X1.4759 Y-49.9190 F75.00
G01 X2.2206 Y-50.6637 F75.00
G01 X2.2308 Y-50.6747 F75.00
G01 X2.2371 Y-50.6824 F75.00
G01 X2.2459 Y-50.6946 F75.00
G01 X2.2957 Y-50.7737 F75.00
G01 X2.3053 Y-50.7908 F75.00
G01 X2.3114 Y-50.8043 F75.00
G01 X2.3179 Y-50.8228 F75.00
G01 X2.3226 Y-50.8418 F75.00
G01 X2.3354 Y-50.9171 F75.00
G01 X2.3366 Y-50.9267 F75.00
G01 X2.3374 Y-50.9411 F75.00
G01 X2.3375 Y-53.9535 F75.00
G01 X2.3365 Y-53.9734 F75.00
G01 X2.3335 Y-53.9931 F75.00
G01 X2.3116 Y-54.0892 F75.00
G01 X2.3057 Y-54.1082 F75.00
G01 X2.2980 Y-54.1266 F75.00
G01 X2.2885 Y-54.1441 F75.00
G01 X2.2772 Y-54.1606 F75.00
G01 X2.2158 Y-54.2376 F75.00
G01 X2.2092 Y-54.2451 F75.00
G01 X2.1986 Y-54.2557 F75.00
G01 X2.1911 Y-54.2623 F75.00
G01 X2.1793 Y-54.2715 F75.00
G01 X2.1669 Y-54.2797 F75.00
G01 X2.1582 Y-54.2847 F75.00
G01 X2.0696 Y-54.3277 F75.00
G01 X2.0563 Y-54.3335 F75.00
G01 X2.0381 Y-54.3397 F75.00
G01 X2.0194 Y-54.3441 F75.00
G01 X1.9961 Y-54.3473 F75.00
G01 X1.9838 Y-54.3496 F75.00
G01 X1.9692 Y-54.3513 F75.00
G01 X1.9121 Y-54.3603 F75.00
G01 X1.8527 Y-54.3906 F75.00
G01 X1.8056 Y-54.4377 F75.00
G01 X1.7753 Y-54.4971 F75.00
G01 X1.7675 Y-54.5464 F75.00
G01 X1.7675 Y-56.7196 F75.00
G01 X1.7753 Y-56.7689 F75.00
G01 X1.8056 Y-56.8283 F75.00
G01 X1.8527 Y-56.8754 F75.00
G01 X1.9121 Y-56.9057 F75.00
G01 X1.9614 Y-56.9135 F75.00
G01 X4.1346 Y-56.9135 F75.00
G01 X4.2002 Y-56.9031 F75.00
G01 X4.2188 Y-56.8986 F75.00
G01 X4.2336 Y-56.8963 F75.00
G01 X4.3268 Y-56.8879 F75.00
G01 X4.3461 Y-56.8871 F75.00
G01 X4.3654 Y-56.8881 F75.00
G01 X4.3797 Y-56.8902 F75.00
G01 X4.4240 Y-56.9000 F75.00
G01 X4.4358 Y-56.9031 F75.00
G01 X4.5014 Y-56.9135 F75.00
G01 X6.6746 Y-56.9135 F75.00
G01 X6.7402 Y-56.9031 F75.00
G01 X6.7588 Y-56.8986 F75.00
G01 X6.7736 Y-56.8963 F75.00
G01 X6.8668 Y-56.8879 F75.00
G01 X6.8861 Y-56.8871 F75.00
G01 X6.9054 Y-56.8881 F75.00
G01 X6.9197 Y-56.8902 F75.00
G01 X6.9640 Y-56.9000 F75.00
G01 X6.9758 Y-56.9031 F75.00
G01 X7.0414 Y-56.9135 F75.00
G01 X9.2146 Y-56.9135 F75.00
G01 X9.2796 Y-56.9032 F75.00
G01 X9.2985 Y-56.8981 F75.00
G01 X9.3081 Y-56.8962 F75.00
G01 X9.3211 Y-56.8945 F75.00
G01 X9.3591 Y-56.8849 F75.00
G01 X9.3735 Y-56.8818 F75.00
G01 X9.3930 Y-56.8794 F75.00
G01 X9.4077 Y-56.8788 F75.00
G01 X9.4224 Y-56.8794 F75.00
G01 X9.4371 Y-56.8810 F75.00
G01 X9.4744 Y-56.8864 F75.00
G01 X9.4887 Y-56.8882 F75.00
G01 X9.5823 Y-56.9030 F75.00
G01 X9.9680 Y-56.9030 F75.00
G01 X9.5931 Y-56.9029 F75.00
G01 X9.5833 Y-56.9025 F75.00
G01 X9.5687 Y-56.9008 F75.00
G01 X9.5542 Y-56.8981 F75.00
G01 X9.5447 Y-56.8958 F75.00
G01 X9.5353 Y-56.8929 F75.00
G01 X9.5215 Y-56.8878 F75.00
G01 X9.5081 Y-56.8816 F75.00
G01 X9.4952 Y-56.8745 F75.00
G01 X9.4828 Y-56.8665 F75.00
G01 X9.4711 Y-56.8576 F75.00
G01 X9.4601 Y-56.8478 F75.00
G01 X9.4498 Y-56.8373 F75.00
G01 X9.4403 Y-56.8260 F75.00
G01 X9.4345 Y-56.8182 F75.00
G01 X9.4265 Y-56.8058 F75.00
G01 X9.4194 Y-56.7929 F75.00
G01 X9.4152 Y-56.7840 F75.00
G01 X9.4097 Y-56.7704 F75.00
G01 X9.4052 Y-56.7563 F75.00
G01 X9.4018 Y-56.7420 F75.00
G01 X9.3990 Y-56.7226 F75.00
G01 X9.3980 Y-56.7030 F75.00
G01 X9.3980 Y-54.5630 F75.00
G01 X9.3985 Y-54.5483 F75.00
G01 X9.4009 Y-54.5288 F75.00
G01 X9.4040 Y-54.5144 F75.00
G01 X9.4097 Y-54.4956 F75.00
G01 X9.4172 Y-54.4775 F75.00
G01 X9.4240 Y-54.4644 F75.00
G01 X9.4345 Y-54.4478 F75.00
G01 X9.4466 Y-54.4324 F75.00
G01 X9.4601 Y-54.4182 F75.00
G01 X9.4750 Y-54.4053 F75.00
G01 X9.4910 Y-54.3940 F75.00
G01 X9.5037 Y-54.3866 F75.00
G01 X9.5215 Y-54.3782 F75.00
G01 X9.5399 Y-54.3716 F75.00
G01 X9.5590 Y-54.3668 F75.00
G01 X9.5784 Y-54.3640 F75.00
G01 X9.5979 Y-54.3630 F75.00
G01 X9.5823 Y-54.3630 F75.00
G01 X9.4887 Y-54.3778 F75.00
G01 X9.4773 Y-54.3793 F75.00
G01 X9.3950 Y-54.3852 F75.00
G01 X9.3801 Y-54.3853 F75.00
G01 X9.3701 Y-54.3848 F75.00
G01 X9.3552 Y-54.3831 F75.00
G01 X9.3405 Y-54.3802 F75.00
G01 X9.3309 Y-54.3777 F75.00
G01 X9.3007 Y-54.3684 F75.00
G01 X9.2889 Y-54.3656 F75.00
G01 X9.2796 Y-54.3628 F75.00
G01 X9.2068 Y-54.3513 F75.00
G01 X9.1922 Y-54.3496 F75.00
G01 X9.1777 Y-54.3468 F75.00
G01 X9.1635 Y-54.3430 F75.00
G01 X9.1465 Y-54.3369 F75.00
G01 X9.0970 Y-54.3253 F75.00
G01 X9.0828 Y-54.3207 F75.00
G01 X9.0735 Y-54.3171 F75.00
G01 X9.0644 Y-54.3130 F75.00
G01 X9.0512 Y-54.3060 F75.00
G01 X9.0426 Y-54.3008 F75.00
G01 X9.0304 Y-54.2922 F75.00
G01 X8.9534 Y-54.2308 F75.00
G01 X8.9423 Y-54.2207 F75.00
G01 X8.9287 Y-54.2061 F75.00
G01 X8.9195 Y-54.1943 F75.00
G01 X8.9139 Y-54.1861 F75.00
G01 X8.9039 Y-54.1688 F75.00
G01 X8.8613 Y-54.0802 F75.00
G01 X8.8542 Y-54.0623 F75.00
G01 X8.8500 Y-54.0485 F75.00
G01 X8.8469 Y-54.0344 F75.00
G01 X8.8447 Y-54.0202 F75.00
G01 X8.8393 Y-53.9714 F75.00
G01 X8.8385 Y-53.9535 F75.00
G01 X8.8385 Y-51.6417 F75.00
G01 X8.8391 Y-51.6260 F75.00
G01 X8.8416 Y-51.5947 F75.00
G01 X8.8390 Y-51.5462 F75.00
G01 X8.8385 Y-51.5172 F75.00
G01 X8.8360 Y-51.4882 F75.00
G01 X8.8335 Y-51.4398 F75.00
G01 X8.8277 Y-51.4086 F75.00
G01 X8.8127 Y-51.3625 F75.00
G01 X8.8082 Y-51.3475 F75.00
G01 X8.7942 Y-51.2956 F75.00
G01 X8.7821 Y-51.2663 F75.00
G01 X8.7553 Y-51.2197 F75.00
G01 X8.7479 Y-51.2060 F75.00
G01 X8.7258 Y-51.1627 F75.00
G01 X8.7079 Y-51.1366 F75.00
G01 X8.6754 Y-51.1006 F75.00
G01 X8.6567 Y-51.0783 F75.00
G01 X8.6366 Y-51.0574 F75.00
G01 X8.6041 Y-51.0213 F75.00
G01 X8.5802 Y-51.0009 F75.00
G01 X8.5687 Y-50.9903 F75.00
G01 X5.5605 Y-47.9820 F75.00
G01 X5.5475 Y-47.9669 F75.00
G01 X5.5360 Y-47.9506 F75.00
G01 X5.4864 Y-47.8714 F75.00
G01 X5.4793 Y-47.8585 F75.00
G01 X5.4751 Y-47.8496 F75.00
G01 X5.4681 Y-47.8312 F75.00
G01 X5.4630 Y-47.8123 F75.00
G01 X5.4499 Y-47.7369 F75.00
G01 X5.4476 Y-47.7178 F75.00
G01 X5.4471 Y-47.7034 F75.00
G01 X5.4471 Y-33.7386 F75.00
G01 X5.4477 Y-33.7236 F75.00
G01 X5.4501 Y-33.7038 F75.00
G01 X5.4730 Y-33.6030 F75.00
G01 X5.4771 Y-33.5888 F75.00
G01 X5.4843 Y-33.5705 F75.00
G01 X5.4908 Y-33.5573 F75.00
G01 X5.5009 Y-33.5405 F75.00
G01 X5.5451 Y-33.4782 F75.00
G01 X5.5510 Y-33.4707 F75.00
G01 X5.5606 Y-33.4599 F75.00
G01 X7.9444 Y-31.0760 F75.00
G01 X7.9553 Y-31.0659 F75.00
G01 X7.9630 Y-31.0595 F75.00
G01 X7.9794 Y-31.0481 F75.00
G01 X8.0586 Y-30.9984 F75.00
G01 X8.0718 Y-30.9912 F75.00
G01 X8.0900 Y-30.9833 F75.00
G01 X8.1042 Y-30.9785 F75.00
G01 X8.1138 Y-30.9759 F75.00
G01 X8.1334 Y-30.9722 F75.00
G01 X8.2314 Y-30.9612 F75.00
G01 X8.2513 Y-30.9604 F75.00
G01 X8.2662 Y-30.9612 F75.00
G01 X8.2761 Y-30.9623 F75.00
G01 X8.2860 Y-30.9639 F75.00
G01 X8.3005 Y-30.9672 F75.00
G01 X8.3148 Y-30.9716 F75.00
G01 X8.4031 Y-31.0026 F75.00
G01 X8.4214 Y-31.0106 F75.00
G01 X8.4388 Y-31.0203 F75.00
G01 X8.4551 Y-31.0318 F75.00
G01 X8.4702 Y-31.0448 F75.00
G01 X8.5433 Y-31.1181 F75.00
G01 X8.5559 Y-31.1335 F75.00
G01 X8.5669 Y-31.1501 F75.00
G01 X8.5763 Y-31.1678 F75.00
G01 X8.5838 Y-31.1862 F75.00
G01 X8.6146 Y-31.2747 F75.00
G01 X8.6188 Y-31.2894 F75.00
G01 X8.6218 Y-31.3044 F75.00
G01 X8.6236 Y-31.3196 F75.00
G01 X8.6255 Y-31.3582 F75.00
G01 X8.6255 Y-33.0136 F75.00
G01 X8.6358 Y-33.0786 F75.00
G01 X8.6409 Y-33.0975 F75.00
G01 X8.6428 Y-33.1071 F75.00
G01 X8.6445 Y-33.1201 F75.00
G01 X8.6541 Y-33.1581 F75.00
G01 X8.6572 Y-33.1725 F75.00
G01 X8.6592 Y-33.1871 F75.00
G01 X8.6602 Y-33.2067 F75.00
G01 X8.6596 Y-33.2214 F75.00
G01 X8.6580 Y-33.2360 F75.00
G01 X8.6526 Y-33.2734 F75.00
G01 X8.6508 Y-33.2877 F75.00
G01 X8.6360 Y-33.3813 F75.00
G01 X8.6360 Y-33.3969 F75.00
G01 X8.6370 Y-33.3774 F75.00
G01 X8.6398 Y-33.3580 F75.00
G01 X8.6446 Y-33.3389 F75.00
G01 X8.6512 Y-33.3205 F75.00
G01 X8.6574 Y-33.3071 F75.00
G01 X8.6670 Y-33.2900 F75.00
G01 X8.6783 Y-33.2740 F75.00
G01 X8.6912 Y-33.2591 F75.00
G01 X8.7054 Y-33.2456 F75.00
G01 X8.7208 Y-33.2335 F75.00
G01 X8.7332 Y-33.2255 F75.00
G01 X8.7505 Y-33.2162 F75.00
G01 X8.7686 Y-33.2087 F75.00
G01 X8.7874 Y-33.2030 F75.00
G01 X8.8067 Y-33.1992 F75.00
G01 X8.8213 Y-33.1975 F75.00
G01 X8.8360 Y-33.1970 F75.00
G01 X10.9760 Y-33.1970 F75.00
G01 X10.9907 Y-33.1975 F75.00
G01 X11.0053 Y-33.1992 F75.00
G01 X11.0198 Y-33.2019 F75.00
G01 X11.0341 Y-33.2056 F75.00
G01 X11.0480 Y-33.2104 F75.00
G01 X11.0615 Y-33.2162 F75.00
G01 X11.0746 Y-33.2230 F75.00
G01 X11.0871 Y-33.2307 F75.00
G01 X11.0990 Y-33.2393 F75.00
G01 X11.1066 Y-33.2456 F75.00
G01 X11.1174 Y-33.2556 F75.00
G01 X11.1274 Y-33.2664 F75.00
G01 X11.1366 Y-33.2779 F75.00
G01 X11.1450 Y-33.2900 F75.00
G01 X11.1524 Y-33.3027 F75.00
G01 X11.1588 Y-33.3160 F75.00
G01 X11.1626 Y-33.3250 F75.00
G01 X11.1674 Y-33.3389 F75.00
G01 X11.1700 Y-33.3484 F75.00
G01 X11.1731 Y-33.3628 F75.00
G01 X11.1750 Y-33.3774 F75.00
G01 X11.1759 Y-33.3921 F75.00
G01 X11.1760 Y-33.7670 F75.00
G01 X11.1760 Y-33.3813 F75.00
G01 X11.1612 Y-33.2877 F75.00
G01 X11.1597 Y-33.2763 F75.00
G01 X11.1541 Y-33.1990 F75.00
G01 X11.1536 Y-33.1840 F75.00
G01 X11.1547 Y-33.1641 F75.00
G01 X11.1577 Y-33.1444 F75.00
G01 X11.1613 Y-33.1299 F75.00
G01 X11.1706 Y-33.0997 F75.00
G01 X11.1734 Y-33.0879 F75.00
G01 X11.1762 Y-33.0786 F75.00
G01 X11.1865 Y-33.0136 F75.00
G01 X11.1865 Y-32.9082 F75.00
G01 X11.1871 Y-32.8933 F75.00
G01 X11.1881 Y-32.8833 F75.00
G01 X11.1915 Y-32.8637 F75.00
G01 X11.2124 Y-32.7725 F75.00
G01 X11.2183 Y-32.7535 F75.00
G01 X11.2260 Y-32.7351 F75.00
G01 X11.2355 Y-32.7176 F75.00
G01 X11.2468 Y-32.7011 F75.00
G01 X11.3051 Y-32.6279 F75.00
G01 X11.3183 Y-32.6130 F75.00
G01 X11.3291 Y-32.6027 F75.00
G01 X11.3407 Y-32.5932 F75.00
G01 X11.3775 Y-32.5679 F75.00
G01 X11.3961 Y-32.5568 F75.00
G01 X11.4098 Y-32.5493 F75.00
G01 X11.4577 Y-32.5248 F75.00
G01 X11.4838 Y-32.5069 F75.00
G01 X11.5198 Y-32.4744 F75.00
G01 X11.5421 Y-32.4557 F75.00
G01 X11.5630 Y-32.4356 F75.00
G01 X11.5991 Y-32.4031 F75.00
G01 X11.6195 Y-32.3792 F75.00
G01 X11.6301 Y-32.3677 F75.00
G01 X12.4519 Y-31.5460 F75.00
G01 X12.4631 Y-31.5361 F75.00
G01 X12.4792 Y-31.5242 F75.00
G01 X12.5626 Y-31.4718 F75.00
G01 X12.5802 Y-31.4625 F75.00
G01 X12.5940 Y-31.4567 F75.00
G01 X12.6082 Y-31.4519 F75.00
G01 X12.6227 Y-31.4482 F75.00
G01 X12.6374 Y-31.4456 F75.00
G01 X12.7353 Y-31.4346 F75.00
G01 X12.7553 Y-31.4338 F75.00
G01 X12.7702 Y-31.4346 F75.00
G01 X12.7900 Y-31.4373 F75.00
G01 X12.8045 Y-31.4406 F75.00
G01 X12.8141 Y-31.4435 F75.00
G01 X12.9071 Y-31.4760 F75.00
G01 X12.9209 Y-31.4818 F75.00
G01 X12.9385 Y-31.4911 F75.00
G01 X12.9470 Y-31.4964 F75.00
G01 X12.9591 Y-31.5052 F75.00
G01 X12.9706 Y-31.5148 F75.00
G01 X12.9778 Y-31.5216 F75.00
G01 X13.0473 Y-31.5915 F75.00
G01 X13.0599 Y-31.6069 F75.00
G01 X13.0683 Y-31.6193 F75.00
G01 X13.0734 Y-31.6279 F75.00
G01 X13.0803 Y-31.6412 F75.00
G01 X13.0878 Y-31.6596 F75.00
G01 X13.1186 Y-31.7481 F75.00
G01 X13.1228 Y-31.7628 F75.00
G01 X13.1249 Y-31.7728 F75.00
G01 X13.1265 Y-31.7828 F75.00
G01 X13.1279 Y-31.7981 F75.00
G01 X13.1295 Y-31.8316 F75.00
G01 X13.1295 Y-34.2290 F75.00
G01 X13.1285 Y-34.2489 F75.00
G01 X13.1255 Y-34.2687 F75.00
G01 X13.1048 Y-34.3599 F75.00
G01 X13.0995 Y-34.3788 F75.00
G01 X13.0961 Y-34.3880 F75.00
G01 X13.0903 Y-34.4015 F75.00
G01 X13.0858 Y-34.4103 F75.00
G01 X13.0784 Y-34.4230 F75.00
G01 X13.0315 Y-34.4894 F75.00
G01 X13.0256 Y-34.4969 F75.00
G01 X13.0160 Y-34.5077 F75.00
G01 X11.8571 Y-35.6667 F75.00
G01 X11.8424 Y-35.6800 F75.00
G01 X11.8304 Y-35.6891 F75.00
G01 X11.8221 Y-35.6946 F75.00
G01 X11.7429 Y-35.7443 F75.00
G01 X11.7297 Y-35.7515 F75.00
G01 X11.7161 Y-35.7576 F75.00
G01 X11.7021 Y-35.7627 F75.00
G01 X11.6925 Y-35.7655 F75.00
G01 X11.6730 Y-35.7697 F75.00
G01 X11.5702 Y-35.7815 F75.00
G01 X11.5502 Y-35.7823 F75.00
G01 X11.5303 Y-35.7810 F75.00
G01 X11.5106 Y-35.7778 F75.00
G01 X11.4962 Y-35.7741 F75.00
G01 X11.3937 Y-35.7383 F75.00
G01 X11.3801 Y-35.7321 F75.00
G01 X11.3713 Y-35.7275 F75.00
G01 X11.3585 Y-35.7197 F75.00
G01 X11.3504 Y-35.7139 F75.00
G01 X11.3425 Y-35.7078 F75.00
G01 X11.3313 Y-35.6979 F75.00
G01 X11.2651 Y-35.6318 F75.00
G01 X11.2517 Y-35.6170 F75.00
G01 X11.2399 Y-35.6010 F75.00
G01 X11.2297 Y-35.5839 F75.00
G01 X11.2213 Y-35.5658 F75.00
G01 X11.1869 Y-35.4680 F75.00
G01 X11.1840 Y-35.4582 F75.00
G01 X11.1816 Y-35.4483 F75.00
G01 X11.1790 Y-35.4333 F75.00
G01 X11.1776 Y-35.4180 F75.00
G01 X11.1761 Y-35.3901 F75.00
G01 X11.1760 Y-35.1670 F75.00
G01 X11.1759 Y-35.5419 F75.00
G01 X11.1750 Y-35.5566 F75.00
G01 X11.1738 Y-35.5663 F75.00
G01 X11.1711 Y-35.5808 F75.00
G01 X11.1674 Y-35.5951 F75.00
G01 X11.1626 Y-35.6090 F75.00
G01 X11.1568 Y-35.6225 F75.00
G01 X11.1524 Y-35.6313 F75.00
G01 X11.1450 Y-35.6440 F75.00
G01 X11.1366 Y-35.6561 F75.00
G01 X11.1274 Y-35.6676 F75.00
G01 X11.1174 Y-35.6784 F75.00
G01 X11.1066 Y-35.6884 F75.00
G01 X11.0951 Y-35.6976 F75.00
G01 X11.0830 Y-35.7060 F75.00
G01 X11.0703 Y-35.7134 F75.00
G01 X11.0615 Y-35.7178 F75.00
G01 X11.0480 Y-35.7236 F75.00
G01 X11.0341 Y-35.7284 F75.00
G01 X11.0198 Y-35.7321 F75.00
G01 X11.0053 Y-35.7348 F75.00
G01 X10.9907 Y-35.7365 F75.00
G01 X10.9760 Y-35.7370 F75.00
G01 X8.8360 Y-35.7370 F75.00
G01 X8.8213 Y-35.7365 F75.00
G01 X8.8067 Y-35.7348 F75.00
G01 X8.7874 Y-35.7310 F75.00
G01 X8.7686 Y-35.7253 F75.00
G01 X8.7505 Y-35.7178 F75.00
G01 X8.7332 Y-35.7085 F75.00
G01 X8.7169 Y-35.6976 F75.00
G01 X8.7054 Y-35.6884 F75.00
G01 X8.6912 Y-35.6749 F75.00
G01 X8.6814 Y-35.6639 F75.00
G01 X8.6697 Y-35.6481 F75.00
G01 X8.6596 Y-35.6313 F75.00
G01 X8.6512 Y-35.6135 F75.00
G01 X8.6446 Y-35.5951 F75.00
G01 X8.6398 Y-35.5760 F75.00
G01 X8.6370 Y-35.5566 F75.00
G01 X8.6360 Y-35.5371 F75.00
G01 X8.6360 Y-35.5527 F75.00
G01 X8.6508 Y-35.6463 F75.00
G01 X8.6523 Y-35.6576 F75.00
G01 X8.6582 Y-35.7399 F75.00
G01 X8.6583 Y-35.7549 F75.00
G01 X8.6574 Y-35.7698 F75.00
G01 X8.6553 Y-35.7847 F75.00
G01 X8.6521 Y-35.7993 F75.00
G01 X8.6414 Y-35.8342 F75.00
G01 X8.6386 Y-35.8461 F75.00
G01 X8.6358 Y-35.8554 F75.00
G01 X8.6255 Y-35.9204 F75.00
G01 X8.6254 Y-35.9362 F75.00
G01 X8.6249 Y-35.9462 F75.00
G01 X8.6225 Y-35.9659 F75.00
G01 X8.5996 Y-36.0669 F75.00
G01 X8.5937 Y-36.0860 F75.00
G01 X8.5860 Y-36.1043 F75.00
G01 X8.5765 Y-36.1218 F75.00
G01 X8.5682 Y-36.1343 F75.00
G01 X8.5070 Y-36.2115 F75.00
G01 X8.4971 Y-36.2230 F75.00
G01 X8.4863 Y-36.2337 F75.00
G01 X8.4748 Y-36.2435 F75.00
G01 X8.4626 Y-36.2525 F75.00
G01 X8.4541 Y-36.2579 F75.00
G01 X8.3828 Y-36.2966 F75.00
G01 X8.3736 Y-36.3012 F75.00
G01 X8.3642 Y-36.3054 F75.00
G01 X8.3498 Y-36.3107 F75.00
G01 X8.3091 Y-36.3239 F75.00
G01 X8.2940 Y-36.3282 F75.00
G01 X8.2472 Y-36.3408 F75.00
G01 X8.2179 Y-36.3529 F75.00
G01 X8.1759 Y-36.3772 F75.00
G01 X8.1622 Y-36.3847 F75.00
G01 X8.1143 Y-36.4092 F75.00
G01 X8.0882 Y-36.4271 F75.00
G01 X8.0522 Y-36.4596 F75.00
G01 X8.0299 Y-36.4783 F75.00
G01 X8.0090 Y-36.4984 F75.00
G01 X7.9729 Y-36.5309 F75.00
G01 X7.9525 Y-36.5548 F75.00
G01 X7.9419 Y-36.5663 F75.00
G01 X7.4853 Y-37.0229 F75.00
G01 X7.4738 Y-37.0335 F75.00
G01 X7.4499 Y-37.0539 F75.00
G01 X7.4174 Y-37.0900 F75.00
G01 X7.3973 Y-37.1109 F75.00
G01 X7.3786 Y-37.1332 F75.00
G01 X7.3461 Y-37.1692 F75.00
G01 X7.3282 Y-37.1953 F75.00
G01 X7.3061 Y-37.2386 F75.00
G01 X7.2987 Y-37.2523 F75.00
G01 X7.2719 Y-37.2989 F75.00
G01 X7.2598 Y-37.3282 F75.00
G01 X7.2458 Y-37.3801 F75.00
G01 X7.2413 Y-37.3951 F75.00
G01 X7.2263 Y-37.4412 F75.00
G01 X7.2205 Y-37.4723 F75.00
G01 X7.2180 Y-37.5208 F75.00
G01 X7.2155 Y-37.5498 F75.00
G01 X7.2150 Y-37.5788 F75.00
G01 X7.2124 Y-37.6273 F75.00
G01 X7.2149 Y-37.6586 F75.00
G01 X7.2155 Y-37.6743 F75.00
G01 X7.2155 Y-46.7077 F75.00
G01 X7.2149 Y-46.7234 F75.00
G01 X7.2124 Y-46.7547 F75.00
G01 X7.2150 Y-46.8032 F75.00
G01 X7.2155 Y-46.8322 F75.00
G01 X7.2180 Y-46.8612 F75.00
G01 X7.2205 Y-46.9097 F75.00
G01 X7.2263 Y-46.9408 F75.00
G01 X7.2413 Y-46.9869 F75.00
G01 X7.2458 Y-47.0019 F75.00
G01 X7.2598 Y-47.0538 F75.00
G01 X7.2719 Y-47.0831 F75.00
G01 X7.2987 Y-47.1297 F75.00
G01 X7.3061 Y-47.1434 F75.00
G01 X7.3282 Y-47.1867 F75.00
G01 X7.3461 Y-47.2128 F75.00
G01 X7.3786 Y-47.2488 F75.00
G01 X7.3973 Y-47.2711 F75.00
G01 X7.4174 Y-47.2920 F75.00
G01 X7.4499 Y-47.3281 F75.00
G01 X7.4738 Y-47.3485 F75.00
G01 X7.4853 Y-47.3591 F75.00
G01 X12.3806 Y-52.2544 F75.00
G01 X12.3940 Y-52.2692 F75.00
G01 X12.4059 Y-52.2853 F75.00
G01 X12.4582 Y-52.3686 F75.00
G01 X12.4630 Y-52.3772 F75.00
G01 X12.4695 Y-52.3904 F75.00
G01 X12.4732 Y-52.3995 F75.00
G01 X12.4779 Y-52.4135 F75.00
G01 X12.4826 Y-52.4325 F75.00
G01 X12.4954 Y-52.5078 F75.00
G01 X12.4970 Y-52.5222 F75.00
G01 X12.4974 Y-52.5318 F75.00
G01 X12.4975 Y-53.9535 F75.00
G01 X12.4965 Y-53.9734 F75.00
G01 X12.4935 Y-53.9931 F75.00
G01 X12.4716 Y-54.0892 F75.00
G01 X12.4674 Y-54.1035 F75.00
G01 X12.4640 Y-54.1129 F75.00
G01 X12.4580 Y-54.1266 F75.00
G01 X12.4534 Y-54.1355 F75.00
G01 X12.4458 Y-54.1484 F75.00
G01 X12.4372 Y-54.1606 F75.00
G01 X12.3758 Y-54.2376 F75.00
G01 X12.3622 Y-54.2523 F75.00
G01 X12.3511 Y-54.2623 F75.00
G01 X12.3433 Y-54.2685 F75.00
G01 X12.3311 Y-54.2771 F75.00
G01 X12.3138 Y-54.2871 F75.00
G01 X12.2296 Y-54.3277 F75.00
G01 X12.2163 Y-54.3335 F75.00
G01 X12.2073 Y-54.3368 F75.00
G01 X12.1981 Y-54.3397 F75.00
G01 X12.1842 Y-54.3432 F75.00
G01 X12.1699 Y-54.3457 F75.00
G01 X12.1561 Y-54.3473 F75.00
G01 X12.1438 Y-54.3496 F75.00
G01 X12.1292 Y-54.3513 F75.00
G01 X12.0564 Y-54.3628 F75.00
G01 X12.0375 Y-54.3679 F75.00
G01 X12.0279 Y-54.3698 F75.00
G01 X12.0149 Y-54.3715 F75.00
G01 X11.9673 Y-54.3833 F75.00
G01 X11.9479 Y-54.3862 F75.00
G01 X11.9332 Y-54.3871 F75.00
G01 X11.9185 Y-54.3869 F75.00
G01 X11.9038 Y-54.3857 F75.00
G01 X11.8616 Y-54.3796 F75.00
G01 X11.8473 Y-54.3778 F75.00
G01 X11.7537 Y-54.3630 F75.00
G01 X11.3680 Y-54.3630 F75.00
G01 X11.7429 Y-54.3631 F75.00
G01 X11.7527 Y-54.3635 F75.00
G01 X11.7673 Y-54.3652 F75.00
G01 X11.7818 Y-54.3679 F75.00
G01 X11.7961 Y-54.3716 F75.00
G01 X11.8100 Y-54.3764 F75.00
G01 X11.8235 Y-54.3822 F75.00
G01 X11.8323 Y-54.3866 F75.00
G01 X11.8450 Y-54.3940 F75.00
G01 X11.8571 Y-54.4024 F75.00
G01 X11.8686 Y-54.4116 F75.00
G01 X11.8794 Y-54.4216 F75.00
G01 X11.8894 Y-54.4324 F75.00
G01 X11.8986 Y-54.4439 F75.00
G01 X11.9070 Y-54.4560 F75.00
G01 X11.9144 Y-54.4687 F75.00
G01 X11.9188 Y-54.4775 F75.00
G01 X11.9246 Y-54.4910 F75.00
G01 X11.9294 Y-54.5049 F75.00
G01 X11.9331 Y-54.5192 F75.00
G01 X11.9358 Y-54.5337 F75.00
G01 X11.9375 Y-54.5483 F75.00
G01 X11.9380 Y-54.5630 F75.00
G01 X11.9380 Y-56.7030 F75.00
G01 X11.9375 Y-56.7177 F75.00
G01 X11.9351 Y-56.7372 F75.00
G01 X11.9308 Y-56.7563 F75.00
G01 X11.9263 Y-56.7704 F75.00
G01 X11.9188 Y-56.7885 F75.00
G01 X11.9095 Y-56.8058 F75.00
G01 X11.9015 Y-56.8182 F75.00
G01 X11.8894 Y-56.8336 F75.00
G01 X11.8759 Y-56.8478 F75.00
G01 X11.8610 Y-56.8607 F75.00
G01 X11.8450 Y-56.8720 F75.00
G01 X11.8279 Y-56.8816 F75.00
G01 X11.8145 Y-56.8878 F75.00
G01 X11.7961 Y-56.8944 F75.00
G01 X11.7770 Y-56.8992 F75.00
G01 X11.7576 Y-56.9020 F75.00
G01 X11.7381 Y-56.9030 F75.00
G01 X11.7537 Y-56.9030 F75.00
G01 X11.8473 Y-56.8882 F75.00
G01 X11.8586 Y-56.8867 F75.00
G01 X11.9360 Y-56.8811 F75.00
G01 X11.9509 Y-56.8806 F75.00
G01 X11.9709 Y-56.8817 F75.00
G01 X11.9906 Y-56.8847 F75.00
G01 X12.0051 Y-56.8883 F75.00
G01 X12.0352 Y-56.8976 F75.00
G01 X12.0471 Y-56.9004 F75.00
G01 X12.0564 Y-56.9032 F75.00
G01 X12.1214 Y-56.9135 F75.00
G01 X14.2946 Y-56.9135 F75.00
G01 X14.3602 Y-56.9031 F75.00
G01 X14.3788 Y-56.8986 F75.00
G01 X14.3936 Y-56.8963 F75.00
G01 X14.4868 Y-56.8879 F75.00
G01 X14.5061 Y-56.8871 F75.00
G01 X14.5254 Y-56.8881 F75.00
G01 X14.5397 Y-56.8902 F75.00
G01 X14.5840 Y-56.9000 F75.00
G01 X14.5958 Y-56.9031 F75.00
G01 X14.6614 Y-56.9135 F75.00
G01 X16.8346 Y-56.9135 F75.00
G01 X16.9002 Y-56.9031 F75.00
G01 X16.9188 Y-56.8986 F75.00
G01 X16.9336 Y-56.8963 F75.00
G01 X17.0268 Y-56.8879 F75.00
G01 X17.0461 Y-56.8871 F75.00
G01 X17.0654 Y-56.8881 F75.00
G01 X17.0797 Y-56.8902 F75.00
G01 X17.1240 Y-56.9000 F75.00
G01 X17.1358 Y-56.9031 F75.00
G01 X17.2014 Y-56.9135 F75.00
G01 X19.3746 Y-56.9135 F75.00
G01 X19.4402 Y-56.9031 F75.00
G01 X19.4588 Y-56.8986 F75.00
G01 X19.4736 Y-56.8963 F75.00
G01 X19.5668 Y-56.8879 F75.00
G01 X19.5861 Y-56.8871 F75.00
G01 X19.6054 Y-56.8881 F75.00
G01 X19.6197 Y-56.8902 F75.00
G01 X19.6640 Y-56.9000 F75.00
G01 X19.6758 Y-56.9031 F75.00
G01 X19.7414 Y-56.9135 F75.00
G01 X21.9146 Y-56.9135 F75.00
G01 X21.9802 Y-56.9031 F75.00
G01 X21.9988 Y-56.8986 F75.00
G01 X22.0136 Y-56.8963 F75.00
G01 X22.1068 Y-56.8879 F75.00
G01 X22.1261 Y-56.8871 F75.00
G01 X22.1454 Y-56.8881 F75.00
G01 X22.1597 Y-56.8902 F75.00
G01 X22.2040 Y-56.9000 F75.00
G01 X22.2158 Y-56.9031 F75.00
G01 X22.2814 Y-56.9135 F75.00
G01 X24.4546 Y-56.9135 F75.00
G01 X24.5039 Y-56.9057 F75.00
G01 X24.5633 Y-56.8754 F75.00
G01 X24.6104 Y-56.8283 F75.00
G01 X24.6407 Y-56.7689 F75.00
G01 X24.6485 Y-56.7196 F75.00
G01 X24.6485 Y-54.5464 F75.00
G01 X24.6407 Y-54.4971 F75.00
G01 X24.6104 Y-54.4377 F75.00
G01 X24.5633 Y-54.3906 F75.00
G01 X24.5039 Y-54.3603 F75.00
G01 X24.4468 Y-54.3513 F75.00
G01 X24.4322 Y-54.3496 F75.00
G01 X24.4177 Y-54.3468 F75.00
G01 X24.4035 Y-54.3430 F75.00
G01 X24.3865 Y-54.3369 F75.00
G01 X24.3370 Y-54.3253 F75.00
G01 X24.3228 Y-54.3207 F75.00
G01 X24.3089 Y-54.3151 F75.00
G01 X24.2912 Y-54.3060 F75.00
G01 X24.2785 Y-54.2980 F75.00
G01 X24.2704 Y-54.2922 F75.00
G01 X24.1972 Y-54.2339 F75.00
G01 X24.1823 Y-54.2207 F75.00
G01 X24.1720 Y-54.2099 F75.00
G01 X24.1655 Y-54.2023 F75.00
G01 X24.1567 Y-54.1902 F75.00
G01 X24.1487 Y-54.1776 F75.00
G01 X24.1417 Y-54.1644 F75.00
G01 X24.1033 Y-54.0846 F75.00
G01 X24.0975 Y-54.0713 F75.00
G01 X24.0942 Y-54.0623 F75.00
G01 X24.0900 Y-54.0485 F75.00
G01 X24.0861 Y-54.0297 F75.00
G01 X24.0798 Y-53.9759 F75.00
G01 X24.0786 Y-53.9580 F75.00
G01 X24.0786 Y-17.0848 F75.00
G01 X24.0795 Y-17.0699 F75.00
G01 X24.0825 Y-17.0502 F75.00
G01 X24.1032 Y-16.9590 F75.00
G01 X24.1086 Y-16.9398 F75.00
G01 X24.1159 Y-16.9212 F75.00
G01 X24.1250 Y-16.9035 F75.00
G01 X24.1302 Y-16.8950 F75.00
G01 X24.1388 Y-16.8827 F75.00
G01 X24.2001 Y-16.8058 F75.00
G01 X24.2066 Y-16.7985 F75.00
G01 X24.2168 Y-16.7881 F75.00
G01 X24.2317 Y-16.7756 F75.00
G01 X24.2436 Y-16.7671 F75.00
G01 X24.2997 Y-16.7337 F75.00
G01 X24.3120 Y-16.7270 F75.00
G01 X24.3248 Y-16.7212 F75.00
G01 X24.4923 Y-16.6518 F75.00
G01 X24.6682 Y-16.5440 F75.00
G01 X24.8251 Y-16.4101 F75.00
G01 X24.9590 Y-16.2532 F75.00
G01 X25.0668 Y-16.0773 F75.00
G01 X25.1457 Y-15.8868 F75.00
G01 X25.1939 Y-15.6862 F75.00
G01 X25.2101 Y-15.4805 F75.00
G01 X25.1939 Y-15.2749 F75.00
G01 X25.1457 Y-15.0743 F75.00
G01 X25.0668 Y-14.8837 F75.00
G01 X24.9590 Y-14.7079 F75.00
G01 X24.8251 Y-14.5510 F75.00
G01 X24.6682 Y-14.4170 F75.00
G01 X24.4923 Y-14.3093 F75.00
G01 X24.3018 Y-14.2303 F75.00
G01 X24.1012 Y-14.1822 F75.00
G01 X23.8955 Y-14.1660 F75.00
G01 X23.6899 Y-14.1822 F75.00
G01 X23.4884 Y-14.2305 F75.00
G01 X23.4716 Y-14.2360 F75.00
G01 X23.4570 Y-14.2394 F75.00
G01 X23.3648 Y-14.2551 F75.00
G01 X23.3500 Y-14.2571 F75.00
G01 X23.3351 Y-14.2579 F75.00
G01 X23.3251 Y-14.2578 F75.00
G01 X23.3102 Y-14.2568 F75.00
G01 X23.3003 Y-14.2555 F75.00
G01 X23.2856 Y-14.2526 F75.00
G01 X23.2760 Y-14.2501 F75.00
G01 X23.1813 Y-14.2226 F75.00
G01 X23.1674 Y-14.2172 F75.00
G01 X23.1583 Y-14.2131 F75.00
G01 X23.1495 Y-14.2085 F75.00
G01 X23.1367 Y-14.2007 F75.00
G01 X23.1285 Y-14.1951 F75.00
G01 X23.1167 Y-14.1858 F75.00
G01 X23.0469 Y-14.1235 F75.00
G01 X23.0361 Y-14.1132 F75.00
G01 X23.0230 Y-14.0981 F75.00
G01 X23.0142 Y-14.0860 F75.00
G01 X23.0064 Y-14.0733 F75.00
G01 X22.9974 Y-14.0555 F75.00
G01 X22.9597 Y-13.9645 F75.00
G01 X22.9534 Y-13.9455 F75.00
G01 X22.9491 Y-13.9261 F75.00
G01 X22.9468 Y-13.9063 F75.00
G01 X22.9464 Y-13.8863 F75.00
G01 X22.9524 Y-13.7831 F75.00
G01 X22.9554 Y-13.7637 F75.00
G01 X22.9603 Y-13.7447 F75.00
G01 X22.9652 Y-13.7307 F75.00
G01 X22.9810 Y-13.6910 F75.00
G01 X22.9870 Y-13.6780 F75.00
G01 X22.9973 Y-13.6586 F75.00
G01 X23.0241 Y-13.6121 F75.00
G01 X23.0362 Y-13.5828 F75.00
G01 X23.0488 Y-13.5360 F75.00
G01 X23.0531 Y-13.5209 F75.00
G01 X23.0697 Y-13.4698 F75.00
G01 X23.0755 Y-13.4387 F75.00
G01 X23.0780 Y-13.3902 F75.00
G01 X23.0805 Y-13.3612 F75.00
G01 X23.0810 Y-13.3322 F75.00
G01 X23.0836 Y-13.2837 F75.00
G01 X23.0811 Y-13.2524 F75.00
G01 X23.0805 Y-13.2367 F75.00
G01 X23.0805 Y-10.5263 F75.00
G01 X23.0811 Y-10.5106 F75.00
G01 X23.0836 Y-10.4793 F75.00
G01 X23.0810 Y-10.4308 F75.00
G01 X23.0805 Y-10.4018 F75.00
G01 X23.0780 Y-10.3728 F75.00
G01 X23.0755 Y-10.3244 F75.00
G01 X23.0697 Y-10.2932 F75.00
G01 X23.0547 Y-10.2471 F75.00
G01 X23.0502 Y-10.2321 F75.00
G01 X23.0362 Y-10.1802 F75.00
G01 X23.0241 Y-10.1509 F75.00
G01 X22.9998 Y-10.1089 F75.00
G01 X22.9923 Y-10.0952 F75.00
G01 X22.9678 Y-10.0473 F75.00
G01 X22.9499 Y-10.0212 F75.00
G01 X22.9174 Y-9.9852 F75.00
G01 X22.8987 Y-9.9629 F75.00
G01 X22.8786 Y-9.9420 F75.00
G01 X22.8461 Y-9.9059 F75.00
G01 X22.8222 Y-9.8855 F75.00
G01 X22.8107 Y-9.8749 F75.00
G01 X19.3301 Y-6.3943 F75.00
G01 X19.3195 Y-6.3828 F75.00
G01 X19.2991 Y-6.3589 F75.00
G01 X19.2630 Y-6.3264 F75.00
G01 X19.2421 Y-6.3063 F75.00
G01 X19.2198 Y-6.2876 F75.00
G01 X19.1838 Y-6.2551 F75.00
G01 X19.1577 Y-6.2372 F75.00
G01 X19.1144 Y-6.2151 F75.00
G01 X19.1007 Y-6.2077 F75.00
G01 X19.0541 Y-6.1809 F75.00
G01 X19.0248 Y-6.1688 F75.00
G01 X18.9780 Y-6.1562 F75.00
G01 X18.9629 Y-6.1519 F75.00
G01 X18.9118 Y-6.1353 F75.00
G01 X18.8806 Y-6.1295 F75.00
G01 X18.8322 Y-6.1270 F75.00
G01 X18.8032 Y-6.1245 F75.00
G01 X18.7742 Y-6.1240 F75.00
G01 X18.7257 Y-6.1214 F75.00
G01 X18.6944 Y-6.1239 F75.00
G01 X18.6787 Y-6.1245 F75.00
G01 X18.5725 Y-6.1245 F75.00
G01 X18.5526 Y-6.1235 F75.00
G01 X18.5329 Y-6.1205 F75.00
G01 X18.4417 Y-6.0998 F75.00
G01 X18.4278 Y-6.0961 F75.00
G01 X18.4097 Y-6.0896 F75.00
G01 X18.3924 Y-6.0814 F75.00
G01 X18.3840 Y-6.0767 F75.00
G01 X18.3719 Y-6.0689 F75.00
G01 X18.2992 Y-6.0132 F75.00
G01 X18.2911 Y-6.0066 F75.00
G01 X18.2834 Y-5.9997 F75.00
G01 X18.2726 Y-5.9885 F75.00
G01 X18.2015 Y-5.9055 F75.00
G01 X18.0447 Y-5.7715 F75.00
G01 X17.8688 Y-5.6637 F75.00
G01 X17.6782 Y-5.5848 F75.00
G01 X17.4776 Y-5.5366 F75.00
G01 X17.2720 Y-5.5204 F75.00
G01 X17.0664 Y-5.5366 F75.00
G01 X16.8658 Y-5.5848 F75.00
G01 X16.6752 Y-5.6637 F75.00
G01 X16.5380 Y-5.7478 F75.00
G01 X16.5293 Y-5.7528 F75.00
G01 X16.5160 Y-5.7595 F75.00
G01 X16.4974 Y-5.7668 F75.00
G01 X16.4088 Y-5.7966 F75.00
G01 X16.3894 Y-5.8016 F75.00
G01 X16.3796 Y-5.8033 F75.00
G01 X16.3648 Y-5.8050 F75.00
G01 X16.3498 Y-5.8056 F75.00
G01 X16.3299 Y-5.8046 F75.00
G01 X16.2321 Y-5.7925 F75.00
G01 X16.2174 Y-5.7897 F75.00
G01 X16.2077 Y-5.7873 F75.00
G01 X16.1982 Y-5.7844 F75.00
G01 X16.1842 Y-5.7791 F75.00
G01 X16.1707 Y-5.7728 F75.00
G01 X16.1576 Y-5.7655 F75.00
G01 X16.0789 Y-5.7149 F75.00
G01 X16.0667 Y-5.7063 F75.00
G01 X16.0514 Y-5.6935 F75.00
G01 X16.0408 Y-5.6830 F75.00
G01 X16.0310 Y-5.6716 F75.00
G01 X16.0193 Y-5.6555 F75.00
G01 X15.9679 Y-5.5716 F75.00
G01 X15.9611 Y-5.5588 F75.00
G01 X15.9535 Y-5.5410 F75.00
G01 X15.9476 Y-5.5225 F75.00
G01 X15.9444 Y-5.5084 F75.00
G01 X15.9324 Y-5.4354 F75.00
G01 X15.9307 Y-5.4169 F75.00
G01 X15.9306 Y-4.7545 F75.00
G01 X15.9321 Y-4.7346 F75.00
G01 X15.9345 Y-4.7199 F75.00
G01 X15.9552 Y-4.6287 F75.00
G01 X15.9606 Y-4.6095 F75.00
G01 X15.9679 Y-4.5909 F75.00
G01 X15.9746 Y-4.5775 F75.00
G01 X15.9822 Y-4.5646 F75.00
G01 X15.9938 Y-4.5485 F75.00
G01 X16.0491 Y-4.4792 F75.00
G01 X16.0588 Y-4.4679 F75.00
G01 X16.0658 Y-4.4607 F75.00
G01 X16.0769 Y-4.4507 F75.00
G01 X16.0887 Y-4.4415 F75.00
G01 X16.0969 Y-4.4359 F75.00
G01 X16.1054 Y-4.4307 F75.00
G01 X16.1186 Y-4.4237 F75.00
G01 X16.1984 Y-4.3853 F75.00
G01 X16.2161 Y-4.3778 F75.00
G01 X16.2298 Y-4.3733 F75.00
G01 X16.2486 Y-4.3689 F75.00
G01 X16.2719 Y-4.3657 F75.00
G01 X16.2842 Y-4.3634 F75.00
G01 X16.2988 Y-4.3617 F75.00
G01 X16.3559 Y-4.3527 F75.00
G01 X16.4153 Y-4.3224 F75.00
G01 X16.4624 Y-4.2753 F75.00
G01 X16.4927 Y-4.2159 F75.00
G01 X16.5005 Y-4.1666 F75.00
G01 X16.5005 Y-1.9934 F75.00
G01 X16.4927 Y-1.9441 F75.00
G01 X16.4624 Y-1.8847 F75.00
G01 X16.4153 Y-1.8376 F75.00
G01 X16.3559 Y-1.8073 F75.00
G01 X16.3066 Y-1.7995 F75.00
G01 X14.1334 Y-1.7995 F75.00
G01 X14.0678 Y-1.8099 F75.00
G01 X14.0492 Y-1.8144 F75.00
G01 X14.0344 Y-1.8167 F75.00
G01 X13.9412 Y-1.8251 F75.00
G01 X13.9219 Y-1.8259 F75.00
G01 X13.9026 Y-1.8249 F75.00
G01 X13.8883 Y-1.8228 F75.00
G01 X13.8440 Y-1.8130 F75.00
G01 X13.8322 Y-1.8099 F75.00
G01 X13.7666 Y-1.7995 F75.00
G01 X11.5934 Y-1.7995 F75.00
G01 X11.5441 Y-1.8073 F75.00
G01 X11.4847 Y-1.8376 F75.00
G01 X11.4376 Y-1.8847 F75.00
G01 X11.4073 Y-1.9441 F75.00
G01 X11.3995 Y-1.9934 F75.00
G01 X11.3995 Y-4.1666 F75.00
G01 X11.4073 Y-4.2159 F75.00
G01 X11.4376 Y-4.2753 F75.00
G01 X11.4847 Y-4.3224 F75.00
G01 X11.5441 Y-4.3527 F75.00
G01 X11.6012 Y-4.3617 F75.00
G01 X11.6158 Y-4.3634 F75.00
G01 X11.6303 Y-4.3662 F75.00
G01 X11.6445 Y-4.3700 F75.00
G01 X11.6614 Y-4.3761 F75.00
G01 X11.7110 Y-4.3877 F75.00
G01 X11.7252 Y-4.3923 F75.00
G01 X11.7391 Y-4.3979 F75.00
G01 X11.7568 Y-4.4070 F75.00
G01 X11.7654 Y-4.4122 F75.00
G01 X11.7776 Y-4.4208 F75.00
G01 X11.8508 Y-4.4791 F75.00
G01 X11.8657 Y-4.4923 F75.00
G01 X11.8760 Y-4.5031 F75.00
G01 X11.8855 Y-4.5147 F75.00
G01 X11.8913 Y-4.5228 F75.00
G01 X11.8993 Y-4.5354 F75.00
G01 X11.9063 Y-4.5486 F75.00
G01 X11.9447 Y-4.6284 F75.00
G01 X11.9505 Y-4.6417 F75.00
G01 X11.9538 Y-4.6507 F75.00
G01 X11.9580 Y-4.6645 F75.00
G01 X11.9619 Y-4.6833 F75.00
G01 X11.9682 Y-4.7371 F75.00
G01 X11.9693 Y-4.7505 F75.00
G01 X11.9695 Y-6.5986 F75.00
G01 X11.9693 Y-6.6086 F75.00
G01 X11.9679 Y-6.6235 F75.00
G01 X11.9645 Y-6.6432 F75.00
G01 X11.9436 Y-6.7343 F75.00
G01 X11.9394 Y-6.7487 F75.00
G01 X11.9321 Y-6.7672 F75.00
G01 X11.9230 Y-6.7850 F75.00
G01 X11.9122 Y-6.8017 F75.00
G01 X11.8478 Y-6.8828 F75.00
G01 X11.8342 Y-6.8974 F75.00
G01 X11.8231 Y-6.9074 F75.00
G01 X11.8072 Y-6.9195 F75.00
G01 X11.7946 Y-6.9274 F75.00
G01 X11.7814 Y-6.9344 F75.00
G01 X11.6970 Y-6.9750 F75.00
G01 X11.6832 Y-6.9806 F75.00
G01 X11.6690 Y-6.9852 F75.00
G01 X11.6544 Y-6.9887 F75.00
G01 X11.6397 Y-6.9911 F75.00
G01 X11.6248 Y-6.9924 F75.00
G01 X11.6148 Y-6.9927 F75.00
G01 X11.5162 Y-6.9924 F75.00
G01 X11.5013 Y-6.9911 F75.00
G01 X11.4915 Y-6.9896 F75.00
G01 X11.4720 Y-6.9852 F75.00
G01 X11.4578 Y-6.9806 F75.00
G01 X11.4440 Y-6.9750 F75.00
G01 X11.3596 Y-6.9344 F75.00
G01 X11.3464 Y-6.9274 F75.00
G01 X11.3338 Y-6.9195 F75.00
G01 X11.3179 Y-6.9074 F75.00
G01 X11.3033 Y-6.8939 F75.00
G01 X11.2901 Y-6.8789 F75.00
G01 X11.2348 Y-6.8097 F75.00
G01 X11.2262 Y-6.7981 F75.00
G01 X11.2210 Y-6.7900 F75.00
G01 X11.2139 Y-6.7774 F75.00
G01 X11.2096 Y-6.7688 F75.00
G01 X11.2040 Y-6.7555 F75.00
G01 X11.1981 Y-6.7371 F75.00
G01 X11.1779 Y-6.6619 F75.00
G01 X11.1743 Y-6.6437 F75.00
G01 X11.1724 Y-6.6254 F75.00
G01 X11.1242 Y-6.4248 F75.00
G01 X11.0453 Y-6.2342 F75.00
G01 X10.9375 Y-6.0583 F75.00
G01 X10.8035 Y-5.9015 F75.00
G01 X10.6467 Y-5.7675 F75.00
G01 X10.4708 Y-5.6597 F75.00
G01 X10.2802 Y-5.5808 F75.00
G01 X10.0796 Y-5.5326 F75.00
G01 X9.8740 Y-5.5164 F75.00
G01 X9.6684 Y-5.5326 F75.00
G01 X9.4678 Y-5.5808 F75.00
G01 X9.2772 Y-5.6597 F75.00
G01 X9.1013 Y-5.7675 F75.00
G01 X8.9445 Y-5.9015 F75.00
G01 X8.8769 Y-5.9806 F75.00
G01 X8.8702 Y-5.9880 F75.00
G01 X8.8595 Y-5.9985 F75.00
G01 X8.8441 Y-6.0112 F75.00
G01 X8.7731 Y-6.0641 F75.00
G01 X8.7572 Y-6.0748 F75.00
G01 X8.7446 Y-6.0818 F75.00
G01 X8.7315 Y-6.0878 F75.00
G01 X8.7181 Y-6.0930 F75.00
G01 X8.7043 Y-6.0971 F75.00
G01 X8.6096 Y-6.1172 F75.00
G01 X8.5942 Y-6.1194 F75.00
G01 X8.5787 Y-6.1204 F75.00
G01 X8.1272 Y-6.1203 F75.00
G01 X8.1123 Y-6.1189 F75.00
G01 X8.0927 Y-6.1155 F75.00
G01 X8.0017 Y-6.0947 F75.00
G01 X7.9833 Y-6.0890 F75.00
G01 X7.9699 Y-6.0837 F75.00
G01 X7.9613 Y-6.0796 F75.00
G01 X7.9486 Y-6.0727 F75.00
G01 X7.9405 Y-6.0676 F75.00
G01 X7.9288 Y-6.0592 F75.00
G01 X7.8558 Y-6.0026 F75.00
G01 X7.8443 Y-5.9921 F75.00
G01 X7.8372 Y-5.9845 F75.00
G01 X7.7675 Y-5.9031 F75.00
G01 X7.6107 Y-5.7691 F75.00
G01 X7.4348 Y-5.6613 F75.00
G01 X7.2442 Y-5.5824 F75.00
G01 X7.0436 Y-5.5342 F75.00
G01 X6.8380 Y-5.5180 F75.00
G01 X6.6324 Y-5.5342 F75.00
G01 X6.4318 Y-5.5824 F75.00
G01 X6.2412 Y-5.6613 F75.00
G01 X6.0653 Y-5.7691 F75.00
G01 X5.9085 Y-5.9031 F75.00
G01 X5.8409 Y-5.9822 F75.00
G01 X5.8307 Y-5.9932 F75.00
G01 X5.8235 Y-6.0001 F75.00
G01 X5.8081 Y-6.0128 F75.00
G01 X5.7293 Y-6.0712 F75.00
G01 X5.7170 Y-6.0788 F75.00
G01 X5.7043 Y-6.0855 F75.00
G01 X5.6866 Y-6.0930 F75.00
G01 X5.6729 Y-6.0974 F75.00
G01 X5.6589 Y-6.1009 F75.00
G01 X5.5736 Y-6.1188 F75.00
G01 X5.5582 Y-6.1210 F75.00
G01 X5.5478 Y-6.1218 F75.00
G01 X5.4695 Y-6.1221 F75.00
G01 X5.4546 Y-6.1215 F75.00
G01 X5.4446 Y-6.1205 F75.00
G01 X5.4250 Y-6.1171 F75.00
G01 X5.3387 Y-6.0974 F75.00
G01 X5.3195 Y-6.0920 F75.00
G01 X5.3055 Y-6.0867 F75.00
G01 X5.2919 Y-6.0804 F75.00
G01 X5.2789 Y-6.0731 F75.00
G01 X5.2705 Y-6.0676 F75.00
G01 X5.2585 Y-6.0588 F75.00
G01 X5.1854 Y-6.0004 F75.00
G01 X5.1743 Y-5.9903 F75.00
G01 X5.1607 Y-5.9757 F75.00
G01 X5.1515 Y-5.9639 F75.00
G01 X5.1433 Y-5.9515 F75.00
G01 X5.1337 Y-5.9340 F75.00
G01 X5.0913 Y-5.8454 F75.00
G01 X5.0847 Y-5.8274 F75.00
G01 X5.0821 Y-5.8182 F75.00
G01 X5.0789 Y-5.8042 F75.00
G01 X5.0774 Y-5.7947 F75.00
G01 X5.0757 Y-5.7807 F75.00
G01 X5.0734 Y-5.7684 F75.00
G01 X5.0717 Y-5.7538 F75.00
G01 X5.0627 Y-5.6967 F75.00
G01 X5.0324 Y-5.6373 F75.00
G01 X4.9853 Y-5.5902 F75.00
G01 X4.9259 Y-5.5599 F75.00
G01 X4.8766 Y-5.5521 F75.00
G01 X2.7034 Y-5.5521 F75.00
G01 X2.6541 Y-5.5599 F75.00
G01 X2.5947 Y-5.5902 F75.00
G01 X2.5476 Y-5.6373 F75.00
G01 X2.5173 Y-5.6967 F75.00
G01 X2.5095 Y-5.7460 F75.00
G01 X2.5095 Y-7.9192 F75.00
G01 X2.5173 Y-7.9685 F75.00
G01 X2.5476 Y-8.0279 F75.00
G01 X2.5947 Y-8.0750 F75.00
G01 X2.6541 Y-8.1053 F75.00
G01 X2.7034 Y-8.1131 F75.00
G01 X3.7900 Y-8.1131 F75.00
G01 X4.8766 Y-8.1131 F75.00
G01 X4.9259 Y-8.1053 F75.00
G01 X4.9853 Y-8.0750 F75.00
G01 X5.0324 Y-8.0279 F75.00
G01 X5.0627 Y-7.9685 F75.00
G01 X5.0717 Y-7.9114 F75.00
G01 X5.0734 Y-7.8968 F75.00
G01 X5.0762 Y-7.8823 F75.00
G01 X5.0800 Y-7.8681 F75.00
G01 X5.0861 Y-7.8511 F75.00
G01 X5.0977 Y-7.8016 F75.00
G01 X5.1023 Y-7.7874 F75.00
G01 X5.1079 Y-7.7735 F75.00
G01 X5.1122 Y-7.7645 F75.00
G01 X5.1195 Y-7.7515 F75.00
G01 X5.1308 Y-7.7350 F75.00
G01 X5.1891 Y-7.6618 F75.00
G01 X5.2023 Y-7.6469 F75.00
G01 X5.2094 Y-7.6399 F75.00
G01 X5.2207 Y-7.6301 F75.00
G01 X5.2328 Y-7.6213 F75.00
G01 X5.2454 Y-7.6133 F75.00
G01 X5.2586 Y-7.6063 F75.00
G01 X5.3384 Y-7.5679 F75.00
G01 X5.3517 Y-7.5621 F75.00
G01 X5.3699 Y-7.5559 F75.00
G01 X5.3838 Y-7.5524 F75.00
G01 X5.3933 Y-7.5507 F75.00
G01 X5.4471 Y-7.5444 F75.00
G01 X5.4605 Y-7.5433 F75.00
G01 X5.5424 Y-7.5432 F75.00
G01 X5.5524 Y-7.5437 F75.00
G01 X5.5673 Y-7.5453 F75.00
G01 X5.5820 Y-7.5481 F75.00
G01 X5.6730 Y-7.5689 F75.00
G01 X5.6913 Y-7.5746 F75.00
G01 X5.7003 Y-7.5780 F75.00
G01 X5.7134 Y-7.5840 F75.00
G01 X5.7260 Y-7.5909 F75.00
G01 X5.7420 Y-7.6015 F75.00
G01 X5.8108 Y-7.6544 F75.00
G01 X5.8228 Y-7.6644 F75.00
G01 X5.8303 Y-7.6715 F75.00
G01 X5.8409 Y-7.6830 F75.00
G01 X5.9085 Y-7.7621 F75.00
G01 X6.0653 Y-7.8961 F75.00
G01 X6.2412 Y-8.0039 F75.00
G01 X6.4318 Y-8.0828 F75.00
G01 X6.6324 Y-8.1310 F75.00
G01 X6.8380 Y-8.1472 F75.00
G01 X7.0436 Y-8.1310 F75.00
G01 X7.2442 Y-8.0828 F75.00
G01 X7.4348 Y-8.0039 F75.00
G01 X7.6107 Y-7.8961 F75.00
G01 X7.7675 Y-7.7621 F75.00
G01 X7.8365 Y-7.6814 F75.00
G01 X7.8466 Y-7.6704 F75.00
G01 X7.8538 Y-7.6635 F75.00
G01 X7.8692 Y-7.6508 F75.00
G01 X7.9403 Y-7.5979 F75.00
G01 X7.9521 Y-7.5898 F75.00
G01 X7.9645 Y-7.5825 F75.00
G01 X7.9774 Y-7.5761 F75.00
G01 X7.9908 Y-7.5706 F75.00
G01 X8.0045 Y-7.5662 F75.00
G01 X8.0184 Y-7.5627 F75.00
G01 X8.1089 Y-7.5439 F75.00
G01 X8.1244 Y-7.5421 F75.00
G01 X8.1399 Y-7.5415 F75.00
G01 X8.3025 Y-7.5415 F75.00
G01 X8.3224 Y-7.5425 F75.00
G01 X8.3422 Y-7.5455 F75.00
G01 X8.4382 Y-7.5674 F75.00
G01 X8.4573 Y-7.5733 F75.00
G01 X8.4757 Y-7.5810 F75.00
G01 X8.4845 Y-7.5856 F75.00
G01 X8.4974 Y-7.5932 F75.00
G01 X8.5136 Y-7.6048 F75.00
G01 X8.5867 Y-7.6632 F75.00
G01 X8.5978 Y-7.6733 F75.00
G01 X8.6081 Y-7.6841 F75.00
G01 X8.6175 Y-7.6957 F75.00
G01 X8.6234 Y-7.7038 F75.00
G01 X8.6338 Y-7.7208 F75.00
G01 X8.6788 Y-7.8140 F75.00
G01 X8.6861 Y-7.8325 F75.00
G01 X8.6904 Y-7.8469 F75.00
G01 X8.6943 Y-7.8664 F75.00
G01 X8.6963 Y-7.8862 F75.00
G01 X8.6965 Y-7.9898 F75.00
G01 X8.6950 Y-8.0097 F75.00
G01 X8.6915 Y-8.0293 F75.00
G01 X8.6861 Y-8.0485 F75.00
G01 X8.6788 Y-8.0670 F75.00
G01 X8.6360 Y-8.1559 F75.00
G01 X8.6285 Y-8.1692 F75.00
G01 X8.6200 Y-8.1820 F75.00
G01 X8.6106 Y-8.1940 F75.00
G01 X8.5988 Y-8.2073 F75.00
G01 X8.5673 Y-8.2691 F75.00
G01 X8.5595 Y-8.3184 F75.00
G01 X8.5595 Y-10.4916 F75.00
G01 X8.5699 Y-10.5572 F75.00
G01 X8.5744 Y-10.5758 F75.00
G01 X8.5767 Y-10.5906 F75.00
G01 X8.5851 Y-10.6838 F75.00
G01 X8.5859 Y-10.7031 F75.00
G01 X8.5849 Y-10.7224 F75.00
G01 X8.5828 Y-10.7367 F75.00
G01 X8.5730 Y-10.7810 F75.00
G01 X8.5699 Y-10.7928 F75.00
G01 X8.5595 Y-10.8584 F75.00
G01 X8.5594 Y-10.9839 F75.00
G01 X8.5585 Y-10.9988 F75.00
G01 X8.5573 Y-11.0087 F75.00
G01 X8.5545 Y-11.0234 F75.00
G01 X8.5336 Y-11.1146 F75.00
G01 X8.5277 Y-11.1337 F75.00
G01 X8.5200 Y-11.1520 F75.00
G01 X8.5105 Y-11.1695 F75.00
G01 X8.4992 Y-11.1860 F75.00
G01 X8.4378 Y-11.2631 F75.00
G01 X8.4278 Y-11.2741 F75.00
G01 X8.4169 Y-11.2845 F75.00
G01 X8.4053 Y-11.2939 F75.00
G01 X8.3931 Y-11.3025 F75.00
G01 X8.3758 Y-11.3125 F75.00
G01 X8.3222 Y-11.3384 F75.00
G01 X8.1069 Y-11.5536 F75.00
G01 X8.1120 Y-11.5742 F75.00
G01 X8.1139 Y-11.5838 F75.00
G01 X8.1312 Y-11.7003 F75.00
G01 X8.1325 Y-11.7150 F75.00
G01 X8.1380 Y-11.8326 F75.00
G01 X8.1325 Y-11.9502 F75.00
G01 X8.1312 Y-11.9649 F75.00
G01 X8.1139 Y-12.0814 F75.00
G01 X8.1120 Y-12.0910 F75.00
G01 X8.1069 Y-12.1116 F75.00
G01 X8.3166 Y-12.3212 F75.00
G01 X8.4059 Y-12.3736 F75.00
G01 X8.4220 Y-12.3853 F75.00
G01 X8.4296 Y-12.3918 F75.00
G01 X8.4404 Y-12.4021 F75.00
G01 X8.4504 Y-12.4133 F75.00
G01 X8.4595 Y-12.4251 F75.00
G01 X8.5171 Y-12.5107 F75.00
G01 X8.5241 Y-12.5233 F75.00
G01 X8.5321 Y-12.5409 F75.00
G01 X8.5383 Y-12.5591 F75.00
G01 X8.5418 Y-12.5731 F75.00
G01 X8.5569 Y-12.6541 F75.00
G01 X8.5582 Y-12.6633 F75.00
G01 X8.5593 Y-12.6771 F75.00
G01 X8.5595 Y-13.0316 F75.00
G01 X8.5699 Y-13.0972 F75.00
G01 X8.5744 Y-13.1158 F75.00
G01 X8.5767 Y-13.1306 F75.00
G01 X8.5851 Y-13.2238 F75.00
G01 X8.5859 Y-13.2431 F75.00
G01 X8.5849 Y-13.2624 F75.00
G01 X8.5828 Y-13.2767 F75.00
G01 X8.5730 Y-13.3210 F75.00
G01 X8.5699 Y-13.3328 F75.00
G01 X8.5595 Y-13.3984 F75.00
G01 X8.5594 Y-13.4142 F75.00
G01 X8.5589 Y-13.4242 F75.00
G01 X8.5565 Y-13.4439 F75.00
G01 X8.5348 Y-13.5401 F75.00
G01 X8.5309 Y-13.5545 F75.00
G01 X8.5277 Y-13.5640 F75.00
G01 X8.5221 Y-13.5778 F75.00
G01 X8.5154 Y-13.5912 F75.00
G01 X8.5078 Y-13.6041 F75.00
G01 X8.4992 Y-13.6163 F75.00
G01 X8.4345 Y-13.6972 F75.00
G01 X8.4240 Y-13.7082 F75.00
G01 X8.4166 Y-13.7150 F75.00
G01 X8.4088 Y-13.7215 F75.00
G01 X8.4008 Y-13.7276 F75.00
G01 X8.3924 Y-13.7332 F75.00
G01 X8.3794 Y-13.7409 F75.00
G01 X8.3168 Y-13.7746 F75.00
G01 X8.3029 Y-13.7814 F75.00
G01 X8.2887 Y-13.7870 F75.00
G01 X8.2431 Y-13.8019 F75.00
G01 X8.2280 Y-13.8062 F75.00
G01 X8.1812 Y-13.8188 F75.00
G01 X8.1519 Y-13.8309 F75.00
G01 X8.1099 Y-13.8552 F75.00
G01 X8.0962 Y-13.8627 F75.00
G01 X8.0483 Y-13.8872 F75.00
G01 X8.0222 Y-13.9051 F75.00
G01 X7.9862 Y-13.9376 F75.00
G01 X7.9639 Y-13.9563 F75.00
G01 X7.9430 Y-13.9764 F75.00
G01 X7.9069 Y-14.0089 F75.00
G01 X7.8865 Y-14.0328 F75.00
G01 X7.8759 Y-14.0443 F75.00
G01 X5.4159 Y-16.5043 F75.00
G01 X5.4044 Y-16.5149 F75.00
G01 X5.3805 Y-16.5353 F75.00
G01 X5.3480 Y-16.5714 F75.00
G01 X5.3279 Y-16.5923 F75.00
G01 X5.3092 Y-16.6146 F75.00
G01 X5.2767 Y-16.6506 F75.00
G01 X5.2588 Y-16.6767 F75.00
G01 X5.2343 Y-16.7246 F75.00
G01 X5.2268 Y-16.7383 F75.00
G01 X5.2025 Y-16.7803 F75.00
G01 X5.1904 Y-16.8096 F75.00
G01 X5.1764 Y-16.8615 F75.00
G01 X5.1719 Y-16.8765 F75.00
G01 X5.1569 Y-16.9226 F75.00
G01 X5.1511 Y-16.9537 F75.00
G01 X5.1486 Y-17.0022 F75.00
G01 X5.1461 Y-17.0312 F75.00
G01 X5.1456 Y-17.0602 F75.00
G01 X5.1430 Y-17.1087 F75.00
G01 X5.1455 Y-17.1400 F75.00
G01 X5.1461 Y-17.1557 F75.00
G01 X5.1460 Y-17.7944 F75.00
G01 X5.1445 Y-17.8143 F75.00
G01 X5.1421 Y-17.8291 F75.00
G01 X5.1190 Y-17.9296 F75.00
G01 X5.1146 Y-17.9433 F75.00
G01 X5.1093 Y-17.9567 F75.00
G01 X5.1030 Y-17.9696 F75.00
G01 X5.0958 Y-17.9821 F75.00
G01 X5.0848 Y-17.9979 F75.00
G01 X5.0282 Y-18.0709 F75.00
G01 X5.0213 Y-18.0786 F75.00
G01 X5.0101 Y-18.0894 F75.00
G01 X4.9271 Y-18.1605 F75.00
G01 X4.7931 Y-18.3173 F75.00
G01 X4.6853 Y-18.4932 F75.00
G01 X4.6064 Y-18.6838 F75.00
G01 X4.5582 Y-18.8844 F75.00
G01 X4.5420 Y-19.0900 F75.00
G01 X4.5582 Y-19.2956 F75.00
G01 X4.6064 Y-19.4962 F75.00
G01 X4.6853 Y-19.6868 F75.00
G01 X4.7931 Y-19.8627 F75.00
G01 X4.9271 Y-20.0195 F75.00
G01 X5.0839 Y-20.1535 F75.00
G01 X5.2598 Y-20.2613 F75.00
G01 X5.4504 Y-20.3402 F75.00
G01 X5.6510 Y-20.3884 F75.00
G01 X5.8566 Y-20.4046 F75.00
G01 X6.0622 Y-20.3884 F75.00
G01 X6.2628 Y-20.3402 F75.00
G01 X6.4534 Y-20.2613 F75.00
G01 X6.6293 Y-20.1535 F75.00
G01 X6.7861 Y-20.0195 F75.00
G01 X6.9201 Y-19.8627 F75.00
G01 X7.0279 Y-19.6868 F75.00
G01 X7.1068 Y-19.4962 F75.00
G01 X7.1550 Y-19.2956 F75.00
G01 X7.1712 Y-19.0900 F75.00
G01 X7.1550 Y-18.8844 F75.00
G01 X7.1068 Y-18.6838 F75.00
G01 X7.0279 Y-18.4932 F75.00
G01 X6.9201 Y-18.3173 F75.00
G01 X6.7861 Y-18.1605 F75.00
G01 X6.7032 Y-18.0896 F75.00
G01 X6.6960 Y-18.0827 F75.00
G01 X6.6858 Y-18.0718 F75.00
G01 X6.6764 Y-18.0601 F75.00
G01 X6.6180 Y-17.9812 F75.00
G01 X6.6128 Y-17.9732 F75.00
G01 X6.6058 Y-17.9606 F75.00
G01 X6.5998 Y-17.9475 F75.00
G01 X6.5946 Y-17.9341 F75.00
G01 X6.5893 Y-17.9156 F75.00
G01 X6.5714 Y-17.8307 F75.00
G01 X6.5688 Y-17.8153 F75.00
G01 X6.5677 Y-17.8050 F75.00
G01 X6.5671 Y-17.7895 F75.00
G01 X6.5671 Y-17.5280 F75.00
G01 X6.5681 Y-17.5081 F75.00
G01 X6.5711 Y-17.4883 F75.00
G01 X6.5918 Y-17.3971 F75.00
G01 X6.5956 Y-17.3829 F75.00
G01 X6.5987 Y-17.3736 F75.00
G01 X6.6043 Y-17.3599 F75.00
G01 X6.6108 Y-17.3467 F75.00
G01 X6.6182 Y-17.3340 F75.00
G01 X6.6651 Y-17.2676 F75.00
G01 X6.6710 Y-17.2601 F75.00
G01 X6.6806 Y-17.2493 F75.00
G01 X7.8819 Y-16.0480 F75.00
G01 X7.8931 Y-16.0381 F75.00
G01 X7.9092 Y-16.0262 F75.00
G01 X7.9884 Y-15.9764 F75.00
G01 X8.0013 Y-15.9689 F75.00
G01 X8.0148 Y-15.9624 F75.00
G01 X8.0334 Y-15.9554 F75.00
G01 X8.0527 Y-15.9502 F75.00
G01 X8.0674 Y-15.9476 F75.00
G01 X8.1703 Y-15.9362 F75.00
G01 X8.1853 Y-15.9358 F75.00
G01 X8.1952 Y-15.9362 F75.00
G01 X8.2151 Y-15.9384 F75.00
G01 X8.2297 Y-15.9414 F75.00
G01 X8.2441 Y-15.9455 F75.00
G01 X8.3371 Y-15.9780 F75.00
G01 X8.3509 Y-15.9838 F75.00
G01 X8.3598 Y-15.9882 F75.00
G01 X8.3770 Y-15.9984 F75.00
G01 X8.3891 Y-16.0072 F75.00
G01 X8.4042 Y-16.0202 F75.00
G01 X8.4704 Y-16.0863 F75.00
G01 X8.4838 Y-16.1011 F75.00
G01 X8.4956 Y-16.1171 F75.00
G01 X8.5058 Y-16.1342 F75.00
G01 X8.5123 Y-16.1477 F75.00
G01 X8.5161 Y-16.1570 F75.00
G01 X8.5470 Y-16.2452 F75.00
G01 X8.5501 Y-16.2549 F75.00
G01 X8.5528 Y-16.2648 F75.00
G01 X8.5558 Y-16.2798 F75.00
G01 X8.5571 Y-16.2899 F75.00
G01 X8.5592 Y-16.3223 F75.00
G01 X8.5595 Y-16.3336 F75.00
G01 X8.5595 Y-18.1116 F75.00
G01 X8.5673 Y-18.1609 F75.00
G01 X8.5976 Y-18.2203 F75.00
G01 X8.6447 Y-18.2674 F75.00
G01 X8.7041 Y-18.2977 F75.00
G01 X8.7534 Y-18.3055 F75.00
G01 X10.9266 Y-18.3055 F75.00
G01 X11.0250 Y-18.2900 F75.00
G01 X11.0449 Y-18.2883 F75.00
G01 X11.0598 Y-18.2884 F75.00
G01 X11.1631 Y-18.2956 F75.00
G01 X11.1779 Y-18.2979 F75.00
G01 X11.1876 Y-18.3000 F75.00
G01 X11.2067 Y-18.3057 F75.00
G01 X11.2206 Y-18.3113 F75.00
G01 X11.2341 Y-18.3178 F75.00
G01 X11.3155 Y-18.3639 F75.00
G01 X11.3323 Y-18.3746 F75.00
G01 X11.3480 Y-18.3870 F75.00
G01 X11.3553 Y-18.3937 F75.00
G01 X11.3657 Y-18.4044 F75.00
G01 X11.3783 Y-18.4199 F75.00
G01 X11.4343 Y-18.5008 F75.00
G01 X11.4419 Y-18.5134 F75.00
G01 X11.4486 Y-18.5264 F75.00
G01 X11.4559 Y-18.5445 F75.00
G01 X11.4589 Y-18.5538 F75.00
G01 X11.4626 Y-18.5680 F75.00
G01 X11.4787 Y-18.6516 F75.00
G01 X11.4806 Y-18.6657 F75.00
G01 X11.4814 Y-18.6800 F75.00
G01 X11.4815 Y-19.3287 F75.00
G01 X11.4812 Y-19.3391 F75.00
G01 X11.4800 Y-19.3551 F75.00
G01 X11.4760 Y-19.4324 F75.00
G01 X11.4735 Y-19.4613 F75.00
G01 X11.4730 Y-19.4904 F75.00
G01 X11.4704 Y-19.5388 F75.00
G01 X11.4729 Y-19.5702 F75.00
G01 X11.4735 Y-19.5859 F75.00
G01 X11.4735 Y-21.0681 F75.00
G01 X11.4729 Y-21.0838 F75.00
G01 X11.4704 Y-21.1151 F75.00
G01 X11.4730 Y-21.1636 F75.00
G01 X11.4735 Y-21.1927 F75.00
G01 X11.4760 Y-21.2216 F75.00
G01 X11.4799 Y-21.2965 F75.00
G01 X11.4813 Y-21.3155 F75.00
G01 X11.4815 Y-21.3253 F75.00
G01 X11.4815 Y-22.3767 F75.00
G01 X11.4812 Y-22.3871 F75.00
G01 X11.4800 Y-22.4031 F75.00
G01 X11.4760 Y-22.4804 F75.00
G01 X11.4735 Y-22.5093 F75.00
G01 X11.4730 Y-22.5384 F75.00
G01 X11.4704 Y-22.5868 F75.00
G01 X11.4729 Y-22.6182 F75.00
G01 X11.4735 Y-22.6339 F75.00
G01 X11.4735 Y-24.1161 F75.00
G01 X11.4729 Y-24.1318 F75.00
G01 X11.4704 Y-24.1631 F75.00
G01 X11.4730 Y-24.2116 F75.00
G01 X11.4735 Y-24.2407 F75.00
G01 X11.4760 Y-24.2696 F75.00
G01 X11.4799 Y-24.3445 F75.00
G01 X11.4813 Y-24.3635 F75.00
G01 X11.4815 Y-24.3733 F75.00
G01 X11.4813 Y-25.1867 F75.00
G01 X11.4799 Y-25.2016 F75.00
G01 X11.4775 Y-25.2164 F75.00
G01 X11.4568 Y-25.3076 F75.00
G01 X11.4514 Y-25.3268 F75.00
G01 X11.4441 Y-25.3454 F75.00
G01 X11.4350 Y-25.3631 F75.00
G01 X11.4242 Y-25.3799 F75.00
G01 X11.3598 Y-25.4609 F75.00
G01 X11.3497 Y-25.4720 F75.00
G01 X11.3351 Y-25.4856 F75.00
G01 X11.3192 Y-25.4976 F75.00
G01 X11.3022 Y-25.5080 F75.00
G01 X11.2047 Y-25.5550 F75.00
G01 X11.1956 Y-25.5586 F75.00
G01 X11.1816 Y-25.5631 F75.00
G01 X11.1722 Y-25.5656 F75.00
G01 X11.1578 Y-25.5684 F75.00
G01 X11.1384 Y-25.5704 F75.00
G01 X11.0533 Y-25.5733 F75.00
G01 X11.0438 Y-25.5732 F75.00
G01 X11.0296 Y-25.5721 F75.00
G01 X10.9926 Y-25.5665 F75.00
G01 X8.8194 Y-25.5665 F75.00
G01 X8.7701 Y-25.5743 F75.00
G01 X8.7107 Y-25.6046 F75.00
G01 X8.6636 Y-25.6517 F75.00
G01 X8.6333 Y-25.7111 F75.00
G01 X8.6255 Y-25.7604 F75.00
G01 X8.6255 Y-26.0028 F75.00
G01 X8.6249 Y-26.0177 F75.00
G01 X8.6239 Y-26.0276 F75.00
G01 X8.6215 Y-26.0424 F75.00
G01 X8.6008 Y-26.1336 F75.00
G01 X8.5970 Y-26.1479 F75.00
G01 X8.5921 Y-26.1619 F75.00
G01 X8.5883 Y-26.1709 F75.00
G01 X8.5817 Y-26.1842 F75.00
G01 X8.5742 Y-26.1969 F75.00
G01 X8.5658 Y-26.2091 F75.00
G01 X8.5196 Y-26.2707 F75.00
G01 X8.5072 Y-26.2857 F75.00
G01 X8.4934 Y-26.2994 F75.00
G01 X8.4709 Y-26.3183 F75.00
G01 X8.4500 Y-26.3384 F75.00
G01 X8.4139 Y-26.3709 F75.00
G01 X8.3935 Y-26.3948 F75.00
G01 X8.3829 Y-26.4063 F75.00
G01 X7.2482 Y-27.5410 F75.00
G01 X7.2335 Y-27.5543 F75.00
G01 X7.2256 Y-27.5605 F75.00
G01 X7.2132 Y-27.5689 F75.00
G01 X7.1297 Y-27.6211 F75.00
G01 X7.1208 Y-27.6258 F75.00
G01 X7.1072 Y-27.6319 F75.00
G01 X7.0979 Y-27.6354 F75.00
G01 X7.0836 Y-27.6398 F75.00
G01 X7.0690 Y-27.6432 F75.00
G01 X7.0592 Y-27.6448 F75.00
G01 X6.9662 Y-27.6553 F75.00
G01 X6.9513 Y-27.6564 F75.00
G01 X6.9314 Y-27.6562 F75.00
G01 X6.9165 Y-27.6547 F75.00
G01 X6.8969 Y-27.6510 F75.00
G01 X6.8778 Y-27.6454 F75.00
G01 X6.7848 Y-27.6126 F75.00
G01 X6.7712 Y-27.6064 F75.00
G01 X6.7538 Y-27.5967 F75.00
G01 X6.7375 Y-27.5852 F75.00
G01 X6.7224 Y-27.5722 F75.00
G01 X6.6493 Y-27.4989 F75.00
G01 X6.6397 Y-27.4874 F75.00
G01 X6.6283 Y-27.4711 F75.00
G01 X6.6208 Y-27.4582 F75.00
G01 X6.6124 Y-27.4401 F75.00
G01 X6.5780 Y-27.3423 F75.00
G01 X6.5751 Y-27.3325 F75.00
G01 X6.5727 Y-27.3226 F75.00
G01 X6.5701 Y-27.3076 F75.00
G01 X6.5687 Y-27.2923 F75.00
G01 X6.5671 Y-27.2588 F75.00
G01 X6.5673 Y-25.3806 F75.00
G01 X6.5687 Y-25.3657 F75.00
G01 X6.5711 Y-25.3509 F75.00
G01 X6.5929 Y-25.2550 F75.00
G01 X6.5970 Y-25.2412 F75.00
G01 X6.6020 Y-25.2277 F75.00
G01 X6.6080 Y-25.2146 F75.00
G01 X6.6149 Y-25.2020 F75.00
G01 X6.6227 Y-25.1899 F75.00
G01 X6.6284 Y-25.1821 F75.00
G01 X6.6784 Y-25.1172 F75.00
G01 X6.6884 Y-25.1052 F75.00
G01 X6.6993 Y-25.0941 F75.00
G01 X6.7070 Y-25.0871 F75.00
G01 X6.7861 Y-25.0195 F75.00
G01 X6.9201 Y-24.8627 F75.00
G01 X7.0279 Y-24.6868 F75.00
G01 X7.1068 Y-24.4962 F75.00
G01 X7.1550 Y-24.2956 F75.00
G01 X7.1712 Y-24.0900 F75.00
G01 X7.1550 Y-23.8844 F75.00
G01 X7.1068 Y-23.6838 F75.00
G01 X7.0279 Y-23.4932 F75.00
G01 X6.9201 Y-23.3173 F75.00
G01 X6.7861 Y-23.1605 F75.00
G01 X6.6293 Y-23.0265 F75.00
G01 X6.4534 Y-22.9187 F75.00
G01 X6.2628 Y-22.8398 F75.00
G01 X6.0622 Y-22.7916 F75.00
G01 X5.8566 Y-22.7754 F75.00
G01 X5.6510 Y-22.7916 F75.00
G01 X5.4504 Y-22.8398 F75.00
G01 X5.2598 Y-22.9187 F75.00
G01 X5.0839 Y-23.0265 F75.00
G01 X4.9271 Y-23.1605 F75.00
G01 X4.7931 Y-23.3173 F75.00
G01 X4.6853 Y-23.4932 F75.00
G01 X4.6064 Y-23.6838 F75.00
G01 X4.5582 Y-23.8844 F75.00
G01 X4.5420 Y-24.0900 F75.00
G01 X4.5582 Y-24.2956 F75.00
G01 X4.6064 Y-24.4962 F75.00
G01 X4.6853 Y-24.6868 F75.00
G01 X4.7931 Y-24.8627 F75.00
G01 X4.9271 Y-25.0195 F75.00
G01 X5.0062 Y-25.0871 F75.00
G01 X5.0137 Y-25.0938 F75.00
G01 X5.0241 Y-25.1045 F75.00
G01 X5.0368 Y-25.1199 F75.00
G01 X5.0952 Y-25.1988 F75.00
G01 X5.1028 Y-25.2110 F75.00
G01 X5.1095 Y-25.2237 F75.00
G01 X5.1153 Y-25.2369 F75.00
G01 X5.1201 Y-25.2505 F75.00
G01 X5.1249 Y-25.2691 F75.00
G01 X5.1437 Y-25.3595 F75.00
G01 X5.1455 Y-25.3750 F75.00
G01 X5.1461 Y-25.3905 F75.00
G01 X5.1460 Y-27.4508 F75.00
G01 X5.1445 Y-27.4707 F75.00
G01 X5.1411 Y-27.4903 F75.00
G01 X5.1202 Y-27.5814 F75.00
G01 X5.1161 Y-27.5956 F75.00
G01 X5.1089 Y-27.6139 F75.00
G01 X5.1001 Y-27.6314 F75.00
G01 X5.0895 Y-27.6479 F75.00
G01 X5.0481 Y-27.7062 F75.00
G01 X5.0391 Y-27.7174 F75.00
G01 X5.0292 Y-27.7280 F75.00
G01 X1.4759 Y-31.2813 F75.00
G01 X1.4644 Y-31.2919 F75.00
G01 X1.4405 Y-31.3123 F75.00
G01 X1.4080 Y-31.3484 F75.00
G01 X1.3879 Y-31.3693 F75.00
G01 X1.3692 Y-31.3916 F75.00
G01 X1.3367 Y-31.4276 F75.00
G01 X1.3188 Y-31.4537 F75.00
G01 X1.2943 Y-31.5016 F75.00
G01 X1.2868 Y-31.5153 F75.00
G01 X1.2625 Y-31.5573 F75.00
G01 X1.2504 Y-31.5866 F75.00
G01 X1.2364 Y-31.6385 F75.00
G01 X1.2319 Y-31.6535 F75.00
G01 X1.2169 Y-31.6996 F75.00
G01 X1.2111 Y-31.7307 F75.00
G01 X1.2086 Y-31.7792 F75.00
G01 X1.2061 Y-31.8082 F75.00
G01 X1.2056 Y-31.8372 F75.00
G01 X1.2030 Y-31.8857 F75.00
G00 Z2.0000
G00 X8.6360 Y-37.8673
G01 F45.00
G01 Z-0.0900
G01 F75.00
G01 X8.6362 Y-38.0868 F75.00
G01 X8.6382 Y-38.1063 F75.00
G01 X8.6409 Y-38.1208 F75.00
G01 X8.6461 Y-38.1397 F75.00
G01 X8.6512 Y-38.1535 F75.00
G01 X8.6552 Y-38.1625 F75.00
G01 X8.6620 Y-38.1756 F75.00
G01 X8.6697 Y-38.1881 F75.00
G01 X8.6754 Y-38.1961 F75.00
G01 X8.6846 Y-38.2076 F75.00
G01 X8.6912 Y-38.2149 F75.00
G01 X8.7017 Y-38.2252 F75.00
G01 X8.7130 Y-38.2347 F75.00
G01 X8.7208 Y-38.2405 F75.00
G01 X8.7332 Y-38.2485 F75.00
G01 X8.7461 Y-38.2556 F75.00
G01 X8.7595 Y-38.2618 F75.00
G01 X8.7733 Y-38.2669 F75.00
G01 X8.7827 Y-38.2698 F75.00
G01 X8.7922 Y-38.2721 F75.00
G01 X8.8067 Y-38.2748 F75.00
G01 X8.8213 Y-38.2765 F75.00
G01 X8.8360 Y-38.2770 F75.00
G01 X10.9760 Y-38.2770 F75.00
G01 X10.9907 Y-38.2765 F75.00
G01 X11.0005 Y-38.2755 F75.00
G01 X11.0198 Y-38.2721 F75.00
G01 X11.0293 Y-38.2698 F75.00
G01 X11.0434 Y-38.2653 F75.00
G01 X11.0570 Y-38.2598 F75.00
G01 X11.0659 Y-38.2556 F75.00
G01 X11.0746 Y-38.2510 F75.00
G01 X11.0871 Y-38.2433 F75.00
G01 X11.0951 Y-38.2376 F75.00
G01 X11.1066 Y-38.2284 F75.00
G01 X11.1139 Y-38.2218 F75.00
G01 X11.1242 Y-38.2113 F75.00
G01 X11.1366 Y-38.1961 F75.00
G01 X11.1423 Y-38.1881 F75.00
G01 X11.1500 Y-38.1756 F75.00
G01 X11.1588 Y-38.1580 F75.00
G01 X11.1626 Y-38.1490 F75.00
G01 X11.1674 Y-38.1351 F75.00
G01 X11.1722 Y-38.1160 F75.00
G01 X11.1750 Y-38.0966 F75.00
G01 X11.1760 Y-38.0770 F75.00
G01 X11.1760 Y-37.7073 F75.00
G01 X11.5265 Y-37.7072 F75.00
G01 X11.5902 Y-37.7039 F75.00
G01 X11.6582 Y-37.6938 F75.00
G01 X11.7154 Y-37.6797 F75.00
G01 X11.7342 Y-37.6740 F75.00
G01 X11.7896 Y-37.6539 F75.00
G01 X11.8429 Y-37.6290 F75.00
G01 X11.8602 Y-37.6197 F75.00
G01 X11.9106 Y-37.5892 F75.00
G01 X11.9658 Y-37.5483 F75.00
G01 X12.0168 Y-37.5022 F75.00
G01 X14.3352 Y-35.1838 F75.00
G01 X14.3749 Y-35.1403 F75.00
G01 X14.3873 Y-35.1251 F75.00
G01 X14.4222 Y-35.0776 F75.00
G01 X14.4576 Y-35.0187 F75.00
G01 X14.4830 Y-34.9655 F75.00
G01 X14.4905 Y-34.9474 F75.00
G01 X14.5101 Y-34.8919 F75.00
G01 X14.5246 Y-34.8348 F75.00
G01 X14.5285 Y-34.8155 F75.00
G01 X14.5369 Y-34.7572 F75.00
G01 X14.5403 Y-34.6886 F75.00
G01 X14.5403 Y-24.4348 F75.00
G01 X15.2740 Y-24.4348 F75.00
G01 X15.2936 Y-24.4338 F75.00
G01 X15.3130 Y-24.4310 F75.00
G01 X15.3273 Y-24.4276 F75.00
G01 X15.3460 Y-24.4214 F75.00
G01 X15.3595 Y-24.4156 F75.00
G01 X15.3768 Y-24.4063 F75.00
G01 X15.3931 Y-24.3954 F75.00
G01 X15.4046 Y-24.3862 F75.00
G01 X15.4188 Y-24.3727 F75.00
G01 X15.4286 Y-24.3617 F75.00
G01 X15.4375 Y-24.3500 F75.00
G01 X15.4480 Y-24.3334 F75.00
G01 X15.4568 Y-24.3158 F75.00
G01 X15.4623 Y-24.3022 F75.00
G01 X15.4668 Y-24.2881 F75.00
G01 X15.4702 Y-24.2738 F75.00
G01 X15.4730 Y-24.2544 F75.00
G01 X15.4739 Y-24.2397 F75.00
G01 X15.4740 Y-22.0948 F75.00
G01 X15.4730 Y-22.0752 F75.00
G01 X15.4711 Y-22.0606 F75.00
G01 X15.4691 Y-22.0510 F75.00
G01 X15.4654 Y-22.0367 F75.00
G01 X15.4606 Y-22.0228 F75.00
G01 X15.4548 Y-22.0093 F75.00
G01 X15.4504 Y-22.0005 F75.00
G01 X15.4430 Y-21.9878 F75.00
G01 X15.4346 Y-21.9757 F75.00
G01 X15.4254 Y-21.9642 F75.00
G01 X15.4188 Y-21.9569 F75.00
G01 X15.4119 Y-21.9500 F75.00
G01 X15.4009 Y-21.9402 F75.00
G01 X15.3892 Y-21.9313 F75.00
G01 X15.3768 Y-21.9233 F75.00
G01 X15.3639 Y-21.9162 F75.00
G01 X15.3505 Y-21.9100 F75.00
G01 X15.3414 Y-21.9065 F75.00
G01 X15.3273 Y-21.9020 F75.00
G01 X15.3178 Y-21.8997 F75.00
G01 X15.3033 Y-21.8970 F75.00
G01 X15.2887 Y-21.8953 F75.00
G01 X15.2789 Y-21.8949 F75.00
G01 X14.8843 Y-21.8948 F75.00
G01 X14.8843 Y-21.6684 F75.00
G01 X14.9021 Y-21.6576 F75.00
G01 X14.9143 Y-21.6493 F75.00
G01 X15.0010 Y-21.5850 F75.00
G01 X15.0161 Y-21.5725 F75.00
G01 X15.1032 Y-21.4932 F75.00
G01 X15.1825 Y-21.4061 F75.00
G01 X15.1920 Y-21.3949 F75.00
G01 X15.2649 Y-21.2962 F75.00
G01 X15.3305 Y-21.1868 F75.00
G01 X15.3850 Y-21.0715 F75.00
G01 X15.4265 Y-20.9560 F75.00
G01 X15.4306 Y-20.9419 F75.00
G01 X15.4590 Y-20.8276 F75.00
G01 X15.4765 Y-20.7112 F75.00
G01 X15.4785 Y-20.6916 F75.00
G01 X15.4838 Y-20.5838 F75.00
G01 X15.4839 Y-20.5691 F75.00
G01 X15.4777 Y-20.4466 F75.00
G01 X15.4599 Y-20.3252 F75.00
G01 X15.4569 Y-20.3108 F75.00
G01 X15.4294 Y-20.2013 F75.00
G01 X15.4249 Y-20.1873 F75.00
G01 X15.4082 Y-20.1407 F75.00
G01 X17.2539 Y-18.2950 F75.00
G01 X18.8500 Y-18.2950 F75.00
G01 X18.8696 Y-18.2940 F75.00
G01 X18.8842 Y-18.2921 F75.00
G01 X18.9033 Y-18.2878 F75.00
G01 X18.9174 Y-18.2833 F75.00
G01 X18.9310 Y-18.2778 F75.00
G01 X18.9486 Y-18.2690 F75.00
G01 X18.9611 Y-18.2613 F75.00
G01 X18.9769 Y-18.2496 F75.00
G01 X18.9879 Y-18.2398 F75.00
G01 X18.9982 Y-18.2293 F75.00
G01 X19.0106 Y-18.2141 F75.00
G01 X19.0190 Y-18.2020 F75.00
G01 X19.0286 Y-18.1849 F75.00
G01 X19.0348 Y-18.1715 F75.00
G01 X19.0399 Y-18.1577 F75.00
G01 X19.0440 Y-18.1436 F75.00
G01 X19.0478 Y-18.1243 F75.00
G01 X19.0495 Y-18.1097 F75.00
G01 X19.0500 Y-18.0950 F75.00
G01 X19.0499 Y-15.9501 F75.00
G01 X19.0485 Y-15.9305 F75.00
G01 X19.0451 Y-15.9112 F75.00
G01 X19.0399 Y-15.8923 F75.00
G01 X19.0328 Y-15.8740 F75.00
G01 X19.0264 Y-15.8607 F75.00
G01 X19.0163 Y-15.8439 F75.00
G01 X19.0046 Y-15.8281 F75.00
G01 X18.9914 Y-15.8136 F75.00
G01 X18.9806 Y-15.8036 F75.00
G01 X18.9652 Y-15.7915 F75.00
G01 X18.9486 Y-15.7810 F75.00
G01 X18.9310 Y-15.7722 F75.00
G01 X18.9127 Y-15.7651 F75.00
G01 X18.8938 Y-15.7599 F75.00
G01 X18.8745 Y-15.7565 F75.00
G01 X18.8549 Y-15.7551 F75.00
G01 X16.7100 Y-15.7550 F75.00
G01 X16.6904 Y-15.7560 F75.00
G01 X16.6710 Y-15.7588 F75.00
G01 X16.6567 Y-15.7622 F75.00
G01 X16.6380 Y-15.7684 F75.00
G01 X16.6245 Y-15.7742 F75.00
G01 X16.6157 Y-15.7786 F75.00
