(G-CODE GENERATED BY FLATCAM v8.994 - www.flatcam.org - Version Date: 2020/11/7)

(Name: Active_Electrode-F_Cu.gbr_iso_combined_cnc)
(Type: G-code from Geometry)
(Units: MM)

(Created on Sunday, 10 March 2024 at 20:48)

(This preprocessor is used with a motion controller loaded with GRBL firmware.)
(It is configured to be compatible with almost any version of GRBL firmware.)

(TOOL DIAMETER: 0.0238 mm)
(Feedrate_XY: 120.0 mm/min)
(Feedrate_Z: 60.0 mm/min)
(Feedrate rapids 1500.0 mm/min)

(Z_Cut: -0.09 mm)
(Z_Move: 2.0 mm)
(Z Start: None mm)
(Z End: 15.0 mm)
(X,Y End: 0.0000, 0.0000 mm)
(Steps per circle: 64)
(Steps per circle: 64)
(Preprocessor Geometry: GRBL_11_no_M6)

(X range:   -0.0119 ...   30.2379  mm)
(Y range:  -59.7019 ...    0.0119  mm)

(Spindle Speed: 0.0 RPM)
G21
G90
G17
G94


G01 F120.00

M5             
G00 Z15.0000
G00 X0.0000 Y0.0000                
T2
(MSG, Change to Tool Dia = 0.0238)
M0
G00 Z15.0000
        
M03
G01 F120.00
G00 X5.5951 Y-5.1105
G01 F60.00
G01 Z-0.0900
G01 F120.00
G01 X5.2151 Y-4.7304 F120.00
G01 X5.1690 Y-4.8417 F120.00
G01 X5.1106 Y-5.0848 F120.00
G01 X5.0910 Y-5.3340 F120.00
G01 X5.1106 Y-5.5832 F120.00
G01 X5.1690 Y-5.8263 F120.00
G01 X5.2151 Y-5.9376 F120.00
G01 X5.5951 Y-5.5575 F120.00
G01 X5.5934 Y-5.5503 F120.00
G01 X5.5775 Y-5.4430 F120.00
G01 X5.5721 Y-5.3340 F120.00
G01 X5.5775 Y-5.2250 F120.00
G01 X5.5934 Y-5.1177 F120.00
G01 X5.5951 Y-5.1105 F120.00
G00 Z2.0000
G00 X6.4605 Y-6.4229
G01 F60.00
G01 Z-0.0900
G01 F120.00
G01 X6.0804 Y-6.8029 F120.00
G01 X6.1917 Y-6.8490 F120.00
G01 X6.4348 Y-6.9074 F120.00
G01 X6.6840 Y-6.9270 F120.00
G01 X6.9332 Y-6.9074 F120.00
G01 X7.1763 Y-6.8490 F120.00
G01 X7.2876 Y-6.8029 F120.00
G01 X6.9075 Y-6.4229 F120.00
G01 X6.9003 Y-6.4246 F120.00
G01 X6.7930 Y-6.4405 F120.00
G01 X6.6840 Y-6.4459 F120.00
G01 X6.5750 Y-6.4405 F120.00
G01 X6.4677 Y-6.4246 F120.00
G01 X6.4605 Y-6.4229 F120.00
G00 Z2.0000
G00 X7.7729 Y-5.5575
G01 F60.00
G01 Z-0.0900
G01 F120.00
G01 X8.1529 Y-5.9376 F120.00
G01 X8.1990 Y-5.8263 F120.00
G01 X8.2574 Y-5.5832 F120.00
G01 X8.2770 Y-5.3340 F120.00
G01 X8.2574 Y-5.0848 F120.00
G01 X8.1990 Y-4.8417 F120.00
G01 X8.1529 Y-4.7304 F120.00
G01 X7.7729 Y-5.1105 F120.00
G01 X7.7746 Y-5.1177 F120.00
G01 X7.7905 Y-5.2250 F120.00
G01 X7.7959 Y-5.3340 F120.00
G01 X7.7905 Y-5.4430 F120.00
G01 X7.7746 Y-5.5503 F120.00
G01 X7.7729 Y-5.5575 F120.00
G00 Z2.0000
G00 X6.6840 Y-3.7410
G01 F60.00
G01 Z-0.0900
G01 F120.00
G01 X6.4348 Y-3.7606 F120.00
G01 X6.1917 Y-3.8190 F120.00
G01 X6.0804 Y-3.8651 F120.00
G01 X6.4605 Y-4.2451 F120.00
G01 X6.4677 Y-4.2434 F120.00
G01 X6.5750 Y-4.2275 F120.00
G01 X6.6840 Y-4.2221 F120.00
G01 X6.7930 Y-4.2275 F120.00
G01 X6.9003 Y-4.2434 F120.00
G01 X6.9075 Y-4.2451 F120.00
G01 X7.2876 Y-3.8651 F120.00
G01 X7.1763 Y-3.8190 F120.00
G01 X6.9332 Y-3.7606 F120.00
G01 X6.6840 Y-3.7410 F120.00
G00 Z2.0000
G00 X4.1440 Y-6.5350
G01 F60.00
G01 Z-0.0900
G01 F120.00
G01 X3.8948 Y-6.5546 F120.00
G01 X3.6517 Y-6.6130 F120.00
G01 X3.5404 Y-6.6591 F120.00
G01 X3.9205 Y-7.0391 F120.00
G01 X3.9277 Y-7.0374 F120.00
G01 X4.0350 Y-7.0215 F120.00
G01 X4.1440 Y-7.0161 F120.00
G01 X4.2530 Y-7.0215 F120.00
G01 X4.3603 Y-7.0374 F120.00
G01 X4.3675 Y-7.0391 F120.00
G01 X4.7476 Y-6.6591 F120.00
G01 X4.6363 Y-6.6130 F120.00
G01 X4.3932 Y-6.5546 F120.00
G01 X4.1440 Y-6.5350 F120.00
G00 Z2.0000
G00 X3.0551 Y-7.9045
G01 F60.00
G01 Z-0.0900
G01 F120.00
G01 X2.6751 Y-7.5244 F120.00
G01 X2.6290 Y-7.6357 F120.00
G01 X2.5706 Y-7.8788 F120.00
G01 X2.5510 Y-8.1280 F120.00
G01 X2.5706 Y-8.3772 F120.00
G01 X2.6290 Y-8.6203 F120.00
G01 X2.6751 Y-8.7316 F120.00
G01 X3.0551 Y-8.3515 F120.00
G01 X3.0534 Y-8.3443 F120.00
G01 X3.0375 Y-8.2370 F120.00
G01 X3.0321 Y-8.1280 F120.00
G01 X3.0375 Y-8.0190 F120.00
G01 X3.0534 Y-7.9117 F120.00
G01 X3.0551 Y-7.9045 F120.00
G00 Z2.0000
G00 X3.9205 Y-9.2169
G01 F60.00
G01 Z-0.0900
G01 F120.00
G01 X3.5404 Y-9.5969 F120.00
G01 X3.6517 Y-9.6430 F120.00
G01 X3.8948 Y-9.7014 F120.00
G01 X4.1440 Y-9.7210 F120.00
G01 X4.3932 Y-9.7014 F120.00
G01 X4.6363 Y-9.6430 F120.00
G01 X4.7476 Y-9.5969 F120.00
G01 X4.3675 Y-9.2169 F120.00
G01 X4.3603 Y-9.2186 F120.00
G01 X4.2530 Y-9.2345 F120.00
G01 X4.1440 Y-9.2399 F120.00
G01 X4.0350 Y-9.2345 F120.00
G01 X3.9277 Y-9.2186 F120.00
G01 X3.9205 Y-9.2169 F120.00
G00 Z2.0000
G00 X5.2329 Y-8.3515
G01 F60.00
G01 Z-0.0900
G01 F120.00
G01 X5.6129 Y-8.7316 F120.00
G01 X5.6590 Y-8.6203 F120.00
G01 X5.7174 Y-8.3772 F120.00
G01 X5.7370 Y-8.1280 F120.00
G01 X5.7174 Y-7.8788 F120.00
G01 X5.6590 Y-7.6357 F120.00
G01 X5.6129 Y-7.5244 F120.00
G01 X5.2329 Y-7.9045 F120.00
G01 X5.2346 Y-7.9117 F120.00
G01 X5.2505 Y-8.0190 F120.00
G01 X5.2559 Y-8.1280 F120.00
G01 X5.2505 Y-8.2370 F120.00
G01 X5.2346 Y-8.3443 F120.00
G01 X5.2329 Y-8.3515 F120.00
G00 Z2.0000
G00 X11.1718 Y-6.3203
G01 F60.00
G01 Z-0.0900
G01 F120.00
G01 X11.1718 Y-7.0106 F120.00
G01 X11.1662 Y-7.0149 F120.00
G01 X11.0858 Y-7.0878 F120.00
G01 X11.0125 Y-7.1686 F120.00
G01 X10.9475 Y-7.2563 F120.00
G01 X10.8917 Y-7.3493 F120.00
G01 X10.8857 Y-7.3618 F120.00
G01 X9.9485 Y-7.3618 F120.00
G01 X9.9300 Y-7.3416 F120.00
G01 X9.8492 Y-7.2683 F120.00
G01 X9.7617 Y-7.2035 F120.00
G01 X9.6679 Y-7.1473 F120.00
G01 X9.5695 Y-7.1007 F120.00
G01 X9.4668 Y-7.0640 F120.00
G01 X9.3609 Y-7.0375 F120.00
G01 X9.2527 Y-7.0214 F120.00
G01 X9.1440 Y-7.0161 F120.00
G01 X9.0350 Y-7.0215 F120.00
G01 X8.9271 Y-7.0375 F120.00
G01 X8.8218 Y-7.0638 F120.00
G01 X8.7180 Y-7.1010 F120.00
G01 X8.6199 Y-7.1474 F120.00
G01 X8.5260 Y-7.2037 F120.00
G01 X8.4386 Y-7.2685 F120.00
G01 X8.3582 Y-7.3414 F120.00
G01 X8.2841 Y-7.4231 F120.00
G01 X8.2195 Y-7.5103 F120.00
G01 X8.1634 Y-7.6039 F120.00
G01 X8.1167 Y-7.7025 F120.00
G01 X8.0802 Y-7.8047 F120.00
G01 X8.0534 Y-7.9117 F120.00
G01 X8.0375 Y-8.0190 F120.00
G01 X8.0321 Y-8.1280 F120.00
G01 X8.0375 Y-8.2370 F120.00
G01 X8.0534 Y-8.3443 F120.00
G01 X8.0802 Y-8.4513 F120.00
G01 X8.1167 Y-8.5535 F120.00
G01 X8.1634 Y-8.6521 F120.00
G01 X8.2195 Y-8.7457 F120.00
G01 X8.2841 Y-8.8329 F120.00
G01 X8.3582 Y-8.9146 F120.00
G01 X8.4386 Y-8.9875 F120.00
G01 X8.5258 Y-9.0522 F120.00
G01 X8.6204 Y-9.1089 F120.00
G01 X8.7185 Y-9.1553 F120.00
G01 X8.8212 Y-9.1920 F120.00
G01 X8.9271 Y-9.2185 F120.00
G01 X9.0344 Y-9.2345 F120.00
G01 X9.1443 Y-9.2399 F120.00
G01 X9.2530 Y-9.2345 F120.00
G01 X9.3609 Y-9.2185 F120.00
G01 X9.4668 Y-9.1920 F120.00
G01 X9.5690 Y-9.1555 F120.00
G01 X9.6687 Y-9.1083 F120.00
G01 X9.7617 Y-9.0525 F120.00
G01 X9.8492 Y-8.9877 F120.00
G01 X9.9302 Y-8.9142 F120.00
G01 X10.0031 Y-8.8338 F120.00
G01 X10.0687 Y-8.7455 F120.00
G01 X10.1246 Y-8.6521 F120.00
G01 X10.1711 Y-8.5538 F120.00
G01 X10.2080 Y-8.4508 F120.00
G01 X10.2242 Y-8.3862 F120.00
G01 X10.8857 Y-8.3862 F120.00
G01 X10.8917 Y-8.3987 F120.00
G01 X10.9478 Y-8.4922 F120.00
G01 X11.0125 Y-8.5794 F120.00
G01 X11.0858 Y-8.6602 F120.00
G01 X11.1666 Y-8.7335 F120.00
G01 X11.2538 Y-8.7982 F120.00
G01 X11.3473 Y-8.8543 F120.00
G01 X11.3598 Y-8.8603 F120.00
G01 X11.3598 Y-9.3021 F120.00
G01 X10.7717 Y-9.3021 F120.00
G01 X10.7680 Y-9.3028 F120.00
G01 X10.7647 Y-9.3046 F120.00
G01 X10.7621 Y-9.3074 F120.00
G01 X10.7605 Y-9.3108 F120.00
G01 X10.7601 Y-9.3140 F120.00
G01 X10.7601 Y-11.5140 F120.00
G01 X10.7606 Y-11.5175 F120.00
G01 X10.7621 Y-11.5206 F120.00
G01 X10.7640 Y-11.5228 F120.00
G01 X10.7664 Y-11.5245 F120.00
G01 X10.7691 Y-11.5255 F120.00
G01 X10.7720 Y-11.5259 F120.00
G01 X12.9720 Y-11.5259 F120.00
G01 X12.9760 Y-11.5252 F120.00
G01 X12.9791 Y-11.5236 F120.00
G01 X12.9817 Y-11.5209 F120.00
G01 X12.9834 Y-11.5175 F120.00
G01 X12.9839 Y-11.5140 F120.00
G01 X12.9839 Y-9.3140 F120.00
G01 X12.9835 Y-9.3108 F120.00
G01 X12.9819 Y-9.3074 F120.00
G01 X12.9793 Y-9.3046 F120.00
G01 X12.9760 Y-9.3028 F120.00
G01 X12.9723 Y-9.3021 F120.00
G01 X12.3842 Y-9.3021 F120.00
G01 X12.3842 Y-8.8603 F120.00
G01 X12.3967 Y-8.8543 F120.00
G01 X12.4897 Y-8.7985 F120.00
G01 X12.5774 Y-8.7335 F120.00
G01 X12.6582 Y-8.6602 F120.00
G01 X12.7315 Y-8.5794 F120.00
G01 X12.7965 Y-8.4917 F120.00
G01 X12.8526 Y-8.3981 F120.00
G01 X12.8993 Y-8.2995 F120.00
G01 X12.9358 Y-8.1973 F120.00
G01 X12.9625 Y-8.0909 F120.00
G01 X12.9786 Y-7.9824 F120.00
G01 X12.9839 Y-7.8740 F120.00
G01 X12.9786 Y-7.7656 F120.00
G01 X12.9626 Y-7.6574 F120.00
G01 X12.9358 Y-7.5507 F120.00
G01 X12.8993 Y-7.4485 F120.00
G01 X12.8529 Y-7.3504 F120.00
G01 X12.7965 Y-7.2563 F120.00
G01 X12.7311 Y-7.1682 F120.00
G01 X12.6582 Y-7.0878 F120.00
G01 X12.5778 Y-7.0149 F120.00
G01 X12.4897 Y-6.9495 F120.00
G01 X12.3956 Y-6.8931 F120.00
G01 X12.2975 Y-6.8467 F120.00
G01 X12.1962 Y-6.8105 F120.00
G01 X12.1962 Y-6.3203 F120.00
G01 X12.2087 Y-6.3143 F120.00
G01 X12.3022 Y-6.2582 F120.00
G01 X12.3894 Y-6.1935 F120.00
G01 X12.4702 Y-6.1202 F120.00
G01 X12.5439 Y-6.0389 F120.00
G01 X12.6085 Y-5.9517 F120.00
G01 X12.6646 Y-5.8581 F120.00
G01 X12.7115 Y-5.7590 F120.00
G01 X12.7480 Y-5.6568 F120.00
G01 X12.7745 Y-5.5509 F120.00
G01 X12.7905 Y-5.4430 F120.00
G01 X12.7959 Y-5.3346 F120.00
G01 X12.7905 Y-5.2250 F120.00
G01 X12.7744 Y-5.1165 F120.00
G01 X12.7480 Y-5.0112 F120.00
G01 X12.7115 Y-4.9090 F120.00
G01 X12.6646 Y-4.8099 F120.00
G01 X12.6085 Y-4.7163 F120.00
G01 X12.5431 Y-4.6282 F120.00
G01 X12.4702 Y-4.5478 F120.00
G01 X12.3898 Y-4.4749 F120.00
G01 X12.3017 Y-4.4095 F120.00
G01 X12.2081 Y-4.3534 F120.00
G01 X12.1095 Y-4.3067 F120.00
G01 X12.0068 Y-4.2700 F120.00
G01 X11.9009 Y-4.2435 F120.00
G01 X11.7930 Y-4.2275 F120.00
G01 X11.6840 Y-4.2221 F120.00
G01 X11.5750 Y-4.2275 F120.00
G01 X11.4671 Y-4.2435 F120.00
G01 X11.3612 Y-4.2700 F120.00
G01 X11.2585 Y-4.3067 F120.00
G01 X11.1599 Y-4.3534 F120.00
G01 X11.0663 Y-4.4095 F120.00
G01 X10.9786 Y-4.4745 F120.00
G01 X10.8978 Y-4.5478 F120.00
G01 X10.8245 Y-4.6286 F120.00
G01 X10.7595 Y-4.7163 F120.00
G01 X10.7034 Y-4.8099 F120.00
G01 X10.6567 Y-4.9085 F120.00
G01 X10.6200 Y-5.0112 F120.00
G01 X10.5935 Y-5.1171 F120.00
G01 X10.5775 Y-5.2250 F120.00
G01 X10.5721 Y-5.3340 F120.00
G01 X10.5775 Y-5.4430 F120.00
G01 X10.5935 Y-5.5509 F120.00
G01 X10.6200 Y-5.6568 F120.00
G01 X10.6567 Y-5.7595 F120.00
G01 X10.7034 Y-5.8581 F120.00
G01 X10.7595 Y-5.9517 F120.00
G01 X10.8245 Y-6.0394 F120.00
G01 X10.8978 Y-6.1202 F120.00
G01 X10.9786 Y-6.1935 F120.00
G01 X11.0663 Y-6.2585 F120.00
G01 X11.1593 Y-6.3143 F120.00
G01 X11.1718 Y-6.3203 F120.00
G00 Z2.0000
G00 X15.8120 Y-2.9771
G01 F60.00
G01 Z-0.0900
G01 F120.00
G01 X13.6120 Y-2.9771 F120.00
G01 X13.6077 Y-2.9779 F120.00
G01 X13.6040 Y-2.9802 F120.00
G01 X13.6015 Y-2.9834 F120.00
G01 X13.6002 Y-2.9875 F120.00
G01 X13.6001 Y-5.1890 F120.00
G01 X13.6005 Y-5.1922 F120.00
G01 X13.6021 Y-5.1956 F120.00
G01 X13.6047 Y-5.1984 F120.00
G01 X13.6080 Y-5.2002 F120.00
G01 X13.6117 Y-5.2009 F120.00
G01 X14.1998 Y-5.2009 F120.00
G01 X14.1998 Y-16.3419 F120.00
G01 X13.0199 Y-17.5218 F120.00
G01 X12.9839 Y-17.5218 F120.00
G01 X12.9839 Y-16.9337 F120.00
G01 X12.9831 Y-16.9297 F120.00
G01 X12.9812 Y-16.9265 F120.00
G01 X12.9784 Y-16.9239 F120.00
G01 X12.9749 Y-16.9225 F120.00
G01 X12.9720 Y-16.9221 F120.00
G01 X10.7720 Y-16.9221 F120.00
G01 X10.7677 Y-16.9229 F120.00
G01 X10.7642 Y-16.9250 F120.00
G01 X10.7615 Y-16.9284 F120.00
G01 X10.7602 Y-16.9323 F120.00
G01 X10.7601 Y-19.1340 F120.00
G01 X10.7606 Y-19.1375 F120.00
G01 X10.7621 Y-19.1406 F120.00
G01 X10.7642 Y-19.1430 F120.00
G01 X10.7672 Y-19.1449 F120.00
G01 X10.7697 Y-19.1457 F120.00
G01 X10.7720 Y-19.1459 F120.00
G01 X12.9720 Y-19.1459 F120.00
G01 X12.9755 Y-19.1454 F120.00
G01 X12.9789 Y-19.1437 F120.00
G01 X12.9816 Y-19.1411 F120.00
G01 X12.9833 Y-19.1377 F120.00
G01 X12.9839 Y-19.1343 F120.00
G01 X12.9839 Y-18.5462 F120.00
G01 X13.2320 Y-18.5462 F120.00
G01 X13.2822 Y-18.5437 F120.00
G01 X13.3325 Y-18.5362 F120.00
G01 X13.3807 Y-18.5241 F120.00
G01 X13.4274 Y-18.5074 F120.00
G01 X13.4739 Y-18.4854 F120.00
G01 X13.5165 Y-18.4598 F120.00
G01 X13.5569 Y-18.4299 F120.00
G01 X13.5941 Y-18.3961 F120.00
G01 X13.7118 Y-18.2784 F120.00
G01 X13.7118 Y-31.5979 F120.00
G01 X13.0499 Y-32.2598 F120.00
G01 X13.0499 Y-31.8357 F120.00
G01 X13.0491 Y-31.8317 F120.00
G01 X13.0470 Y-31.8282 F120.00
G01 X13.0439 Y-31.8256 F120.00
G01 X13.0403 Y-31.8243 F120.00
G01 X10.8380 Y-31.8241 F120.00
G01 X10.8337 Y-31.8249 F120.00
G01 X10.8302 Y-31.8270 F120.00
G01 X10.8284 Y-31.8289 F120.00
G01 X10.8271 Y-31.8312 F120.00
G01 X10.8263 Y-31.8337 F120.00
G01 X10.8261 Y-31.8360 F120.00
G01 X10.8261 Y-34.0360 F120.00
G01 X10.8269 Y-34.0403 F120.00
G01 X10.8290 Y-34.0438 F120.00
G01 X10.8324 Y-34.0465 F120.00
G01 X10.8363 Y-34.0478 F120.00
G01 X13.0380 Y-34.0479 F120.00
G01 X13.0409 Y-34.0475 F120.00
G01 X13.0436 Y-34.0465 F120.00
G01 X13.0462 Y-34.0446 F120.00
G01 X13.0482 Y-34.0421 F120.00
G01 X13.0495 Y-34.0392 F120.00
G01 X13.0499 Y-34.0360 F120.00
G01 X13.0499 Y-33.4482 F120.00
G01 X13.0983 Y-33.4481 F120.00
G01 X13.1479 Y-33.4457 F120.00
G01 X13.1973 Y-33.4384 F120.00
G01 X13.2467 Y-33.4261 F120.00
G01 X13.2934 Y-33.4094 F120.00
G01 X13.3394 Y-33.3877 F120.00
G01 X13.3825 Y-33.3618 F120.00
G01 X13.4229 Y-33.3319 F120.00
G01 X13.4597 Y-33.2985 F120.00
G01 X14.5865 Y-32.1717 F120.00
G01 X14.6199 Y-32.1349 F120.00
G01 X14.6495 Y-32.0950 F120.00
G01 X14.6757 Y-32.0514 F120.00
G01 X14.6972 Y-32.0060 F120.00
G01 X14.7139 Y-31.9592 F120.00
G01 X14.7264 Y-31.9093 F120.00
G01 X14.7337 Y-31.8602 F120.00
G01 X14.7362 Y-31.8100 F120.00
G01 X14.7362 Y-17.2541 F120.00
G01 X15.0741 Y-16.9161 F120.00
G01 X15.1083 Y-16.8784 F120.00
G01 X15.1378 Y-16.8385 F120.00
G01 X15.1634 Y-16.7959 F120.00
G01 X15.1852 Y-16.7500 F120.00
G01 X15.2021 Y-16.7027 F120.00
G01 X15.2142 Y-16.6545 F120.00
G01 X15.2217 Y-16.6039 F120.00
G01 X15.2242 Y-16.5540 F120.00
G01 X15.2242 Y-5.2009 F120.00
G01 X15.8123 Y-5.2009 F120.00
G01 X15.8160 Y-5.2002 F120.00
G01 X15.8193 Y-5.1984 F120.00
G01 X15.8219 Y-5.1956 F120.00
G01 X15.8235 Y-5.1922 F120.00
G01 X15.8239 Y-5.1890 F120.00
G01 X15.8239 Y-2.9890 F120.00
G01 X15.8230 Y-2.9844 F120.00
G01 X15.8204 Y-2.9806 F120.00
G01 X15.8166 Y-2.9780 F120.00
G01 X15.8120 Y-2.9771 F120.00
G00 Z2.0000
G00 X16.1401 Y-2.9890
G01 F60.00
G01 Z-0.0900
G01 F120.00
G01 X16.1401 Y-5.1890 F120.00
G01 X16.1405 Y-5.1922 F120.00
G01 X16.1421 Y-5.1956 F120.00
G01 X16.1447 Y-5.1984 F120.00
G01 X16.1480 Y-5.2002 F120.00
G01 X16.1517 Y-5.2009 F120.00
G01 X16.7398 Y-5.2009 F120.00
G01 X16.7398 Y-14.2940 F120.00
G01 X16.7424 Y-14.3448 F120.00
G01 X16.7497 Y-14.3939 F120.00
G01 X16.7619 Y-14.4427 F120.00
G01 X16.7788 Y-14.4900 F120.00
G01 X16.8006 Y-14.5359 F120.00
G01 X16.8262 Y-14.5785 F120.00
G01 X16.8557 Y-14.6184 F120.00
G01 X16.8897 Y-14.6559 F120.00
G01 X18.0899 Y-15.8561 F120.00
G01 X18.1271 Y-15.8899 F120.00
G01 X18.1675 Y-15.9198 F120.00
G01 X18.2111 Y-15.9459 F120.00
G01 X18.2560 Y-15.9672 F120.00
G01 X18.3028 Y-15.9839 F120.00
G01 X18.3521 Y-15.9963 F120.00
G01 X18.4018 Y-16.0037 F120.00
G01 X18.4517 Y-16.0061 F120.00
G01 X18.7001 Y-16.0062 F120.00
G01 X18.7001 Y-16.5940 F120.00
G01 X18.7006 Y-16.5975 F120.00
G01 X18.7021 Y-16.6006 F120.00
G01 X18.7045 Y-16.6032 F120.00
G01 X18.7072 Y-16.6049 F120.00
G01 X18.7097 Y-16.6057 F120.00
G01 X18.7120 Y-16.6059 F120.00
G01 X20.9120 Y-16.6059 F120.00
G01 X20.9152 Y-16.6055 F120.00
G01 X20.9186 Y-16.6039 F120.00
G01 X20.9214 Y-16.6013 F120.00
G01 X20.9232 Y-16.5980 F120.00
G01 X20.9239 Y-16.5943 F120.00
G01 X20.9239 Y-16.0062 F120.00
G01 X20.9599 Y-16.0062 F120.00
G01 X21.5858 Y-16.6321 F120.00
G01 X21.5858 Y-21.1239 F120.00
G01 X16.9099 Y-25.7999 F120.00
G01 X16.8761 Y-25.8371 F120.00
G01 X16.8459 Y-25.8780 F120.00
G01 X16.8203 Y-25.9206 F120.00
G01 X16.7991 Y-25.9655 F120.00
G01 X16.7819 Y-26.0133 F120.00
G01 X16.7697 Y-26.0621 F120.00
G01 X16.7624 Y-26.1112 F120.00
G01 X16.7598 Y-26.1620 F120.00
G01 X16.7598 Y-37.3099 F120.00
G01 X14.0259 Y-40.0438 F120.00
G01 X13.0499 Y-40.0438 F120.00
G01 X13.0499 Y-39.4557 F120.00
G01 X13.0491 Y-39.4517 F120.00
G01 X13.0470 Y-39.4482 F120.00
G01 X13.0441 Y-39.4458 F120.00
G01 X13.0403 Y-39.4443 F120.00
G01 X10.8380 Y-39.4441 F120.00
G01 X10.8343 Y-39.4447 F120.00
G01 X10.8309 Y-39.4464 F120.00
G01 X10.8288 Y-39.4485 F120.00
G01 X10.8274 Y-39.4506 F120.00
G01 X10.8264 Y-39.4534 F120.00
G01 X10.8261 Y-39.4560 F120.00
G01 X10.8261 Y-41.6560 F120.00
G01 X10.8269 Y-41.6603 F120.00
G01 X10.8290 Y-41.6638 F120.00
G01 X10.8324 Y-41.6665 F120.00
G01 X10.8363 Y-41.6678 F120.00
G01 X13.0400 Y-41.6677 F120.00
G01 X13.0439 Y-41.6664 F120.00
G01 X13.0470 Y-41.6638 F120.00
G01 X13.0491 Y-41.6603 F120.00
G01 X13.0499 Y-41.6563 F120.00
G01 X13.0499 Y-41.0682 F120.00
G01 X14.2386 Y-41.0681 F120.00
G01 X14.2888 Y-41.0656 F120.00
G01 X14.3379 Y-41.0583 F120.00
G01 X14.3861 Y-41.0463 F120.00
G01 X14.4340 Y-41.0292 F120.00
G01 X14.4797 Y-41.0075 F120.00
G01 X14.5225 Y-40.9818 F120.00
G01 X14.5624 Y-40.9523 F120.00
G01 X14.6001 Y-40.9181 F120.00
G01 X17.6341 Y-37.8841 F120.00
G01 X17.6683 Y-37.8464 F120.00
G01 X17.6978 Y-37.8065 F120.00
G01 X17.7235 Y-37.7637 F120.00
G01 X17.7452 Y-37.7180 F120.00
G01 X17.7623 Y-37.6701 F120.00
G01 X17.7743 Y-37.6219 F120.00
G01 X17.7816 Y-37.5728 F120.00
G01 X17.7842 Y-37.5220 F120.00
G01 X17.7842 Y-26.3741 F120.00
G01 X22.4603 Y-21.6979 F120.00
G01 X22.4939 Y-21.6609 F120.00
G01 X22.5235 Y-21.6210 F120.00
G01 X22.5499 Y-21.5769 F120.00
G01 X22.5712 Y-21.5320 F120.00
G01 X22.5881 Y-21.4847 F120.00
G01 X22.6003 Y-21.4359 F120.00
G01 X22.6076 Y-21.3868 F120.00
G01 X22.6102 Y-21.3360 F120.00
G01 X22.6101 Y-16.4197 F120.00
G01 X22.6077 Y-16.3698 F120.00
G01 X22.6004 Y-16.3207 F120.00
G01 X22.5881 Y-16.2713 F120.00
G01 X22.5712 Y-16.2240 F120.00
G01 X22.5499 Y-16.1791 F120.00
G01 X22.5238 Y-16.1355 F120.00
G01 X22.4939 Y-16.0951 F120.00
G01 X22.4601 Y-16.0579 F120.00
G01 X21.5341 Y-15.1319 F120.00
G01 X21.4969 Y-15.0981 F120.00
G01 X21.4568 Y-15.0683 F120.00
G01 X21.4134 Y-15.0423 F120.00
G01 X21.3680 Y-15.0208 F120.00
G01 X21.3207 Y-15.0039 F120.00
G01 X21.2716 Y-14.9916 F120.00
G01 X21.2222 Y-14.9843 F120.00
G01 X21.1723 Y-14.9819 F120.00
G01 X20.9239 Y-14.9818 F120.00
G01 X20.9239 Y-14.3940 F120.00
G01 X20.9234 Y-14.3905 F120.00
G01 X20.9219 Y-14.3874 F120.00
G01 X20.9195 Y-14.3848 F120.00
G01 X20.9168 Y-14.3831 F120.00
G01 X20.9146 Y-14.3824 F120.00
G01 X20.9120 Y-14.3821 F120.00
G01 X18.7120 Y-14.3821 F120.00
G01 X18.7088 Y-14.3825 F120.00
G01 X18.7054 Y-14.3841 F120.00
G01 X18.7026 Y-14.3867 F120.00
G01 X18.7008 Y-14.3900 F120.00
G01 X18.7001 Y-14.3937 F120.00
G01 X18.7001 Y-14.9818 F120.00
G01 X18.6641 Y-14.9818 F120.00
G01 X17.7642 Y-14.0819 F120.00
G01 X17.7642 Y-5.2009 F120.00
G01 X18.3523 Y-5.2009 F120.00
G01 X18.3560 Y-5.2002 F120.00
G01 X18.3593 Y-5.1984 F120.00
G01 X18.3619 Y-5.1956 F120.00
G01 X18.3635 Y-5.1922 F120.00
G01 X18.3639 Y-5.1890 F120.00
G01 X18.3638 Y-2.9873 F120.00
G01 X18.3625 Y-2.9834 F120.00
G01 X18.3598 Y-2.9800 F120.00
G01 X18.3560 Y-2.9778 F120.00
G01 X18.3520 Y-2.9771 F120.00
G01 X16.1520 Y-2.9771 F120.00
G01 X16.1474 Y-2.9780 F120.00
G01 X16.1436 Y-2.9806 F120.00
G01 X16.1410 Y-2.9844 F120.00
G01 X16.1401 Y-2.9890 F120.00
G00 Z2.0000
G00 X20.2903 Y-7.3618
G01 F60.00
G01 Z-0.0900
G01 F120.00
G01 X20.2843 Y-7.3493 F120.00
G01 X20.2285 Y-7.2563 F120.00
G01 X20.1635 Y-7.1686 F120.00
G01 X20.0902 Y-7.0878 F120.00
G01 X20.0094 Y-7.0145 F120.00
G01 X19.9217 Y-6.9495 F120.00
G01 X19.8281 Y-6.8934 F120.00
G01 X19.7295 Y-6.8467 F120.00
G01 X19.6268 Y-6.8100 F120.00
G01 X19.5209 Y-6.7835 F120.00
G01 X19.4130 Y-6.7675 F120.00
G01 X19.3040 Y-6.7621 F120.00
G01 X19.1950 Y-6.7675 F120.00
G01 X19.0871 Y-6.7835 F120.00
G01 X18.9812 Y-6.8100 F120.00
G01 X18.8785 Y-6.8467 F120.00
G01 X18.7799 Y-6.8934 F120.00
G01 X18.6863 Y-6.9495 F120.00
G01 X18.5986 Y-7.0145 F120.00
G01 X18.5178 Y-7.0878 F120.00
G01 X18.4445 Y-7.1686 F120.00
G01 X18.3795 Y-7.2563 F120.00
G01 X18.3234 Y-7.3499 F120.00
G01 X18.2767 Y-7.4485 F120.00
G01 X18.2400 Y-7.5512 F120.00
G01 X18.2135 Y-7.6571 F120.00
G01 X18.1975 Y-7.7650 F120.00
G01 X18.1921 Y-7.8740 F120.00
G01 X18.1975 Y-7.9830 F120.00
G01 X18.2135 Y-8.0909 F120.00
G01 X18.2400 Y-8.1968 F120.00
G01 X18.2767 Y-8.2995 F120.00
G01 X18.3234 Y-8.3981 F120.00
G01 X18.3795 Y-8.4917 F120.00
G01 X18.4441 Y-8.5789 F120.00
G01 X18.5178 Y-8.6602 F120.00
G01 X18.5991 Y-8.7339 F120.00
G01 X18.6863 Y-8.7985 F120.00
G01 X18.7793 Y-8.8543 F120.00
G01 X18.8785 Y-8.9013 F120.00
G01 X18.9818 Y-8.9382 F120.00
G01 X19.0871 Y-8.9645 F120.00
G01 X19.1944 Y-8.9805 F120.00
G01 X19.3040 Y-8.9859 F120.00
G01 X19.4136 Y-8.9805 F120.00
G01 X19.5209 Y-8.9645 F120.00
G01 X19.6268 Y-8.9380 F120.00
G01 X19.7300 Y-8.9010 F120.00
G01 X19.8281 Y-8.8546 F120.00
G01 X19.9212 Y-8.7988 F120.00
G01 X20.0098 Y-8.7331 F120.00
G01 X20.0902 Y-8.6602 F120.00
G01 X20.1631 Y-8.5798 F120.00
G01 X20.2285 Y-8.4917 F120.00
G01 X20.2843 Y-8.3987 F120.00
G01 X20.2903 Y-8.3862 F120.00
G01 X20.6159 Y-8.3862 F120.00
G01 X24.3798 Y-12.1501 F120.00
G01 X24.3798 Y-13.7579 F120.00
G01 X23.5139 Y-14.6239 F120.00
G01 X23.4805 Y-14.6607 F120.00
G01 X23.4502 Y-14.7015 F120.00
G01 X23.4241 Y-14.7451 F120.00
G01 X23.4028 Y-14.7900 F120.00
G01 X23.3861 Y-14.8368 F120.00
G01 X23.3737 Y-14.8861 F120.00
G01 X23.3663 Y-14.9358 F120.00
G01 X23.3638 Y-14.9860 F120.00
G01 X23.3638 Y-22.1399 F120.00
G01 X22.5379 Y-22.9659 F120.00
G01 X22.5043 Y-23.0029 F120.00
G01 X22.4739 Y-23.0440 F120.00
G01 X22.4483 Y-23.0866 F120.00
G01 X22.4268 Y-23.1320 F120.00
G01 X22.4099 Y-23.1793 F120.00
G01 X22.3978 Y-23.2275 F120.00
G01 X22.3903 Y-23.2781 F120.00
G01 X22.3878 Y-23.3280 F120.00
G01 X22.3878 Y-38.7616 F120.00
G01 X21.2801 Y-37.6539 F120.00
G01 X21.2429 Y-37.6201 F120.00
G01 X21.2030 Y-37.5905 F120.00
G01 X21.1594 Y-37.5643 F120.00
G01 X21.1140 Y-37.5428 F120.00
G01 X21.0667 Y-37.5259 F120.00
G01 X21.0176 Y-37.5136 F120.00
G01 X20.9682 Y-37.5063 F120.00
G01 X20.9183 Y-37.5039 F120.00
G01 X20.6699 Y-37.5038 F120.00
G01 X20.6699 Y-36.9160 F120.00
G01 X20.6695 Y-36.9128 F120.00
G01 X20.6681 Y-36.9096 F120.00
G01 X20.6658 Y-36.9070 F120.00
G01 X20.6631 Y-36.9052 F120.00
G01 X20.6606 Y-36.9044 F120.00
G01 X20.6580 Y-36.9041 F120.00
G01 X18.4568 Y-36.9042 F120.00
G01 X18.4526 Y-36.9054 F120.00
G01 X18.4492 Y-36.9080 F120.00
G01 X18.4469 Y-36.9117 F120.00
G01 X18.4461 Y-36.9160 F120.00
G01 X18.4461 Y-39.1169 F120.00
G01 X18.4472 Y-39.1211 F120.00
G01 X18.4500 Y-39.1248 F120.00
G01 X18.4537 Y-39.1271 F120.00
G01 X18.4580 Y-39.1279 F120.00
G01 X20.6580 Y-39.1279 F120.00
G01 X20.6609 Y-39.1275 F120.00
G01 X20.6646 Y-39.1259 F120.00
G01 X20.6674 Y-39.1233 F120.00
G01 X20.6692 Y-39.1200 F120.00
G01 X20.6699 Y-39.1163 F120.00
G01 X20.6699 Y-38.5282 F120.00
G01 X20.7059 Y-38.5282 F120.00
G01 X22.0746 Y-39.8969 F120.00
G01 X22.0403 Y-39.9348 F120.00
G01 X21.9757 Y-40.0220 F120.00
G01 X21.9195 Y-40.1156 F120.00
G01 X21.8727 Y-40.2145 F120.00
G01 X21.8361 Y-40.3170 F120.00
G01 X21.8095 Y-40.4231 F120.00
G01 X21.7935 Y-40.5310 F120.00
G01 X21.7881 Y-40.6400 F120.00
G01 X21.7935 Y-40.7493 F120.00
G01 X21.8096 Y-40.8575 F120.00
G01 X21.8360 Y-40.9628 F120.00
G01 X21.8725 Y-41.0650 F120.00
G01 X21.9194 Y-41.1641 F120.00
G01 X21.9755 Y-41.2577 F120.00
G01 X22.0409 Y-41.3458 F120.00
G01 X22.1138 Y-41.4262 F120.00
G01 X22.1942 Y-41.4991 F120.00
G01 X22.2823 Y-41.5645 F120.00
G01 X22.3753 Y-41.6203 F120.00
G01 X22.3878 Y-41.6263 F120.00
G01 X22.3878 Y-42.4477 F120.00
G01 X22.3753 Y-42.4537 F120.00
G01 X22.2823 Y-42.5095 F120.00
G01 X22.1942 Y-42.5749 F120.00
G01 X22.1138 Y-42.6478 F120.00
G01 X22.0409 Y-42.7282 F120.00
G01 X21.9752 Y-42.8168 F120.00
G01 X21.9194 Y-42.9099 F120.00
G01 X21.8730 Y-43.0080 F120.00
G01 X21.8360 Y-43.1112 F120.00
G01 X21.8095 Y-43.2171 F120.00
G01 X21.7935 Y-43.3244 F120.00
G01 X21.7881 Y-43.4343 F120.00
G01 X21.7935 Y-43.5430 F120.00
G01 X21.8094 Y-43.6503 F120.00
G01 X21.8360 Y-43.7568 F120.00
G01 X21.8730 Y-43.8600 F120.00
G01 X21.9194 Y-43.9581 F120.00
G01 X21.9752 Y-44.0512 F120.00
G01 X22.0409 Y-44.1398 F120.00
G01 X22.1138 Y-44.2202 F120.00
G01 X22.1942 Y-44.2931 F120.00
G01 X22.2823 Y-44.3585 F120.00
G01 X22.3753 Y-44.4143 F120.00
G01 X22.3878 Y-44.4203 F120.00
G01 X22.3878 Y-55.5301 F120.00
G01 X21.7597 Y-55.5301 F120.00
G01 X21.7560 Y-55.5308 F120.00
G01 X21.7527 Y-55.5326 F120.00
G01 X21.7501 Y-55.5354 F120.00
G01 X21.7485 Y-55.5388 F120.00
G01 X21.7481 Y-55.5420 F120.00
G01 X21.7482 Y-57.7432 F120.00
G01 X21.7494 Y-57.7474 F120.00
G01 X21.7520 Y-57.7508 F120.00
G01 X21.7557 Y-57.7531 F120.00
G01 X21.7600 Y-57.7539 F120.00
G01 X23.9609 Y-57.7539 F120.00
G01 X23.9651 Y-57.7528 F120.00
G01 X23.9686 Y-57.7502 F120.00
G01 X23.9711 Y-57.7463 F120.00
G01 X23.9719 Y-57.7420 F120.00
G01 X23.9719 Y-55.5420 F120.00
G01 X23.9715 Y-55.5391 F120.00
G01 X23.9701 Y-55.5356 F120.00
G01 X23.9675 Y-55.5328 F120.00
G01 X23.9643 Y-55.5309 F120.00
G01 X23.9603 Y-55.5301 F120.00
G01 X23.4122 Y-55.5301 F120.00
G01 X23.4122 Y-44.4203 F120.00
G01 X23.4247 Y-44.4143 F120.00
G01 X23.5177 Y-44.3585 F120.00
G01 X23.6058 Y-44.2931 F120.00
G01 X23.6862 Y-44.2202 F120.00
G01 X23.7591 Y-44.1398 F120.00
G01 X23.8248 Y-44.0512 F120.00
G01 X23.8806 Y-43.9581 F120.00
G01 X23.9270 Y-43.8600 F120.00
G01 X23.9640 Y-43.7568 F120.00
G01 X23.9905 Y-43.6509 F120.00
G01 X24.0065 Y-43.5436 F120.00
G01 X24.0119 Y-43.4340 F120.00
G01 X24.0065 Y-43.3244 F120.00
G01 X23.9905 Y-43.2171 F120.00
G01 X23.9640 Y-43.1112 F120.00
G01 X23.9270 Y-43.0080 F120.00
G01 X23.8806 Y-42.9099 F120.00
G01 X23.8248 Y-42.8168 F120.00
G01 X23.7591 Y-42.7282 F120.00
G01 X23.6862 Y-42.6478 F120.00
G01 X23.6058 Y-42.5749 F120.00
G01 X23.5177 Y-42.5095 F120.00
G01 X23.4247 Y-42.4537 F120.00
G01 X23.4122 Y-42.4477 F120.00
G01 X23.4122 Y-41.6263 F120.00
G01 X23.4247 Y-41.6203 F120.00
G01 X23.5177 Y-41.5645 F120.00
G01 X23.6058 Y-41.4991 F120.00
G01 X23.6862 Y-41.4262 F120.00
G01 X23.7591 Y-41.3458 F120.00
G01 X23.8248 Y-41.2572 F120.00
G01 X23.8806 Y-41.1641 F120.00
G01 X23.9270 Y-41.0660 F120.00
G01 X23.9640 Y-40.9628 F120.00
G01 X23.9905 Y-40.8569 F120.00
G01 X24.0065 Y-40.7496 F120.00
G01 X24.0119 Y-40.6400 F120.00
G01 X24.0065 Y-40.5304 F120.00
G01 X23.9905 Y-40.4231 F120.00
G01 X23.9640 Y-40.3172 F120.00
G01 X23.9270 Y-40.2140 F120.00
G01 X23.8806 Y-40.1159 F120.00
G01 X23.8248 Y-40.0228 F120.00
G01 X23.7591 Y-39.9342 F120.00
G01 X23.6862 Y-39.8538 F120.00
G01 X23.6058 Y-39.7809 F120.00
G01 X23.5177 Y-39.7155 F120.00
G01 X23.4247 Y-39.6597 F120.00
G01 X23.4122 Y-39.6537 F120.00
G01 X23.4122 Y-23.5401 F120.00
G01 X24.2381 Y-22.7141 F120.00
G01 X24.2715 Y-22.6773 F120.00
G01 X24.3018 Y-22.6365 F120.00
G01 X24.3279 Y-22.5929 F120.00
G01 X24.3492 Y-22.5480 F120.00
G01 X24.3659 Y-22.5012 F120.00
G01 X24.3784 Y-22.4516 F120.00
G01 X24.3857 Y-22.4022 F120.00
G01 X24.3882 Y-22.3520 F120.00
G01 X24.3882 Y-15.1981 F120.00
G01 X25.2545 Y-14.3317 F120.00
G01 X25.2883 Y-14.2944 F120.00
G01 X25.3178 Y-14.2545 F120.00
G01 X25.3434 Y-14.2119 F120.00
G01 X25.3652 Y-14.1660 F120.00
G01 X25.3821 Y-14.1187 F120.00
G01 X25.3943 Y-14.0699 F120.00
G01 X25.4016 Y-14.0208 F120.00
G01 X25.4042 Y-13.9700 F120.00
G01 X25.4042 Y-11.9380 F120.00
G01 X25.4017 Y-11.8881 F120.00
G01 X25.3943 Y-11.8381 F120.00
G01 X25.3823 Y-11.7899 F120.00
G01 X25.3649 Y-11.7415 F120.00
G01 X25.3437 Y-11.6966 F120.00
G01 X25.3178 Y-11.6535 F120.00
G01 X25.2879 Y-11.6131 F120.00
G01 X25.2543 Y-11.5761 F120.00
G01 X21.1901 Y-7.5119 F120.00
G01 X21.1533 Y-7.4785 F120.00
G01 X21.1120 Y-7.4479 F120.00
G01 X21.0694 Y-7.4223 F120.00
G01 X21.0240 Y-7.4008 F120.00
G01 X20.9761 Y-7.3837 F120.00
G01 X20.9279 Y-7.3717 F120.00
G01 X20.8785 Y-7.3643 F120.00
G01 X20.8280 Y-7.3618 F120.00
G01 X20.2903 Y-7.3618 F120.00
G00 Z2.0000
G00 X18.7001 Y-9.3140
G01 F60.00
G01 Z-0.0900
G01 F120.00
G01 X18.7001 Y-11.5140 F120.00
G01 X18.7005 Y-11.5172 F120.00
G01 X18.7021 Y-11.5206 F120.00
G01 X18.7047 Y-11.5234 F120.00
G01 X18.7080 Y-11.5252 F120.00
G01 X18.7117 Y-11.5259 F120.00
G01 X19.2998 Y-11.5259 F120.00
G01 X19.2998 Y-11.8421 F120.00
G01 X18.7117 Y-11.8421 F120.00
G01 X18.7077 Y-11.8429 F120.00
G01 X18.7045 Y-11.8448 F120.00
G01 X18.7018 Y-11.8479 F120.00
G01 X18.7004 Y-11.8514 F120.00
G01 X18.7001 Y-11.8540 F120.00
G01 X18.7001 Y-14.0540 F120.00
G01 X18.7010 Y-14.0586 F120.00
G01 X18.7036 Y-14.0624 F120.00
G01 X18.7074 Y-14.0650 F120.00
G01 X18.7120 Y-14.0659 F120.00
G01 X20.9120 Y-14.0659 F120.00
G01 X20.9152 Y-14.0655 F120.00
G01 X20.9186 Y-14.0639 F120.00
G01 X20.9214 Y-14.0613 F120.00
G01 X20.9232 Y-14.0580 F120.00
G01 X20.9239 Y-14.0543 F120.00
G01 X20.9239 Y-13.4662 F120.00
G01 X21.4057 Y-13.4662 F120.00
G01 X21.4117 Y-13.4787 F120.00
G01 X21.4675 Y-13.5717 F120.00
G01 X21.5329 Y-13.6598 F120.00
G01 X21.6058 Y-13.7402 F120.00
G01 X21.6862 Y-13.8131 F120.00
G01 X21.7743 Y-13.8785 F120.00
G01 X21.8679 Y-13.9346 F120.00
G01 X21.9670 Y-13.9815 F120.00
G01 X22.0692 Y-14.0180 F120.00
G01 X22.1745 Y-14.0444 F120.00
G01 X22.2827 Y-14.0605 F120.00
G01 X22.3920 Y-14.0659 F120.00
G01 X22.5010 Y-14.0605 F120.00
G01 X22.6089 Y-14.0445 F120.00
G01 X22.7153 Y-14.0178 F120.00
G01 X22.8175 Y-13.9813 F120.00
G01 X22.9156 Y-13.9349 F120.00
G01 X23.0092 Y-13.8788 F120.00
G01 X23.0974 Y-13.8135 F120.00
G01 X23.1782 Y-13.7402 F120.00
G01 X23.2515 Y-13.6594 F120.00
G01 X23.3165 Y-13.5717 F120.00
G01 X23.3726 Y-13.4781 F120.00
G01 X23.4195 Y-13.3790 F120.00
G01 X23.4562 Y-13.2762 F120.00
G01 X23.4825 Y-13.1709 F120.00
G01 X23.4985 Y-13.0636 F120.00
G01 X23.5039 Y-12.9540 F120.00
G01 X23.4985 Y-12.8450 F120.00
G01 X23.4825 Y-12.7371 F120.00
G01 X23.4560 Y-12.6312 F120.00
G01 X23.4193 Y-12.5285 F120.00
G01 X23.3723 Y-12.4293 F120.00
G01 X23.3165 Y-12.3363 F120.00
G01 X23.2519 Y-12.2491 F120.00
G01 X23.1786 Y-12.1682 F120.00
G01 X23.0974 Y-12.0945 F120.00
G01 X23.0097 Y-12.0295 F120.00
G01 X22.9161 Y-11.9734 F120.00
G01 X22.8175 Y-11.9267 F120.00
G01 X22.7148 Y-11.8900 F120.00
G01 X22.6089 Y-11.8635 F120.00
G01 X22.5010 Y-11.8475 F120.00
G01 X22.3920 Y-11.8421 F120.00
G01 X22.2830 Y-11.8475 F120.00
G01 X22.1751 Y-11.8635 F120.00
G01 X22.0692 Y-11.8900 F120.00
G01 X21.9660 Y-11.9270 F120.00
G01 X21.8673 Y-11.9737 F120.00
G01 X21.7743 Y-12.0295 F120.00
G01 X21.6871 Y-12.0941 F120.00
G01 X21.6058 Y-12.1678 F120.00
G01 X21.5325 Y-12.2486 F120.00
G01 X21.4675 Y-12.3363 F120.00
G01 X21.4117 Y-12.4293 F120.00
G01 X21.4057 Y-12.4418 F120.00
G01 X20.9239 Y-12.4418 F120.00
G01 X20.9239 Y-11.8540 F120.00
G01 X20.9230 Y-11.8494 F120.00
G01 X20.9204 Y-11.8456 F120.00
G01 X20.9166 Y-11.8430 F120.00
G01 X20.9120 Y-11.8421 F120.00
G01 X20.3242 Y-11.8421 F120.00
G01 X20.3242 Y-11.5259 F120.00
G01 X20.9123 Y-11.5259 F120.00
G01 X20.9163 Y-11.5251 F120.00
G01 X20.9195 Y-11.5232 F120.00
G01 X20.9222 Y-11.5201 F120.00
G01 X20.9236 Y-11.5166 F120.00
G01 X20.9239 Y-11.5140 F120.00
G01 X20.9239 Y-9.3140 F120.00
G01 X20.9230 Y-9.3094 F120.00
G01 X20.9204 Y-9.3056 F120.00
G01 X20.9166 Y-9.3030 F120.00
G01 X20.9120 Y-9.3021 F120.00
G01 X18.7120 Y-9.3021 F120.00
G01 X18.7074 Y-9.3030 F120.00
G01 X18.7036 Y-9.3056 F120.00
G01 X18.7010 Y-9.3094 F120.00
G01 X18.7001 Y-9.3140 F120.00
G00 Z2.0000
G00 X12.9720 Y-11.8421
G01 F60.00
G01 Z-0.0900
G01 F120.00
G01 X10.7720 Y-11.8421 F120.00
G01 X10.7694 Y-11.8424 F120.00
G01 X10.7669 Y-11.8432 F120.00
G01 X10.7647 Y-11.8446 F120.00
G01 X10.7628 Y-11.8465 F120.00
G01 X10.7608 Y-11.8500 F120.00
G01 X10.7601 Y-11.8540 F120.00
G01 X10.7601 Y-14.0540 F120.00
G01 X10.7604 Y-14.0566 F120.00
G01 X10.7619 Y-14.0604 F120.00
G01 X10.7645 Y-14.0632 F120.00
G01 X10.7677 Y-14.0651 F120.00
G01 X10.7717 Y-14.0659 F120.00
G01 X11.3598 Y-14.0659 F120.00
G01 X11.3598 Y-14.3821 F120.00
G01 X10.7720 Y-14.3821 F120.00
G01 X10.7677 Y-14.3829 F120.00
G01 X10.7638 Y-14.3854 F120.00
G01 X10.7611 Y-14.3892 F120.00
G01 X10.7603 Y-14.3917 F120.00
G01 X10.7601 Y-14.3940 F120.00
G01 X10.7601 Y-14.9818 F120.00
G01 X10.7117 Y-14.9819 F120.00
G01 X10.6621 Y-14.9843 F120.00
G01 X10.6127 Y-14.9916 F120.00
G01 X10.5633 Y-15.0039 F120.00
G01 X10.5166 Y-15.0206 F120.00
G01 X10.4706 Y-15.0423 F120.00
G01 X10.4275 Y-15.0682 F120.00
G01 X10.3871 Y-15.0981 F120.00
G01 X10.3501 Y-15.1317 F120.00
G01 X6.7074 Y-18.7743 F120.00
G01 X6.6623 Y-18.7581 F120.00
G01 X6.5570 Y-18.7318 F120.00
G01 X6.4485 Y-18.7157 F120.00
G01 X6.3398 Y-18.7103 F120.00
G01 X6.2314 Y-18.7156 F120.00
G01 X6.1226 Y-18.7318 F120.00
G01 X6.0170 Y-18.7582 F120.00
G01 X5.9148 Y-18.7948 F120.00
G01 X5.8156 Y-18.8416 F120.00
G01 X5.7220 Y-18.8977 F120.00
G01 X5.6348 Y-18.9624 F120.00
G01 X5.5531 Y-19.0364 F120.00
G01 X5.4803 Y-19.1169 F120.00
G01 X5.4153 Y-19.2045 F120.00
G01 X5.3592 Y-19.2981 F120.00
G01 X5.3123 Y-19.3973 F120.00
G01 X5.2756 Y-19.5000 F120.00
G01 X5.2492 Y-19.6053 F120.00
G01 X5.2333 Y-19.7127 F120.00
G01 X5.2279 Y-19.8222 F120.00
G01 X5.2332 Y-19.9306 F120.00
G01 X5.2492 Y-20.0392 F120.00
G01 X5.2757 Y-20.1450 F120.00
G01 X5.3125 Y-20.2477 F120.00
G01 X5.3592 Y-20.3464 F120.00
G01 X5.4153 Y-20.4400 F120.00
G01 X5.4803 Y-20.5276 F120.00
G01 X5.5535 Y-20.6085 F120.00
G01 X5.6344 Y-20.6817 F120.00
G01 X5.7220 Y-20.7467 F120.00
G01 X5.8151 Y-20.8026 F120.00
G01 X5.9148 Y-20.8497 F120.00
G01 X6.0170 Y-20.8863 F120.00
G01 X6.1228 Y-20.9128 F120.00
G01 X6.2308 Y-20.9288 F120.00
G01 X6.3398 Y-20.9341 F120.00
G01 X6.4488 Y-20.9288 F120.00
G01 X6.5567 Y-20.9128 F120.00
G01 X6.6625 Y-20.8863 F120.00
G01 X6.7647 Y-20.8497 F120.00
G01 X6.8644 Y-20.8026 F120.00
G01 X6.9575 Y-20.7467 F120.00
G01 X7.0454 Y-20.6816 F120.00
G01 X7.1260 Y-20.6085 F120.00
G01 X7.1989 Y-20.5281 F120.00
G01 X7.2643 Y-20.4400 F120.00
G01 X7.3204 Y-20.3464 F120.00
G01 X7.3668 Y-20.2483 F120.00
G01 X7.4038 Y-20.1450 F120.00
G01 X7.4303 Y-20.0392 F120.00
G01 X7.4462 Y-19.9318 F120.00
G01 X7.4517 Y-19.8222 F120.00
G01 X7.4462 Y-19.7127 F120.00
G01 X7.4303 Y-19.6053 F120.00
G01 X7.4092 Y-19.5211 F120.00
G01 X10.7601 Y-16.1702 F120.00
G01 X10.7601 Y-16.5943 F120.00
G01 X10.7609 Y-16.5983 F120.00
G01 X10.7630 Y-16.6018 F120.00
G01 X10.7661 Y-16.6044 F120.00
G01 X10.7697 Y-16.6057 F120.00
G01 X12.9720 Y-16.6059 F120.00
G01 X12.9746 Y-16.6056 F120.00
G01 X12.9771 Y-16.6048 F120.00
G01 X12.9793 Y-16.6034 F120.00
G01 X12.9812 Y-16.6015 F120.00
G01 X12.9832 Y-16.5980 F120.00
G01 X12.9839 Y-16.5940 F120.00
G01 X12.9839 Y-14.3940 F120.00
G01 X12.9835 Y-14.3908 F120.00
G01 X12.9819 Y-14.3874 F120.00
G01 X12.9793 Y-14.3846 F120.00
G01 X12.9760 Y-14.3828 F120.00
G01 X12.9723 Y-14.3821 F120.00
G01 X12.3842 Y-14.3821 F120.00
G01 X12.3842 Y-14.0659 F120.00
G01 X12.9723 Y-14.0659 F120.00
G01 X12.9763 Y-14.0651 F120.00
G01 X12.9795 Y-14.0632 F120.00
G01 X12.9821 Y-14.0604 F120.00
G01 X12.9836 Y-14.0566 F120.00
G01 X12.9839 Y-14.0540 F120.00
G01 X12.9839 Y-11.8540 F120.00
G01 X12.9830 Y-11.8494 F120.00
G01 X12.9804 Y-11.8456 F120.00
G01 X12.9766 Y-11.8430 F120.00
G01 X12.9720 Y-11.8421 F120.00
G00 Z2.0000
G00 X18.7001 Y-16.9340
G01 F60.00
G01 Z-0.0900
G01 F120.00
G01 X18.7001 Y-18.4216 F120.00
G01 X17.0105 Y-20.1112 F120.00
G01 X16.9939 Y-20.1013 F120.00
G01 X16.8955 Y-20.0547 F120.00
G01 X16.7928 Y-20.0180 F120.00
G01 X16.6869 Y-19.9915 F120.00
G01 X16.5784 Y-19.9754 F120.00
G01 X16.4694 Y-19.9701 F120.00
G01 X16.3610 Y-19.9755 F120.00
G01 X16.2537 Y-19.9914 F120.00
G01 X16.1472 Y-20.0180 F120.00
G01 X16.0440 Y-20.0550 F120.00
G01 X15.9453 Y-20.1017 F120.00
G01 X15.8523 Y-20.1575 F120.00
G01 X15.7651 Y-20.2221 F120.00
G01 X15.6838 Y-20.2958 F120.00
G01 X15.6105 Y-20.3766 F120.00
G01 X15.5452 Y-20.4648 F120.00
G01 X15.4894 Y-20.5579 F120.00
G01 X15.4430 Y-20.6560 F120.00
G01 X15.4060 Y-20.7592 F120.00
G01 X15.3795 Y-20.8651 F120.00
G01 X15.3635 Y-20.9730 F120.00
G01 X15.3581 Y-21.0814 F120.00
G01 X15.3635 Y-21.1916 F120.00
G01 X15.3795 Y-21.2989 F120.00
G01 X15.4060 Y-21.4048 F120.00
G01 X15.4427 Y-21.5075 F120.00
G01 X15.4893 Y-21.6059 F120.00
G01 X15.5455 Y-21.6997 F120.00
G01 X15.6101 Y-21.7869 F120.00
G01 X15.6840 Y-21.8684 F120.00
G01 X15.7646 Y-21.9415 F120.00
G01 X15.8520 Y-22.0063 F120.00
G01 X15.9456 Y-22.0625 F120.00
G01 X15.9978 Y-22.0872 F120.00
G01 X15.9978 Y-22.8897 F120.00
G01 X15.9853 Y-22.8957 F120.00
G01 X15.8918 Y-22.9518 F120.00
G01 X15.8046 Y-23.0165 F120.00
G01 X15.7234 Y-23.0902 F120.00
G01 X15.6505 Y-23.1706 F120.00
G01 X15.5855 Y-23.2583 F120.00
G01 X15.5294 Y-23.3519 F120.00
G01 X15.4829 Y-23.4502 F120.00
G01 X15.4460 Y-23.5532 F120.00
G01 X15.4195 Y-23.6591 F120.00
G01 X15.4035 Y-23.7670 F120.00
G01 X15.3981 Y-23.8754 F120.00
G01 X15.4035 Y-23.9850 F120.00
G01 X15.4194 Y-24.0923 F120.00
G01 X15.4458 Y-24.1982 F120.00
G01 X15.4504 Y-24.2113 F120.00
G01 X15.3857 Y-24.2761 F120.00
G01 X15.3521 Y-24.3131 F120.00
G01 X15.3222 Y-24.3535 F120.00
G01 X15.2965 Y-24.3963 F120.00
G01 X15.2748 Y-24.4420 F120.00
G01 X15.2579 Y-24.4893 F120.00
G01 X15.2457 Y-24.5381 F120.00
G01 X15.2383 Y-24.5881 F120.00
G01 X15.2358 Y-24.6380 F120.00
G01 X15.2358 Y-35.1539 F120.00
G01 X13.0499 Y-37.3398 F120.00
G01 X13.0499 Y-36.9157 F120.00
G01 X13.0492 Y-36.9120 F120.00
G01 X13.0472 Y-36.9085 F120.00
G01 X13.0441 Y-36.9058 F120.00
G01 X13.0403 Y-36.9043 F120.00
G01 X10.8380 Y-36.9041 F120.00
G01 X10.8343 Y-36.9047 F120.00
G01 X10.8309 Y-36.9064 F120.00
G01 X10.8290 Y-36.9082 F120.00
G01 X10.8274 Y-36.9106 F120.00
G01 X10.8264 Y-36.9134 F120.00
G01 X10.8261 Y-36.9160 F120.00
G01 X10.8261 Y-37.5038 F120.00
G01 X10.7777 Y-37.5039 F120.00
G01 X10.7275 Y-37.5063 F120.00
G01 X10.6781 Y-37.5137 F120.00
G01 X10.6293 Y-37.5259 F120.00
G01 X10.5820 Y-37.5428 F120.00
G01 X10.5366 Y-37.5643 F120.00
G01 X10.4935 Y-37.5902 F120.00
G01 X10.4529 Y-37.6203 F120.00
G01 X10.4159 Y-37.6539 F120.00
G01 X8.7815 Y-39.2883 F120.00
G01 X8.7481 Y-39.3251 F120.00
G01 X8.7182 Y-39.3655 F120.00
G01 X8.6923 Y-39.4086 F120.00
G01 X8.6708 Y-39.4540 F120.00
G01 X8.6539 Y-39.5013 F120.00
G01 X8.6417 Y-39.5501 F120.00
G01 X8.6343 Y-39.5998 F120.00
G01 X8.6318 Y-39.6537 F120.00
G01 X8.6193 Y-39.6597 F120.00
G01 X8.5258 Y-39.7158 F120.00
G01 X8.4386 Y-39.7805 F120.00
G01 X8.3578 Y-39.8538 F120.00
G01 X8.2841 Y-39.9351 F120.00
G01 X8.2195 Y-40.0223 F120.00
G01 X8.1637 Y-40.1153 F120.00
G01 X8.1167 Y-40.2145 F120.00
G01 X8.0800 Y-40.3172 F120.00
G01 X8.0535 Y-40.4231 F120.00
G01 X8.0375 Y-40.5307 F120.00
G01 X8.0321 Y-40.6406 F120.00
G01 X8.0375 Y-40.7490 F120.00
G01 X8.0535 Y-40.8569 F120.00
G01 X8.0802 Y-40.9633 F120.00
G01 X8.1167 Y-41.0655 F120.00
G01 X8.1634 Y-41.1641 F120.00
G01 X8.2195 Y-41.2577 F120.00
G01 X8.2841 Y-41.3449 F120.00
G01 X8.3578 Y-41.4262 F120.00
G01 X8.4386 Y-41.4995 F120.00
G01 X8.5258 Y-41.5642 F120.00
G01 X8.6193 Y-41.6203 F120.00
G01 X8.6318 Y-41.6263 F120.00
G01 X8.6318 Y-44.3456 F120.00
G01 X8.6193 Y-44.3515 F120.00
G01 X8.5263 Y-44.4074 F120.00
G01 X8.4382 Y-44.4727 F120.00
G01 X8.3578 Y-44.5456 F120.00
G01 X8.2849 Y-44.6260 F120.00
G01 X8.2192 Y-44.7146 F120.00
G01 X8.1634 Y-44.8077 F120.00
G01 X8.1170 Y-44.9058 F120.00
G01 X8.0800 Y-45.0091 F120.00
G01 X8.0535 Y-45.1149 F120.00
G01 X8.0375 Y-45.2223 F120.00
G01 X8.0321 Y-45.3319 F120.00
G01 X8.0375 Y-45.4414 F120.00
G01 X8.0535 Y-45.5488 F120.00
G01 X8.0800 Y-45.6546 F120.00
G01 X8.1170 Y-45.7579 F120.00
G01 X8.1634 Y-45.8560 F120.00
G01 X8.2192 Y-45.9491 F120.00
G01 X8.2849 Y-46.0377 F120.00
G01 X8.3578 Y-46.1181 F120.00
G01 X8.4382 Y-46.1910 F120.00
G01 X8.5263 Y-46.2564 F120.00
G01 X8.6193 Y-46.3122 F120.00
G01 X8.6318 Y-46.3182 F120.00
G01 X8.6318 Y-47.2440 F120.00
G01 X8.6343 Y-47.2936 F120.00
G01 X8.6417 Y-47.3439 F120.00
G01 X8.6539 Y-47.3927 F120.00
G01 X8.6708 Y-47.4400 F120.00
G01 X8.6922 Y-47.4852 F120.00
G01 X8.7185 Y-47.5290 F120.00
G01 X8.7481 Y-47.5689 F120.00
G01 X8.7819 Y-47.6061 F120.00
G01 X14.7278 Y-53.5521 F120.00
G01 X14.7278 Y-55.5301 F120.00
G01 X14.1397 Y-55.5301 F120.00
G01 X14.1357 Y-55.5309 F120.00
G01 X14.1322 Y-55.5330 F120.00
G01 X14.1295 Y-55.5364 F120.00
G01 X14.1282 Y-55.5403 F120.00
G01 X14.1281 Y-57.7420 F120.00
G01 X14.1289 Y-57.7463 F120.00
G01 X14.1312 Y-57.7500 F120.00
G01 X14.1346 Y-57.7526 F120.00
G01 X14.1385 Y-57.7538 F120.00
G01 X16.3400 Y-57.7539 F120.00
G01 X16.3446 Y-57.7530 F120.00
G01 X16.3484 Y-57.7504 F120.00
G01 X16.3510 Y-57.7466 F120.00
G01 X16.3519 Y-57.7420 F120.00
G01 X16.3519 Y-55.5420 F120.00
G01 X16.3515 Y-55.5391 F120.00
G01 X16.3501 Y-55.5356 F120.00
G01 X16.3475 Y-55.5328 F120.00
G01 X16.3440 Y-55.5308 F120.00
G01 X16.3403 Y-55.5301 F120.00
G01 X15.7522 Y-55.5301 F120.00
G01 X15.7521 Y-53.3394 F120.00
G01 X15.7497 Y-53.2898 F120.00
G01 X15.7423 Y-53.2401 F120.00
G01 X15.7301 Y-53.1913 F120.00
G01 X15.7134 Y-53.1446 F120.00
G01 X15.6914 Y-53.0981 F120.00
G01 X15.6658 Y-53.0555 F120.00
G01 X15.6361 Y-53.0153 F120.00
G01 X15.6021 Y-52.9779 F120.00
G01 X9.6562 Y-47.0319 F120.00
G01 X9.6562 Y-46.3182 F120.00
G01 X9.6687 Y-46.3122 F120.00
G01 X9.7617 Y-46.2564 F120.00
G01 X9.8498 Y-46.1910 F120.00
G01 X9.9302 Y-46.1181 F120.00
G01 X10.0031 Y-46.0377 F120.00
G01 X10.0688 Y-45.9491 F120.00
G01 X10.1246 Y-45.8560 F120.00
G01 X10.1710 Y-45.7579 F120.00
G01 X10.2080 Y-45.6546 F120.00
G01 X10.2346 Y-45.5482 F120.00
G01 X10.2505 Y-45.4408 F120.00
G01 X10.2559 Y-45.3322 F120.00
G01 X10.2505 Y-45.2223 F120.00
G01 X10.2345 Y-45.1149 F120.00
G01 X10.2080 Y-45.0091 F120.00
G01 X10.1710 Y-44.9058 F120.00
G01 X10.1246 Y-44.8077 F120.00
G01 X10.0688 Y-44.7146 F120.00
G01 X10.0031 Y-44.6260 F120.00
G01 X9.9302 Y-44.5456 F120.00
G01 X9.8498 Y-44.4727 F120.00
G01 X9.7617 Y-44.4074 F120.00
G01 X9.6687 Y-44.3515 F120.00
G01 X9.6562 Y-44.3456 F120.00
G01 X9.6562 Y-41.6263 F120.00
G01 X9.6687 Y-41.6203 F120.00
G01 X9.7617 Y-41.5645 F120.00
G01 X9.8498 Y-41.4991 F120.00
G01 X9.9302 Y-41.4262 F120.00
G01 X10.0031 Y-41.3458 F120.00
G01 X10.0688 Y-41.2572 F120.00
G01 X10.1246 Y-41.1641 F120.00
G01 X10.1710 Y-41.0660 F120.00
G01 X10.2080 Y-40.9628 F120.00
G01 X10.2346 Y-40.8563 F120.00
G01 X10.2505 Y-40.7490 F120.00
G01 X10.2559 Y-40.6403 F120.00
G01 X10.2505 Y-40.5310 F120.00
G01 X10.2344 Y-40.4225 F120.00
G01 X10.2080 Y-40.3172 F120.00
G01 X10.1715 Y-40.2150 F120.00
G01 X10.1247 Y-40.1161 F120.00
G01 X10.0685 Y-40.0223 F120.00
G01 X10.0031 Y-39.9342 F120.00
G01 X9.9298 Y-39.8534 F120.00
G01 X9.8494 Y-39.7805 F120.00
G01 X9.7853 Y-39.7330 F120.00
G01 X10.8261 Y-38.6922 F120.00
G01 X10.8261 Y-39.1163 F120.00
G01 X10.8268 Y-39.1200 F120.00
G01 X10.8288 Y-39.1235 F120.00
G01 X10.8319 Y-39.1262 F120.00
G01 X10.8357 Y-39.1277 F120.00
G01 X13.0380 Y-39.1279 F120.00
G01 X13.0412 Y-39.1275 F120.00
G01 X13.0444 Y-39.1261 F120.00
G01 X13.0466 Y-39.1242 F120.00
G01 X13.0484 Y-39.1219 F120.00
G01 X13.0495 Y-39.1189 F120.00
G01 X13.0499 Y-39.1160 F120.00
G01 X13.0499 Y-38.5282 F120.00
G01 X13.0983 Y-38.5281 F120.00
G01 X13.1479 Y-38.5257 F120.00
G01 X13.1973 Y-38.5184 F120.00
G01 X13.2467 Y-38.5061 F120.00
G01 X13.2934 Y-38.4894 F120.00
G01 X13.3394 Y-38.4677 F120.00
G01 X13.3825 Y-38.4418 F120.00
G01 X13.4229 Y-38.4119 F120.00
G01 X13.4599 Y-38.3783 F120.00
G01 X16.1101 Y-35.7281 F120.00
G01 X16.1439 Y-35.6909 F120.00
G01 X16.1738 Y-35.6505 F120.00
G01 X16.1997 Y-35.6074 F120.00
G01 X16.2213 Y-35.5617 F120.00
G01 X16.2381 Y-35.5147 F120.00
G01 X16.2503 Y-35.4659 F120.00
G01 X16.2577 Y-35.4162 F120.00
G01 X16.2602 Y-35.3660 F120.00
G01 X16.2602 Y-24.9583 F120.00
G01 X16.2934 Y-24.9666 F120.00
G01 X16.4007 Y-24.9825 F120.00
G01 X16.5097 Y-24.9879 F120.00
G01 X16.6190 Y-24.9825 F120.00
G01 X16.7266 Y-24.9666 F120.00
G01 X16.8328 Y-24.9400 F120.00
G01 X16.9355 Y-24.9033 F120.00
G01 X17.0341 Y-24.8566 F120.00
G01 X17.1280 Y-24.8003 F120.00
G01 X17.2154 Y-24.7355 F120.00
G01 X17.2966 Y-24.6618 F120.00
G01 X17.3699 Y-24.5809 F120.00
G01 X17.4345 Y-24.4937 F120.00
G01 X17.4903 Y-24.4007 F120.00
G01 X17.5373 Y-24.3015 F120.00
G01 X17.5740 Y-24.1988 F120.00
G01 X17.6005 Y-24.0929 F120.00
G01 X17.6166 Y-23.9844 F120.00
G01 X17.6219 Y-23.8760 F120.00
G01 X17.6166 Y-23.7676 F120.00
G01 X17.6005 Y-23.6591 F120.00
G01 X17.5738 Y-23.5527 F120.00
G01 X17.5373 Y-23.4505 F120.00
G01 X17.4906 Y-23.3519 F120.00
G01 X17.4345 Y-23.2583 F120.00
G01 X17.3699 Y-23.1711 F120.00
G01 X17.2962 Y-23.0898 F120.00
G01 X17.2154 Y-23.0165 F120.00
G01 X17.1282 Y-22.9518 F120.00
G01 X17.0347 Y-22.8957 F120.00
G01 X17.0222 Y-22.8897 F120.00
G01 X17.0222 Y-22.0458 F120.00
G01 X17.0877 Y-22.0065 F120.00
G01 X17.1749 Y-21.9419 F120.00
G01 X17.2564 Y-21.8680 F120.00
G01 X17.3295 Y-21.7874 F120.00
G01 X17.3942 Y-21.7002 F120.00
G01 X17.4506 Y-21.6061 F120.00
G01 X17.4975 Y-21.5070 F120.00
G01 X17.5340 Y-21.4048 F120.00
G01 X17.5605 Y-21.2989 F120.00
G01 X17.5766 Y-21.1904 F120.00
G01 X17.5819 Y-21.0820 F120.00
G01 X17.5775 Y-20.9928 F120.00
G01 X19.4244 Y-19.1459 F120.00
G01 X20.9120 Y-19.1459 F120.00
G01 X20.9163 Y-19.1451 F120.00
G01 X20.9200 Y-19.1428 F120.00
G01 X20.9226 Y-19.1394 F120.00
G01 X20.9238 Y-19.1355 F120.00
G01 X20.9239 Y-16.9340 F120.00
G01 X20.9230 Y-16.9294 F120.00
G01 X20.9204 Y-16.9256 F120.00
G01 X20.9166 Y-16.9230 F120.00
G01 X20.9120 Y-16.9221 F120.00
G01 X18.7120 Y-16.9221 F120.00
G01 X18.7074 Y-16.9230 F120.00
G01 X18.7036 Y-16.9256 F120.00
G01 X18.7010 Y-16.9294 F120.00
G01 X18.7001 Y-16.9340 F120.00
G00 Z2.0000
G00 X26.3324 Y-13.2893
G01 F60.00
G01 Z-0.0900
G01 F120.00
G01 X26.3077 Y-13.3141 F120.00
G01 X26.2739 Y-13.3513 F120.00
G01 X26.2442 Y-13.3915 F120.00
G01 X26.2182 Y-13.4348 F120.00
G01 X26.1968 Y-13.4800 F120.00
G01 X26.1799 Y-13.5273 F120.00
G01 X26.1677 Y-13.5761 F120.00
G01 X26.1603 Y-13.6255 F120.00
G01 X26.1578 Y-13.6760 F120.00
G01 X26.1578 Y-14.7739 F120.00
G01 X25.2919 Y-15.6399 F120.00
G01 X25.2581 Y-15.6771 F120.00
G01 X25.2282 Y-15.7175 F120.00
G01 X25.2026 Y-15.7601 F120.00
G01 X25.1806 Y-15.8066 F120.00
G01 X25.1639 Y-15.8533 F120.00
G01 X25.1517 Y-15.9021 F120.00
G01 X25.1443 Y-15.9518 F120.00
G01 X25.1419 Y-16.0014 F120.00
G01 X25.1418 Y-22.9019 F120.00
G01 X25.0377 Y-23.0061 F120.00
G01 X25.0043 Y-23.0429 F120.00
G01 X24.9742 Y-23.0835 F120.00
G01 X24.9483 Y-23.1266 F120.00
G01 X24.9266 Y-23.1726 F120.00
G01 X24.9099 Y-23.2193 F120.00
G01 X24.8978 Y-23.2675 F120.00
G01 X24.8903 Y-23.3178 F120.00
G01 X24.8878 Y-23.3680 F120.00
G01 X24.8878 Y-55.5301 F120.00
G01 X24.2997 Y-55.5301 F120.00
G01 X24.2960 Y-55.5308 F120.00
G01 X24.2927 Y-55.5326 F120.00
G01 X24.2901 Y-55.5354 F120.00
G01 X24.2885 Y-55.5388 F120.00
G01 X24.2881 Y-55.5420 F120.00
G01 X24.2881 Y-57.7420 F120.00
G01 X24.2890 Y-57.7466 F120.00
G01 X24.2914 Y-57.7502 F120.00
G01 X24.2952 Y-57.7529 F120.00
G01 X24.2994 Y-57.7539 F120.00
G01 X26.5000 Y-57.7539 F120.00
G01 X26.5043 Y-57.7531 F120.00
G01 X26.5080 Y-57.7508 F120.00
G01 X26.5106 Y-57.7474 F120.00
G01 X26.5118 Y-57.7432 F120.00
G01 X26.5119 Y-55.5420 F120.00
G01 X26.5115 Y-55.5388 F120.00
G01 X26.5099 Y-55.5354 F120.00
G01 X26.5073 Y-55.5326 F120.00
G01 X26.5040 Y-55.5308 F120.00
G01 X26.5003 Y-55.5301 F120.00
G01 X25.9122 Y-55.5301 F120.00
G01 X25.9122 Y-23.5801 F120.00
G01 X26.0163 Y-23.4759 F120.00
G01 X26.0497 Y-23.4391 F120.00
G01 X26.0798 Y-23.3985 F120.00
G01 X26.1057 Y-23.3554 F120.00
G01 X26.1272 Y-23.3100 F120.00
G01 X26.1443 Y-23.2621 F120.00
G01 X26.1563 Y-23.2139 F120.00
G01 X26.1636 Y-23.1648 F120.00
G01 X26.1661 Y-23.1143 F120.00
G01 X26.1662 Y-16.2141 F120.00
G01 X27.0323 Y-15.3479 F120.00
G01 X27.0659 Y-15.3109 F120.00
G01 X27.0958 Y-15.2705 F120.00
G01 X27.1217 Y-15.2274 F120.00
G01 X27.1429 Y-15.1825 F120.00
G01 X27.1601 Y-15.1347 F120.00
G01 X27.1723 Y-15.0859 F120.00
G01 X27.1797 Y-15.0362 F120.00
G01 X27.1821 Y-14.9863 F120.00
G01 X27.1822 Y-14.0456 F120.00
G01 X27.2830 Y-14.0605 F120.00
G01 X27.3914 Y-14.0659 F120.00
G01 X27.5010 Y-14.0605 F120.00
G01 X27.6089 Y-14.0445 F120.00
G01 X27.7142 Y-14.0182 F120.00
G01 X27.8175 Y-13.9813 F120.00
G01 X27.9167 Y-13.9343 F120.00
G01 X28.0097 Y-13.8785 F120.00
G01 X28.0974 Y-13.8135 F120.00
G01 X28.1782 Y-13.7402 F120.00
G01 X28.2511 Y-13.6598 F120.00
G01 X28.3167 Y-13.5715 F120.00
G01 X28.3726 Y-13.4781 F120.00
G01 X28.4195 Y-13.3790 F120.00
G01 X28.4562 Y-13.2762 F120.00
G01 X28.4825 Y-13.1709 F120.00
G01 X28.4985 Y-13.0636 F120.00
G01 X28.5039 Y-12.9540 F120.00
G01 X28.4985 Y-12.8450 F120.00
G01 X28.4825 Y-12.7371 F120.00
G01 X28.4560 Y-12.6312 F120.00
G01 X28.4193 Y-12.5285 F120.00
G01 X28.3726 Y-12.4299 F120.00
G01 X28.3165 Y-12.3363 F120.00
G01 X28.2515 Y-12.2486 F120.00
G01 X28.1782 Y-12.1678 F120.00
G01 X28.0974 Y-12.0945 F120.00
G01 X28.0097 Y-12.0295 F120.00
G01 X27.9161 Y-11.9734 F120.00
G01 X27.8175 Y-11.9267 F120.00
G01 X27.7148 Y-11.8900 F120.00
G01 X27.6089 Y-11.8635 F120.00
G01 X27.5010 Y-11.8475 F120.00
G01 X27.3920 Y-11.8421 F120.00
G01 X27.2830 Y-11.8475 F120.00
G01 X27.1751 Y-11.8635 F120.00
G01 X27.0692 Y-11.8900 F120.00
G01 X26.9665 Y-11.9267 F120.00
G01 X26.8679 Y-11.9734 F120.00
G01 X26.7743 Y-12.0295 F120.00
G01 X26.6866 Y-12.0945 F120.00
G01 X26.6058 Y-12.1678 F120.00
G01 X26.5325 Y-12.2486 F120.00
G01 X26.4675 Y-12.3363 F120.00
G01 X26.4114 Y-12.4299 F120.00
G01 X26.3647 Y-12.5285 F120.00
G01 X26.3280 Y-12.6312 F120.00
G01 X26.3015 Y-12.7371 F120.00
G01 X26.2855 Y-12.8450 F120.00
G01 X26.2801 Y-12.9540 F120.00
G01 X26.2855 Y-13.0630 F120.00
G01 X26.3015 Y-13.1709 F120.00
G01 X26.3278 Y-13.2762 F120.00
G01 X26.3324 Y-13.2893 F120.00
G00 Z2.0000
G00 X30.0520 Y0.0119
G01 F60.00
G01 Z-0.0900
G01 F120.00
G01 X0.1740 Y0.0119 F120.00
G01 X0.1520 Y0.0106 F120.00
G01 X0.1494 Y0.0101 F120.00
G01 X0.0689 Y-0.0207 F120.00
G01 X0.0662 Y-0.0229 F120.00
G01 X0.0110 Y-0.0852 F120.00
G01 X0.0093 Y-0.0879 F120.00
G01 X0.0084 Y-0.0903 F120.00
G01 X-0.0116 Y-0.1712 F120.00
G01 X-0.0119 Y-0.1740 F120.00
G01 X-0.0119 Y-59.5160 F120.00
G01 X-0.0106 Y-59.5380 F120.00
G01 X-0.0101 Y-59.5406 F120.00
G01 X0.0207 Y-59.6211 F120.00
G01 X0.0229 Y-59.6238 F120.00
G01 X0.0852 Y-59.6790 F120.00
G01 X0.0879 Y-59.6807 F120.00
G01 X0.0903 Y-59.6816 F120.00
G01 X0.1712 Y-59.7016 F120.00
G01 X0.1740 Y-59.7019 F120.00
G01 X30.0520 Y-59.7019 F120.00
G01 X30.0740 Y-59.7006 F120.00
G01 X30.0766 Y-59.7001 F120.00
G01 X30.1571 Y-59.6693 F120.00
G01 X30.1598 Y-59.6671 F120.00
G01 X30.2150 Y-59.6048 F120.00
G01 X30.2167 Y-59.6021 F120.00
G01 X30.2176 Y-59.5997 F120.00
G01 X30.2376 Y-59.5188 F120.00
G01 X30.2379 Y-59.5160 F120.00
G01 X30.2379 Y-0.1740 F120.00
G01 X30.2366 Y-0.1520 F120.00
G01 X30.2361 Y-0.1494 F120.00
G01 X30.2062 Y-0.0707 F120.00
G01 X30.2035 Y-0.0666 F120.00
G01 X30.1408 Y-0.0110 F120.00
G01 X30.1384 Y-0.0094 F120.00
G01 X30.1357 Y-0.0084 F120.00
G01 X30.0548 Y0.0116 F120.00
G01 X30.0520 Y0.0119 F120.00
G00 Z2.0000
G00 X10.3811 Y-20.8585
G01 F60.00
G01 Z-0.0900
G01 F120.00
G01 X10.0011 Y-20.4784 F120.00
G01 X9.9550 Y-20.5897 F120.00
G01 X9.8966 Y-20.8328 F120.00
G01 X9.8770 Y-21.0820 F120.00
G01 X9.8966 Y-21.3312 F120.00
G01 X9.9550 Y-21.5743 F120.00
G01 X10.0011 Y-21.6856 F120.00
G01 X10.3811 Y-21.3055 F120.00
G01 X10.3794 Y-21.2983 F120.00
G01 X10.3635 Y-21.1910 F120.00
G01 X10.3581 Y-21.0820 F120.00
G01 X10.3635 Y-20.9730 F120.00
G01 X10.3794 Y-20.8657 F120.00
G01 X10.3811 Y-20.8585 F120.00
G00 Z2.0000
G00 X11.2465 Y-22.1709
G01 F60.00
G01 Z-0.0900
G01 F120.00
G01 X10.9584 Y-22.4590 F120.00
G01 X11.2865 Y-22.7871 F120.00
G01 X11.2937 Y-22.7854 F120.00
G01 X11.4010 Y-22.7695 F120.00
G01 X11.5100 Y-22.7641 F120.00
G01 X11.6190 Y-22.7695 F120.00
G01 X11.7263 Y-22.7854 F120.00
G01 X11.7335 Y-22.7871 F120.00
G01 X12.0216 Y-22.4990 F120.00
G01 X11.6935 Y-22.1709 F120.00
G01 X11.6863 Y-22.1726 F120.00
G01 X11.5790 Y-22.1885 F120.00
G01 X11.4700 Y-22.1939 F120.00
G01 X11.3610 Y-22.1885 F120.00
G01 X11.2537 Y-22.1726 F120.00
G01 X11.2465 Y-22.1709 F120.00
G00 Z2.0000
G00 X10.4211 Y-23.6525
G01 F60.00
G01 Z-0.0900
G01 F120.00
G01 X10.0411 Y-23.2724 F120.00
G01 X9.9950 Y-23.3837 F120.00
G01 X9.9366 Y-23.6268 F120.00
G01 X9.9170 Y-23.8760 F120.00
G01 X9.9366 Y-24.1252 F120.00
G01 X9.9950 Y-24.3683 F120.00
G01 X10.0411 Y-24.4796 F120.00
G01 X10.4211 Y-24.0995 F120.00
G01 X10.4194 Y-24.0923 F120.00
G01 X10.4035 Y-23.9850 F120.00
G01 X10.3981 Y-23.8760 F120.00
G01 X10.4035 Y-23.7670 F120.00
G01 X10.4194 Y-23.6597 F120.00
G01 X10.4211 Y-23.6525 F120.00
G00 Z2.0000
G00 X11.2865 Y-24.9649
G01 F60.00
G01 Z-0.0900
G01 F120.00
G01 X10.9064 Y-25.3449 F120.00
G01 X11.0177 Y-25.3910 F120.00
G01 X11.2608 Y-25.4494 F120.00
G01 X11.5100 Y-25.4690 F120.00
G01 X11.7592 Y-25.4494 F120.00
G01 X12.0023 Y-25.3910 F120.00
G01 X12.1136 Y-25.3449 F120.00
G01 X11.7335 Y-24.9649 F120.00
G01 X11.7263 Y-24.9666 F120.00
G01 X11.6190 Y-24.9825 F120.00
G01 X11.5100 Y-24.9879 F120.00
G01 X11.4010 Y-24.9825 F120.00
G01 X11.2937 Y-24.9666 F120.00
G01 X11.2865 Y-24.9649 F120.00
G00 Z2.0000
G00 X10.8261 Y-26.7560
G01 F60.00
G01 Z-0.0900
G01 F120.00
G01 X10.8261 Y-27.3438 F120.00
G01 X9.7360 Y-27.3438 F120.00
G01 X9.6858 Y-27.3463 F120.00
G01 X9.6361 Y-27.3537 F120.00
G01 X9.5879 Y-27.3657 F120.00
G01 X9.5395 Y-27.3831 F120.00
G01 X9.4946 Y-27.4043 F120.00
G01 X9.4515 Y-27.4302 F120.00
G01 X9.4111 Y-27.4601 F120.00
G01 X9.3743 Y-27.4935 F120.00
G01 X3.4477 Y-33.4201 F120.00
G01 X3.4141 Y-33.4571 F120.00
G01 X3.3845 Y-33.4970 F120.00
G01 X3.3581 Y-33.5411 F120.00
G01 X3.3368 Y-33.5860 F120.00
G01 X3.3199 Y-33.6333 F120.00
G01 X3.3077 Y-33.6821 F120.00
G01 X3.3004 Y-33.7312 F120.00
G01 X3.2978 Y-33.7820 F120.00
G01 X3.2978 Y-51.3080 F120.00
G01 X3.3003 Y-51.3585 F120.00
G01 X3.3077 Y-51.4079 F120.00
G01 X3.3199 Y-51.4567 F120.00
G01 X3.3368 Y-51.5040 F120.00
G01 X3.3581 Y-51.5489 F120.00
G01 X3.3845 Y-51.5930 F120.00
G01 X3.4141 Y-51.6329 F120.00
G01 X3.4477 Y-51.6699 F120.00
G01 X7.1078 Y-55.3301 F120.00
G01 X7.1078 Y-55.5301 F120.00
G01 X6.5197 Y-55.5301 F120.00
G01 X6.5157 Y-55.5309 F120.00
G01 X6.5125 Y-55.5328 F120.00
G01 X6.5099 Y-55.5356 F120.00
G01 X6.5085 Y-55.5391 F120.00
G01 X6.5081 Y-55.5420 F120.00
G01 X6.5081 Y-57.7420 F120.00
G01 X6.5088 Y-57.7460 F120.00
G01 X6.5110 Y-57.7498 F120.00
G01 X6.5144 Y-57.7525 F120.00
G01 X6.5183 Y-57.7538 F120.00
G01 X8.7200 Y-57.7539 F120.00
G01 X8.7246 Y-57.7530 F120.00
G01 X8.7284 Y-57.7504 F120.00
G01 X8.7310 Y-57.7466 F120.00
G01 X8.7319 Y-57.7420 F120.00
G01 X8.7318 Y-55.5408 F120.00
G01 X8.7308 Y-55.5369 F120.00
G01 X8.7282 Y-55.5334 F120.00
G01 X8.7246 Y-55.5310 F120.00
G01 X8.7203 Y-55.5301 F120.00
G01 X8.1322 Y-55.5301 F120.00
G01 X8.1321 Y-55.1177 F120.00
G01 X8.1297 Y-55.0678 F120.00
G01 X8.1224 Y-55.0187 F120.00
G01 X8.1101 Y-54.9693 F120.00
G01 X8.0929 Y-54.9215 F120.00
G01 X8.0717 Y-54.8766 F120.00
G01 X8.0461 Y-54.8340 F120.00
G01 X8.0157 Y-54.7929 F120.00
G01 X7.9821 Y-54.7559 F120.00
G01 X4.3222 Y-51.0959 F120.00
G01 X4.3222 Y-33.9941 F120.00
G01 X9.9481 Y-28.3682 F120.00
G01 X10.8261 Y-28.3682 F120.00
G01 X10.8261 Y-28.9563 F120.00
G01 X10.8269 Y-28.9603 F120.00
G01 X10.8288 Y-28.9635 F120.00
G01 X10.8319 Y-28.9662 F120.00
G01 X10.8357 Y-28.9677 F120.00
G01 X13.0380 Y-28.9679 F120.00
G01 X13.0406 Y-28.9676 F120.00
G01 X13.0428 Y-28.9669 F120.00
G01 X13.0449 Y-28.9657 F120.00
G01 X13.0468 Y-28.9640 F120.00
G01 X13.0491 Y-28.9603 F120.00
G01 X13.0499 Y-28.9560 F120.00
G01 X13.0499 Y-26.7560 F120.00
G01 X13.0490 Y-26.7514 F120.00
G01 X13.0464 Y-26.7476 F120.00
G01 X13.0426 Y-26.7450 F120.00
G01 X13.0380 Y-26.7441 F120.00
G01 X10.8380 Y-26.7441 F120.00
G01 X10.8334 Y-26.7450 F120.00
G01 X10.8296 Y-26.7476 F120.00
G01 X10.8270 Y-26.7514 F120.00
G01 X10.8261 Y-26.7560 F120.00
G00 Z2.0000
G00 X10.8261 Y-29.2960
G01 F60.00
G01 Z-0.0900
G01 F120.00
G01 X10.8261 Y-29.8838 F120.00
G01 X10.2440 Y-29.8838 F120.00
G01 X10.1935 Y-29.8863 F120.00
G01 X10.1441 Y-29.8937 F120.00
G01 X10.0959 Y-29.9057 F120.00
G01 X10.0480 Y-29.9228 F120.00
G01 X10.0026 Y-29.9443 F120.00
G01 X9.9600 Y-29.9699 F120.00
G01 X9.9187 Y-30.0005 F120.00
G01 X9.8819 Y-30.0339 F120.00
G01 X5.2257 Y-34.6901 F120.00
G01 X5.1921 Y-34.7271 F120.00
G01 X5.1622 Y-34.7675 F120.00
G01 X5.1363 Y-34.8106 F120.00
G01 X5.1151 Y-34.8555 F120.00
G01 X5.0977 Y-34.9039 F120.00
G01 X5.0857 Y-34.9521 F120.00
G01 X5.0783 Y-35.0021 F120.00
G01 X5.0758 Y-35.0520 F120.00
G01 X5.0758 Y-50.6466 F120.00
G01 X5.0783 Y-50.6968 F120.00
G01 X5.0856 Y-50.7462 F120.00
G01 X5.0981 Y-50.7958 F120.00
G01 X5.1148 Y-50.8426 F120.00
G01 X5.1363 Y-50.8880 F120.00
G01 X5.1625 Y-50.9316 F120.00
G01 X5.1921 Y-50.9715 F120.00
G01 X5.2257 Y-51.0085 F120.00
G01 X9.6478 Y-55.4307 F120.00
G01 X9.6478 Y-55.5301 F120.00
G01 X9.0597 Y-55.5301 F120.00
G01 X9.0557 Y-55.5309 F120.00
G01 X9.0525 Y-55.5328 F120.00
G01 X9.0499 Y-55.5356 F120.00
G01 X9.0485 Y-55.5391 F120.00
G01 X9.0481 Y-55.5420 F120.00
G01 X9.0481 Y-57.7420 F120.00
G01 X9.0489 Y-57.7463 F120.00
G01 X9.0512 Y-57.7500 F120.00
G01 X9.0546 Y-57.7526 F120.00
G01 X9.0591 Y-57.7539 F120.00
G01 X11.2600 Y-57.7539 F120.00
G01 X11.2646 Y-57.7530 F120.00
G01 X11.2684 Y-57.7504 F120.00
G01 X11.2710 Y-57.7466 F120.00
G01 X11.2719 Y-57.7420 F120.00
G01 X11.2718 Y-55.5405 F120.00
G01 X11.2705 Y-55.5364 F120.00
G01 X11.2680 Y-55.5332 F120.00
G01 X11.2646 Y-55.5310 F120.00
G01 X11.2603 Y-55.5301 F120.00
G01 X10.6722 Y-55.5301 F120.00
G01 X10.6721 Y-55.2183 F120.00
G01 X10.6697 Y-55.1684 F120.00
G01 X10.6624 Y-55.1190 F120.00
G01 X10.6499 Y-55.0694 F120.00
G01 X10.6332 Y-55.0226 F120.00
G01 X10.6119 Y-54.9777 F120.00
G01 X10.5858 Y-54.9341 F120.00
G01 X10.5555 Y-54.8933 F120.00
G01 X10.5221 Y-54.8565 F120.00
G01 X6.1002 Y-50.4345 F120.00
G01 X6.1002 Y-35.2641 F120.00
G01 X10.4561 Y-30.9082 F120.00
G01 X10.8261 Y-30.9082 F120.00
G01 X10.8261 Y-31.4963 F120.00
G01 X10.8269 Y-31.5003 F120.00
G01 X10.8288 Y-31.5035 F120.00
G01 X10.8319 Y-31.5062 F120.00
G01 X10.8354 Y-31.5076 F120.00
G01 X10.8380 Y-31.5079 F120.00
G01 X13.0380 Y-31.5079 F120.00
G01 X13.0406 Y-31.5076 F120.00
G01 X13.0431 Y-31.5068 F120.00
G01 X13.0455 Y-31.5052 F120.00
G01 X13.0474 Y-31.5033 F120.00
G01 X13.0492 Y-31.5000 F120.00
G01 X13.0499 Y-31.4960 F120.00
G01 X13.0499 Y-29.2960 F120.00
G01 X13.0490 Y-29.2914 F120.00
G01 X13.0464 Y-29.2876 F120.00
G01 X13.0426 Y-29.2850 F120.00
G01 X13.0380 Y-29.2841 F120.00
G01 X10.8380 Y-29.2841 F120.00
G01 X10.8334 Y-29.2850 F120.00
G01 X10.8296 Y-29.2876 F120.00
G01 X10.8270 Y-29.2914 F120.00
G01 X10.8261 Y-29.2960 F120.00
G00 Z2.0000
G00 X8.0551 Y-35.4165
G01 F60.00
G01 Z-0.0900
G01 F120.00
G01 X7.6751 Y-35.0364 F120.00
G01 X7.6290 Y-35.1477 F120.00
G01 X7.5706 Y-35.3908 F120.00
G01 X7.5510 Y-35.6400 F120.00
G01 X7.5706 Y-35.8892 F120.00
G01 X7.6290 Y-36.1323 F120.00
G01 X7.6751 Y-36.2436 F120.00
G01 X8.0551 Y-35.8635 F120.00
G01 X8.0534 Y-35.8563 F120.00
G01 X8.0375 Y-35.7490 F120.00
G01 X8.0321 Y-35.6400 F120.00
G01 X8.0375 Y-35.5310 F120.00
G01 X8.0534 Y-35.4237 F120.00
G01 X8.0551 Y-35.4165 F120.00
G00 Z2.0000
G00 X10.8261 Y-41.9960
G01 F60.00
G01 Z-0.0900
G01 F120.00
G01 X10.8261 Y-44.1960 F120.00
G01 X10.8268 Y-44.2000 F120.00
G01 X10.8286 Y-44.2033 F120.00
G01 X10.8305 Y-44.2052 F120.00
G01 X10.8326 Y-44.2066 F120.00
G01 X10.8351 Y-44.2075 F120.00
G01 X10.8380 Y-44.2079 F120.00
G01 X13.0380 Y-44.2079 F120.00
G01 X13.0409 Y-44.2075 F120.00
G01 X13.0444 Y-44.2061 F120.00
G01 X13.0472 Y-44.2035 F120.00
G01 X13.0492 Y-44.2000 F120.00
G01 X13.0499 Y-44.1963 F120.00
G01 X13.0499 Y-43.6082 F120.00
G01 X13.1199 Y-43.6082 F120.00
G01 X13.9658 Y-44.4541 F120.00
G01 X13.9659 Y-47.2443 F120.00
G01 X13.9683 Y-47.2942 F120.00
G01 X13.9756 Y-47.3433 F120.00
G01 X13.9879 Y-47.3927 F120.00
G01 X14.0048 Y-47.4400 F120.00
G01 X14.0261 Y-47.4849 F120.00
G01 X14.0522 Y-47.5285 F120.00
G01 X14.0821 Y-47.5689 F120.00
G01 X14.1159 Y-47.6061 F120.00
G01 X19.8078 Y-53.2981 F120.00
G01 X19.8078 Y-55.5301 F120.00
G01 X19.2197 Y-55.5301 F120.00
G01 X19.2160 Y-55.5308 F120.00
G01 X19.2127 Y-55.5326 F120.00
G01 X19.2101 Y-55.5354 F120.00
G01 X19.2085 Y-55.5388 F120.00
G01 X19.2081 Y-55.5420 F120.00
G01 X19.2081 Y-57.7420 F120.00
G01 X19.2086 Y-57.7455 F120.00
G01 X19.2101 Y-57.7486 F120.00
G01 X19.2120 Y-57.7508 F120.00
G01 X19.2144 Y-57.7525 F120.00
G01 X19.2171 Y-57.7535 F120.00
G01 X19.2200 Y-57.7539 F120.00
G01 X21.4200 Y-57.7539 F120.00
G01 X21.4235 Y-57.7534 F120.00
G01 X21.4266 Y-57.7519 F120.00
G01 X21.4288 Y-57.7500 F120.00
G01 X21.4305 Y-57.7476 F120.00
G01 X21.4315 Y-57.7449 F120.00
G01 X21.4319 Y-57.7420 F120.00
G01 X21.4319 Y-55.5420 F120.00
G01 X21.4315 Y-55.5388 F120.00
G01 X21.4299 Y-55.5354 F120.00
G01 X21.4273 Y-55.5326 F120.00
G01 X21.4240 Y-55.5308 F120.00
G01 X21.4203 Y-55.5301 F120.00
G01 X20.8322 Y-55.5301 F120.00
G01 X20.8321 Y-53.0857 F120.00
G01 X20.8297 Y-53.0358 F120.00
G01 X20.8223 Y-52.9861 F120.00
G01 X20.8101 Y-52.9373 F120.00
G01 X20.7929 Y-52.8895 F120.00
G01 X20.7717 Y-52.8446 F120.00
G01 X20.7458 Y-52.8015 F120.00
G01 X20.7159 Y-52.7611 F120.00
G01 X20.6821 Y-52.7239 F120.00
G01 X14.9902 Y-47.0319 F120.00
G01 X14.9901 Y-44.2417 F120.00
G01 X14.9877 Y-44.1918 F120.00
G01 X14.9804 Y-44.1427 F120.00
G01 X14.9681 Y-44.0933 F120.00
G01 X14.9512 Y-44.0460 F120.00
G01 X14.9299 Y-44.0011 F120.00
G01 X14.9038 Y-43.9575 F120.00
G01 X14.8739 Y-43.9171 F120.00
G01 X14.8401 Y-43.8799 F120.00
G01 X13.6941 Y-42.7339 F120.00
G01 X13.6569 Y-42.7001 F120.00
G01 X13.6170 Y-42.6705 F120.00
G01 X13.5734 Y-42.6443 F120.00
G01 X13.5280 Y-42.6228 F120.00
G01 X13.4807 Y-42.6059 F120.00
G01 X13.4313 Y-42.5936 F120.00
G01 X13.3822 Y-42.5863 F120.00
G01 X13.3323 Y-42.5839 F120.00
G01 X13.0499 Y-42.5838 F120.00
G01 X13.0499 Y-41.9960 F120.00
G01 X13.0494 Y-41.9925 F120.00
G01 X13.0481 Y-41.9896 F120.00
G01 X13.0460 Y-41.9872 F120.00
G01 X13.0431 Y-41.9852 F120.00
G01 X13.0406 Y-41.9844 F120.00
G01 X13.0380 Y-41.9841 F120.00
G01 X10.8380 Y-41.9841 F120.00
G01 X10.8334 Y-41.9850 F120.00
G01 X10.8296 Y-41.9876 F120.00
G01 X10.8270 Y-41.9914 F120.00
G01 X10.8261 Y-41.9960 F120.00
G00 Z2.0000
G00 X10.8261 Y-44.5360
G01 F60.00
G01 Z-0.0900
G01 F120.00
G01 X10.8263 Y-46.7383 F120.00
G01 X10.8276 Y-46.7419 F120.00
G01 X10.8302 Y-46.7450 F120.00
G01 X10.8337 Y-46.7471 F120.00
G01 X10.8377 Y-46.7479 F120.00
G01 X11.4258 Y-46.7479 F120.00
G01 X11.4258 Y-47.4980 F120.00
G01 X11.4283 Y-47.5479 F120.00
G01 X11.4358 Y-47.5985 F120.00
G01 X11.4479 Y-47.6467 F120.00
G01 X11.4646 Y-47.6934 F120.00
G01 X11.4863 Y-47.7394 F120.00
G01 X11.5123 Y-47.7828 F120.00
G01 X11.5421 Y-47.8229 F120.00
G01 X11.5759 Y-47.8601 F120.00
G01 X17.2678 Y-53.5521 F120.00
G01 X17.2678 Y-55.5301 F120.00
G01 X16.6797 Y-55.5301 F120.00
G01 X16.6757 Y-55.5309 F120.00
G01 X16.6722 Y-55.5330 F120.00
G01 X16.6696 Y-55.5361 F120.00
G01 X16.6682 Y-55.5403 F120.00
G01 X16.6681 Y-57.7420 F120.00
G01 X16.6685 Y-57.7452 F120.00
G01 X16.6698 Y-57.7481 F120.00
G01 X16.6716 Y-57.7504 F120.00
G01 X16.6741 Y-57.7524 F120.00
G01 X16.6771 Y-57.7535 F120.00
G01 X16.6800 Y-57.7539 F120.00
G01 X18.8800 Y-57.7539 F120.00
G01 X18.8832 Y-57.7535 F120.00
G01 X18.8861 Y-57.7522 F120.00
G01 X18.8886 Y-57.7502 F120.00
G01 X18.8904 Y-57.7479 F120.00
G01 X18.8915 Y-57.7452 F120.00
G01 X18.8919 Y-57.7420 F120.00
G01 X18.8918 Y-55.5403 F120.00
G01 X18.8904 Y-55.5361 F120.00
G01 X18.8878 Y-55.5330 F120.00
G01 X18.8843 Y-55.5309 F120.00
G01 X18.8803 Y-55.5301 F120.00
G01 X18.2922 Y-55.5301 F120.00
G01 X18.2921 Y-53.3397 F120.00
G01 X18.2897 Y-53.2898 F120.00
G01 X18.2824 Y-53.2407 F120.00
G01 X18.2701 Y-53.1913 F120.00
G01 X18.2529 Y-53.1435 F120.00
G01 X18.2317 Y-53.0986 F120.00
G01 X18.2061 Y-53.0560 F120.00
G01 X18.1759 Y-53.0151 F120.00
G01 X18.1421 Y-52.9779 F120.00
G01 X12.4502 Y-47.2859 F120.00
G01 X12.4502 Y-46.7479 F120.00
G01 X13.0383 Y-46.7479 F120.00
G01 X13.0423 Y-46.7471 F120.00
G01 X13.0455 Y-46.7452 F120.00
G01 X13.0481 Y-46.7424 F120.00
G01 X13.0496 Y-46.7386 F120.00
G01 X13.0499 Y-46.7360 F120.00
G01 X13.0499 Y-44.5360 F120.00
G01 X13.0495 Y-44.5328 F120.00
G01 X13.0482 Y-44.5299 F120.00
G01 X13.0464 Y-44.5276 F120.00
G01 X13.0439 Y-44.5256 F120.00
G01 X13.0412 Y-44.5245 F120.00
G01 X13.0380 Y-44.5241 F120.00
G01 X10.8380 Y-44.5241 F120.00
G01 X10.8334 Y-44.5250 F120.00
G01 X10.8296 Y-44.5276 F120.00
G01 X10.8270 Y-44.5314 F120.00
G01 X10.8261 Y-44.5360 F120.00
G00 Z2.0000
G00 X18.4461 Y-44.5360
G01 F60.00
G01 Z-0.0900
G01 F120.00
G01 X18.4461 Y-46.7360 F120.00
G01 X18.4470 Y-46.7406 F120.00
G01 X18.4496 Y-46.7444 F120.00
G01 X18.4534 Y-46.7470 F120.00
G01 X18.4580 Y-46.7479 F120.00
G01 X20.6580 Y-46.7479 F120.00
G01 X20.6626 Y-46.7470 F120.00
G01 X20.6664 Y-46.7444 F120.00
G01 X20.6690 Y-46.7406 F120.00
G01 X20.6699 Y-46.7360 F120.00
G01 X20.6699 Y-44.5360 F120.00
G01 X20.6690 Y-44.5314 F120.00
G01 X20.6664 Y-44.5276 F120.00
G01 X20.6626 Y-44.5250 F120.00
G01 X20.6580 Y-44.5241 F120.00
G01 X18.4580 Y-44.5241 F120.00
G01 X18.4534 Y-44.5250 F120.00
G01 X18.4496 Y-44.5276 F120.00
G01 X18.4470 Y-44.5314 F120.00
G01 X18.4461 Y-44.5360 F120.00
G00 Z2.0000
G00 X18.4461 Y-41.9960
G01 F60.00
G01 Z-0.0900
G01 F120.00
G01 X18.4461 Y-44.1960 F120.00
G01 X18.4470 Y-44.2006 F120.00
G01 X18.4496 Y-44.2044 F120.00
G01 X18.4534 Y-44.2070 F120.00
G01 X18.4580 Y-44.2079 F120.00
G01 X20.6580 Y-44.2079 F120.00
G01 X20.6626 Y-44.2070 F120.00
G01 X20.6664 Y-44.2044 F120.00
G01 X20.6690 Y-44.2006 F120.00
G01 X20.6699 Y-44.1960 F120.00
G01 X20.6699 Y-41.9960 F120.00
G01 X20.6690 Y-41.9914 F120.00
G01 X20.6664 Y-41.9876 F120.00
G01 X20.6626 Y-41.9850 F120.00
G01 X20.6580 Y-41.9841 F120.00
G01 X18.4580 Y-41.9841 F120.00
G01 X18.4534 Y-41.9850 F120.00
G01 X18.4496 Y-41.9876 F120.00
G01 X18.4470 Y-41.9914 F120.00
G01 X18.4461 Y-41.9960 F120.00
G00 Z2.0000
G00 X18.4461 Y-39.4560
G01 F60.00
G01 Z-0.0900
G01 F120.00
G01 X18.4461 Y-41.6560 F120.00
G01 X18.4470 Y-41.6606 F120.00
G01 X18.4496 Y-41.6644 F120.00
G01 X18.4534 Y-41.6670 F120.00
G01 X18.4580 Y-41.6679 F120.00
G01 X20.6580 Y-41.6679 F120.00
G01 X20.6626 Y-41.6670 F120.00
G01 X20.6664 Y-41.6644 F120.00
G01 X20.6690 Y-41.6606 F120.00
G01 X20.6699 Y-41.6560 F120.00
G01 X20.6699 Y-39.4560 F120.00
G01 X20.6690 Y-39.4514 F120.00
G01 X20.6664 Y-39.4476 F120.00
G01 X20.6626 Y-39.4450 F120.00
G01 X20.6580 Y-39.4441 F120.00
G01 X18.4580 Y-39.4441 F120.00
G01 X18.4534 Y-39.4450 F120.00
G01 X18.4496 Y-39.4476 F120.00
G01 X18.4470 Y-39.4514 F120.00
G01 X18.4461 Y-39.4560 F120.00
G00 Z2.0000
G00 X18.4461 Y-34.3760
G01 F60.00
G01 Z-0.0900
G01 F120.00
G01 X18.4461 Y-36.5760 F120.00
G01 X18.4470 Y-36.5806 F120.00
G01 X18.4496 Y-36.5844 F120.00
G01 X18.4534 Y-36.5870 F120.00
G01 X18.4580 Y-36.5879 F120.00
G01 X20.6580 Y-36.5879 F120.00
G01 X20.6626 Y-36.5870 F120.00
G01 X20.6664 Y-36.5844 F120.00
G01 X20.6690 Y-36.5806 F120.00
G01 X20.6699 Y-36.5760 F120.00
G01 X20.6699 Y-34.3760 F120.00
G01 X20.6690 Y-34.3714 F120.00
G01 X20.6664 Y-34.3676 F120.00
G01 X20.6626 Y-34.3650 F120.00
G01 X20.6580 Y-34.3641 F120.00
G01 X18.4580 Y-34.3641 F120.00
G01 X18.4534 Y-34.3650 F120.00
G01 X18.4496 Y-34.3676 F120.00
G01 X18.4470 Y-34.3714 F120.00
G01 X18.4461 Y-34.3760 F120.00
G00 Z2.0000
G00 X18.4461 Y-31.8360
G01 F60.00
G01 Z-0.0900
G01 F120.00
G01 X18.4461 Y-34.0360 F120.00
G01 X18.4470 Y-34.0406 F120.00
G01 X18.4496 Y-34.0444 F120.00
G01 X18.4534 Y-34.0470 F120.00
G01 X18.4580 Y-34.0479 F120.00
G01 X20.6580 Y-34.0479 F120.00
G01 X20.6626 Y-34.0470 F120.00
G01 X20.6664 Y-34.0444 F120.00
G01 X20.6690 Y-34.0406 F120.00
G01 X20.6699 Y-34.0360 F120.00
G01 X20.6699 Y-31.8360 F120.00
G01 X20.6690 Y-31.8314 F120.00
G01 X20.6664 Y-31.8276 F120.00
G01 X20.6626 Y-31.8250 F120.00
G01 X20.6580 Y-31.8241 F120.00
G01 X18.4580 Y-31.8241 F120.00
G01 X18.4534 Y-31.8250 F120.00
G01 X18.4496 Y-31.8276 F120.00
G01 X18.4470 Y-31.8314 F120.00
G01 X18.4461 Y-31.8360 F120.00
G00 Z2.0000
G00 X18.4461 Y-29.2960
G01 F60.00
G01 Z-0.0900
G01 F120.00
G01 X18.4461 Y-31.4960 F120.00
G01 X18.4470 Y-31.5006 F120.00
G01 X18.4496 Y-31.5044 F120.00
G01 X18.4534 Y-31.5070 F120.00
G01 X18.4580 Y-31.5079 F120.00
G01 X20.6580 Y-31.5079 F120.00
G01 X20.6626 Y-31.5070 F120.00
G01 X20.6664 Y-31.5044 F120.00
G01 X20.6690 Y-31.5006 F120.00
G01 X20.6699 Y-31.4960 F120.00
G01 X20.6699 Y-29.2960 F120.00
G01 X20.6690 Y-29.2914 F120.00
G01 X20.6664 Y-29.2876 F120.00
G01 X20.6626 Y-29.2850 F120.00
G01 X20.6580 Y-29.2841 F120.00
G01 X18.4580 Y-29.2841 F120.00
G01 X18.4534 Y-29.2850 F120.00
G01 X18.4496 Y-29.2876 F120.00
G01 X18.4470 Y-29.2914 F120.00
G01 X18.4461 Y-29.2960 F120.00
G00 Z2.0000
G00 X18.4461 Y-26.7560
G01 F60.00
G01 Z-0.0900
G01 F120.00
G01 X18.4461 Y-28.9560 F120.00
G01 X18.4470 Y-28.9606 F120.00
G01 X18.4496 Y-28.9644 F120.00
G01 X18.4534 Y-28.9670 F120.00
G01 X18.4580 Y-28.9679 F120.00
G01 X20.6580 Y-28.9679 F120.00
G01 X20.6626 Y-28.9670 F120.00
G01 X20.6664 Y-28.9644 F120.00
G01 X20.6690 Y-28.9606 F120.00
G01 X20.6699 Y-28.9560 F120.00
G01 X20.6699 Y-26.7560 F120.00
G01 X20.6690 Y-26.7514 F120.00
G01 X20.6664 Y-26.7476 F120.00
G01 X20.6626 Y-26.7450 F120.00
G01 X20.6580 Y-26.7441 F120.00
G01 X18.4580 Y-26.7441 F120.00
G01 X18.4534 Y-26.7450 F120.00
G01 X18.4496 Y-26.7476 F120.00
G01 X18.4470 Y-26.7514 F120.00
G01 X18.4461 Y-26.7560 F120.00
G00 Z2.0000
G00 X27.6765 Y-39.5511
G01 F60.00
G01 Z-0.0900
G01 F120.00
G01 X27.6837 Y-39.5494 F120.00
G01 X27.7910 Y-39.5335 F120.00
G01 X27.9000 Y-39.5281 F120.00
G01 X28.0090 Y-39.5335 F120.00
G01 X28.1163 Y-39.5494 F120.00
G01 X28.1235 Y-39.5511 F120.00
G01 X28.5036 Y-39.1711 F120.00
G01 X28.3923 Y-39.1250 F120.00
G01 X28.1492 Y-39.0666 F120.00
G01 X27.9000 Y-39.0470 F120.00
G01 X27.6508 Y-39.0666 F120.00
G01 X27.4077 Y-39.1250 F120.00
G01 X27.2964 Y-39.1711 F120.00
G01 X27.6765 Y-39.5511 F120.00
G00 Z2.0000
G00 X28.9889 Y-40.4165
G01 F60.00
G01 Z-0.0900
G01 F120.00
G01 X28.9906 Y-40.4237 F120.00
G01 X29.0065 Y-40.5310 F120.00
G01 X29.0119 Y-40.6400 F120.00
G01 X29.0065 Y-40.7490 F120.00
G01 X28.9906 Y-40.8563 F120.00
G01 X28.9889 Y-40.8635 F120.00
G01 X29.3689 Y-41.2436 F120.00
G01 X29.4150 Y-41.1323 F120.00
G01 X29.4734 Y-40.8892 F120.00
G01 X29.4930 Y-40.6400 F120.00
G01 X29.4734 Y-40.3908 F120.00
G01 X29.4150 Y-40.1477 F120.00
G01 X29.3689 Y-40.0364 F120.00
G01 X28.9889 Y-40.4165 F120.00
G00 Z2.0000
G00 X28.1235 Y-41.7289
G01 F60.00
G01 Z-0.0900
G01 F120.00
G01 X28.1163 Y-41.7306 F120.00
G01 X28.0090 Y-41.7465 F120.00
G01 X27.9000 Y-41.7519 F120.00
G01 X27.7910 Y-41.7465 F120.00
G01 X27.6837 Y-41.7306 F120.00
G01 X27.6765 Y-41.7289 F120.00
G01 X27.3684 Y-42.0370 F120.00
G01 X27.6765 Y-42.3451 F120.00
G01 X27.6837 Y-42.3434 F120.00
G01 X27.7910 Y-42.3275 F120.00
G01 X27.9000 Y-42.3221 F120.00
G01 X28.0090 Y-42.3275 F120.00
G01 X28.1163 Y-42.3434 F120.00
G01 X28.1235 Y-42.3451 F120.00
G01 X28.4316 Y-42.0370 F120.00
G01 X28.1235 Y-41.7289 F120.00
G00 Z2.0000
G00 X28.9889 Y-43.2105
G01 F60.00
G01 Z-0.0900
G01 F120.00
G01 X28.9906 Y-43.2177 F120.00
G01 X29.0065 Y-43.3250 F120.00
G01 X29.0119 Y-43.4340 F120.00
G01 X29.0065 Y-43.5430 F120.00
G01 X28.9906 Y-43.6503 F120.00
G01 X28.9889 Y-43.6575 F120.00
G01 X29.3689 Y-44.0376 F120.00
G01 X29.4150 Y-43.9263 F120.00
G01 X29.4734 Y-43.6832 F120.00
G01 X29.4930 Y-43.4340 F120.00
G01 X29.4734 Y-43.1848 F120.00
G01 X29.4150 Y-42.9417 F120.00
G01 X29.3689 Y-42.8304 F120.00
G01 X28.9889 Y-43.2105 F120.00
G00 Z2.0000
G00 X28.1235 Y-44.5229
G01 F60.00
G01 Z-0.0900
G01 F120.00
G01 X28.1163 Y-44.5246 F120.00
G01 X28.0090 Y-44.5405 F120.00
G01 X27.9000 Y-44.5459 F120.00
G01 X27.7910 Y-44.5405 F120.00
G01 X27.6837 Y-44.5246 F120.00
G01 X27.6765 Y-44.5229 F120.00
G01 X27.2964 Y-44.9029 F120.00
G01 X27.4077 Y-44.9490 F120.00
G01 X27.6508 Y-45.0074 F120.00
G01 X27.9000 Y-45.0270 F120.00
G01 X28.1492 Y-45.0074 F120.00
G01 X28.3923 Y-44.9490 F120.00
G01 X28.5036 Y-44.9029 F120.00
G01 X28.1235 Y-44.5229 F120.00
G00 Z2.0000
G00 X1.1888 Y-52.0928
G01 F60.00
G01 Z-0.0900
G01 F120.00
G01 X1.1992 Y-52.1697 F120.00
G01 X1.2082 Y-52.2520 F120.00
G01 X1.2104 Y-52.2625 F120.00
G01 X1.2132 Y-52.2730 F120.00
G01 X1.2417 Y-52.3507 F120.00
G01 X1.2666 Y-52.4248 F120.00
G01 X1.2710 Y-52.4347 F120.00
G01 X1.2759 Y-52.4442 F120.00
G01 X1.3181 Y-52.5101 F120.00
G01 X1.3608 Y-52.5810 F120.00
G01 X1.3672 Y-52.5897 F120.00
G01 X1.3741 Y-52.5980 F120.00
G01 X1.4294 Y-52.6533 F120.00
G01 X1.4863 Y-52.7134 F120.00
G01 X1.4949 Y-52.7210 F120.00
G01 X1.5079 Y-52.7319 F120.00
G01 X3.7781 Y-55.0021 F120.00
G01 X3.7799 Y-55.0044 F120.00
G01 X3.8237 Y-55.0769 F120.00
G01 X3.8247 Y-55.0811 F120.00
G01 X3.8297 Y-55.1642 F120.00
G01 X3.8296 Y-55.1668 F120.00
G01 X3.8288 Y-55.1695 F120.00
G01 X3.7945 Y-55.2457 F120.00
G01 X3.7931 Y-55.2481 F120.00
G01 X3.7782 Y-55.2650 F120.00
G01 X3.7006 Y-55.3425 F120.00
G01 X3.6509 Y-55.4442 F120.00
G01 X3.6414 Y-55.5096 F120.00
G01 X3.6414 Y-57.7744 F120.00
G01 X3.6509 Y-57.8398 F120.00
G01 X3.7006 Y-57.9415 F120.00
G01 X3.7805 Y-58.0214 F120.00
G01 X3.8822 Y-58.0711 F120.00
G01 X3.9476 Y-58.0806 F120.00
G01 X6.2124 Y-58.0806 F120.00
G01 X6.2788 Y-58.0709 F120.00
G01 X6.2928 Y-58.0668 F120.00
G01 X6.2968 Y-58.0670 F120.00
G01 X6.3005 Y-58.0684 F120.00
G01 X6.3524 Y-58.0572 F120.00
G01 X6.3550 Y-58.0569 F120.00
G01 X6.3578 Y-58.0572 F120.00
G01 X6.4007 Y-58.0678 F120.00
G01 X6.4040 Y-58.0668 F120.00
G01 X6.4075 Y-58.0668 F120.00
G01 X6.4212 Y-58.0709 F120.00
G01 X6.4876 Y-58.0806 F120.00
G01 X8.7524 Y-58.0806 F120.00
G01 X8.8188 Y-58.0709 F120.00
G01 X8.8328 Y-58.0668 F120.00
G01 X8.8368 Y-58.0670 F120.00
G01 X8.8405 Y-58.0684 F120.00
G01 X8.8924 Y-58.0572 F120.00
G01 X8.8950 Y-58.0569 F120.00
G01 X8.8978 Y-58.0572 F120.00
G01 X8.9407 Y-58.0678 F120.00
G01 X8.9440 Y-58.0668 F120.00
G01 X8.9475 Y-58.0668 F120.00
G01 X8.9612 Y-58.0709 F120.00
G01 X9.0276 Y-58.0806 F120.00
G01 X11.1762 Y-58.0806 F120.00
G01 X11.1788 Y-58.0809 F120.00
G01 X11.2616 Y-58.1015 F120.00
G01 X11.2871 Y-58.1175 F120.00
G01 X11.3637 Y-58.1748 F120.00
G01 X11.4954 Y-58.2239 F120.00
G01 X11.5528 Y-58.2301 F120.00
G01 X12.0881 Y-58.2301 F120.00
G01 X12.0881 Y-57.7539 F120.00
G01 X11.5997 Y-57.7539 F120.00
G01 X11.5957 Y-57.7531 F120.00
G01 X11.5922 Y-57.7510 F120.00
G01 X11.5896 Y-57.7479 F120.00
G01 X11.5883 Y-57.7440 F120.00
G01 X11.5881 Y-55.5420 F120.00
G01 X11.5890 Y-55.5374 F120.00
G01 X11.5916 Y-55.5336 F120.00
G01 X11.5952 Y-55.5311 F120.00
G01 X11.5997 Y-55.5301 F120.00
G01 X12.0881 Y-55.5301 F120.00
G01 X12.0881 Y-55.0539 F120.00
G01 X11.5528 Y-55.0539 F120.00
G01 X11.4954 Y-55.0601 F120.00
G01 X11.3637 Y-55.1092 F120.00
G01 X11.2862 Y-55.1671 F120.00
G01 X11.2068 Y-55.2007 F120.00
G01 X11.1766 Y-55.2034 F120.00
G01 X11.1670 Y-55.2033 F120.00
G01 X11.0850 Y-55.1831 F120.00
G01 X11.0806 Y-55.1810 F120.00
G01 X11.0176 Y-55.1253 F120.00
G01 X11.0149 Y-55.1219 F120.00
G01 X10.9879 Y-55.0509 F120.00
G01 X10.9863 Y-55.0479 F120.00
G01 X10.9844 Y-55.0413 F120.00
G01 X10.9816 Y-55.0261 F120.00
G01 X10.9788 Y-55.0156 F120.00
G01 X10.9519 Y-54.9423 F120.00
G01 X10.9254 Y-54.8638 F120.00
G01 X10.9210 Y-54.8539 F120.00
G01 X10.9161 Y-54.8444 F120.00
G01 X10.8715 Y-54.7745 F120.00
G01 X10.8312 Y-54.7076 F120.00
G01 X10.8248 Y-54.6989 F120.00
G01 X10.8179 Y-54.6906 F120.00
G01 X10.7627 Y-54.6353 F120.00
G01 X10.7057 Y-54.5752 F120.00
G01 X10.6841 Y-54.5568 F120.00
G01 X8.1303 Y-52.0029 F120.00
G01 X8.0863 Y-51.9302 F120.00
G01 X8.0850 Y-51.9273 F120.00
G01 X8.0846 Y-51.9248 F120.00
G01 X8.0795 Y-51.8417 F120.00
G01 X8.0797 Y-51.8388 F120.00
G01 X8.0806 Y-51.8361 F120.00
G01 X8.1148 Y-51.7601 F120.00
G01 X8.1162 Y-51.7577 F120.00
G01 X8.1183 Y-51.7556 F120.00
G01 X8.1838 Y-51.7043 F120.00
G01 X8.1863 Y-51.7028 F120.00
G01 X8.1887 Y-51.7020 F120.00
G01 X8.2715 Y-51.6868 F120.00
G01 X8.2741 Y-51.6868 F120.00
G01 X8.2766 Y-51.6873 F120.00
G01 X8.3572 Y-51.7125 F120.00
G01 X8.4208 Y-51.7512 F120.00
G01 X8.6517 Y-51.8469 F120.00
G01 X8.8948 Y-51.9053 F120.00
G01 X9.1440 Y-51.9249 F120.00
G01 X9.3932 Y-51.9053 F120.00
G01 X9.6363 Y-51.8469 F120.00
G01 X9.7476 Y-51.8008 F120.00
G01 X9.3675 Y-51.4208 F120.00
G01 X9.3603 Y-51.4225 F120.00
G01 X9.2530 Y-51.4384 F120.00
G01 X9.1434 Y-51.4437 F120.00
G01 X9.0350 Y-51.4384 F120.00
G01 X8.9277 Y-51.4225 F120.00
G01 X8.8212 Y-51.3959 F120.00
G01 X8.7185 Y-51.3591 F120.00
G01 X8.6193 Y-51.3122 F120.00
G01 X8.5263 Y-51.2564 F120.00
G01 X8.4391 Y-51.1917 F120.00
G01 X8.3578 Y-51.1181 F120.00
G01 X8.2841 Y-51.0368 F120.00
G01 X8.2195 Y-50.9496 F120.00
G01 X8.1637 Y-50.8565 F120.00
G01 X8.1167 Y-50.7574 F120.00
G01 X8.0800 Y-50.6546 F120.00
G01 X8.0534 Y-50.5482 F120.00
G01 X8.0375 Y-50.4408 F120.00
G01 X8.0321 Y-50.3324 F120.00
G01 X8.0375 Y-50.2229 F120.00
G01 X8.0534 Y-50.1155 F120.00
G01 X8.0551 Y-50.1083 F120.00
G01 X7.6751 Y-49.7283 F120.00
G01 X7.6290 Y-49.8396 F120.00
G01 X7.5706 Y-50.0827 F120.00
G01 X7.5510 Y-50.3319 F120.00
G01 X7.5706 Y-50.5811 F120.00
G01 X7.6290 Y-50.8241 F120.00
G01 X7.7246 Y-51.0551 F120.00
G01 X7.7628 Y-51.1177 F120.00
G01 X7.7885 Y-51.1981 F120.00
G01 X7.7891 Y-51.2021 F120.00
G01 X7.7743 Y-51.2861 F120.00
G01 X7.7734 Y-51.2888 F120.00
G01 X7.7721 Y-51.2910 F120.00
G01 X7.7211 Y-51.3569 F120.00
G01 X7.7191 Y-51.3589 F120.00
G01 X7.7166 Y-51.3604 F120.00
G01 X7.6406 Y-51.3952 F120.00
G01 X7.6379 Y-51.3960 F120.00
G01 X7.6353 Y-51.3961 F120.00
G01 X7.5521 Y-51.3916 F120.00
G01 X7.5493 Y-51.3911 F120.00
G01 X7.5467 Y-51.3899 F120.00
G01 X7.4752 Y-51.3473 F120.00
G01 X7.4731 Y-51.3457 F120.00
G01 X6.4808 Y-50.3535 F120.00
G01 X6.4793 Y-50.3514 F120.00
G01 X6.4362 Y-50.2802 F120.00
G01 X6.4348 Y-50.2769 F120.00
G01 X6.4266 Y-50.2222 F120.00
G01 X6.4267 Y-35.4752 F120.00
G01 X6.4474 Y-35.3910 F120.00
G01 X6.4488 Y-35.3884 F120.00
G01 X6.4810 Y-35.3449 F120.00
G01 X10.1846 Y-31.6414 F120.00
G01 X10.1868 Y-31.6396 F120.00
G01 X10.2581 Y-31.5965 F120.00
G01 X10.2604 Y-31.5955 F120.00
G01 X10.2635 Y-31.5948 F120.00
G01 X10.3467 Y-31.5898 F120.00
G01 X10.3495 Y-31.5900 F120.00
G01 X10.3523 Y-31.5908 F120.00
G01 X10.4282 Y-31.6250 F120.00
G01 X10.4307 Y-31.6265 F120.00
G01 X10.4327 Y-31.6285 F120.00
G01 X10.4841 Y-31.6941 F120.00
G01 X10.4855 Y-31.6965 F120.00
G01 X10.4864 Y-31.6993 F120.00
G01 X10.5016 Y-31.7829 F120.00
G01 X10.4994 Y-31.8036 F120.00
G01 X10.4994 Y-33.9525 F120.00
G01 X10.4785 Y-34.0376 F120.00
G01 X10.4625 Y-34.0631 F120.00
G01 X10.4052 Y-34.1397 F120.00
G01 X10.3594 Y-34.2625 F120.00
G01 X10.3581 Y-34.2651 F120.00
G01 X10.3111 Y-34.3339 F120.00
G01 X10.3092 Y-34.3360 F120.00
G01 X10.3069 Y-34.3377 F120.00
G01 X10.2334 Y-34.3768 F120.00
G01 X10.2307 Y-34.3778 F120.00
G01 X10.2281 Y-34.3782 F120.00
G01 X10.1422 Y-34.3784 F120.00
G01 X10.1395 Y-34.3775 F120.00
G01 X10.0948 Y-34.3569 F120.00
G01 X10.0908 Y-34.3568 F120.00
G01 X10.0872 Y-34.3554 F120.00
G01 X9.8672 Y-34.2206 F120.00
G01 X9.6363 Y-34.1250 F120.00
G01 X9.3932 Y-34.0666 F120.00
G01 X9.1440 Y-34.0470 F120.00
G01 X8.8948 Y-34.0666 F120.00
G01 X8.6517 Y-34.1250 F120.00
G01 X8.5404 Y-34.1711 F120.00
G01 X8.9205 Y-34.5511 F120.00
G01 X8.9277 Y-34.5494 F120.00
G01 X9.0356 Y-34.5334 F120.00
G01 X9.1440 Y-34.5281 F120.00
G01 X9.2530 Y-34.5335 F120.00
G01 X9.3615 Y-34.5496 F120.00
G01 X9.4668 Y-34.5760 F120.00
G01 X9.5692 Y-34.6126 F120.00
G01 X9.6687 Y-34.6597 F120.00
G01 X9.7617 Y-34.7155 F120.00
G01 X9.8492 Y-34.7803 F120.00
G01 X9.9304 Y-34.8540 F120.00
G01 X10.0033 Y-34.9344 F120.00
G01 X10.0252 Y-34.9638 F120.00
G01 X10.8261 Y-34.9638 F120.00
G01 X10.8261 Y-34.3757 F120.00
G01 X10.8270 Y-34.3714 F120.00
G01 X10.8296 Y-34.3676 F120.00
G01 X10.8334 Y-34.3650 F120.00
G01 X10.8377 Y-34.3641 F120.00
G01 X13.0400 Y-34.3643 F120.00
G01 X13.0439 Y-34.3656 F120.00
G01 X13.0470 Y-34.3682 F120.00
G01 X13.0491 Y-34.3717 F120.00
G01 X13.0499 Y-34.3757 F120.00
G01 X13.0499 Y-34.8641 F120.00
G01 X13.5261 Y-34.8641 F120.00
G01 X13.5261 Y-34.3288 F120.00
G01 X13.5199 Y-34.2714 F120.00
G01 X13.4708 Y-34.1397 F120.00
G01 X13.4129 Y-34.0622 F120.00
G01 X13.3791 Y-33.9822 F120.00
G01 X13.3766 Y-33.9523 F120.00
G01 X13.3767 Y-33.8537 F120.00
G01 X13.3969 Y-33.7711 F120.00
G01 X13.3979 Y-33.7684 F120.00
G01 X13.3995 Y-33.7661 F120.00
G01 X13.4564 Y-33.7022 F120.00
G01 X13.5381 Y-33.6500 F120.00
G01 X13.6091 Y-33.6072 F120.00
G01 X13.6177 Y-33.6008 F120.00
G01 X13.6260 Y-33.5939 F120.00
G01 X13.6813 Y-33.5387 F120.00
G01 X13.7414 Y-33.4817 F120.00
G01 X13.7599 Y-33.4601 F120.00
G01 X14.5927 Y-32.6273 F120.00
G01 X14.6656 Y-32.5831 F120.00
G01 X14.6682 Y-32.5819 F120.00
G01 X14.6710 Y-32.5814 F120.00
G01 X14.7541 Y-32.5763 F120.00
G01 X14.7576 Y-32.5766 F120.00
G01 X14.8357 Y-32.6115 F120.00
G01 X14.8381 Y-32.6130 F120.00
G01 X14.8400 Y-32.6148 F120.00
G01 X14.8915 Y-32.6806 F120.00
G01 X14.8929 Y-32.6829 F120.00
G01 X14.8938 Y-32.6855 F120.00
G01 X14.9094 Y-32.7588 F120.00
G01 X14.9094 Y-34.9416 F120.00
G01 X14.9091 Y-34.9445 F120.00
G01 X14.8890 Y-35.0256 F120.00
G01 X14.8872 Y-35.0296 F120.00
G01 X14.8550 Y-35.0731 F120.00
G01 X13.8168 Y-36.1111 F120.00
G01 X13.7445 Y-36.1548 F120.00
G01 X13.7419 Y-36.1560 F120.00
G01 X13.7391 Y-36.1565 F120.00
G01 X13.6548 Y-36.1616 F120.00
G01 X13.6504 Y-36.1605 F120.00
G01 X13.5731 Y-36.1257 F120.00
G01 X13.5554 Y-36.1102 F120.00
G01 X13.5331 Y-36.0879 F120.00
G01 X13.0499 Y-36.0879 F120.00
G01 X13.0499 Y-36.5763 F120.00
G01 X13.0491 Y-36.5803 F120.00
G01 X13.0470 Y-36.5838 F120.00
G01 X13.0439 Y-36.5864 F120.00
G01 X13.0397 Y-36.5878 F120.00
G01 X10.8377 Y-36.5879 F120.00
G01 X10.8332 Y-36.5869 F120.00
G01 X10.8296 Y-36.5844 F120.00
G01 X10.8271 Y-36.5808 F120.00
G01 X10.8261 Y-36.5763 F120.00
G01 X10.8261 Y-35.9882 F120.00
G01 X10.1990 Y-35.9882 F120.00
G01 X10.1713 Y-36.0655 F120.00
G01 X10.1246 Y-36.1641 F120.00
G01 X10.0685 Y-36.2577 F120.00
G01 X10.0039 Y-36.3449 F120.00
G01 X9.9298 Y-36.4266 F120.00
G01 X9.8494 Y-36.4995 F120.00
G01 X9.7617 Y-36.5645 F120.00
G01 X9.6681 Y-36.6206 F120.00
G01 X9.5695 Y-36.6673 F120.00
G01 X9.4668 Y-36.7040 F120.00
G01 X9.3609 Y-36.7305 F120.00
G01 X9.2530 Y-36.7465 F120.00
G01 X9.1440 Y-36.7519 F120.00
G01 X9.0350 Y-36.7465 F120.00
G01 X8.9277 Y-36.7306 F120.00
G01 X8.9205 Y-36.7289 F120.00
G01 X8.5404 Y-37.1089 F120.00
G01 X8.6517 Y-37.1550 F120.00
G01 X8.8948 Y-37.2134 F120.00
G01 X9.1440 Y-37.2330 F120.00
G01 X9.3932 Y-37.2134 F120.00
G01 X9.6363 Y-37.1550 F120.00
G01 X9.8672 Y-37.0594 F120.00
G01 X10.0803 Y-36.9288 F120.00
G01 X10.1821 Y-36.8420 F120.00
G01 X10.2578 Y-36.8039 F120.00
G01 X10.2624 Y-36.8027 F120.00
G01 X10.3466 Y-36.8042 F120.00
G01 X10.3494 Y-36.8046 F120.00
G01 X10.3521 Y-36.8056 F120.00
G01 X10.4270 Y-36.8469 F120.00
G01 X10.4501 Y-36.8724 F120.00
G01 X10.4635 Y-36.8906 F120.00
G01 X10.4966 Y-36.9686 F120.00
G01 X10.4972 Y-36.9715 F120.00
G01 X10.4994 Y-36.9994 F120.00
G01 X10.4993 Y-37.0986 F120.00
G01 X10.4789 Y-37.1817 F120.00
G01 X10.4765 Y-37.1859 F120.00
G01 X10.4211 Y-37.2485 F120.00
G01 X10.4189 Y-37.2503 F120.00
G01 X10.3379 Y-37.3020 F120.00
G01 X10.2670 Y-37.3448 F120.00
G01 X10.2583 Y-37.3512 F120.00
G01 X10.2500 Y-37.3581 F120.00
G01 X10.1947 Y-37.4133 F120.00
G01 X10.1346 Y-37.4703 F120.00
G01 X10.1161 Y-37.4919 F120.00
G01 X8.5805 Y-39.0276 F120.00
G01 X8.5694 Y-39.0378 F120.00
G01 X8.5316 Y-39.0699 F120.00
G01 X8.4847 Y-39.1316 F120.00
G01 X8.4328 Y-39.1962 F120.00
G01 X8.4269 Y-39.2052 F120.00
G01 X8.4215 Y-39.2145 F120.00
G01 X8.3866 Y-39.2897 F120.00
G01 X8.3519 Y-39.3597 F120.00
G01 X8.3480 Y-39.3698 F120.00
G01 X8.3410 Y-39.3909 F120.00
G01 X8.3396 Y-39.3932 F120.00
G01 X8.3379 Y-39.3949 F120.00
G01 X8.3057 Y-39.4597 F120.00
G01 X8.2660 Y-39.4951 F120.00
G01 X8.2574 Y-39.5009 F120.00
G01 X8.0820 Y-39.6623 F120.00
G01 X7.9355 Y-39.8505 F120.00
G01 X7.8221 Y-40.0601 F120.00
G01 X7.7446 Y-40.2856 F120.00
G01 X7.7054 Y-40.5208 F120.00
G01 X7.7054 Y-40.7592 F120.00
G01 X7.7446 Y-40.9944 F120.00
G01 X7.8221 Y-41.2199 F120.00
G01 X7.9355 Y-41.4295 F120.00
G01 X8.0820 Y-41.6177 F120.00
G01 X8.2454 Y-41.7681 F120.00
G01 X8.2471 Y-41.7701 F120.00
G01 X8.2942 Y-41.8415 F120.00
G01 X8.2951 Y-41.8443 F120.00
G01 X8.3054 Y-41.9049 F120.00
G01 X8.3053 Y-44.0687 F120.00
G01 X8.2851 Y-44.1507 F120.00
G01 X8.2833 Y-44.1546 F120.00
G01 X8.2458 Y-44.2033 F120.00
G01 X8.0820 Y-44.3542 F120.00
G01 X7.9355 Y-44.5423 F120.00
G01 X7.8221 Y-44.7520 F120.00
G01 X7.7446 Y-44.9775 F120.00
G01 X7.7054 Y-45.2127 F120.00
G01 X7.7054 Y-45.4511 F120.00
G01 X7.7446 Y-45.6862 F120.00
G01 X7.8221 Y-45.9117 F120.00
G01 X7.9355 Y-46.1214 F120.00
G01 X8.0820 Y-46.3095 F120.00
G01 X8.2460 Y-46.4606 F120.00
G01 X8.2933 Y-46.5316 F120.00
G01 X8.2946 Y-46.5345 F120.00
G01 X8.3054 Y-46.5968 F120.00
G01 X8.3054 Y-47.2024 F120.00
G01 X8.3048 Y-47.2174 F120.00
G01 X8.3008 Y-47.2668 F120.00
G01 X8.3112 Y-47.3437 F120.00
G01 X8.3202 Y-47.4260 F120.00
G01 X8.3224 Y-47.4365 F120.00
G01 X8.3252 Y-47.4470 F120.00
G01 X8.3537 Y-47.5247 F120.00
G01 X8.3786 Y-47.5988 F120.00
G01 X8.3830 Y-47.6087 F120.00
G01 X8.3879 Y-47.6182 F120.00
G01 X8.4301 Y-47.6841 F120.00
G01 X8.4728 Y-47.7550 F120.00
G01 X8.4792 Y-47.7637 F120.00
G01 X8.4861 Y-47.7720 F120.00
G01 X8.5414 Y-47.8273 F120.00
G01 X8.5983 Y-47.8874 F120.00
G01 X8.6069 Y-47.8950 F120.00
G01 X8.6199 Y-47.9058 F120.00
G01 X9.1454 Y-48.4314 F120.00
G01 X9.1470 Y-48.4334 F120.00
G01 X9.1901 Y-48.5047 F120.00
G01 X9.1912 Y-48.5070 F120.00
G01 X9.1917 Y-48.5096 F120.00
G01 X9.1968 Y-48.5933 F120.00
G01 X9.1966 Y-48.5961 F120.00
G01 X9.1958 Y-48.5989 F120.00
G01 X9.1616 Y-48.6748 F120.00
G01 X9.1601 Y-48.6773 F120.00
G01 X9.1583 Y-48.6791 F120.00
G01 X9.0908 Y-48.7318 F120.00
G01 X9.0881 Y-48.7328 F120.00
G01 X9.0289 Y-48.7479 F120.00
G01 X8.8948 Y-48.7585 F120.00
G01 X8.6517 Y-48.8168 F120.00
G01 X8.5404 Y-48.8629 F120.00
G01 X8.9205 Y-49.2430 F120.00
G01 X8.9277 Y-49.2412 F120.00
G01 X9.0350 Y-49.2253 F120.00
G01 X9.1446 Y-49.2200 F120.00
G01 X9.2530 Y-49.2253 F120.00
G01 X9.3603 Y-49.2412 F120.00
G01 X9.4668 Y-49.2678 F120.00
G01 X9.5695 Y-49.3046 F120.00
G01 X9.6687 Y-49.3515 F120.00
G01 X9.7617 Y-49.4074 F120.00
G01 X9.8489 Y-49.4720 F120.00
G01 X9.9302 Y-49.5456 F120.00
G01 X10.0039 Y-49.6269 F120.00
G01 X10.0685 Y-49.7141 F120.00
G01 X10.1243 Y-49.8072 F120.00
G01 X10.1713 Y-49.9064 F120.00
G01 X10.2080 Y-50.0091 F120.00
G01 X10.2346 Y-50.1155 F120.00
G01 X10.2505 Y-50.2229 F120.00
G01 X10.2559 Y-50.3313 F120.00
G01 X10.2505 Y-50.4408 F120.00
G01 X10.2346 Y-50.5482 F120.00
G01 X10.2329 Y-50.5554 F120.00
G01 X10.6129 Y-50.9354 F120.00
G01 X10.6590 Y-50.8241 F120.00
G01 X10.7174 Y-50.5811 F120.00
G01 X10.7281 Y-50.4461 F120.00
G01 X10.7547 Y-50.3656 F120.00
G01 X10.7562 Y-50.3626 F120.00
G01 X10.8177 Y-50.3030 F120.00
G01 X10.8200 Y-50.3013 F120.00
G01 X10.8226 Y-50.3002 F120.00
G01 X10.9045 Y-50.2764 F120.00
G01 X10.9082 Y-50.2766 F120.00
G01 X10.9918 Y-50.2937 F120.00
G01 X10.9944 Y-50.2950 F120.00
G01 X11.0438 Y-50.3299 F120.00
G01 X14.3470 Y-53.6329 F120.00
G01 X14.3487 Y-53.6352 F120.00
G01 X14.3922 Y-53.7072 F120.00
G01 X14.3934 Y-53.7108 F120.00
G01 X14.4014 Y-53.7644 F120.00
G01 X14.4014 Y-55.0111 F120.00
G01 X14.4011 Y-55.0140 F120.00
G01 X14.3811 Y-55.0948 F120.00
G01 X14.3802 Y-55.0972 F120.00
G01 X14.3788 Y-55.0994 F120.00
G01 X14.3233 Y-55.1622 F120.00
G01 X14.3211 Y-55.1641 F120.00
G01 X14.3186 Y-55.1654 F120.00
G01 X14.2407 Y-55.1950 F120.00
G01 X14.2359 Y-55.1957 F120.00
G01 X14.1524 Y-55.1856 F120.00
G01 X14.1493 Y-55.1848 F120.00
G01 X14.1045 Y-55.1603 F120.00
G01 X14.0363 Y-55.1092 F120.00
G01 X13.9046 Y-55.0601 F120.00
G01 X13.8472 Y-55.0539 F120.00
G01 X13.3119 Y-55.0539 F120.00
G01 X13.3119 Y-55.5301 F120.00
G01 X13.8003 Y-55.5301 F120.00
G01 X13.8043 Y-55.5309 F120.00
G01 X13.8078 Y-55.5330 F120.00
G01 X13.8104 Y-55.5361 F120.00
G01 X13.8117 Y-55.5400 F120.00
G01 X13.8119 Y-57.7420 F120.00
G01 X13.8110 Y-57.7466 F120.00
G01 X13.8084 Y-57.7504 F120.00
G01 X13.8048 Y-57.7529 F120.00
G01 X13.8003 Y-57.7539 F120.00
G01 X13.3119 Y-57.7539 F120.00
G01 X13.3119 Y-58.2301 F120.00
G01 X13.8472 Y-58.2301 F120.00
G01 X13.9046 Y-58.2239 F120.00
G01 X14.0363 Y-58.1748 F120.00
G01 X14.1126 Y-58.1177 F120.00
G01 X14.1149 Y-58.1164 F120.00
G01 X14.1926 Y-58.0834 F120.00
G01 X14.1955 Y-58.0828 F120.00
G01 X14.2240 Y-58.0806 F120.00
G01 X16.3724 Y-58.0806 F120.00
G01 X16.4388 Y-58.0709 F120.00
G01 X16.4528 Y-58.0668 F120.00
G01 X16.4568 Y-58.0670 F120.00
G01 X16.4605 Y-58.0684 F120.00
G01 X16.5124 Y-58.0572 F120.00
G01 X16.5150 Y-58.0569 F120.00
G01 X16.5178 Y-58.0572 F120.00
G01 X16.5607 Y-58.0678 F120.00
G01 X16.5640 Y-58.0668 F120.00
G01 X16.5675 Y-58.0668 F120.00
G01 X16.5812 Y-58.0709 F120.00
G01 X16.6476 Y-58.0806 F120.00
G01 X18.9124 Y-58.0806 F120.00
G01 X18.9788 Y-58.0709 F120.00
G01 X18.9928 Y-58.0668 F120.00
G01 X18.9968 Y-58.0670 F120.00
G01 X19.0005 Y-58.0684 F120.00
G01 X19.0524 Y-58.0572 F120.00
G01 X19.0550 Y-58.0569 F120.00
G01 X19.0578 Y-58.0572 F120.00
G01 X19.1007 Y-58.0678 F120.00
G01 X19.1040 Y-58.0668 F120.00
G01 X19.1075 Y-58.0668 F120.00
G01 X19.1212 Y-58.0709 F120.00
G01 X19.1876 Y-58.0806 F120.00
G01 X21.4524 Y-58.0806 F120.00
G01 X21.5188 Y-58.0709 F120.00
G01 X21.5328 Y-58.0668 F120.00
G01 X21.5368 Y-58.0670 F120.00
G01 X21.5405 Y-58.0684 F120.00
G01 X21.5924 Y-58.0572 F120.00
G01 X21.5950 Y-58.0569 F120.00
G01 X21.5978 Y-58.0572 F120.00
G01 X21.6407 Y-58.0678 F120.00
G01 X21.6440 Y-58.0668 F120.00
G01 X21.6475 Y-58.0668 F120.00
G01 X21.6612 Y-58.0709 F120.00
G01 X21.7276 Y-58.0806 F120.00
G01 X23.9924 Y-58.0806 F120.00
G01 X24.0588 Y-58.0709 F120.00
G01 X24.0728 Y-58.0668 F120.00
G01 X24.0768 Y-58.0670 F120.00
G01 X24.0805 Y-58.0684 F120.00
G01 X24.1324 Y-58.0572 F120.00
G01 X24.1350 Y-58.0569 F120.00
G01 X24.1378 Y-58.0572 F120.00
G01 X24.1807 Y-58.0678 F120.00
G01 X24.1840 Y-58.0668 F120.00
G01 X24.1875 Y-58.0668 F120.00
G01 X24.2012 Y-58.0709 F120.00
G01 X24.2676 Y-58.0806 F120.00
G01 X26.5324 Y-58.0806 F120.00
G01 X26.5978 Y-58.0711 F120.00
G01 X26.6995 Y-58.0214 F120.00
G01 X26.7794 Y-57.9415 F120.00
G01 X26.8291 Y-57.8398 F120.00
G01 X26.8386 Y-57.7744 F120.00
G01 X26.8386 Y-55.5096 F120.00
G01 X26.8291 Y-55.4442 F120.00
G01 X26.7794 Y-55.3425 F120.00
G01 X26.6995 Y-55.2626 F120.00
G01 X26.5978 Y-55.2129 F120.00
G01 X26.5324 Y-55.2034 F120.00
G01 X26.4231 Y-55.2033 F120.00
G01 X26.3408 Y-55.1831 F120.00
G01 X26.3366 Y-55.1812 F120.00
G01 X26.2734 Y-55.1253 F120.00
G01 X26.2710 Y-55.1224 F120.00
G01 X26.2404 Y-55.0421 F120.00
G01 X26.2399 Y-55.0395 F120.00
G01 X26.2386 Y-55.0175 F120.00
G01 X26.2386 Y-44.2349 F120.00
G01 X26.2589 Y-44.1518 F120.00
G01 X26.2599 Y-44.1491 F120.00
G01 X26.2615 Y-44.1468 F120.00
G01 X26.3171 Y-44.0840 F120.00
G01 X26.3212 Y-44.0813 F120.00
G01 X26.3999 Y-44.0515 F120.00
G01 X26.4034 Y-44.0509 F120.00
G01 X26.4172 Y-44.0514 F120.00
G01 X26.8111 Y-43.6575 F120.00
G01 X26.8094 Y-43.6503 F120.00
G01 X26.7935 Y-43.5430 F120.00
G01 X26.7881 Y-43.4340 F120.00
G01 X26.7935 Y-43.3250 F120.00
G01 X26.8094 Y-43.2177 F120.00
G01 X26.8111 Y-43.2105 F120.00
G01 X26.4137 Y-42.8130 F120.00
G01 X26.3744 Y-42.8112 F120.00
G01 X26.3708 Y-42.8104 F120.00
G01 X26.2973 Y-42.7676 F120.00
G01 X26.2948 Y-42.7657 F120.00
G01 X26.2932 Y-42.7637 F120.00
G01 X26.2483 Y-42.6915 F120.00
G01 X26.2474 Y-42.6886 F120.00
G01 X26.2386 Y-42.6325 F120.00
G01 X26.2386 Y-41.4412 F120.00
G01 X26.2389 Y-41.4387 F120.00
G01 X26.2591 Y-41.3570 F120.00
G01 X26.2615 Y-41.3528 F120.00
G01 X26.3167 Y-41.2904 F120.00
G01 X26.3194 Y-41.2882 F120.00
G01 X26.3999 Y-41.2575 F120.00
G01 X26.4034 Y-41.2569 F120.00
G01 X26.4172 Y-41.2574 F120.00
G01 X26.8111 Y-40.8635 F120.00
G01 X26.8094 Y-40.8563 F120.00
G01 X26.7935 Y-40.7490 F120.00
G01 X26.7881 Y-40.6400 F120.00
G01 X26.7935 Y-40.5310 F120.00
G01 X26.8094 Y-40.4237 F120.00
G01 X26.8111 Y-40.4165 F120.00
G01 X26.4137 Y-40.0190 F120.00
G01 X26.3744 Y-40.0172 F120.00
G01 X26.3708 Y-40.0164 F120.00
G01 X26.2973 Y-39.9736 F120.00
G01 X26.2948 Y-39.9717 F120.00
G01 X26.2932 Y-39.9697 F120.00
G01 X26.2483 Y-39.8975 F120.00
G01 X26.2474 Y-39.8946 F120.00
G01 X26.2386 Y-39.8385 F120.00
G01 X26.2386 Y-23.7933 F120.00
G01 X26.2389 Y-23.7905 F120.00
G01 X26.2589 Y-23.7096 F120.00
G01 X26.2599 Y-23.7068 F120.00
G01 X26.2765 Y-23.6808 F120.00
G01 X26.3162 Y-23.6287 F120.00
G01 X26.3652 Y-23.5678 F120.00
G01 X26.3711 Y-23.5588 F120.00
G01 X26.3765 Y-23.5495 F120.00
G01 X26.4114 Y-23.4743 F120.00
G01 X26.4461 Y-23.4043 F120.00
G01 X26.4500 Y-23.3942 F120.00
G01 X26.4532 Y-23.3840 F120.00
G01 X26.4701 Y-23.3076 F120.00
G01 X26.4900 Y-23.2272 F120.00
G01 X26.4916 Y-23.2166 F120.00
G01 X26.4926 Y-23.2059 F120.00
G01 X26.4926 Y-23.1277 F120.00
G01 X26.4948 Y-23.0449 F120.00
G01 X26.4926 Y-23.0166 F120.00
G01 X26.4926 Y-16.4258 F120.00
G01 X26.5134 Y-16.3410 F120.00
G01 X26.5148 Y-16.3384 F120.00
G01 X26.5466 Y-16.2953 F120.00
G01 X27.2335 Y-15.6084 F120.00
G01 X27.2446 Y-15.5982 F120.00
G01 X27.2824 Y-15.5661 F120.00
G01 X27.3322 Y-15.5007 F120.00
G01 X27.3812 Y-15.4398 F120.00
G01 X27.3871 Y-15.4308 F120.00
G01 X27.3925 Y-15.4215 F120.00
G01 X27.4274 Y-15.3463 F120.00
G01 X27.4621 Y-15.2763 F120.00
G01 X27.4660 Y-15.2662 F120.00
G01 X27.4692 Y-15.2560 F120.00
G01 X27.4861 Y-15.1796 F120.00
G01 X27.5060 Y-15.0992 F120.00
G01 X27.5076 Y-15.0886 F120.00
G01 X27.5086 Y-15.0779 F120.00
G01 X27.5086 Y-14.9997 F120.00
G01 X27.5108 Y-14.9169 F120.00
G01 X27.5086 Y-14.8886 F120.00
G01 X27.5086 Y-14.5526 F120.00
G01 X27.5289 Y-14.4695 F120.00
G01 X27.5298 Y-14.4670 F120.00
G01 X27.5312 Y-14.4649 F120.00
G01 X27.5867 Y-14.4021 F120.00
G01 X27.5905 Y-14.3993 F120.00
G01 X27.6483 Y-14.3731 F120.00
G01 X27.8607 Y-14.3193 F120.00
G01 X28.0790 Y-14.2235 F120.00
G01 X28.2786 Y-14.0932 F120.00
G01 X28.4540 Y-13.9317 F120.00
G01 X28.6005 Y-13.7435 F120.00
G01 X28.7139 Y-13.5339 F120.00
G01 X28.7914 Y-13.3084 F120.00
G01 X28.8306 Y-13.0732 F120.00
G01 X28.8306 Y-12.8348 F120.00
G01 X28.7914 Y-12.5996 F120.00
G01 X28.7139 Y-12.3741 F120.00
G01 X28.6005 Y-12.1645 F120.00
G01 X28.4540 Y-11.9763 F120.00
G01 X28.2786 Y-11.8148 F120.00
G01 X28.0790 Y-11.6844 F120.00
G01 X27.8607 Y-11.5887 F120.00
G01 X27.6296 Y-11.5302 F120.00
G01 X27.3920 Y-11.5105 F120.00
G01 X27.1544 Y-11.5302 F120.00
G01 X26.9233 Y-11.5887 F120.00
G01 X26.7050 Y-11.6844 F120.00
G01 X26.5054 Y-11.8148 F120.00
G01 X26.3300 Y-11.9763 F120.00
G01 X26.1835 Y-12.1645 F120.00
G01 X26.0796 Y-12.3565 F120.00
G01 X26.0206 Y-12.4213 F120.00
G01 X26.0176 Y-12.4229 F120.00
G01 X25.9394 Y-12.4515 F120.00
G01 X25.9366 Y-12.4521 F120.00
G01 X25.9337 Y-12.4521 F120.00
G01 X25.8511 Y-12.4410 F120.00
G01 X25.8484 Y-12.4403 F120.00
G01 X25.8458 Y-12.4389 F120.00
G01 X25.7777 Y-12.3905 F120.00
G01 X25.7758 Y-12.3888 F120.00
G01 X25.7743 Y-12.3867 F120.00
G01 X25.7360 Y-12.3111 F120.00
G01 X25.7352 Y-12.3081 F120.00
G01 X25.7306 Y-12.2684 F120.00
G01 X25.7306 Y-11.9794 F120.00
G01 X25.7312 Y-11.9645 F120.00
G01 X25.7352 Y-11.9152 F120.00
G01 X25.7242 Y-11.8337 F120.00
G01 X25.7158 Y-11.7560 F120.00
G01 X25.7136 Y-11.7455 F120.00
G01 X25.7108 Y-11.7350 F120.00
G01 X25.6839 Y-11.6617 F120.00
G01 X25.6574 Y-11.5832 F120.00
G01 X25.6530 Y-11.5733 F120.00
G01 X25.6481 Y-11.5637 F120.00
G01 X25.6035 Y-11.4939 F120.00
G01 X25.5632 Y-11.4269 F120.00
G01 X25.5568 Y-11.4183 F120.00
G01 X25.5499 Y-11.4100 F120.00
G01 X25.4947 Y-11.3547 F120.00
G01 X25.4377 Y-11.2946 F120.00
G01 X25.4161 Y-11.2761 F120.00
G01 X21.4504 Y-7.3105 F120.00
G01 X21.4402 Y-7.2994 F120.00
G01 X21.4081 Y-7.2616 F120.00
G01 X21.3427 Y-7.2118 F120.00
G01 X21.2818 Y-7.1628 F120.00
G01 X21.2728 Y-7.1569 F120.00
G01 X21.2635 Y-7.1515 F120.00
G01 X21.1925 Y-7.1187 F120.00
G01 X21.1183 Y-7.0819 F120.00
G01 X21.1082 Y-7.0780 F120.00
G01 X21.0980 Y-7.0747 F120.00
G01 X21.0171 Y-7.0569 F120.00
G01 X20.9412 Y-7.0380 F120.00
G01 X20.9306 Y-7.0364 F120.00
G01 X20.9199 Y-7.0354 F120.00
G01 X20.8417 Y-7.0354 F120.00
G01 X20.7589 Y-7.0332 F120.00
G01 X20.7475 Y-7.0338 F120.00
G01 X20.7306 Y-7.0354 F120.00
G01 X20.5646 Y-7.0354 F120.00
G01 X20.4798 Y-7.0146 F120.00
G01 X20.4767 Y-7.0127 F120.00
G01 X20.4196 Y-6.9649 F120.00
G01 X20.3660 Y-6.8963 F120.00
G01 X20.1906 Y-6.7348 F120.00
G01 X19.9910 Y-6.6044 F120.00
G01 X19.7727 Y-6.5087 F120.00
G01 X19.5416 Y-6.4502 F120.00
G01 X19.3040 Y-6.4305 F120.00
G01 X19.0664 Y-6.4502 F120.00
G01 X18.8353 Y-6.5087 F120.00
G01 X18.6170 Y-6.6044 F120.00
G01 X18.4174 Y-6.7348 F120.00
G01 X18.4008 Y-6.7499 F120.00
G01 X18.3250 Y-6.7913 F120.00
G01 X18.3216 Y-6.7919 F120.00
G01 X18.2383 Y-6.7935 F120.00
G01 X18.2355 Y-6.7932 F120.00
G01 X18.2328 Y-6.7922 F120.00
G01 X18.1583 Y-6.7549 F120.00
G01 X18.1553 Y-6.7527 F120.00
G01 X18.1042 Y-6.6816 F120.00
G01 X18.1033 Y-6.6789 F120.00
G01 X18.0906 Y-6.6124 F120.00
G01 X18.0906 Y-5.7132 F120.00
G01 X18.0909 Y-5.7107 F120.00
G01 X18.1112 Y-5.6287 F120.00
G01 X18.1135 Y-5.6247 F120.00
G01 X18.1687 Y-5.5624 F120.00
G01 X18.1709 Y-5.5605 F120.00
G01 X18.1734 Y-5.5592 F120.00
G01 X18.2516 Y-5.5295 F120.00
G01 X18.2545 Y-5.5289 F120.00
G01 X18.2765 Y-5.5276 F120.00
G01 X18.3844 Y-5.5276 F120.00
G01 X18.4498 Y-5.5181 F120.00
G01 X18.5515 Y-5.4684 F120.00
G01 X18.6314 Y-5.3885 F120.00
G01 X18.6811 Y-5.2868 F120.00
G01 X18.6906 Y-5.2214 F120.00
G01 X18.6906 Y-2.9566 F120.00
G01 X18.6811 Y-2.8912 F120.00
G01 X18.6314 Y-2.7895 F120.00
G01 X18.5515 Y-2.7096 F120.00
G01 X18.4498 Y-2.6599 F120.00
G01 X18.3844 Y-2.6504 F120.00
G01 X16.1196 Y-2.6504 F120.00
G01 X16.0532 Y-2.6601 F120.00
G01 X16.0392 Y-2.6642 F120.00
G01 X16.0352 Y-2.6640 F120.00
G01 X16.0315 Y-2.6626 F120.00
G01 X15.9795 Y-2.6738 F120.00
G01 X15.9770 Y-2.6741 F120.00
G01 X15.9741 Y-2.6738 F120.00
G01 X15.9313 Y-2.6632 F120.00
G01 X15.9280 Y-2.6642 F120.00
G01 X15.9245 Y-2.6642 F120.00
G01 X15.9108 Y-2.6601 F120.00
G01 X15.8444 Y-2.6504 F120.00
G01 X13.5796 Y-2.6504 F120.00
G01 X13.5142 Y-2.6599 F120.00
G01 X13.4125 Y-2.7096 F120.00
G01 X13.3326 Y-2.7895 F120.00
G01 X13.2829 Y-2.8912 F120.00
G01 X13.2734 Y-2.9566 F120.00
G01 X13.2734 Y-4.5148 F120.00
G01 X13.2531 Y-4.5980 F120.00
G01 X13.2521 Y-4.6006 F120.00
G01 X13.2505 Y-4.6030 F120.00
G01 X13.1953 Y-4.6653 F120.00
G01 X13.1926 Y-4.6676 F120.00
G01 X13.1124 Y-4.6982 F120.00
G01 X13.1099 Y-4.6988 F120.00
G01 X13.1070 Y-4.6988 F120.00
G01 X13.0244 Y-4.6888 F120.00
G01 X13.0216 Y-4.6881 F120.00
G01 X13.0190 Y-4.6867 F120.00
G01 X12.9503 Y-4.6393 F120.00
G01 X12.9477 Y-4.6367 F120.00
G01 X12.9243 Y-4.6032 F120.00
G01 X12.8925 Y-4.5445 F120.00
G01 X12.7460 Y-4.3563 F120.00
G01 X12.5706 Y-4.1948 F120.00
G01 X12.3710 Y-4.0644 F120.00
G01 X12.1527 Y-3.9687 F120.00
G01 X11.9216 Y-3.9102 F120.00
G01 X11.6840 Y-3.8905 F120.00
G01 X11.4464 Y-3.9102 F120.00
G01 X11.2153 Y-3.9687 F120.00
G01 X10.9970 Y-4.0644 F120.00
G01 X10.7974 Y-4.1948 F120.00
G01 X10.6220 Y-4.3563 F120.00
G01 X10.4755 Y-4.5445 F120.00
G01 X10.3621 Y-4.7541 F120.00
G01 X10.2846 Y-4.9796 F120.00
G01 X10.2454 Y-5.2148 F120.00
G01 X10.2454 Y-5.4532 F120.00
G01 X10.2846 Y-5.6884 F120.00
G01 X10.2972 Y-5.7249 F120.00
G01 X10.3621 Y-5.9139 F120.00
G01 X10.4755 Y-6.1235 F120.00
G01 X10.6220 Y-6.3117 F120.00
G01 X10.7860 Y-6.4627 F120.00
G01 X10.8333 Y-6.5338 F120.00
G01 X10.8346 Y-6.5366 F120.00
G01 X10.8454 Y-6.5983 F120.00
G01 X10.8452 Y-6.7893 F120.00
G01 X10.8251 Y-6.8707 F120.00
G01 X10.8242 Y-6.8732 F120.00
G01 X10.8064 Y-6.9009 F120.00
G01 X10.7575 Y-6.9637 F120.00
G01 X10.7557 Y-6.9655 F120.00
G01 X10.6901 Y-7.0173 F120.00
G01 X10.6879 Y-7.0186 F120.00
G01 X10.6853 Y-7.0196 F120.00
G01 X10.6122 Y-7.0353 F120.00
G01 X10.1517 Y-7.0352 F120.00
G01 X10.0700 Y-7.0151 F120.00
G01 X10.0675 Y-7.0142 F120.00
G01 X10.0405 Y-6.9953 F120.00
G01 X10.0370 Y-6.9937 F120.00
G01 X10.0311 Y-6.9891 F120.00
G01 X9.8310 Y-6.8584 F120.00
G01 X9.6127 Y-6.7627 F120.00
G01 X9.3816 Y-6.7042 F120.00
G01 X9.1440 Y-6.6845 F120.00
G01 X8.9064 Y-6.7042 F120.00
G01 X8.6753 Y-6.7627 F120.00
G01 X8.4570 Y-6.8584 F120.00
G01 X8.2574 Y-6.9888 F120.00
G01 X8.0820 Y-7.1503 F120.00
G01 X7.9355 Y-7.3385 F120.00
G01 X7.8221 Y-7.5481 F120.00
G01 X7.7446 Y-7.7736 F120.00
G01 X7.7054 Y-8.0088 F120.00
G01 X7.7054 Y-8.2472 F120.00
G01 X7.7446 Y-8.4824 F120.00
G01 X7.8221 Y-8.7079 F120.00
G01 X7.9355 Y-8.9175 F120.00
G01 X8.0820 Y-9.1057 F120.00
G01 X8.2574 Y-9.2671 F120.00
G01 X8.4570 Y-9.3975 F120.00
G01 X8.6753 Y-9.4933 F120.00
G01 X8.9064 Y-9.5518 F120.00
G01 X9.1440 Y-9.5715 F120.00
G01 X9.3816 Y-9.5518 F120.00
G01 X9.6127 Y-9.4933 F120.00
G01 X9.8310 Y-9.3975 F120.00
G01 X10.0306 Y-9.2672 F120.00
G01 X10.1229 Y-9.1823 F120.00
G01 X10.1969 Y-9.1416 F120.00
G01 X10.1999 Y-9.1405 F120.00
G01 X10.2024 Y-9.1402 F120.00
G01 X10.2857 Y-9.1386 F120.00
G01 X10.2885 Y-9.1389 F120.00
G01 X10.2912 Y-9.1398 F120.00
G01 X10.3657 Y-9.1771 F120.00
G01 X10.3681 Y-9.1787 F120.00
G01 X10.3700 Y-9.1808 F120.00
G01 X10.4186 Y-9.2484 F120.00
G01 X10.4203 Y-9.2518 F120.00
G01 X10.4334 Y-9.3202 F120.00
G01 X10.4334 Y-11.5464 F120.00
G01 X10.4431 Y-11.6128 F120.00
G01 X10.4472 Y-11.6268 F120.00
G01 X10.4470 Y-11.6309 F120.00
G01 X10.4456 Y-11.6345 F120.00
G01 X10.4568 Y-11.6864 F120.00
G01 X10.4571 Y-11.6890 F120.00
G01 X10.4568 Y-11.6918 F120.00
G01 X10.4462 Y-11.7347 F120.00
G01 X10.4472 Y-11.7380 F120.00
G01 X10.4472 Y-11.7415 F120.00
G01 X10.4431 Y-11.7552 F120.00
G01 X10.4334 Y-11.8216 F120.00
G01 X10.4334 Y-14.0864 F120.00
G01 X10.4431 Y-14.1528 F120.00
G01 X10.4472 Y-14.1668 F120.00
G01 X10.4470 Y-14.1709 F120.00
G01 X10.4456 Y-14.1745 F120.00
G01 X10.4568 Y-14.2264 F120.00
G01 X10.4571 Y-14.2290 F120.00
G01 X10.4568 Y-14.2318 F120.00
G01 X10.4462 Y-14.2747 F120.00
G01 X10.4472 Y-14.2780 F120.00
G01 X10.4472 Y-14.2815 F120.00
