(G-CODE GENERATED BY FLATCAM v8.994 - www.flatcam.org - Version Date: 2020/11/7)

(Name: Combo_Excellon_mill_cnc)
(Type: G-code from Geometry)
(Units: MM)

(Created on Monday, 18 March 2024 at 23:43)

(This preprocessor is used with a motion controller loaded with GRBL firmware.)
(It is configured to be compatible with almost any version of GRBL firmware.)

(TOOL DIAMETER: 0.5 mm)
(Feedrate_XY: 60.0 mm/min)
(Feedrate_Z: 60.0 mm/min)
(Feedrate rapids 1500.0 mm/min)

(Z_Cut: -2.5 mm)
(DepthPerCut: 0.5 mm <=>5 passes)
(Z_Move: 2.0 mm)
(Z Start: None mm)
(Z End: 15.0 mm)
(X,Y End: 0.0000, 0.0000 mm)
(Steps per circle: 64)
(Steps per circle: 64)
(Preprocessor Geometry: GRBL_11_no_M6)

(X range:    2.7980 ...   77.9415  mm)
(Y range:  -55.8830 ...   -2.8300  mm)

(Spindle Speed: 0.0 RPM)
G21
G90
G17
G94


G01 F60.00

M5             
G00 Z15.0000
G00 X0.0000 Y0.0000                
T1
(MSG, Change to Tool Dia = 0.5000)
M0
G00 Z15.0000
        
M03
G01 F60.00
G00 X4.0400 Y-6.8330
G01 F60.00
G01 Z-0.5000
G01 F60.00
G01 X4.0388 Y-6.8575 F60.00
G01 X4.0352 Y-6.8818 F60.00
G01 X4.0292 Y-6.9056 F60.00
G01 X4.0210 Y-6.9287 F60.00
G01 X4.0105 Y-6.9508 F60.00
G01 X3.9979 Y-6.9719 F60.00
G01 X3.9833 Y-6.9916 F60.00
G01 X3.9668 Y-7.0098 F60.00
G01 X3.9486 Y-7.0263 F60.00
G01 X3.9289 Y-7.0409 F60.00
G01 X3.9078 Y-7.0535 F60.00
G01 X3.8857 Y-7.0640 F60.00
G01 X3.8626 Y-7.0722 F60.00
G01 X3.8388 Y-7.0782 F60.00
G01 X3.8145 Y-7.0818 F60.00
G01 X3.7900 Y-7.0830 F60.00
G01 X3.7655 Y-7.0818 F60.00
G01 X3.7412 Y-7.0782 F60.00
G01 X3.7174 Y-7.0722 F60.00
G01 X3.6943 Y-7.0640 F60.00
G01 X3.6722 Y-7.0535 F60.00
G01 X3.6511 Y-7.0409 F60.00
G01 X3.6314 Y-7.0263 F60.00
G01 X3.6132 Y-7.0098 F60.00
G01 X3.5967 Y-6.9916 F60.00
G01 X3.5821 Y-6.9719 F60.00
G01 X3.5695 Y-6.9508 F60.00
G01 X3.5590 Y-6.9287 F60.00
G01 X3.5508 Y-6.9056 F60.00
G01 X3.5448 Y-6.8818 F60.00
G01 X3.5412 Y-6.8575 F60.00
G01 X3.5400 Y-6.8330 F60.00
G01 X3.5412 Y-6.8085 F60.00
G01 X3.5448 Y-6.7842 F60.00
G01 X3.5508 Y-6.7604 F60.00
G01 X3.5590 Y-6.7373 F60.00
G01 X3.5695 Y-6.7152 F60.00
G01 X3.5821 Y-6.6941 F60.00
G01 X3.5967 Y-6.6744 F60.00
G01 X3.6132 Y-6.6562 F60.00
G01 X3.6314 Y-6.6397 F60.00
G01 X3.6511 Y-6.6251 F60.00
G01 X3.6722 Y-6.6125 F60.00
G01 X3.6943 Y-6.6020 F60.00
G01 X3.7174 Y-6.5938 F60.00
G01 X3.7412 Y-6.5878 F60.00
G01 X3.7655 Y-6.5842 F60.00
G01 X3.7900 Y-6.5830 F60.00
G01 X3.8145 Y-6.5842 F60.00
G01 X3.8388 Y-6.5878 F60.00
G01 X3.8626 Y-6.5938 F60.00
G01 X3.8857 Y-6.6020 F60.00
G01 X3.9078 Y-6.6125 F60.00
G01 X3.9289 Y-6.6251 F60.00
G01 X3.9486 Y-6.6397 F60.00
G01 X3.9668 Y-6.6562 F60.00
G01 X3.9833 Y-6.6744 F60.00
G01 X3.9979 Y-6.6941 F60.00
G01 X4.0105 Y-6.7152 F60.00
G01 X4.0210 Y-6.7373 F60.00
G01 X4.0292 Y-6.7604 F60.00
G01 X4.0352 Y-6.7842 F60.00
G01 X4.0388 Y-6.8085 F60.00
G01 X4.0400 Y-6.8330 F60.00
G00 X4.0400 Y-6.8330
G01 F60.00
G01 Z-1.0000
G01 F60.00
G01 X4.0388 Y-6.8575 F60.00
G01 X4.0352 Y-6.8818 F60.00
G01 X4.0292 Y-6.9056 F60.00
G01 X4.0210 Y-6.9287 F60.00
G01 X4.0105 Y-6.9508 F60.00
G01 X3.9979 Y-6.9719 F60.00
G01 X3.9833 Y-6.9916 F60.00
G01 X3.9668 Y-7.0098 F60.00
G01 X3.9486 Y-7.0263 F60.00
G01 X3.9289 Y-7.0409 F60.00
G01 X3.9078 Y-7.0535 F60.00
G01 X3.8857 Y-7.0640 F60.00
G01 X3.8626 Y-7.0722 F60.00
G01 X3.8388 Y-7.0782 F60.00
G01 X3.8145 Y-7.0818 F60.00
G01 X3.7900 Y-7.0830 F60.00
G01 X3.7655 Y-7.0818 F60.00
G01 X3.7412 Y-7.0782 F60.00
G01 X3.7174 Y-7.0722 F60.00
G01 X3.6943 Y-7.0640 F60.00
G01 X3.6722 Y-7.0535 F60.00
G01 X3.6511 Y-7.0409 F60.00
G01 X3.6314 Y-7.0263 F60.00
G01 X3.6132 Y-7.0098 F60.00
G01 X3.5967 Y-6.9916 F60.00
G01 X3.5821 Y-6.9719 F60.00
G01 X3.5695 Y-6.9508 F60.00
G01 X3.5590 Y-6.9287 F60.00
G01 X3.5508 Y-6.9056 F60.00
G01 X3.5448 Y-6.8818 F60.00
G01 X3.5412 Y-6.8575 F60.00
G01 X3.5400 Y-6.8330 F60.00
G01 X3.5412 Y-6.8085 F60.00
G01 X3.5448 Y-6.7842 F60.00
G01 X3.5508 Y-6.7604 F60.00
G01 X3.5590 Y-6.7373 F60.00
G01 X3.5695 Y-6.7152 F60.00
G01 X3.5821 Y-6.6941 F60.00
G01 X3.5967 Y-6.6744 F60.00
G01 X3.6132 Y-6.6562 F60.00
G01 X3.6314 Y-6.6397 F60.00
G01 X3.6511 Y-6.6251 F60.00
G01 X3.6722 Y-6.6125 F60.00
G01 X3.6943 Y-6.6020 F60.00
G01 X3.7174 Y-6.5938 F60.00
G01 X3.7412 Y-6.5878 F60.00
G01 X3.7655 Y-6.5842 F60.00
G01 X3.7900 Y-6.5830 F60.00
G01 X3.8145 Y-6.5842 F60.00
G01 X3.8388 Y-6.5878 F60.00
G01 X3.8626 Y-6.5938 F60.00
G01 X3.8857 Y-6.6020 F60.00
G01 X3.9078 Y-6.6125 F60.00
G01 X3.9289 Y-6.6251 F60.00
G01 X3.9486 Y-6.6397 F60.00
G01 X3.9668 Y-6.6562 F60.00
G01 X3.9833 Y-6.6744 F60.00
G01 X3.9979 Y-6.6941 F60.00
G01 X4.0105 Y-6.7152 F60.00
G01 X4.0210 Y-6.7373 F60.00
G01 X4.0292 Y-6.7604 F60.00
G01 X4.0352 Y-6.7842 F60.00
G01 X4.0388 Y-6.8085 F60.00
G01 X4.0400 Y-6.8330 F60.00
G00 X4.0400 Y-6.8330
G01 F60.00
G01 Z-1.5000
G01 F60.00
G01 X4.0388 Y-6.8575 F60.00
G01 X4.0352 Y-6.8818 F60.00
G01 X4.0292 Y-6.9056 F60.00
G01 X4.0210 Y-6.9287 F60.00
G01 X4.0105 Y-6.9508 F60.00
G01 X3.9979 Y-6.9719 F60.00
G01 X3.9833 Y-6.9916 F60.00
G01 X3.9668 Y-7.0098 F60.00
G01 X3.9486 Y-7.0263 F60.00
G01 X3.9289 Y-7.0409 F60.00
G01 X3.9078 Y-7.0535 F60.00
G01 X3.8857 Y-7.0640 F60.00
G01 X3.8626 Y-7.0722 F60.00
G01 X3.8388 Y-7.0782 F60.00
G01 X3.8145 Y-7.0818 F60.00
G01 X3.7900 Y-7.0830 F60.00
G01 X3.7655 Y-7.0818 F60.00
G01 X3.7412 Y-7.0782 F60.00
G01 X3.7174 Y-7.0722 F60.00
G01 X3.6943 Y-7.0640 F60.00
G01 X3.6722 Y-7.0535 F60.00
G01 X3.6511 Y-7.0409 F60.00
G01 X3.6314 Y-7.0263 F60.00
G01 X3.6132 Y-7.0098 F60.00
G01 X3.5967 Y-6.9916 F60.00
G01 X3.5821 Y-6.9719 F60.00
G01 X3.5695 Y-6.9508 F60.00
G01 X3.5590 Y-6.9287 F60.00
G01 X3.5508 Y-6.9056 F60.00
G01 X3.5448 Y-6.8818 F60.00
G01 X3.5412 Y-6.8575 F60.00
G01 X3.5400 Y-6.8330 F60.00
G01 X3.5412 Y-6.8085 F60.00
G01 X3.5448 Y-6.7842 F60.00
G01 X3.5508 Y-6.7604 F60.00
G01 X3.5590 Y-6.7373 F60.00
G01 X3.5695 Y-6.7152 F60.00
G01 X3.5821 Y-6.6941 F60.00
G01 X3.5967 Y-6.6744 F60.00
G01 X3.6132 Y-6.6562 F60.00
G01 X3.6314 Y-6.6397 F60.00
G01 X3.6511 Y-6.6251 F60.00
G01 X3.6722 Y-6.6125 F60.00
G01 X3.6943 Y-6.6020 F60.00
G01 X3.7174 Y-6.5938 F60.00
G01 X3.7412 Y-6.5878 F60.00
G01 X3.7655 Y-6.5842 F60.00
G01 X3.7900 Y-6.5830 F60.00
G01 X3.8145 Y-6.5842 F60.00
G01 X3.8388 Y-6.5878 F60.00
G01 X3.8626 Y-6.5938 F60.00
G01 X3.8857 Y-6.6020 F60.00
G01 X3.9078 Y-6.6125 F60.00
G01 X3.9289 Y-6.6251 F60.00
G01 X3.9486 Y-6.6397 F60.00
G01 X3.9668 Y-6.6562 F60.00
G01 X3.9833 Y-6.6744 F60.00
G01 X3.9979 Y-6.6941 F60.00
G01 X4.0105 Y-6.7152 F60.00
G01 X4.0210 Y-6.7373 F60.00
G01 X4.0292 Y-6.7604 F60.00
G01 X4.0352 Y-6.7842 F60.00
G01 X4.0388 Y-6.8085 F60.00
G01 X4.0400 Y-6.8330 F60.00
G00 X4.0400 Y-6.8330
G01 F60.00
G01 Z-2.0000
G01 F60.00
G01 X4.0388 Y-6.8575 F60.00
G01 X4.0352 Y-6.8818 F60.00
G01 X4.0292 Y-6.9056 F60.00
G01 X4.0210 Y-6.9287 F60.00
G01 X4.0105 Y-6.9508 F60.00
G01 X3.9979 Y-6.9719 F60.00
G01 X3.9833 Y-6.9916 F60.00
G01 X3.9668 Y-7.0098 F60.00
G01 X3.9486 Y-7.0263 F60.00
G01 X3.9289 Y-7.0409 F60.00
G01 X3.9078 Y-7.0535 F60.00
G01 X3.8857 Y-7.0640 F60.00
G01 X3.8626 Y-7.0722 F60.00
G01 X3.8388 Y-7.0782 F60.00
G01 X3.8145 Y-7.0818 F60.00
G01 X3.7900 Y-7.0830 F60.00
G01 X3.7655 Y-7.0818 F60.00
G01 X3.7412 Y-7.0782 F60.00
G01 X3.7174 Y-7.0722 F60.00
G01 X3.6943 Y-7.0640 F60.00
G01 X3.6722 Y-7.0535 F60.00
G01 X3.6511 Y-7.0409 F60.00
G01 X3.6314 Y-7.0263 F60.00
G01 X3.6132 Y-7.0098 F60.00
G01 X3.5967 Y-6.9916 F60.00
G01 X3.5821 Y-6.9719 F60.00
G01 X3.5695 Y-6.9508 F60.00
G01 X3.5590 Y-6.9287 F60.00
G01 X3.5508 Y-6.9056 F60.00
G01 X3.5448 Y-6.8818 F60.00
G01 X3.5412 Y-6.8575 F60.00
G01 X3.5400 Y-6.8330 F60.00
G01 X3.5412 Y-6.8085 F60.00
G01 X3.5448 Y-6.7842 F60.00
G01 X3.5508 Y-6.7604 F60.00
G01 X3.5590 Y-6.7373 F60.00
G01 X3.5695 Y-6.7152 F60.00
G01 X3.5821 Y-6.6941 F60.00
G01 X3.5967 Y-6.6744 F60.00
G01 X3.6132 Y-6.6562 F60.00
G01 X3.6314 Y-6.6397 F60.00
G01 X3.6511 Y-6.6251 F60.00
G01 X3.6722 Y-6.6125 F60.00
G01 X3.6943 Y-6.6020 F60.00
G01 X3.7174 Y-6.5938 F60.00
G01 X3.7412 Y-6.5878 F60.00
G01 X3.7655 Y-6.5842 F60.00
G01 X3.7900 Y-6.5830 F60.00
G01 X3.8145 Y-6.5842 F60.00
G01 X3.8388 Y-6.5878 F60.00
G01 X3.8626 Y-6.5938 F60.00
G01 X3.8857 Y-6.6020 F60.00
G01 X3.9078 Y-6.6125 F60.00
G01 X3.9289 Y-6.6251 F60.00
G01 X3.9486 Y-6.6397 F60.00
G01 X3.9668 Y-6.6562 F60.00
G01 X3.9833 Y-6.6744 F60.00
G01 X3.9979 Y-6.6941 F60.00
G01 X4.0105 Y-6.7152 F60.00
G01 X4.0210 Y-6.7373 F60.00
G01 X4.0292 Y-6.7604 F60.00
G01 X4.0352 Y-6.7842 F60.00
G01 X4.0388 Y-6.8085 F60.00
G01 X4.0400 Y-6.8330 F60.00
G00 X4.0400 Y-6.8330
G01 F60.00
G01 Z-2.5000
G01 F60.00
G01 X4.0388 Y-6.8575 F60.00
G01 X4.0352 Y-6.8818 F60.00
G01 X4.0292 Y-6.9056 F60.00
G01 X4.0210 Y-6.9287 F60.00
G01 X4.0105 Y-6.9508 F60.00
G01 X3.9979 Y-6.9719 F60.00
G01 X3.9833 Y-6.9916 F60.00
G01 X3.9668 Y-7.0098 F60.00
G01 X3.9486 Y-7.0263 F60.00
G01 X3.9289 Y-7.0409 F60.00
G01 X3.9078 Y-7.0535 F60.00
G01 X3.8857 Y-7.0640 F60.00
G01 X3.8626 Y-7.0722 F60.00
G01 X3.8388 Y-7.0782 F60.00
G01 X3.8145 Y-7.0818 F60.00
G01 X3.7900 Y-7.0830 F60.00
G01 X3.7655 Y-7.0818 F60.00
G01 X3.7412 Y-7.0782 F60.00
G01 X3.7174 Y-7.0722 F60.00
G01 X3.6943 Y-7.0640 F60.00
G01 X3.6722 Y-7.0535 F60.00
G01 X3.6511 Y-7.0409 F60.00
G01 X3.6314 Y-7.0263 F60.00
G01 X3.6132 Y-7.0098 F60.00
G01 X3.5967 Y-6.9916 F60.00
G01 X3.5821 Y-6.9719 F60.00
G01 X3.5695 Y-6.9508 F60.00
G01 X3.5590 Y-6.9287 F60.00
G01 X3.5508 Y-6.9056 F60.00
G01 X3.5448 Y-6.8818 F60.00
G01 X3.5412 Y-6.8575 F60.00
G01 X3.5400 Y-6.8330 F60.00
G01 X3.5412 Y-6.8085 F60.00
G01 X3.5448 Y-6.7842 F60.00
G01 X3.5508 Y-6.7604 F60.00
G01 X3.5590 Y-6.7373 F60.00
G01 X3.5695 Y-6.7152 F60.00
G01 X3.5821 Y-6.6941 F60.00
G01 X3.5967 Y-6.6744 F60.00
G01 X3.6132 Y-6.6562 F60.00
G01 X3.6314 Y-6.6397 F60.00
G01 X3.6511 Y-6.6251 F60.00
G01 X3.6722 Y-6.6125 F60.00
G01 X3.6943 Y-6.6020 F60.00
G01 X3.7174 Y-6.5938 F60.00
G01 X3.7412 Y-6.5878 F60.00
G01 X3.7655 Y-6.5842 F60.00
G01 X3.7900 Y-6.5830 F60.00
G01 X3.8145 Y-6.5842 F60.00
G01 X3.8388 Y-6.5878 F60.00
G01 X3.8626 Y-6.5938 F60.00
G01 X3.8857 Y-6.6020 F60.00
G01 X3.9078 Y-6.6125 F60.00
G01 X3.9289 Y-6.6251 F60.00
G01 X3.9486 Y-6.6397 F60.00
G01 X3.9668 Y-6.6562 F60.00
G01 X3.9833 Y-6.6744 F60.00
G01 X3.9979 Y-6.6941 F60.00
G01 X4.0105 Y-6.7152 F60.00
G01 X4.0210 Y-6.7373 F60.00
G01 X4.0292 Y-6.7604 F60.00
G01 X4.0352 Y-6.7842 F60.00
G01 X4.0388 Y-6.8085 F60.00
G01 X4.0400 Y-6.8330 F60.00
G00 Z2.0000
G00 X7.0880 Y-6.8330
G01 F60.00
G01 Z-0.5000
G01 F60.00
G01 X7.0868 Y-6.8575 F60.00
G01 X7.0832 Y-6.8818 F60.00
G01 X7.0772 Y-6.9056 F60.00
G01 X7.0690 Y-6.9287 F60.00
G01 X7.0585 Y-6.9508 F60.00
G01 X7.0459 Y-6.9719 F60.00
G01 X7.0313 Y-6.9916 F60.00
G01 X7.0148 Y-7.0098 F60.00
G01 X6.9966 Y-7.0263 F60.00
G01 X6.9769 Y-7.0409 F60.00
G01 X6.9558 Y-7.0535 F60.00
G01 X6.9337 Y-7.0640 F60.00
G01 X6.9106 Y-7.0722 F60.00
G01 X6.8868 Y-7.0782 F60.00
G01 X6.8625 Y-7.0818 F60.00
G01 X6.8380 Y-7.0830 F60.00
G01 X6.8135 Y-7.0818 F60.00
G01 X6.7892 Y-7.0782 F60.00
G01 X6.7654 Y-7.0722 F60.00
G01 X6.7423 Y-7.0640 F60.00
G01 X6.7202 Y-7.0535 F60.00
G01 X6.6991 Y-7.0409 F60.00
G01 X6.6794 Y-7.0263 F60.00
G01 X6.6612 Y-7.0098 F60.00
G01 X6.6447 Y-6.9916 F60.00
G01 X6.6301 Y-6.9719 F60.00
G01 X6.6175 Y-6.9508 F60.00
G01 X6.6070 Y-6.9287 F60.00
G01 X6.5988 Y-6.9056 F60.00
G01 X6.5928 Y-6.8818 F60.00
G01 X6.5892 Y-6.8575 F60.00
G01 X6.5880 Y-6.8330 F60.00
G01 X6.5892 Y-6.8085 F60.00
G01 X6.5928 Y-6.7842 F60.00
G01 X6.5988 Y-6.7604 F60.00
G01 X6.6070 Y-6.7373 F60.00
G01 X6.6175 Y-6.7152 F60.00
G01 X6.6301 Y-6.6941 F60.00
G01 X6.6447 Y-6.6744 F60.00
G01 X6.6612 Y-6.6562 F60.00
G01 X6.6794 Y-6.6397 F60.00
G01 X6.6991 Y-6.6251 F60.00
G01 X6.7202 Y-6.6125 F60.00
G01 X6.7423 Y-6.6020 F60.00
G01 X6.7654 Y-6.5938 F60.00
G01 X6.7892 Y-6.5878 F60.00
G01 X6.8135 Y-6.5842 F60.00
G01 X6.8380 Y-6.5830 F60.00
G01 X6.8625 Y-6.5842 F60.00
G01 X6.8868 Y-6.5878 F60.00
G01 X6.9106 Y-6.5938 F60.00
G01 X6.9337 Y-6.6020 F60.00
G01 X6.9558 Y-6.6125 F60.00
G01 X6.9769 Y-6.6251 F60.00
G01 X6.9966 Y-6.6397 F60.00
G01 X7.0148 Y-6.6562 F60.00
G01 X7.0313 Y-6.6744 F60.00
G01 X7.0459 Y-6.6941 F60.00
G01 X7.0585 Y-6.7152 F60.00
G01 X7.0690 Y-6.7373 F60.00
G01 X7.0772 Y-6.7604 F60.00
G01 X7.0832 Y-6.7842 F60.00
G01 X7.0868 Y-6.8085 F60.00
G01 X7.0880 Y-6.8330 F60.00
G00 X7.0880 Y-6.8330
G01 F60.00
G01 Z-1.0000
G01 F60.00
G01 X7.0868 Y-6.8575 F60.00
G01 X7.0832 Y-6.8818 F60.00
G01 X7.0772 Y-6.9056 F60.00
G01 X7.0690 Y-6.9287 F60.00
G01 X7.0585 Y-6.9508 F60.00
G01 X7.0459 Y-6.9719 F60.00
G01 X7.0313 Y-6.9916 F60.00
G01 X7.0148 Y-7.0098 F60.00
G01 X6.9966 Y-7.0263 F60.00
G01 X6.9769 Y-7.0409 F60.00
G01 X6.9558 Y-7.0535 F60.00
G01 X6.9337 Y-7.0640 F60.00
G01 X6.9106 Y-7.0722 F60.00
G01 X6.8868 Y-7.0782 F60.00
G01 X6.8625 Y-7.0818 F60.00
G01 X6.8380 Y-7.0830 F60.00
G01 X6.8135 Y-7.0818 F60.00
G01 X6.7892 Y-7.0782 F60.00
G01 X6.7654 Y-7.0722 F60.00
G01 X6.7423 Y-7.0640 F60.00
G01 X6.7202 Y-7.0535 F60.00
G01 X6.6991 Y-7.0409 F60.00
G01 X6.6794 Y-7.0263 F60.00
G01 X6.6612 Y-7.0098 F60.00
G01 X6.6447 Y-6.9916 F60.00
G01 X6.6301 Y-6.9719 F60.00
G01 X6.6175 Y-6.9508 F60.00
G01 X6.6070 Y-6.9287 F60.00
G01 X6.5988 Y-6.9056 F60.00
G01 X6.5928 Y-6.8818 F60.00
G01 X6.5892 Y-6.8575 F60.00
G01 X6.5880 Y-6.8330 F60.00
G01 X6.5892 Y-6.8085 F60.00
G01 X6.5928 Y-6.7842 F60.00
G01 X6.5988 Y-6.7604 F60.00
G01 X6.6070 Y-6.7373 F60.00
G01 X6.6175 Y-6.7152 F60.00
G01 X6.6301 Y-6.6941 F60.00
G01 X6.6447 Y-6.6744 F60.00
G01 X6.6612 Y-6.6562 F60.00
G01 X6.6794 Y-6.6397 F60.00
G01 X6.6991 Y-6.6251 F60.00
G01 X6.7202 Y-6.6125 F60.00
G01 X6.7423 Y-6.6020 F60.00
G01 X6.7654 Y-6.5938 F60.00
G01 X6.7892 Y-6.5878 F60.00
G01 X6.8135 Y-6.5842 F60.00
G01 X6.8380 Y-6.5830 F60.00
G01 X6.8625 Y-6.5842 F60.00
G01 X6.8868 Y-6.5878 F60.00
G01 X6.9106 Y-6.5938 F60.00
G01 X6.9337 Y-6.6020 F60.00
G01 X6.9558 Y-6.6125 F60.00
G01 X6.9769 Y-6.6251 F60.00
G01 X6.9966 Y-6.6397 F60.00
G01 X7.0148 Y-6.6562 F60.00
G01 X7.0313 Y-6.6744 F60.00
G01 X7.0459 Y-6.6941 F60.00
G01 X7.0585 Y-6.7152 F60.00
G01 X7.0690 Y-6.7373 F60.00
G01 X7.0772 Y-6.7604 F60.00
G01 X7.0832 Y-6.7842 F60.00
G01 X7.0868 Y-6.8085 F60.00
G01 X7.0880 Y-6.8330 F60.00
G00 X7.0880 Y-6.8330
G01 F60.00
G01 Z-1.5000
G01 F60.00
G01 X7.0868 Y-6.8575 F60.00
G01 X7.0832 Y-6.8818 F60.00
G01 X7.0772 Y-6.9056 F60.00
G01 X7.0690 Y-6.9287 F60.00
G01 X7.0585 Y-6.9508 F60.00
G01 X7.0459 Y-6.9719 F60.00
G01 X7.0313 Y-6.9916 F60.00
G01 X7.0148 Y-7.0098 F60.00
G01 X6.9966 Y-7.0263 F60.00
G01 X6.9769 Y-7.0409 F60.00
G01 X6.9558 Y-7.0535 F60.00
G01 X6.9337 Y-7.0640 F60.00
G01 X6.9106 Y-7.0722 F60.00
G01 X6.8868 Y-7.0782 F60.00
G01 X6.8625 Y-7.0818 F60.00
G01 X6.8380 Y-7.0830 F60.00
G01 X6.8135 Y-7.0818 F60.00
G01 X6.7892 Y-7.0782 F60.00
G01 X6.7654 Y-7.0722 F60.00
G01 X6.7423 Y-7.0640 F60.00
G01 X6.7202 Y-7.0535 F60.00
G01 X6.6991 Y-7.0409 F60.00
G01 X6.6794 Y-7.0263 F60.00
G01 X6.6612 Y-7.0098 F60.00
G01 X6.6447 Y-6.9916 F60.00
G01 X6.6301 Y-6.9719 F60.00
G01 X6.6175 Y-6.9508 F60.00
G01 X6.6070 Y-6.9287 F60.00
G01 X6.5988 Y-6.9056 F60.00
G01 X6.5928 Y-6.8818 F60.00
G01 X6.5892 Y-6.8575 F60.00
G01 X6.5880 Y-6.8330 F60.00
G01 X6.5892 Y-6.8085 F60.00
G01 X6.5928 Y-6.7842 F60.00
G01 X6.5988 Y-6.7604 F60.00
G01 X6.6070 Y-6.7373 F60.00
G01 X6.6175 Y-6.7152 F60.00
G01 X6.6301 Y-6.6941 F60.00
G01 X6.6447 Y-6.6744 F60.00
G01 X6.6612 Y-6.6562 F60.00
G01 X6.6794 Y-6.6397 F60.00
G01 X6.6991 Y-6.6251 F60.00
G01 X6.7202 Y-6.6125 F60.00
G01 X6.7423 Y-6.6020 F60.00
G01 X6.7654 Y-6.5938 F60.00
G01 X6.7892 Y-6.5878 F60.00
G01 X6.8135 Y-6.5842 F60.00
G01 X6.8380 Y-6.5830 F60.00
G01 X6.8625 Y-6.5842 F60.00
G01 X6.8868 Y-6.5878 F60.00
G01 X6.9106 Y-6.5938 F60.00
G01 X6.9337 Y-6.6020 F60.00
G01 X6.9558 Y-6.6125 F60.00
G01 X6.9769 Y-6.6251 F60.00
G01 X6.9966 Y-6.6397 F60.00
G01 X7.0148 Y-6.6562 F60.00
G01 X7.0313 Y-6.6744 F60.00
G01 X7.0459 Y-6.6941 F60.00
G01 X7.0585 Y-6.7152 F60.00
G01 X7.0690 Y-6.7373 F60.00
G01 X7.0772 Y-6.7604 F60.00
G01 X7.0832 Y-6.7842 F60.00
G01 X7.0868 Y-6.8085 F60.00
G01 X7.0880 Y-6.8330 F60.00
G00 X7.0880 Y-6.8330
G01 F60.00
G01 Z-2.0000
G01 F60.00
G01 X7.0868 Y-6.8575 F60.00
G01 X7.0832 Y-6.8818 F60.00
G01 X7.0772 Y-6.9056 F60.00
G01 X7.0690 Y-6.9287 F60.00
G01 X7.0585 Y-6.9508 F60.00
G01 X7.0459 Y-6.9719 F60.00
G01 X7.0313 Y-6.9916 F60.00
G01 X7.0148 Y-7.0098 F60.00
G01 X6.9966 Y-7.0263 F60.00
G01 X6.9769 Y-7.0409 F60.00
G01 X6.9558 Y-7.0535 F60.00
G01 X6.9337 Y-7.0640 F60.00
G01 X6.9106 Y-7.0722 F60.00
G01 X6.8868 Y-7.0782 F60.00
G01 X6.8625 Y-7.0818 F60.00
G01 X6.8380 Y-7.0830 F60.00
G01 X6.8135 Y-7.0818 F60.00
G01 X6.7892 Y-7.0782 F60.00
G01 X6.7654 Y-7.0722 F60.00
G01 X6.7423 Y-7.0640 F60.00
G01 X6.7202 Y-7.0535 F60.00
G01 X6.6991 Y-7.0409 F60.00
G01 X6.6794 Y-7.0263 F60.00
G01 X6.6612 Y-7.0098 F60.00
G01 X6.6447 Y-6.9916 F60.00
G01 X6.6301 Y-6.9719 F60.00
G01 X6.6175 Y-6.9508 F60.00
G01 X6.6070 Y-6.9287 F60.00
G01 X6.5988 Y-6.9056 F60.00
G01 X6.5928 Y-6.8818 F60.00
G01 X6.5892 Y-6.8575 F60.00
G01 X6.5880 Y-6.8330 F60.00
G01 X6.5892 Y-6.8085 F60.00
G01 X6.5928 Y-6.7842 F60.00
G01 X6.5988 Y-6.7604 F60.00
G01 X6.6070 Y-6.7373 F60.00
G01 X6.6175 Y-6.7152 F60.00
G01 X6.6301 Y-6.6941 F60.00
G01 X6.6447 Y-6.6744 F60.00
G01 X6.6612 Y-6.6562 F60.00
G01 X6.6794 Y-6.6397 F60.00
G01 X6.6991 Y-6.6251 F60.00
G01 X6.7202 Y-6.6125 F60.00
G01 X6.7423 Y-6.6020 F60.00
G01 X6.7654 Y-6.5938 F60.00
G01 X6.7892 Y-6.5878 F60.00
G01 X6.8135 Y-6.5842 F60.00
G01 X6.8380 Y-6.5830 F60.00
G01 X6.8625 Y-6.5842 F60.00
G01 X6.8868 Y-6.5878 F60.00
G01 X6.9106 Y-6.5938 F60.00
G01 X6.9337 Y-6.6020 F60.00
G01 X6.9558 Y-6.6125 F60.00
G01 X6.9769 Y-6.6251 F60.00
G01 X6.9966 Y-6.6397 F60.00
G01 X7.0148 Y-6.6562 F60.00
G01 X7.0313 Y-6.6744 F60.00
G01 X7.0459 Y-6.6941 F60.00
G01 X7.0585 Y-6.7152 F60.00
G01 X7.0690 Y-6.7373 F60.00
G01 X7.0772 Y-6.7604 F60.00
G01 X7.0832 Y-6.7842 F60.00
G01 X7.0868 Y-6.8085 F60.00
G01 X7.0880 Y-6.8330 F60.00
G00 X7.0880 Y-6.8330
G01 F60.00
G01 Z-2.5000
G01 F60.00
G01 X7.0868 Y-6.8575 F60.00
G01 X7.0832 Y-6.8818 F60.00
G01 X7.0772 Y-6.9056 F60.00
G01 X7.0690 Y-6.9287 F60.00
G01 X7.0585 Y-6.9508 F60.00
G01 X7.0459 Y-6.9719 F60.00
G01 X7.0313 Y-6.9916 F60.00
G01 X7.0148 Y-7.0098 F60.00
G01 X6.9966 Y-7.0263 F60.00
G01 X6.9769 Y-7.0409 F60.00
G01 X6.9558 Y-7.0535 F60.00
G01 X6.9337 Y-7.0640 F60.00
G01 X6.9106 Y-7.0722 F60.00
G01 X6.8868 Y-7.0782 F60.00
G01 X6.8625 Y-7.0818 F60.00
G01 X6.8380 Y-7.0830 F60.00
G01 X6.8135 Y-7.0818 F60.00
G01 X6.7892 Y-7.0782 F60.00
G01 X6.7654 Y-7.0722 F60.00
G01 X6.7423 Y-7.0640 F60.00
G01 X6.7202 Y-7.0535 F60.00
G01 X6.6991 Y-7.0409 F60.00
G01 X6.6794 Y-7.0263 F60.00
G01 X6.6612 Y-7.0098 F60.00
G01 X6.6447 Y-6.9916 F60.00
G01 X6.6301 Y-6.9719 F60.00
G01 X6.6175 Y-6.9508 F60.00
G01 X6.6070 Y-6.9287 F60.00
G01 X6.5988 Y-6.9056 F60.00
G01 X6.5928 Y-6.8818 F60.00
G01 X6.5892 Y-6.8575 F60.00
G01 X6.5880 Y-6.8330 F60.00
G01 X6.5892 Y-6.8085 F60.00
G01 X6.5928 Y-6.7842 F60.00
G01 X6.5988 Y-6.7604 F60.00
G01 X6.6070 Y-6.7373 F60.00
G01 X6.6175 Y-6.7152 F60.00
G01 X6.6301 Y-6.6941 F60.00
G01 X6.6447 Y-6.6744 F60.00
G01 X6.6612 Y-6.6562 F60.00
G01 X6.6794 Y-6.6397 F60.00
G01 X6.6991 Y-6.6251 F60.00
G01 X6.7202 Y-6.6125 F60.00
G01 X6.7423 Y-6.6020 F60.00
G01 X6.7654 Y-6.5938 F60.00
G01 X6.7892 Y-6.5878 F60.00
G01 X6.8135 Y-6.5842 F60.00
G01 X6.8380 Y-6.5830 F60.00
G01 X6.8625 Y-6.5842 F60.00
G01 X6.8868 Y-6.5878 F60.00
G01 X6.9106 Y-6.5938 F60.00
G01 X6.9337 Y-6.6020 F60.00
G01 X6.9558 Y-6.6125 F60.00
G01 X6.9769 Y-6.6251 F60.00
G01 X6.9966 Y-6.6397 F60.00
G01 X7.0148 Y-6.6562 F60.00
G01 X7.0313 Y-6.6744 F60.00
G01 X7.0459 Y-6.6941 F60.00
G01 X7.0585 Y-6.7152 F60.00
G01 X7.0690 Y-6.7373 F60.00
G01 X7.0772 Y-6.7604 F60.00
G01 X7.0832 Y-6.7842 F60.00
G01 X7.0868 Y-6.8085 F60.00
G01 X7.0880 Y-6.8330 F60.00
G00 Z2.0000
G00 X10.1240 Y-6.8310
G01 F60.00
G01 Z-0.5000
G01 F60.00
G01 X10.1228 Y-6.8555 F60.00
G01 X10.1192 Y-6.8798 F60.00
G01 X10.1132 Y-6.9036 F60.00
G01 X10.1050 Y-6.9267 F60.00
G01 X10.0945 Y-6.9488 F60.00
G01 X10.0819 Y-6.9699 F60.00
G01 X10.0673 Y-6.9896 F60.00
G01 X10.0508 Y-7.0078 F60.00
G01 X10.0326 Y-7.0243 F60.00
G01 X10.0129 Y-7.0389 F60.00
G01 X9.9918 Y-7.0515 F60.00
G01 X9.9697 Y-7.0620 F60.00
G01 X9.9466 Y-7.0702 F60.00
G01 X9.9228 Y-7.0762 F60.00
G01 X9.8985 Y-7.0798 F60.00
G01 X9.8740 Y-7.0810 F60.00
G01 X9.8495 Y-7.0798 F60.00
G01 X9.8252 Y-7.0762 F60.00
G01 X9.8014 Y-7.0702 F60.00
G01 X9.7783 Y-7.0620 F60.00
G01 X9.7562 Y-7.0515 F60.00
G01 X9.7351 Y-7.0389 F60.00
G01 X9.7154 Y-7.0243 F60.00
G01 X9.6972 Y-7.0078 F60.00
G01 X9.6807 Y-6.9896 F60.00
G01 X9.6661 Y-6.9699 F60.00
G01 X9.6535 Y-6.9488 F60.00
G01 X9.6430 Y-6.9267 F60.00
G01 X9.6348 Y-6.9036 F60.00
G01 X9.6288 Y-6.8798 F60.00
G01 X9.6252 Y-6.8555 F60.00
G01 X9.6240 Y-6.8310 F60.00
G01 X9.6252 Y-6.8065 F60.00
G01 X9.6288 Y-6.7822 F60.00
G01 X9.6348 Y-6.7584 F60.00
G01 X9.6430 Y-6.7353 F60.00
G01 X9.6535 Y-6.7132 F60.00
G01 X9.6661 Y-6.6921 F60.00
G01 X9.6807 Y-6.6724 F60.00
G01 X9.6972 Y-6.6542 F60.00
G01 X9.7154 Y-6.6377 F60.00
G01 X9.7351 Y-6.6231 F60.00
G01 X9.7562 Y-6.6105 F60.00
G01 X9.7783 Y-6.6000 F60.00
G01 X9.8014 Y-6.5918 F60.00
G01 X9.8252 Y-6.5858 F60.00
G01 X9.8495 Y-6.5822 F60.00
G01 X9.8740 Y-6.5810 F60.00
G01 X9.8985 Y-6.5822 F60.00
G01 X9.9228 Y-6.5858 F60.00
G01 X9.9466 Y-6.5918 F60.00
G01 X9.9697 Y-6.6000 F60.00
G01 X9.9918 Y-6.6105 F60.00
G01 X10.0129 Y-6.6231 F60.00
G01 X10.0326 Y-6.6377 F60.00
G01 X10.0508 Y-6.6542 F60.00
G01 X10.0673 Y-6.6724 F60.00
G01 X10.0819 Y-6.6921 F60.00
G01 X10.0945 Y-6.7132 F60.00
G01 X10.1050 Y-6.7353 F60.00
G01 X10.1132 Y-6.7584 F60.00
G01 X10.1192 Y-6.7822 F60.00
G01 X10.1228 Y-6.8065 F60.00
G01 X10.1240 Y-6.8310 F60.00
G00 X10.1240 Y-6.8310
G01 F60.00
G01 Z-1.0000
G01 F60.00
G01 X10.1228 Y-6.8555 F60.00
G01 X10.1192 Y-6.8798 F60.00
G01 X10.1132 Y-6.9036 F60.00
G01 X10.1050 Y-6.9267 F60.00
G01 X10.0945 Y-6.9488 F60.00
G01 X10.0819 Y-6.9699 F60.00
G01 X10.0673 Y-6.9896 F60.00
G01 X10.0508 Y-7.0078 F60.00
G01 X10.0326 Y-7.0243 F60.00
G01 X10.0129 Y-7.0389 F60.00
G01 X9.9918 Y-7.0515 F60.00
G01 X9.9697 Y-7.0620 F60.00
G01 X9.9466 Y-7.0702 F60.00
G01 X9.9228 Y-7.0762 F60.00
G01 X9.8985 Y-7.0798 F60.00
G01 X9.8740 Y-7.0810 F60.00
G01 X9.8495 Y-7.0798 F60.00
G01 X9.8252 Y-7.0762 F60.00
G01 X9.8014 Y-7.0702 F60.00
G01 X9.7783 Y-7.0620 F60.00
G01 X9.7562 Y-7.0515 F60.00
G01 X9.7351 Y-7.0389 F60.00
G01 X9.7154 Y-7.0243 F60.00
G01 X9.6972 Y-7.0078 F60.00
G01 X9.6807 Y-6.9896 F60.00
G01 X9.6661 Y-6.9699 F60.00
G01 X9.6535 Y-6.9488 F60.00
G01 X9.6430 Y-6.9267 F60.00
G01 X9.6348 Y-6.9036 F60.00
G01 X9.6288 Y-6.8798 F60.00
G01 X9.6252 Y-6.8555 F60.00
G01 X9.6240 Y-6.8310 F60.00
G01 X9.6252 Y-6.8065 F60.00
G01 X9.6288 Y-6.7822 F60.00
G01 X9.6348 Y-6.7584 F60.00
G01 X9.6430 Y-6.7353 F60.00
G01 X9.6535 Y-6.7132 F60.00
G01 X9.6661 Y-6.6921 F60.00
G01 X9.6807 Y-6.6724 F60.00
G01 X9.6972 Y-6.6542 F60.00
G01 X9.7154 Y-6.6377 F60.00
G01 X9.7351 Y-6.6231 F60.00
G01 X9.7562 Y-6.6105 F60.00
G01 X9.7783 Y-6.6000 F60.00
G01 X9.8014 Y-6.5918 F60.00
G01 X9.8252 Y-6.5858 F60.00
G01 X9.8495 Y-6.5822 F60.00
G01 X9.8740 Y-6.5810 F60.00
G01 X9.8985 Y-6.5822 F60.00
G01 X9.9228 Y-6.5858 F60.00
G01 X9.9466 Y-6.5918 F60.00
G01 X9.9697 Y-6.6000 F60.00
G01 X9.9918 Y-6.6105 F60.00
G01 X10.0129 Y-6.6231 F60.00
G01 X10.0326 Y-6.6377 F60.00
G01 X10.0508 Y-6.6542 F60.00
G01 X10.0673 Y-6.6724 F60.00
G01 X10.0819 Y-6.6921 F60.00
G01 X10.0945 Y-6.7132 F60.00
G01 X10.1050 Y-6.7353 F60.00
G01 X10.1132 Y-6.7584 F60.00
G01 X10.1192 Y-6.7822 F60.00
G01 X10.1228 Y-6.8065 F60.00
G01 X10.1240 Y-6.8310 F60.00
G00 X10.1240 Y-6.8310
G01 F60.00
G01 Z-1.5000
G01 F60.00
G01 X10.1228 Y-6.8555 F60.00
G01 X10.1192 Y-6.8798 F60.00
G01 X10.1132 Y-6.9036 F60.00
G01 X10.1050 Y-6.9267 F60.00
G01 X10.0945 Y-6.9488 F60.00
G01 X10.0819 Y-6.9699 F60.00
G01 X10.0673 Y-6.9896 F60.00
G01 X10.0508 Y-7.0078 F60.00
G01 X10.0326 Y-7.0243 F60.00
G01 X10.0129 Y-7.0389 F60.00
G01 X9.9918 Y-7.0515 F60.00
G01 X9.9697 Y-7.0620 F60.00
G01 X9.9466 Y-7.0702 F60.00
G01 X9.9228 Y-7.0762 F60.00
G01 X9.8985 Y-7.0798 F60.00
G01 X9.8740 Y-7.0810 F60.00
G01 X9.8495 Y-7.0798 F60.00
G01 X9.8252 Y-7.0762 F60.00
G01 X9.8014 Y-7.0702 F60.00
G01 X9.7783 Y-7.0620 F60.00
G01 X9.7562 Y-7.0515 F60.00
G01 X9.7351 Y-7.0389 F60.00
G01 X9.7154 Y-7.0243 F60.00
G01 X9.6972 Y-7.0078 F60.00
G01 X9.6807 Y-6.9896 F60.00
G01 X9.6661 Y-6.9699 F60.00
G01 X9.6535 Y-6.9488 F60.00
G01 X9.6430 Y-6.9267 F60.00
G01 X9.6348 Y-6.9036 F60.00
G01 X9.6288 Y-6.8798 F60.00
G01 X9.6252 Y-6.8555 F60.00
G01 X9.6240 Y-6.8310 F60.00
G01 X9.6252 Y-6.8065 F60.00
G01 X9.6288 Y-6.7822 F60.00
G01 X9.6348 Y-6.7584 F60.00
G01 X9.6430 Y-6.7353 F60.00
G01 X9.6535 Y-6.7132 F60.00
G01 X9.6661 Y-6.6921 F60.00
G01 X9.6807 Y-6.6724 F60.00
G01 X9.6972 Y-6.6542 F60.00
G01 X9.7154 Y-6.6377 F60.00
G01 X9.7351 Y-6.6231 F60.00
G01 X9.7562 Y-6.6105 F60.00
G01 X9.7783 Y-6.6000 F60.00
G01 X9.8014 Y-6.5918 F60.00
G01 X9.8252 Y-6.5858 F60.00
G01 X9.8495 Y-6.5822 F60.00
G01 X9.8740 Y-6.5810 F60.00
G01 X9.8985 Y-6.5822 F60.00
G01 X9.9228 Y-6.5858 F60.00
G01 X9.9466 Y-6.5918 F60.00
G01 X9.9697 Y-6.6000 F60.00
G01 X9.9918 Y-6.6105 F60.00
G01 X10.0129 Y-6.6231 F60.00
G01 X10.0326 Y-6.6377 F60.00
G01 X10.0508 Y-6.6542 F60.00
G01 X10.0673 Y-6.6724 F60.00
G01 X10.0819 Y-6.6921 F60.00
G01 X10.0945 Y-6.7132 F60.00
G01 X10.1050 Y-6.7353 F60.00
G01 X10.1132 Y-6.7584 F60.00
G01 X10.1192 Y-6.7822 F60.00
G01 X10.1228 Y-6.8065 F60.00
G01 X10.1240 Y-6.8310 F60.00
G00 X10.1240 Y-6.8310
G01 F60.00
G01 Z-2.0000
G01 F60.00
G01 X10.1228 Y-6.8555 F60.00
G01 X10.1192 Y-6.8798 F60.00
G01 X10.1132 Y-6.9036 F60.00
G01 X10.1050 Y-6.9267 F60.00
G01 X10.0945 Y-6.9488 F60.00
G01 X10.0819 Y-6.9699 F60.00
G01 X10.0673 Y-6.9896 F60.00
G01 X10.0508 Y-7.0078 F60.00
G01 X10.0326 Y-7.0243 F60.00
G01 X10.0129 Y-7.0389 F60.00
G01 X9.9918 Y-7.0515 F60.00
G01 X9.9697 Y-7.0620 F60.00
G01 X9.9466 Y-7.0702 F60.00
G01 X9.9228 Y-7.0762 F60.00
G01 X9.8985 Y-7.0798 F60.00
G01 X9.8740 Y-7.0810 F60.00
G01 X9.8495 Y-7.0798 F60.00
G01 X9.8252 Y-7.0762 F60.00
G01 X9.8014 Y-7.0702 F60.00
G01 X9.7783 Y-7.0620 F60.00
G01 X9.7562 Y-7.0515 F60.00
G01 X9.7351 Y-7.0389 F60.00
G01 X9.7154 Y-7.0243 F60.00
G01 X9.6972 Y-7.0078 F60.00
G01 X9.6807 Y-6.9896 F60.00
G01 X9.6661 Y-6.9699 F60.00
G01 X9.6535 Y-6.9488 F60.00
G01 X9.6430 Y-6.9267 F60.00
G01 X9.6348 Y-6.9036 F60.00
G01 X9.6288 Y-6.8798 F60.00
G01 X9.6252 Y-6.8555 F60.00
G01 X9.6240 Y-6.8310 F60.00
G01 X9.6252 Y-6.8065 F60.00
G01 X9.6288 Y-6.7822 F60.00
G01 X9.6348 Y-6.7584 F60.00
G01 X9.6430 Y-6.7353 F60.00
G01 X9.6535 Y-6.7132 F60.00
G01 X9.6661 Y-6.6921 F60.00
G01 X9.6807 Y-6.6724 F60.00
G01 X9.6972 Y-6.6542 F60.00
G01 X9.7154 Y-6.6377 F60.00
G01 X9.7351 Y-6.6231 F60.00
G01 X9.7562 Y-6.6105 F60.00
G01 X9.7783 Y-6.6000 F60.00
G01 X9.8014 Y-6.5918 F60.00
G01 X9.8252 Y-6.5858 F60.00
G01 X9.8495 Y-6.5822 F60.00
G01 X9.8740 Y-6.5810 F60.00
G01 X9.8985 Y-6.5822 F60.00
G01 X9.9228 Y-6.5858 F60.00
G01 X9.9466 Y-6.5918 F60.00
G01 X9.9697 Y-6.6000 F60.00
G01 X9.9918 Y-6.6105 F60.00
G01 X10.0129 Y-6.6231 F60.00
G01 X10.0326 Y-6.6377 F60.00
G01 X10.0508 Y-6.6542 F60.00
G01 X10.0673 Y-6.6724 F60.00
G01 X10.0819 Y-6.6921 F60.00
G01 X10.0945 Y-6.7132 F60.00
G01 X10.1050 Y-6.7353 F60.00
G01 X10.1132 Y-6.7584 F60.00
G01 X10.1192 Y-6.7822 F60.00
G01 X10.1228 Y-6.8065 F60.00
G01 X10.1240 Y-6.8310 F60.00
G00 X10.1240 Y-6.8310
G01 F60.00
G01 Z-2.5000
G01 F60.00
G01 X10.1228 Y-6.8555 F60.00
G01 X10.1192 Y-6.8798 F60.00
G01 X10.1132 Y-6.9036 F60.00
G01 X10.1050 Y-6.9267 F60.00
G01 X10.0945 Y-6.9488 F60.00
G01 X10.0819 Y-6.9699 F60.00
G01 X10.0673 Y-6.9896 F60.00
G01 X10.0508 Y-7.0078 F60.00
G01 X10.0326 Y-7.0243 F60.00
G01 X10.0129 Y-7.0389 F60.00
G01 X9.9918 Y-7.0515 F60.00
G01 X9.9697 Y-7.0620 F60.00
G01 X9.9466 Y-7.0702 F60.00
G01 X9.9228 Y-7.0762 F60.00
G01 X9.8985 Y-7.0798 F60.00
G01 X9.8740 Y-7.0810 F60.00
G01 X9.8495 Y-7.0798 F60.00
G01 X9.8252 Y-7.0762 F60.00
G01 X9.8014 Y-7.0702 F60.00
G01 X9.7783 Y-7.0620 F60.00
G01 X9.7562 Y-7.0515 F60.00
G01 X9.7351 Y-7.0389 F60.00
G01 X9.7154 Y-7.0243 F60.00
G01 X9.6972 Y-7.0078 F60.00
G01 X9.6807 Y-6.9896 F60.00
G01 X9.6661 Y-6.9699 F60.00
G01 X9.6535 Y-6.9488 F60.00
G01 X9.6430 Y-6.9267 F60.00
G01 X9.6348 Y-6.9036 F60.00
G01 X9.6288 Y-6.8798 F60.00
G01 X9.6252 Y-6.8555 F60.00
G01 X9.6240 Y-6.8310 F60.00
G01 X9.6252 Y-6.8065 F60.00
G01 X9.6288 Y-6.7822 F60.00
G01 X9.6348 Y-6.7584 F60.00
G01 X9.6430 Y-6.7353 F60.00
G01 X9.6535 Y-6.7132 F60.00
G01 X9.6661 Y-6.6921 F60.00
G01 X9.6807 Y-6.6724 F60.00
G01 X9.6972 Y-6.6542 F60.00
G01 X9.7154 Y-6.6377 F60.00
G01 X9.7351 Y-6.6231 F60.00
G01 X9.7562 Y-6.6105 F60.00
G01 X9.7783 Y-6.6000 F60.00
G01 X9.8014 Y-6.5918 F60.00
G01 X9.8252 Y-6.5858 F60.00
G01 X9.8495 Y-6.5822 F60.00
G01 X9.8740 Y-6.5810 F60.00
G01 X9.8985 Y-6.5822 F60.00
G01 X9.9228 Y-6.5858 F60.00
G01 X9.9466 Y-6.5918 F60.00
G01 X9.9697 Y-6.6000 F60.00
G01 X9.9918 Y-6.6105 F60.00
G01 X10.0129 Y-6.6231 F60.00
G01 X10.0326 Y-6.6377 F60.00
G01 X10.0508 Y-6.6542 F60.00
G01 X10.0673 Y-6.6724 F60.00
G01 X10.0819 Y-6.6921 F60.00
G01 X10.0945 Y-6.7132 F60.00
G01 X10.1050 Y-6.7353 F60.00
G01 X10.1132 Y-6.7584 F60.00
G01 X10.1192 Y-6.7822 F60.00
G01 X10.1228 Y-6.8065 F60.00
G01 X10.1240 Y-6.8310 F60.00
G00 Z2.0000
G00 X10.0900 Y-9.4050
G01 F60.00
G01 Z-0.5000
G01 F60.00
G01 X10.0888 Y-9.4295 F60.00
G01 X10.0852 Y-9.4538 F60.00
G01 X10.0792 Y-9.4776 F60.00
G01 X10.0710 Y-9.5007 F60.00
G01 X10.0605 Y-9.5228 F60.00
G01 X10.0479 Y-9.5439 F60.00
G01 X10.0333 Y-9.5636 F60.00
G01 X10.0168 Y-9.5818 F60.00
G01 X9.9986 Y-9.5983 F60.00
G01 X9.9789 Y-9.6129 F60.00
G01 X9.9578 Y-9.6255 F60.00
G01 X9.9357 Y-9.6360 F60.00
G01 X9.9126 Y-9.6442 F60.00
G01 X9.8888 Y-9.6502 F60.00
G01 X9.8645 Y-9.6538 F60.00
G01 X9.8400 Y-9.6550 F60.00
G01 X9.8155 Y-9.6538 F60.00
G01 X9.7912 Y-9.6502 F60.00
G01 X9.7674 Y-9.6442 F60.00
G01 X9.7443 Y-9.6360 F60.00
G01 X9.7222 Y-9.6255 F60.00
G01 X9.7011 Y-9.6129 F60.00
G01 X9.6814 Y-9.5983 F60.00
G01 X9.6632 Y-9.5818 F60.00
G01 X9.6467 Y-9.5636 F60.00
G01 X9.6321 Y-9.5439 F60.00
G01 X9.6195 Y-9.5228 F60.00
G01 X9.6090 Y-9.5007 F60.00
G01 X9.6008 Y-9.4776 F60.00
G01 X9.5948 Y-9.4538 F60.00
G01 X9.5912 Y-9.4295 F60.00
G01 X9.5900 Y-9.4050 F60.00
G01 X9.5912 Y-9.3805 F60.00
G01 X9.5948 Y-9.3562 F60.00
G01 X9.6008 Y-9.3324 F60.00
G01 X9.6090 Y-9.3093 F60.00
G01 X9.6195 Y-9.2872 F60.00
G01 X9.6321 Y-9.2661 F60.00
G01 X9.6467 Y-9.2464 F60.00
G01 X9.6632 Y-9.2282 F60.00
G01 X9.6814 Y-9.2117 F60.00
G01 X9.7011 Y-9.1971 F60.00
G01 X9.7222 Y-9.1845 F60.00
G01 X9.7443 Y-9.1740 F60.00
G01 X9.7674 Y-9.1658 F60.00
G01 X9.7912 Y-9.1598 F60.00
G01 X9.8155 Y-9.1562 F60.00
G01 X9.8400 Y-9.1550 F60.00
G01 X9.8645 Y-9.1562 F60.00
G01 X9.8888 Y-9.1598 F60.00
G01 X9.9126 Y-9.1658 F60.00
G01 X9.9357 Y-9.1740 F60.00
G01 X9.9578 Y-9.1845 F60.00
G01 X9.9789 Y-9.1971 F60.00
G01 X9.9986 Y-9.2117 F60.00
G01 X10.0168 Y-9.2282 F60.00
G01 X10.0333 Y-9.2464 F60.00
G01 X10.0479 Y-9.2661 F60.00
G01 X10.0605 Y-9.2872 F60.00
G01 X10.0710 Y-9.3093 F60.00
G01 X10.0792 Y-9.3324 F60.00
G01 X10.0852 Y-9.3562 F60.00
G01 X10.0888 Y-9.3805 F60.00
G01 X10.0900 Y-9.4050 F60.00
G00 X10.0900 Y-9.4050
G01 F60.00
G01 Z-1.0000
G01 F60.00
G01 X10.0888 Y-9.4295 F60.00
G01 X10.0852 Y-9.4538 F60.00
G01 X10.0792 Y-9.4776 F60.00
G01 X10.0710 Y-9.5007 F60.00
G01 X10.0605 Y-9.5228 F60.00
G01 X10.0479 Y-9.5439 F60.00
G01 X10.0333 Y-9.5636 F60.00
G01 X10.0168 Y-9.5818 F60.00
G01 X9.9986 Y-9.5983 F60.00
G01 X9.9789 Y-9.6129 F60.00
G01 X9.9578 Y-9.6255 F60.00
G01 X9.9357 Y-9.6360 F60.00
G01 X9.9126 Y-9.6442 F60.00
G01 X9.8888 Y-9.6502 F60.00
G01 X9.8645 Y-9.6538 F60.00
G01 X9.8400 Y-9.6550 F60.00
G01 X9.8155 Y-9.6538 F60.00
G01 X9.7912 Y-9.6502 F60.00
G01 X9.7674 Y-9.6442 F60.00
G01 X9.7443 Y-9.6360 F60.00
G01 X9.7222 Y-9.6255 F60.00
G01 X9.7011 Y-9.6129 F60.00
G01 X9.6814 Y-9.5983 F60.00
G01 X9.6632 Y-9.5818 F60.00
G01 X9.6467 Y-9.5636 F60.00
G01 X9.6321 Y-9.5439 F60.00
G01 X9.6195 Y-9.5228 F60.00
G01 X9.6090 Y-9.5007 F60.00
G01 X9.6008 Y-9.4776 F60.00
G01 X9.5948 Y-9.4538 F60.00
G01 X9.5912 Y-9.4295 F60.00
G01 X9.5900 Y-9.4050 F60.00
G01 X9.5912 Y-9.3805 F60.00
G01 X9.5948 Y-9.3562 F60.00
G01 X9.6008 Y-9.3324 F60.00
G01 X9.6090 Y-9.3093 F60.00
G01 X9.6195 Y-9.2872 F60.00
G01 X9.6321 Y-9.2661 F60.00
G01 X9.6467 Y-9.2464 F60.00
G01 X9.6632 Y-9.2282 F60.00
G01 X9.6814 Y-9.2117 F60.00
G01 X9.7011 Y-9.1971 F60.00
G01 X9.7222 Y-9.1845 F60.00
G01 X9.7443 Y-9.1740 F60.00
G01 X9.7674 Y-9.1658 F60.00
G01 X9.7912 Y-9.1598 F60.00
G01 X9.8155 Y-9.1562 F60.00
G01 X9.8400 Y-9.1550 F60.00
G01 X9.8645 Y-9.1562 F60.00
G01 X9.8888 Y-9.1598 F60.00
G01 X9.9126 Y-9.1658 F60.00
G01 X9.9357 Y-9.1740 F60.00
G01 X9.9578 Y-9.1845 F60.00
G01 X9.9789 Y-9.1971 F60.00
G01 X9.9986 Y-9.2117 F60.00
G01 X10.0168 Y-9.2282 F60.00
G01 X10.0333 Y-9.2464 F60.00
G01 X10.0479 Y-9.2661 F60.00
G01 X10.0605 Y-9.2872 F60.00
G01 X10.0710 Y-9.3093 F60.00
G01 X10.0792 Y-9.3324 F60.00
G01 X10.0852 Y-9.3562 F60.00
G01 X10.0888 Y-9.3805 F60.00
G01 X10.0900 Y-9.4050 F60.00
G00 X10.0900 Y-9.4050
G01 F60.00
G01 Z-1.5000
G01 F60.00
G01 X10.0888 Y-9.4295 F60.00
G01 X10.0852 Y-9.4538 F60.00
G01 X10.0792 Y-9.4776 F60.00
G01 X10.0710 Y-9.5007 F60.00
G01 X10.0605 Y-9.5228 F60.00
G01 X10.0479 Y-9.5439 F60.00
G01 X10.0333 Y-9.5636 F60.00
G01 X10.0168 Y-9.5818 F60.00
G01 X9.9986 Y-9.5983 F60.00
G01 X9.9789 Y-9.6129 F60.00
G01 X9.9578 Y-9.6255 F60.00
G01 X9.9357 Y-9.6360 F60.00
G01 X9.9126 Y-9.6442 F60.00
G01 X9.8888 Y-9.6502 F60.00
G01 X9.8645 Y-9.6538 F60.00
G01 X9.8400 Y-9.6550 F60.00
G01 X9.8155 Y-9.6538 F60.00
G01 X9.7912 Y-9.6502 F60.00
G01 X9.7674 Y-9.6442 F60.00
G01 X9.7443 Y-9.6360 F60.00
G01 X9.7222 Y-9.6255 F60.00
G01 X9.7011 Y-9.6129 F60.00
G01 X9.6814 Y-9.5983 F60.00
G01 X9.6632 Y-9.5818 F60.00
G01 X9.6467 Y-9.5636 F60.00
G01 X9.6321 Y-9.5439 F60.00
G01 X9.6195 Y-9.5228 F60.00
G01 X9.6090 Y-9.5007 F60.00
G01 X9.6008 Y-9.4776 F60.00
G01 X9.5948 Y-9.4538 F60.00
G01 X9.5912 Y-9.4295 F60.00
G01 X9.5900 Y-9.4050 F60.00
G01 X9.5912 Y-9.3805 F60.00
G01 X9.5948 Y-9.3562 F60.00
G01 X9.6008 Y-9.3324 F60.00
G01 X9.6090 Y-9.3093 F60.00
G01 X9.6195 Y-9.2872 F60.00
G01 X9.6321 Y-9.2661 F60.00
G01 X9.6467 Y-9.2464 F60.00
G01 X9.6632 Y-9.2282 F60.00
G01 X9.6814 Y-9.2117 F60.00
G01 X9.7011 Y-9.1971 F60.00
G01 X9.7222 Y-9.1845 F60.00
G01 X9.7443 Y-9.1740 F60.00
G01 X9.7674 Y-9.1658 F60.00
G01 X9.7912 Y-9.1598 F60.00
G01 X9.8155 Y-9.1562 F60.00
G01 X9.8400 Y-9.1550 F60.00
G01 X9.8645 Y-9.1562 F60.00
G01 X9.8888 Y-9.1598 F60.00
G01 X9.9126 Y-9.1658 F60.00
G01 X9.9357 Y-9.1740 F60.00
G01 X9.9578 Y-9.1845 F60.00
G01 X9.9789 Y-9.1971 F60.00
G01 X9.9986 Y-9.2117 F60.00
G01 X10.0168 Y-9.2282 F60.00
G01 X10.0333 Y-9.2464 F60.00
G01 X10.0479 Y-9.2661 F60.00
G01 X10.0605 Y-9.2872 F60.00
G01 X10.0710 Y-9.3093 F60.00
G01 X10.0792 Y-9.3324 F60.00
G01 X10.0852 Y-9.3562 F60.00
G01 X10.0888 Y-9.3805 F60.00
G01 X10.0900 Y-9.4050 F60.00
G00 X10.0900 Y-9.4050
G01 F60.00
G01 Z-2.0000
G01 F60.00
G01 X10.0888 Y-9.4295 F60.00
G01 X10.0852 Y-9.4538 F60.00
G01 X10.0792 Y-9.4776 F60.00
G01 X10.0710 Y-9.5007 F60.00
G01 X10.0605 Y-9.5228 F60.00
G01 X10.0479 Y-9.5439 F60.00
G01 X10.0333 Y-9.5636 F60.00
G01 X10.0168 Y-9.5818 F60.00
G01 X9.9986 Y-9.5983 F60.00
G01 X9.9789 Y-9.6129 F60.00
G01 X9.9578 Y-9.6255 F60.00
G01 X9.9357 Y-9.6360 F60.00
G01 X9.9126 Y-9.6442 F60.00
G01 X9.8888 Y-9.6502 F60.00
G01 X9.8645 Y-9.6538 F60.00
G01 X9.8400 Y-9.6550 F60.00
G01 X9.8155 Y-9.6538 F60.00
G01 X9.7912 Y-9.6502 F60.00
G01 X9.7674 Y-9.6442 F60.00
G01 X9.7443 Y-9.6360 F60.00
G01 X9.7222 Y-9.6255 F60.00
G01 X9.7011 Y-9.6129 F60.00
G01 X9.6814 Y-9.5983 F60.00
G01 X9.6632 Y-9.5818 F60.00
G01 X9.6467 Y-9.5636 F60.00
G01 X9.6321 Y-9.5439 F60.00
G01 X9.6195 Y-9.5228 F60.00
G01 X9.6090 Y-9.5007 F60.00
G01 X9.6008 Y-9.4776 F60.00
G01 X9.5948 Y-9.4538 F60.00
G01 X9.5912 Y-9.4295 F60.00
G01 X9.5900 Y-9.4050 F60.00
G01 X9.5912 Y-9.3805 F60.00
G01 X9.5948 Y-9.3562 F60.00
G01 X9.6008 Y-9.3324 F60.00
G01 X9.6090 Y-9.3093 F60.00
G01 X9.6195 Y-9.2872 F60.00
G01 X9.6321 Y-9.2661 F60.00
G01 X9.6467 Y-9.2464 F60.00
G01 X9.6632 Y-9.2282 F60.00
G01 X9.6814 Y-9.2117 F60.00
G01 X9.7011 Y-9.1971 F60.00
G01 X9.7222 Y-9.1845 F60.00
G01 X9.7443 Y-9.1740 F60.00
G01 X9.7674 Y-9.1658 F60.00
G01 X9.7912 Y-9.1598 F60.00
G01 X9.8155 Y-9.1562 F60.00
G01 X9.8400 Y-9.1550 F60.00
G01 X9.8645 Y-9.1562 F60.00
G01 X9.8888 Y-9.1598 F60.00
G01 X9.9126 Y-9.1658 F60.00
G01 X9.9357 Y-9.1740 F60.00
G01 X9.9578 Y-9.1845 F60.00
G01 X9.9789 Y-9.1971 F60.00
G01 X9.9986 Y-9.2117 F60.00
G01 X10.0168 Y-9.2282 F60.00
G01 X10.0333 Y-9.2464 F60.00
G01 X10.0479 Y-9.2661 F60.00
G01 X10.0605 Y-9.2872 F60.00
G01 X10.0710 Y-9.3093 F60.00
G01 X10.0792 Y-9.3324 F60.00
G01 X10.0852 Y-9.3562 F60.00
G01 X10.0888 Y-9.3805 F60.00
G01 X10.0900 Y-9.4050 F60.00
G00 X10.0900 Y-9.4050
G01 F60.00
G01 Z-2.5000
G01 F60.00
G01 X10.0888 Y-9.4295 F60.00
G01 X10.0852 Y-9.4538 F60.00
G01 X10.0792 Y-9.4776 F60.00
G01 X10.0710 Y-9.5007 F60.00
G01 X10.0605 Y-9.5228 F60.00
G01 X10.0479 Y-9.5439 F60.00
G01 X10.0333 Y-9.5636 F60.00
G01 X10.0168 Y-9.5818 F60.00
G01 X9.9986 Y-9.5983 F60.00
G01 X9.9789 Y-9.6129 F60.00
G01 X9.9578 Y-9.6255 F60.00
G01 X9.9357 Y-9.6360 F60.00
G01 X9.9126 Y-9.6442 F60.00
G01 X9.8888 Y-9.6502 F60.00
G01 X9.8645 Y-9.6538 F60.00
G01 X9.8400 Y-9.6550 F60.00
G01 X9.8155 Y-9.6538 F60.00
G01 X9.7912 Y-9.6502 F60.00
G01 X9.7674 Y-9.6442 F60.00
G01 X9.7443 Y-9.6360 F60.00
G01 X9.7222 Y-9.6255 F60.00
G01 X9.7011 Y-9.6129 F60.00
G01 X9.6814 Y-9.5983 F60.00
G01 X9.6632 Y-9.5818 F60.00
G01 X9.6467 Y-9.5636 F60.00
G01 X9.6321 Y-9.5439 F60.00
G01 X9.6195 Y-9.5228 F60.00
G01 X9.6090 Y-9.5007 F60.00
G01 X9.6008 Y-9.4776 F60.00
G01 X9.5948 Y-9.4538 F60.00
G01 X9.5912 Y-9.4295 F60.00
G01 X9.5900 Y-9.4050 F60.00
G01 X9.5912 Y-9.3805 F60.00
G01 X9.5948 Y-9.3562 F60.00
G01 X9.6008 Y-9.3324 F60.00
G01 X9.6090 Y-9.3093 F60.00
G01 X9.6195 Y-9.2872 F60.00
G01 X9.6321 Y-9.2661 F60.00
G01 X9.6467 Y-9.2464 F60.00
G01 X9.6632 Y-9.2282 F60.00
G01 X9.6814 Y-9.2117 F60.00
G01 X9.7011 Y-9.1971 F60.00
G01 X9.7222 Y-9.1845 F60.00
G01 X9.7443 Y-9.1740 F60.00
G01 X9.7674 Y-9.1658 F60.00
G01 X9.7912 Y-9.1598 F60.00
G01 X9.8155 Y-9.1562 F60.00
G01 X9.8400 Y-9.1550 F60.00
G01 X9.8645 Y-9.1562 F60.00
G01 X9.8888 Y-9.1598 F60.00
G01 X9.9126 Y-9.1658 F60.00
G01 X9.9357 Y-9.1740 F60.00
G01 X9.9578 Y-9.1845 F60.00
G01 X9.9789 Y-9.1971 F60.00
G01 X9.9986 Y-9.2117 F60.00
G01 X10.0168 Y-9.2282 F60.00
G01 X10.0333 Y-9.2464 F60.00
G01 X10.0479 Y-9.2661 F60.00
G01 X10.0605 Y-9.2872 F60.00
G01 X10.0710 Y-9.3093 F60.00
G01 X10.0792 Y-9.3324 F60.00
G01 X10.0852 Y-9.3562 F60.00
G01 X10.0888 Y-9.3805 F60.00
G01 X10.0900 Y-9.4050 F60.00
G00 Z2.0000
G00 X10.0900 Y-11.9450
G01 F60.00
G01 Z-0.5000
G01 F60.00
G01 X10.0888 Y-11.9695 F60.00
G01 X10.0852 Y-11.9938 F60.00
G01 X10.0792 Y-12.0176 F60.00
G01 X10.0710 Y-12.0407 F60.00
G01 X10.0605 Y-12.0628 F60.00
G01 X10.0479 Y-12.0839 F60.00
G01 X10.0333 Y-12.1036 F60.00
G01 X10.0168 Y-12.1218 F60.00
G01 X9.9986 Y-12.1383 F60.00
G01 X9.9789 Y-12.1529 F60.00
G01 X9.9578 Y-12.1655 F60.00
G01 X9.9357 Y-12.1760 F60.00
G01 X9.9126 Y-12.1842 F60.00
G01 X9.8888 Y-12.1902 F60.00
G01 X9.8645 Y-12.1938 F60.00
G01 X9.8400 Y-12.1950 F60.00
G01 X9.8155 Y-12.1938 F60.00
G01 X9.7912 Y-12.1902 F60.00
G01 X9.7674 Y-12.1842 F60.00
G01 X9.7443 Y-12.1760 F60.00
G01 X9.7222 Y-12.1655 F60.00
G01 X9.7011 Y-12.1529 F60.00
G01 X9.6814 Y-12.1383 F60.00
G01 X9.6632 Y-12.1218 F60.00
G01 X9.6467 Y-12.1036 F60.00
G01 X9.6321 Y-12.0839 F60.00
G01 X9.6195 Y-12.0628 F60.00
G01 X9.6090 Y-12.0407 F60.00
G01 X9.6008 Y-12.0176 F60.00
G01 X9.5948 Y-11.9938 F60.00
G01 X9.5912 Y-11.9695 F60.00
G01 X9.5900 Y-11.9450 F60.00
G01 X9.5912 Y-11.9205 F60.00
G01 X9.5948 Y-11.8962 F60.00
G01 X9.6008 Y-11.8724 F60.00
G01 X9.6090 Y-11.8493 F60.00
G01 X9.6195 Y-11.8272 F60.00
G01 X9.6321 Y-11.8061 F60.00
G01 X9.6467 Y-11.7864 F60.00
G01 X9.6632 Y-11.7682 F60.00
G01 X9.6814 Y-11.7517 F60.00
G01 X9.7011 Y-11.7371 F60.00
G01 X9.7222 Y-11.7245 F60.00
G01 X9.7443 Y-11.7140 F60.00
G01 X9.7674 Y-11.7058 F60.00
G01 X9.7912 Y-11.6998 F60.00
G01 X9.8155 Y-11.6962 F60.00
G01 X9.8400 Y-11.6950 F60.00
G01 X9.8645 Y-11.6962 F60.00
G01 X9.8888 Y-11.6998 F60.00
G01 X9.9126 Y-11.7058 F60.00
G01 X9.9357 Y-11.7140 F60.00
G01 X9.9578 Y-11.7245 F60.00
G01 X9.9789 Y-11.7371 F60.00
G01 X9.9986 Y-11.7517 F60.00
G01 X10.0168 Y-11.7682 F60.00
G01 X10.0333 Y-11.7864 F60.00
G01 X10.0479 Y-11.8061 F60.00
G01 X10.0605 Y-11.8272 F60.00
G01 X10.0710 Y-11.8493 F60.00
G01 X10.0792 Y-11.8724 F60.00
G01 X10.0852 Y-11.8962 F60.00
G01 X10.0888 Y-11.9205 F60.00
G01 X10.0900 Y-11.9450 F60.00
G00 X10.0900 Y-11.9450
G01 F60.00
G01 Z-1.0000
G01 F60.00
G01 X10.0888 Y-11.9695 F60.00
G01 X10.0852 Y-11.9938 F60.00
G01 X10.0792 Y-12.0176 F60.00
G01 X10.0710 Y-12.0407 F60.00
G01 X10.0605 Y-12.0628 F60.00
G01 X10.0479 Y-12.0839 F60.00
G01 X10.0333 Y-12.1036 F60.00
G01 X10.0168 Y-12.1218 F60.00
G01 X9.9986 Y-12.1383 F60.00
G01 X9.9789 Y-12.1529 F60.00
G01 X9.9578 Y-12.1655 F60.00
G01 X9.9357 Y-12.1760 F60.00
G01 X9.9126 Y-12.1842 F60.00
G01 X9.8888 Y-12.1902 F60.00
G01 X9.8645 Y-12.1938 F60.00
G01 X9.8400 Y-12.1950 F60.00
G01 X9.8155 Y-12.1938 F60.00
G01 X9.7912 Y-12.1902 F60.00
G01 X9.7674 Y-12.1842 F60.00
G01 X9.7443 Y-12.1760 F60.00
G01 X9.7222 Y-12.1655 F60.00
G01 X9.7011 Y-12.1529 F60.00
G01 X9.6814 Y-12.1383 F60.00
G01 X9.6632 Y-12.1218 F60.00
G01 X9.6467 Y-12.1036 F60.00
G01 X9.6321 Y-12.0839 F60.00
G01 X9.6195 Y-12.0628 F60.00
G01 X9.6090 Y-12.0407 F60.00
G01 X9.6008 Y-12.0176 F60.00
G01 X9.5948 Y-11.9938 F60.00
G01 X9.5912 Y-11.9695 F60.00
G01 X9.5900 Y-11.9450 F60.00
G01 X9.5912 Y-11.9205 F60.00
G01 X9.5948 Y-11.8962 F60.00
G01 X9.6008 Y-11.8724 F60.00
G01 X9.6090 Y-11.8493 F60.00
G01 X9.6195 Y-11.8272 F60.00
G01 X9.6321 Y-11.8061 F60.00
G01 X9.6467 Y-11.7864 F60.00
G01 X9.6632 Y-11.7682 F60.00
G01 X9.6814 Y-11.7517 F60.00
G01 X9.7011 Y-11.7371 F60.00
G01 X9.7222 Y-11.7245 F60.00
G01 X9.7443 Y-11.7140 F60.00
G01 X9.7674 Y-11.7058 F60.00
G01 X9.7912 Y-11.6998 F60.00
G01 X9.8155 Y-11.6962 F60.00
G01 X9.8400 Y-11.6950 F60.00
G01 X9.8645 Y-11.6962 F60.00
G01 X9.8888 Y-11.6998 F60.00
G01 X9.9126 Y-11.7058 F60.00
G01 X9.9357 Y-11.7140 F60.00
G01 X9.9578 Y-11.7245 F60.00
G01 X9.9789 Y-11.7371 F60.00
G01 X9.9986 Y-11.7517 F60.00
G01 X10.0168 Y-11.7682 F60.00
G01 X10.0333 Y-11.7864 F60.00
G01 X10.0479 Y-11.8061 F60.00
G01 X10.0605 Y-11.8272 F60.00
G01 X10.0710 Y-11.8493 F60.00
G01 X10.0792 Y-11.8724 F60.00
G01 X10.0852 Y-11.8962 F60.00
G01 X10.0888 Y-11.9205 F60.00
G01 X10.0900 Y-11.9450 F60.00
G00 X10.0900 Y-11.9450
G01 F60.00
G01 Z-1.5000
G01 F60.00
G01 X10.0888 Y-11.9695 F60.00
G01 X10.0852 Y-11.9938 F60.00
G01 X10.0792 Y-12.0176 F60.00
G01 X10.0710 Y-12.0407 F60.00
G01 X10.0605 Y-12.0628 F60.00
G01 X10.0479 Y-12.0839 F60.00
G01 X10.0333 Y-12.1036 F60.00
G01 X10.0168 Y-12.1218 F60.00
G01 X9.9986 Y-12.1383 F60.00
G01 X9.9789 Y-12.1529 F60.00
G01 X9.9578 Y-12.1655 F60.00
G01 X9.9357 Y-12.1760 F60.00
G01 X9.9126 Y-12.1842 F60.00
G01 X9.8888 Y-12.1902 F60.00
G01 X9.8645 Y-12.1938 F60.00
G01 X9.8400 Y-12.1950 F60.00
G01 X9.8155 Y-12.1938 F60.00
G01 X9.7912 Y-12.1902 F60.00
G01 X9.7674 Y-12.1842 F60.00
G01 X9.7443 Y-12.1760 F60.00
G01 X9.7222 Y-12.1655 F60.00
G01 X9.7011 Y-12.1529 F60.00
G01 X9.6814 Y-12.1383 F60.00
G01 X9.6632 Y-12.1218 F60.00
G01 X9.6467 Y-12.1036 F60.00
G01 X9.6321 Y-12.0839 F60.00
G01 X9.6195 Y-12.0628 F60.00
G01 X9.6090 Y-12.0407 F60.00
G01 X9.6008 Y-12.0176 F60.00
G01 X9.5948 Y-11.9938 F60.00
G01 X9.5912 Y-11.9695 F60.00
G01 X9.5900 Y-11.9450 F60.00
G01 X9.5912 Y-11.9205 F60.00
G01 X9.5948 Y-11.8962 F60.00
G01 X9.6008 Y-11.8724 F60.00
G01 X9.6090 Y-11.8493 F60.00
G01 X9.6195 Y-11.8272 F60.00
G01 X9.6321 Y-11.8061 F60.00
G01 X9.6467 Y-11.7864 F60.00
G01 X9.6632 Y-11.7682 F60.00
G01 X9.6814 Y-11.7517 F60.00
G01 X9.7011 Y-11.7371 F60.00
G01 X9.7222 Y-11.7245 F60.00
G01 X9.7443 Y-11.7140 F60.00
G01 X9.7674 Y-11.7058 F60.00
G01 X9.7912 Y-11.6998 F60.00
G01 X9.8155 Y-11.6962 F60.00
G01 X9.8400 Y-11.6950 F60.00
G01 X9.8645 Y-11.6962 F60.00
G01 X9.8888 Y-11.6998 F60.00
G01 X9.9126 Y-11.7058 F60.00
G01 X9.9357 Y-11.7140 F60.00
G01 X9.9578 Y-11.7245 F60.00
G01 X9.9789 Y-11.7371 F60.00
G01 X9.9986 Y-11.7517 F60.00
G01 X10.0168 Y-11.7682 F60.00
G01 X10.0333 Y-11.7864 F60.00
G01 X10.0479 Y-11.8061 F60.00
G01 X10.0605 Y-11.8272 F60.00
G01 X10.0710 Y-11.8493 F60.00
G01 X10.0792 Y-11.8724 F60.00
G01 X10.0852 Y-11.8962 F60.00
G01 X10.0888 Y-11.9205 F60.00
G01 X10.0900 Y-11.9450 F60.00
G00 X10.0900 Y-11.9450
G01 F60.00
G01 Z-2.0000
G01 F60.00
G01 X10.0888 Y-11.9695 F60.00
G01 X10.0852 Y-11.9938 F60.00
G01 X10.0792 Y-12.0176 F60.00
G01 X10.0710 Y-12.0407 F60.00
G01 X10.0605 Y-12.0628 F60.00
G01 X10.0479 Y-12.0839 F60.00
G01 X10.0333 Y-12.1036 F60.00
G01 X10.0168 Y-12.1218 F60.00
G01 X9.9986 Y-12.1383 F60.00
G01 X9.9789 Y-12.1529 F60.00
G01 X9.9578 Y-12.1655 F60.00
G01 X9.9357 Y-12.1760 F60.00
G01 X9.9126 Y-12.1842 F60.00
G01 X9.8888 Y-12.1902 F60.00
G01 X9.8645 Y-12.1938 F60.00
G01 X9.8400 Y-12.1950 F60.00
G01 X9.8155 Y-12.1938 F60.00
G01 X9.7912 Y-12.1902 F60.00
G01 X9.7674 Y-12.1842 F60.00
G01 X9.7443 Y-12.1760 F60.00
G01 X9.7222 Y-12.1655 F60.00
G01 X9.7011 Y-12.1529 F60.00
G01 X9.6814 Y-12.1383 F60.00
G01 X9.6632 Y-12.1218 F60.00
G01 X9.6467 Y-12.1036 F60.00
G01 X9.6321 Y-12.0839 F60.00
G01 X9.6195 Y-12.0628 F60.00
G01 X9.6090 Y-12.0407 F60.00
G01 X9.6008 Y-12.0176 F60.00
G01 X9.5948 Y-11.9938 F60.00
G01 X9.5912 Y-11.9695 F60.00
G01 X9.5900 Y-11.9450 F60.00
G01 X9.5912 Y-11.9205 F60.00
G01 X9.5948 Y-11.8962 F60.00
G01 X9.6008 Y-11.8724 F60.00
G01 X9.6090 Y-11.8493 F60.00
G01 X9.6195 Y-11.8272 F60.00
G01 X9.6321 Y-11.8061 F60.00
G01 X9.6467 Y-11.7864 F60.00
G01 X9.6632 Y-11.7682 F60.00
G01 X9.6814 Y-11.7517 F60.00
G01 X9.7011 Y-11.7371 F60.00
G01 X9.7222 Y-11.7245 F60.00
G01 X9.7443 Y-11.7140 F60.00
G01 X9.7674 Y-11.7058 F60.00
G01 X9.7912 Y-11.6998 F60.00
G01 X9.8155 Y-11.6962 F60.00
G01 X9.8400 Y-11.6950 F60.00
G01 X9.8645 Y-11.6962 F60.00
G01 X9.8888 Y-11.6998 F60.00
G01 X9.9126 Y-11.7058 F60.00
G01 X9.9357 Y-11.7140 F60.00
G01 X9.9578 Y-11.7245 F60.00
G01 X9.9789 Y-11.7371 F60.00
G01 X9.9986 Y-11.7517 F60.00
G01 X10.0168 Y-11.7682 F60.00
G01 X10.0333 Y-11.7864 F60.00
G01 X10.0479 Y-11.8061 F60.00
G01 X10.0605 Y-11.8272 F60.00
G01 X10.0710 Y-11.8493 F60.00
G01 X10.0792 Y-11.8724 F60.00
G01 X10.0852 Y-11.8962 F60.00
G01 X10.0888 Y-11.9205 F60.00
G01 X10.0900 Y-11.9450 F60.00
G00 X10.0900 Y-11.9450
G01 F60.00
G01 Z-2.5000
G01 F60.00
G01 X10.0888 Y-11.9695 F60.00
G01 X10.0852 Y-11.9938 F60.00
G01 X10.0792 Y-12.0176 F60.00
G01 X10.0710 Y-12.0407 F60.00
G01 X10.0605 Y-12.0628 F60.00
G01 X10.0479 Y-12.0839 F60.00
G01 X10.0333 Y-12.1036 F60.00
G01 X10.0168 Y-12.1218 F60.00
G01 X9.9986 Y-12.1383 F60.00
G01 X9.9789 Y-12.1529 F60.00
G01 X9.9578 Y-12.1655 F60.00
G01 X9.9357 Y-12.1760 F60.00
G01 X9.9126 Y-12.1842 F60.00
G01 X9.8888 Y-12.1902 F60.00
G01 X9.8645 Y-12.1938 F60.00
G01 X9.8400 Y-12.1950 F60.00
G01 X9.8155 Y-12.1938 F60.00
G01 X9.7912 Y-12.1902 F60.00
G01 X9.7674 Y-12.1842 F60.00
G01 X9.7443 Y-12.1760 F60.00
G01 X9.7222 Y-12.1655 F60.00
G01 X9.7011 Y-12.1529 F60.00
G01 X9.6814 Y-12.1383 F60.00
G01 X9.6632 Y-12.1218 F60.00
G01 X9.6467 Y-12.1036 F60.00
G01 X9.6321 Y-12.0839 F60.00
G01 X9.6195 Y-12.0628 F60.00
G01 X9.6090 Y-12.0407 F60.00
G01 X9.6008 Y-12.0176 F60.00
G01 X9.5948 Y-11.9938 F60.00
G01 X9.5912 Y-11.9695 F60.00
G01 X9.5900 Y-11.9450 F60.00
G01 X9.5912 Y-11.9205 F60.00
G01 X9.5948 Y-11.8962 F60.00
G01 X9.6008 Y-11.8724 F60.00
G01 X9.6090 Y-11.8493 F60.00
G01 X9.6195 Y-11.8272 F60.00
G01 X9.6321 Y-11.8061 F60.00
G01 X9.6467 Y-11.7864 F60.00
G01 X9.6632 Y-11.7682 F60.00
G01 X9.6814 Y-11.7517 F60.00
G01 X9.7011 Y-11.7371 F60.00
G01 X9.7222 Y-11.7245 F60.00
G01 X9.7443 Y-11.7140 F60.00
G01 X9.7674 Y-11.7058 F60.00
G01 X9.7912 Y-11.6998 F60.00
G01 X9.8155 Y-11.6962 F60.00
G01 X9.8400 Y-11.6950 F60.00
G01 X9.8645 Y-11.6962 F60.00
G01 X9.8888 Y-11.6998 F60.00
G01 X9.9126 Y-11.7058 F60.00
G01 X9.9357 Y-11.7140 F60.00
G01 X9.9578 Y-11.7245 F60.00
G01 X9.9789 Y-11.7371 F60.00
G01 X9.9986 Y-11.7517 F60.00
G01 X10.0168 Y-11.7682 F60.00
G01 X10.0333 Y-11.7864 F60.00
G01 X10.0479 Y-11.8061 F60.00
G01 X10.0605 Y-11.8272 F60.00
G01 X10.0710 Y-11.8493 F60.00
G01 X10.0792 Y-11.8724 F60.00
G01 X10.0852 Y-11.8962 F60.00
G01 X10.0888 Y-11.9205 F60.00
G01 X10.0900 Y-11.9450 F60.00
G00 Z2.0000
G00 X10.0900 Y-14.4850
G01 F60.00
G01 Z-0.5000
G01 F60.00
G01 X10.0888 Y-14.5095 F60.00
G01 X10.0852 Y-14.5338 F60.00
G01 X10.0792 Y-14.5576 F60.00
G01 X10.0710 Y-14.5807 F60.00
G01 X10.0605 Y-14.6028 F60.00
G01 X10.0479 Y-14.6239 F60.00
G01 X10.0333 Y-14.6436 F60.00
G01 X10.0168 Y-14.6618 F60.00
G01 X9.9986 Y-14.6783 F60.00
G01 X9.9789 Y-14.6929 F60.00
G01 X9.9578 Y-14.7055 F60.00
G01 X9.9357 Y-14.7160 F60.00
G01 X9.9126 Y-14.7242 F60.00
G01 X9.8888 Y-14.7302 F60.00
G01 X9.8645 Y-14.7338 F60.00
G01 X9.8400 Y-14.7350 F60.00
G01 X9.8155 Y-14.7338 F60.00
G01 X9.7912 Y-14.7302 F60.00
G01 X9.7674 Y-14.7242 F60.00
G01 X9.7443 Y-14.7160 F60.00
G01 X9.7222 Y-14.7055 F60.00
G01 X9.7011 Y-14.6929 F60.00
G01 X9.6814 Y-14.6783 F60.00
G01 X9.6632 Y-14.6618 F60.00
G01 X9.6467 Y-14.6436 F60.00
G01 X9.6321 Y-14.6239 F60.00
G01 X9.6195 Y-14.6028 F60.00
G01 X9.6090 Y-14.5807 F60.00
G01 X9.6008 Y-14.5576 F60.00
G01 X9.5948 Y-14.5338 F60.00
G01 X9.5912 Y-14.5095 F60.00
G01 X9.5900 Y-14.4850 F60.00
G01 X9.5912 Y-14.4605 F60.00
G01 X9.5948 Y-14.4362 F60.00
G01 X9.6008 Y-14.4124 F60.00
G01 X9.6090 Y-14.3893 F60.00
G01 X9.6195 Y-14.3672 F60.00
G01 X9.6321 Y-14.3461 F60.00
G01 X9.6467 Y-14.3264 F60.00
G01 X9.6632 Y-14.3082 F60.00
G01 X9.6814 Y-14.2917 F60.00
G01 X9.7011 Y-14.2771 F60.00
G01 X9.7222 Y-14.2645 F60.00
G01 X9.7443 Y-14.2540 F60.00
G01 X9.7674 Y-14.2458 F60.00
G01 X9.7912 Y-14.2398 F60.00
G01 X9.8155 Y-14.2362 F60.00
G01 X9.8400 Y-14.2350 F60.00
G01 X9.8645 Y-14.2362 F60.00
G01 X9.8888 Y-14.2398 F60.00
G01 X9.9126 Y-14.2458 F60.00
G01 X9.9357 Y-14.2540 F60.00
G01 X9.9578 Y-14.2645 F60.00
G01 X9.9789 Y-14.2771 F60.00
G01 X9.9986 Y-14.2917 F60.00
G01 X10.0168 Y-14.3082 F60.00
G01 X10.0333 Y-14.3264 F60.00
G01 X10.0479 Y-14.3461 F60.00
G01 X10.0605 Y-14.3672 F60.00
G01 X10.0710 Y-14.3893 F60.00
G01 X10.0792 Y-14.4124 F60.00
G01 X10.0852 Y-14.4362 F60.00
G01 X10.0888 Y-14.4605 F60.00
G01 X10.0900 Y-14.4850 F60.00
G00 X10.0900 Y-14.4850
G01 F60.00
G01 Z-1.0000
G01 F60.00
G01 X10.0888 Y-14.5095 F60.00
G01 X10.0852 Y-14.5338 F60.00
G01 X10.0792 Y-14.5576 F60.00
G01 X10.0710 Y-14.5807 F60.00
G01 X10.0605 Y-14.6028 F60.00
G01 X10.0479 Y-14.6239 F60.00
G01 X10.0333 Y-14.6436 F60.00
G01 X10.0168 Y-14.6618 F60.00
G01 X9.9986 Y-14.6783 F60.00
G01 X9.9789 Y-14.6929 F60.00
G01 X9.9578 Y-14.7055 F60.00
G01 X9.9357 Y-14.7160 F60.00
G01 X9.9126 Y-14.7242 F60.00
G01 X9.8888 Y-14.7302 F60.00
G01 X9.8645 Y-14.7338 F60.00
G01 X9.8400 Y-14.7350 F60.00
G01 X9.8155 Y-14.7338 F60.00
G01 X9.7912 Y-14.7302 F60.00
G01 X9.7674 Y-14.7242 F60.00
G01 X9.7443 Y-14.7160 F60.00
G01 X9.7222 Y-14.7055 F60.00
G01 X9.7011 Y-14.6929 F60.00
G01 X9.6814 Y-14.6783 F60.00
G01 X9.6632 Y-14.6618 F60.00
G01 X9.6467 Y-14.6436 F60.00
G01 X9.6321 Y-14.6239 F60.00
G01 X9.6195 Y-14.6028 F60.00
G01 X9.6090 Y-14.5807 F60.00
G01 X9.6008 Y-14.5576 F60.00
G01 X9.5948 Y-14.5338 F60.00
G01 X9.5912 Y-14.5095 F60.00
G01 X9.5900 Y-14.4850 F60.00
G01 X9.5912 Y-14.4605 F60.00
G01 X9.5948 Y-14.4362 F60.00
G01 X9.6008 Y-14.4124 F60.00
G01 X9.6090 Y-14.3893 F60.00
G01 X9.6195 Y-14.3672 F60.00
G01 X9.6321 Y-14.3461 F60.00
G01 X9.6467 Y-14.3264 F60.00
G01 X9.6632 Y-14.3082 F60.00
G01 X9.6814 Y-14.2917 F60.00
G01 X9.7011 Y-14.2771 F60.00
G01 X9.7222 Y-14.2645 F60.00
G01 X9.7443 Y-14.2540 F60.00
G01 X9.7674 Y-14.2458 F60.00
G01 X9.7912 Y-14.2398 F60.00
G01 X9.8155 Y-14.2362 F60.00
G01 X9.8400 Y-14.2350 F60.00
G01 X9.8645 Y-14.2362 F60.00
G01 X9.8888 Y-14.2398 F60.00
G01 X9.9126 Y-14.2458 F60.00
G01 X9.9357 Y-14.2540 F60.00
G01 X9.9578 Y-14.2645 F60.00
G01 X9.9789 Y-14.2771 F60.00
G01 X9.9986 Y-14.2917 F60.00
G01 X10.0168 Y-14.3082 F60.00
G01 X10.0333 Y-14.3264 F60.00
G01 X10.0479 Y-14.3461 F60.00
G01 X10.0605 Y-14.3672 F60.00
G01 X10.0710 Y-14.3893 F60.00
G01 X10.0792 Y-14.4124 F60.00
G01 X10.0852 Y-14.4362 F60.00
G01 X10.0888 Y-14.4605 F60.00
G01 X10.0900 Y-14.4850 F60.00
G00 X10.0900 Y-14.4850
G01 F60.00
G01 Z-1.5000
G01 F60.00
G01 X10.0888 Y-14.5095 F60.00
G01 X10.0852 Y-14.5338 F60.00
G01 X10.0792 Y-14.5576 F60.00
G01 X10.0710 Y-14.5807 F60.00
G01 X10.0605 Y-14.6028 F60.00
G01 X10.0479 Y-14.6239 F60.00
G01 X10.0333 Y-14.6436 F60.00
G01 X10.0168 Y-14.6618 F60.00
G01 X9.9986 Y-14.6783 F60.00
G01 X9.9789 Y-14.6929 F60.00
G01 X9.9578 Y-14.7055 F60.00
G01 X9.9357 Y-14.7160 F60.00
G01 X9.9126 Y-14.7242 F60.00
G01 X9.8888 Y-14.7302 F60.00
G01 X9.8645 Y-14.7338 F60.00
G01 X9.8400 Y-14.7350 F60.00
G01 X9.8155 Y-14.7338 F60.00
G01 X9.7912 Y-14.7302 F60.00
G01 X9.7674 Y-14.7242 F60.00
G01 X9.7443 Y-14.7160 F60.00
G01 X9.7222 Y-14.7055 F60.00
G01 X9.7011 Y-14.6929 F60.00
G01 X9.6814 Y-14.6783 F60.00
G01 X9.6632 Y-14.6618 F60.00
G01 X9.6467 Y-14.6436 F60.00
G01 X9.6321 Y-14.6239 F60.00
G01 X9.6195 Y-14.6028 F60.00
G01 X9.6090 Y-14.5807 F60.00
G01 X9.6008 Y-14.5576 F60.00
G01 X9.5948 Y-14.5338 F60.00
G01 X9.5912 Y-14.5095 F60.00
G01 X9.5900 Y-14.4850 F60.00
G01 X9.5912 Y-14.4605 F60.00
G01 X9.5948 Y-14.4362 F60.00
G01 X9.6008 Y-14.4124 F60.00
G01 X9.6090 Y-14.3893 F60.00
G01 X9.6195 Y-14.3672 F60.00
G01 X9.6321 Y-14.3461 F60.00
G01 X9.6467 Y-14.3264 F60.00
G01 X9.6632 Y-14.3082 F60.00
G01 X9.6814 Y-14.2917 F60.00
G01 X9.7011 Y-14.2771 F60.00
G01 X9.7222 Y-14.2645 F60.00
G01 X9.7443 Y-14.2540 F60.00
G01 X9.7674 Y-14.2458 F60.00
G01 X9.7912 Y-14.2398 F60.00
G01 X9.8155 Y-14.2362 F60.00
G01 X9.8400 Y-14.2350 F60.00
G01 X9.8645 Y-14.2362 F60.00
G01 X9.8888 Y-14.2398 F60.00
G01 X9.9126 Y-14.2458 F60.00
G01 X9.9357 Y-14.2540 F60.00
G01 X9.9578 Y-14.2645 F60.00
G01 X9.9789 Y-14.2771 F60.00
G01 X9.9986 Y-14.2917 F60.00
G01 X10.0168 Y-14.3082 F60.00
G01 X10.0333 Y-14.3264 F60.00
G01 X10.0479 Y-14.3461 F60.00
G01 X10.0605 Y-14.3672 F60.00
G01 X10.0710 Y-14.3893 F60.00
G01 X10.0792 Y-14.4124 F60.00
G01 X10.0852 Y-14.4362 F60.00
G01 X10.0888 Y-14.4605 F60.00
G01 X10.0900 Y-14.4850 F60.00
G00 X10.0900 Y-14.4850
G01 F60.00
G01 Z-2.0000
G01 F60.00
G01 X10.0888 Y-14.5095 F60.00
G01 X10.0852 Y-14.5338 F60.00
G01 X10.0792 Y-14.5576 F60.00
G01 X10.0710 Y-14.5807 F60.00
G01 X10.0605 Y-14.6028 F60.00
G01 X10.0479 Y-14.6239 F60.00
G01 X10.0333 Y-14.6436 F60.00
G01 X10.0168 Y-14.6618 F60.00
G01 X9.9986 Y-14.6783 F60.00
G01 X9.9789 Y-14.6929 F60.00
G01 X9.9578 Y-14.7055 F60.00
G01 X9.9357 Y-14.7160 F60.00
G01 X9.9126 Y-14.7242 F60.00
G01 X9.8888 Y-14.7302 F60.00
G01 X9.8645 Y-14.7338 F60.00
G01 X9.8400 Y-14.7350 F60.00
G01 X9.8155 Y-14.7338 F60.00
G01 X9.7912 Y-14.7302 F60.00
G01 X9.7674 Y-14.7242 F60.00
G01 X9.7443 Y-14.7160 F60.00
G01 X9.7222 Y-14.7055 F60.00
G01 X9.7011 Y-14.6929 F60.00
G01 X9.6814 Y-14.6783 F60.00
G01 X9.6632 Y-14.6618 F60.00
G01 X9.6467 Y-14.6436 F60.00
G01 X9.6321 Y-14.6239 F60.00
G01 X9.6195 Y-14.6028 F60.00
G01 X9.6090 Y-14.5807 F60.00
G01 X9.6008 Y-14.5576 F60.00
G01 X9.5948 Y-14.5338 F60.00
G01 X9.5912 Y-14.5095 F60.00
G01 X9.5900 Y-14.4850 F60.00
G01 X9.5912 Y-14.4605 F60.00
G01 X9.5948 Y-14.4362 F60.00
G01 X9.6008 Y-14.4124 F60.00
G01 X9.6090 Y-14.3893 F60.00
G01 X9.6195 Y-14.3672 F60.00
G01 X9.6321 Y-14.3461 F60.00
G01 X9.6467 Y-14.3264 F60.00
G01 X9.6632 Y-14.3082 F60.00
G01 X9.6814 Y-14.2917 F60.00
G01 X9.7011 Y-14.2771 F60.00
G01 X9.7222 Y-14.2645 F60.00
G01 X9.7443 Y-14.2540 F60.00
G01 X9.7674 Y-14.2458 F60.00
G01 X9.7912 Y-14.2398 F60.00
G01 X9.8155 Y-14.2362 F60.00
G01 X9.8400 Y-14.2350 F60.00
G01 X9.8645 Y-14.2362 F60.00
G01 X9.8888 Y-14.2398 F60.00
G01 X9.9126 Y-14.2458 F60.00
G01 X9.9357 Y-14.2540 F60.00
G01 X9.9578 Y-14.2645 F60.00
G01 X9.9789 Y-14.2771 F60.00
G01 X9.9986 Y-14.2917 F60.00
G01 X10.0168 Y-14.3082 F60.00
G01 X10.0333 Y-14.3264 F60.00
G01 X10.0479 Y-14.3461 F60.00
G01 X10.0605 Y-14.3672 F60.00
G01 X10.0710 Y-14.3893 F60.00
G01 X10.0792 Y-14.4124 F60.00
G01 X10.0852 Y-14.4362 F60.00
G01 X10.0888 Y-14.4605 F60.00
G01 X10.0900 Y-14.4850 F60.00
G00 X10.0900 Y-14.4850
G01 F60.00
G01 Z-2.5000
G01 F60.00
G01 X10.0888 Y-14.5095 F60.00
G01 X10.0852 Y-14.5338 F60.00
G01 X10.0792 Y-14.5576 F60.00
G01 X10.0710 Y-14.5807 F60.00
G01 X10.0605 Y-14.6028 F60.00
G01 X10.0479 Y-14.6239 F60.00
G01 X10.0333 Y-14.6436 F60.00
G01 X10.0168 Y-14.6618 F60.00
G01 X9.9986 Y-14.6783 F60.00
G01 X9.9789 Y-14.6929 F60.00
G01 X9.9578 Y-14.7055 F60.00
G01 X9.9357 Y-14.7160 F60.00
G01 X9.9126 Y-14.7242 F60.00
G01 X9.8888 Y-14.7302 F60.00
G01 X9.8645 Y-14.7338 F60.00
G01 X9.8400 Y-14.7350 F60.00
G01 X9.8155 Y-14.7338 F60.00
G01 X9.7912 Y-14.7302 F60.00
G01 X9.7674 Y-14.7242 F60.00
G01 X9.7443 Y-14.7160 F60.00
G01 X9.7222 Y-14.7055 F60.00
G01 X9.7011 Y-14.6929 F60.00
G01 X9.6814 Y-14.6783 F60.00
G01 X9.6632 Y-14.6618 F60.00
G01 X9.6467 Y-14.6436 F60.00
G01 X9.6321 Y-14.6239 F60.00
G01 X9.6195 Y-14.6028 F60.00
G01 X9.6090 Y-14.5807 F60.00
G01 X9.6008 Y-14.5576 F60.00
G01 X9.5948 Y-14.5338 F60.00
G01 X9.5912 Y-14.5095 F60.00
G01 X9.5900 Y-14.4850 F60.00
G01 X9.5912 Y-14.4605 F60.00
G01 X9.5948 Y-14.4362 F60.00
G01 X9.6008 Y-14.4124 F60.00
G01 X9.6090 Y-14.3893 F60.00
G01 X9.6195 Y-14.3672 F60.00
G01 X9.6321 Y-14.3461 F60.00
G01 X9.6467 Y-14.3264 F60.00
G01 X9.6632 Y-14.3082 F60.00
G01 X9.6814 Y-14.2917 F60.00
G01 X9.7011 Y-14.2771 F60.00
G01 X9.7222 Y-14.2645 F60.00
G01 X9.7443 Y-14.2540 F60.00
G01 X9.7674 Y-14.2458 F60.00
G01 X9.7912 Y-14.2398 F60.00
G01 X9.8155 Y-14.2362 F60.00
G01 X9.8400 Y-14.2350 F60.00
G01 X9.8645 Y-14.2362 F60.00
G01 X9.8888 Y-14.2398 F60.00
G01 X9.9126 Y-14.2458 F60.00
G01 X9.9357 Y-14.2540 F60.00
G01 X9.9578 Y-14.2645 F60.00
G01 X9.9789 Y-14.2771 F60.00
G01 X9.9986 Y-14.2917 F60.00
G01 X10.0168 Y-14.3082 F60.00
G01 X10.0333 Y-14.3264 F60.00
G01 X10.0479 Y-14.3461 F60.00
G01 X10.0605 Y-14.3672 F60.00
G01 X10.0710 Y-14.3893 F60.00
G01 X10.0792 Y-14.4124 F60.00
G01 X10.0852 Y-14.4362 F60.00
G01 X10.0888 Y-14.4605 F60.00
G01 X10.0900 Y-14.4850 F60.00
G00 Z2.0000
G00 X10.0900 Y-17.0250
G01 F60.00
G01 Z-0.5000
G01 F60.00
G01 X10.0888 Y-17.0495 F60.00
G01 X10.0852 Y-17.0738 F60.00
G01 X10.0792 Y-17.0976 F60.00
G01 X10.0710 Y-17.1207 F60.00
G01 X10.0605 Y-17.1428 F60.00
G01 X10.0479 Y-17.1639 F60.00
G01 X10.0333 Y-17.1836 F60.00
G01 X10.0168 Y-17.2018 F60.00
G01 X9.9986 Y-17.2183 F60.00
G01 X9.9789 Y-17.2329 F60.00
G01 X9.9578 Y-17.2455 F60.00
G01 X9.9357 Y-17.2560 F60.00
G01 X9.9126 Y-17.2642 F60.00
G01 X9.8888 Y-17.2702 F60.00
G01 X9.8645 Y-17.2738 F60.00
G01 X9.8400 Y-17.2750 F60.00
G01 X9.8155 Y-17.2738 F60.00
G01 X9.7912 Y-17.2702 F60.00
G01 X9.7674 Y-17.2642 F60.00
G01 X9.7443 Y-17.2560 F60.00
G01 X9.7222 Y-17.2455 F60.00
G01 X9.7011 Y-17.2329 F60.00
G01 X9.6814 Y-17.2183 F60.00
G01 X9.6632 Y-17.2018 F60.00
G01 X9.6467 Y-17.1836 F60.00
G01 X9.6321 Y-17.1639 F60.00
G01 X9.6195 Y-17.1428 F60.00
G01 X9.6090 Y-17.1207 F60.00
G01 X9.6008 Y-17.0976 F60.00
G01 X9.5948 Y-17.0738 F60.00
G01 X9.5912 Y-17.0495 F60.00
G01 X9.5900 Y-17.0250 F60.00
G01 X9.5912 Y-17.0005 F60.00
G01 X9.5948 Y-16.9762 F60.00
G01 X9.6008 Y-16.9524 F60.00
G01 X9.6090 Y-16.9293 F60.00
G01 X9.6195 Y-16.9072 F60.00
G01 X9.6321 Y-16.8861 F60.00
G01 X9.6467 Y-16.8664 F60.00
G01 X9.6632 Y-16.8482 F60.00
G01 X9.6814 Y-16.8317 F60.00
G01 X9.7011 Y-16.8171 F60.00
G01 X9.7222 Y-16.8045 F60.00
G01 X9.7443 Y-16.7940 F60.00
G01 X9.7674 Y-16.7858 F60.00
G01 X9.7912 Y-16.7798 F60.00
G01 X9.8155 Y-16.7762 F60.00
G01 X9.8400 Y-16.7750 F60.00
G01 X9.8645 Y-16.7762 F60.00
G01 X9.8888 Y-16.7798 F60.00
G01 X9.9126 Y-16.7858 F60.00
G01 X9.9357 Y-16.7940 F60.00
G01 X9.9578 Y-16.8045 F60.00
G01 X9.9789 Y-16.8171 F60.00
G01 X9.9986 Y-16.8317 F60.00
G01 X10.0168 Y-16.8482 F60.00
G01 X10.0333 Y-16.8664 F60.00
G01 X10.0479 Y-16.8861 F60.00
G01 X10.0605 Y-16.9072 F60.00
G01 X10.0710 Y-16.9293 F60.00
G01 X10.0792 Y-16.9524 F60.00
G01 X10.0852 Y-16.9762 F60.00
G01 X10.0888 Y-17.0005 F60.00
G01 X10.0900 Y-17.0250 F60.00
G00 X10.0900 Y-17.0250
G01 F60.00
G01 Z-1.0000
G01 F60.00
G01 X10.0888 Y-17.0495 F60.00
G01 X10.0852 Y-17.0738 F60.00
G01 X10.0792 Y-17.0976 F60.00
G01 X10.0710 Y-17.1207 F60.00
G01 X10.0605 Y-17.1428 F60.00
G01 X10.0479 Y-17.1639 F60.00
G01 X10.0333 Y-17.1836 F60.00
G01 X10.0168 Y-17.2018 F60.00
G01 X9.9986 Y-17.2183 F60.00
G01 X9.9789 Y-17.2329 F60.00
G01 X9.9578 Y-17.2455 F60.00
G01 X9.9357 Y-17.2560 F60.00
G01 X9.9126 Y-17.2642 F60.00
G01 X9.8888 Y-17.2702 F60.00
G01 X9.8645 Y-17.2738 F60.00
G01 X9.8400 Y-17.2750 F60.00
G01 X9.8155 Y-17.2738 F60.00
G01 X9.7912 Y-17.2702 F60.00
G01 X9.7674 Y-17.2642 F60.00
G01 X9.7443 Y-17.2560 F60.00
G01 X9.7222 Y-17.2455 F60.00
G01 X9.7011 Y-17.2329 F60.00
G01 X9.6814 Y-17.2183 F60.00
G01 X9.6632 Y-17.2018 F60.00
G01 X9.6467 Y-17.1836 F60.00
G01 X9.6321 Y-17.1639 F60.00
G01 X9.6195 Y-17.1428 F60.00
G01 X9.6090 Y-17.1207 F60.00
G01 X9.6008 Y-17.0976 F60.00
G01 X9.5948 Y-17.0738 F60.00
G01 X9.5912 Y-17.0495 F60.00
G01 X9.5900 Y-17.0250 F60.00
G01 X9.5912 Y-17.0005 F60.00
G01 X9.5948 Y-16.9762 F60.00
G01 X9.6008 Y-16.9524 F60.00
G01 X9.6090 Y-16.9293 F60.00
G01 X9.6195 Y-16.9072 F60.00
G01 X9.6321 Y-16.8861 F60.00
G01 X9.6467 Y-16.8664 F60.00
G01 X9.6632 Y-16.8482 F60.00
G01 X9.6814 Y-16.8317 F60.00
G01 X9.7011 Y-16.8171 F60.00
G01 X9.7222 Y-16.8045 F60.00
G01 X9.7443 Y-16.7940 F60.00
G01 X9.7674 Y-16.7858 F60.00
G01 X9.7912 Y-16.7798 F60.00
G01 X9.8155 Y-16.7762 F60.00
G01 X9.8400 Y-16.7750 F60.00
G01 X9.8645 Y-16.7762 F60.00
G01 X9.8888 Y-16.7798 F60.00
G01 X9.9126 Y-16.7858 F60.00
G01 X9.9357 Y-16.7940 F60.00
G01 X9.9578 Y-16.8045 F60.00
G01 X9.9789 Y-16.8171 F60.00
G01 X9.9986 Y-16.8317 F60.00
G01 X10.0168 Y-16.8482 F60.00
G01 X10.0333 Y-16.8664 F60.00
G01 X10.0479 Y-16.8861 F60.00
G01 X10.0605 Y-16.9072 F60.00
G01 X10.0710 Y-16.9293 F60.00
G01 X10.0792 Y-16.9524 F60.00
G01 X10.0852 Y-16.9762 F60.00
G01 X10.0888 Y-17.0005 F60.00
G01 X10.0900 Y-17.0250 F60.00
G00 X10.0900 Y-17.0250
G01 F60.00
G01 Z-1.5000
G01 F60.00
G01 X10.0888 Y-17.0495 F60.00
G01 X10.0852 Y-17.0738 F60.00
G01 X10.0792 Y-17.0976 F60.00
G01 X10.0710 Y-17.1207 F60.00
G01 X10.0605 Y-17.1428 F60.00
G01 X10.0479 Y-17.1639 F60.00
G01 X10.0333 Y-17.1836 F60.00
G01 X10.0168 Y-17.2018 F60.00
G01 X9.9986 Y-17.2183 F60.00
G01 X9.9789 Y-17.2329 F60.00
G01 X9.9578 Y-17.2455 F60.00
G01 X9.9357 Y-17.2560 F60.00
G01 X9.9126 Y-17.2642 F60.00
G01 X9.8888 Y-17.2702 F60.00
G01 X9.8645 Y-17.2738 F60.00
G01 X9.8400 Y-17.2750 F60.00
G01 X9.8155 Y-17.2738 F60.00
G01 X9.7912 Y-17.2702 F60.00
G01 X9.7674 Y-17.2642 F60.00
G01 X9.7443 Y-17.2560 F60.00
G01 X9.7222 Y-17.2455 F60.00
G01 X9.7011 Y-17.2329 F60.00
G01 X9.6814 Y-17.2183 F60.00
G01 X9.6632 Y-17.2018 F60.00
G01 X9.6467 Y-17.1836 F60.00
G01 X9.6321 Y-17.1639 F60.00
G01 X9.6195 Y-17.1428 F60.00
G01 X9.6090 Y-17.1207 F60.00
G01 X9.6008 Y-17.0976 F60.00
G01 X9.5948 Y-17.0738 F60.00
G01 X9.5912 Y-17.0495 F60.00
G01 X9.5900 Y-17.0250 F60.00
G01 X9.5912 Y-17.0005 F60.00
G01 X9.5948 Y-16.9762 F60.00
G01 X9.6008 Y-16.9524 F60.00
G01 X9.6090 Y-16.9293 F60.00
G01 X9.6195 Y-16.9072 F60.00
G01 X9.6321 Y-16.8861 F60.00
G01 X9.6467 Y-16.8664 F60.00
G01 X9.6632 Y-16.8482 F60.00
G01 X9.6814 Y-16.8317 F60.00
G01 X9.7011 Y-16.8171 F60.00
G01 X9.7222 Y-16.8045 F60.00
G01 X9.7443 Y-16.7940 F60.00
G01 X9.7674 Y-16.7858 F60.00
G01 X9.7912 Y-16.7798 F60.00
G01 X9.8155 Y-16.7762 F60.00
G01 X9.8400 Y-16.7750 F60.00
G01 X9.8645 Y-16.7762 F60.00
G01 X9.8888 Y-16.7798 F60.00
G01 X9.9126 Y-16.7858 F60.00
G01 X9.9357 Y-16.7940 F60.00
G01 X9.9578 Y-16.8045 F60.00
G01 X9.9789 Y-16.8171 F60.00
G01 X9.9986 Y-16.8317 F60.00
G01 X10.0168 Y-16.8482 F60.00
G01 X10.0333 Y-16.8664 F60.00
G01 X10.0479 Y-16.8861 F60.00
G01 X10.0605 Y-16.9072 F60.00
G01 X10.0710 Y-16.9293 F60.00
G01 X10.0792 Y-16.9524 F60.00
G01 X10.0852 Y-16.9762 F60.00
G01 X10.0888 Y-17.0005 F60.00
G01 X10.0900 Y-17.0250 F60.00
G00 X10.0900 Y-17.0250
G01 F60.00
G01 Z-2.0000
G01 F60.00
G01 X10.0888 Y-17.0495 F60.00
G01 X10.0852 Y-17.0738 F60.00
G01 X10.0792 Y-17.0976 F60.00
G01 X10.0710 Y-17.1207 F60.00
G01 X10.0605 Y-17.1428 F60.00
G01 X10.0479 Y-17.1639 F60.00
G01 X10.0333 Y-17.1836 F60.00
G01 X10.0168 Y-17.2018 F60.00
G01 X9.9986 Y-17.2183 F60.00
G01 X9.9789 Y-17.2329 F60.00
G01 X9.9578 Y-17.2455 F60.00
G01 X9.9357 Y-17.2560 F60.00
G01 X9.9126 Y-17.2642 F60.00
G01 X9.8888 Y-17.2702 F60.00
G01 X9.8645 Y-17.2738 F60.00
G01 X9.8400 Y-17.2750 F60.00
G01 X9.8155 Y-17.2738 F60.00
G01 X9.7912 Y-17.2702 F60.00
G01 X9.7674 Y-17.2642 F60.00
G01 X9.7443 Y-17.2560 F60.00
G01 X9.7222 Y-17.2455 F60.00
G01 X9.7011 Y-17.2329 F60.00
G01 X9.6814 Y-17.2183 F60.00
G01 X9.6632 Y-17.2018 F60.00
G01 X9.6467 Y-17.1836 F60.00
G01 X9.6321 Y-17.1639 F60.00
G01 X9.6195 Y-17.1428 F60.00
G01 X9.6090 Y-17.1207 F60.00
G01 X9.6008 Y-17.0976 F60.00
G01 X9.5948 Y-17.0738 F60.00
G01 X9.5912 Y-17.0495 F60.00
G01 X9.5900 Y-17.0250 F60.00
G01 X9.5912 Y-17.0005 F60.00
G01 X9.5948 Y-16.9762 F60.00
G01 X9.6008 Y-16.9524 F60.00
G01 X9.6090 Y-16.9293 F60.00
G01 X9.6195 Y-16.9072 F60.00
G01 X9.6321 Y-16.8861 F60.00
G01 X9.6467 Y-16.8664 F60.00
G01 X9.6632 Y-16.8482 F60.00
G01 X9.6814 Y-16.8317 F60.00
G01 X9.7011 Y-16.8171 F60.00
G01 X9.7222 Y-16.8045 F60.00
G01 X9.7443 Y-16.7940 F60.00
G01 X9.7674 Y-16.7858 F60.00
G01 X9.7912 Y-16.7798 F60.00
G01 X9.8155 Y-16.7762 F60.00
G01 X9.8400 Y-16.7750 F60.00
G01 X9.8645 Y-16.7762 F60.00
G01 X9.8888 Y-16.7798 F60.00
G01 X9.9126 Y-16.7858 F60.00
G01 X9.9357 Y-16.7940 F60.00
G01 X9.9578 Y-16.8045 F60.00
G01 X9.9789 Y-16.8171 F60.00
G01 X9.9986 Y-16.8317 F60.00
G01 X10.0168 Y-16.8482 F60.00
G01 X10.0333 Y-16.8664 F60.00
G01 X10.0479 Y-16.8861 F60.00
G01 X10.0605 Y-16.9072 F60.00
G01 X10.0710 Y-16.9293 F60.00
G01 X10.0792 Y-16.9524 F60.00
G01 X10.0852 Y-16.9762 F60.00
G01 X10.0888 Y-17.0005 F60.00
G01 X10.0900 Y-17.0250 F60.00
G00 X10.0900 Y-17.0250
G01 F60.00
G01 Z-2.5000
G01 F60.00
G01 X10.0888 Y-17.0495 F60.00
G01 X10.0852 Y-17.0738 F60.00
G01 X10.0792 Y-17.0976 F60.00
G01 X10.0710 Y-17.1207 F60.00
G01 X10.0605 Y-17.1428 F60.00
G01 X10.0479 Y-17.1639 F60.00
G01 X10.0333 Y-17.1836 F60.00
G01 X10.0168 Y-17.2018 F60.00
G01 X9.9986 Y-17.2183 F60.00
G01 X9.9789 Y-17.2329 F60.00
G01 X9.9578 Y-17.2455 F60.00
G01 X9.9357 Y-17.2560 F60.00
G01 X9.9126 Y-17.2642 F60.00
G01 X9.8888 Y-17.2702 F60.00
G01 X9.8645 Y-17.2738 F60.00
G01 X9.8400 Y-17.2750 F60.00
G01 X9.8155 Y-17.2738 F60.00
G01 X9.7912 Y-17.2702 F60.00
G01 X9.7674 Y-17.2642 F60.00
G01 X9.7443 Y-17.2560 F60.00
G01 X9.7222 Y-17.2455 F60.00
G01 X9.7011 Y-17.2329 F60.00
G01 X9.6814 Y-17.2183 F60.00
G01 X9.6632 Y-17.2018 F60.00
G01 X9.6467 Y-17.1836 F60.00
G01 X9.6321 Y-17.1639 F60.00
G01 X9.6195 Y-17.1428 F60.00
G01 X9.6090 Y-17.1207 F60.00
G01 X9.6008 Y-17.0976 F60.00
G01 X9.5948 Y-17.0738 F60.00
G01 X9.5912 Y-17.0495 F60.00
G01 X9.5900 Y-17.0250 F60.00
G01 X9.5912 Y-17.0005 F60.00
G01 X9.5948 Y-16.9762 F60.00
G01 X9.6008 Y-16.9524 F60.00
G01 X9.6090 Y-16.9293 F60.00
G01 X9.6195 Y-16.9072 F60.00
G01 X9.6321 Y-16.8861 F60.00
G01 X9.6467 Y-16.8664 F60.00
G01 X9.6632 Y-16.8482 F60.00
G01 X9.6814 Y-16.8317 F60.00
G01 X9.7011 Y-16.8171 F60.00
G01 X9.7222 Y-16.8045 F60.00
G01 X9.7443 Y-16.7940 F60.00
G01 X9.7674 Y-16.7858 F60.00
G01 X9.7912 Y-16.7798 F60.00
G01 X9.8155 Y-16.7762 F60.00
G01 X9.8400 Y-16.7750 F60.00
G01 X9.8645 Y-16.7762 F60.00
G01 X9.8888 Y-16.7798 F60.00
G01 X9.9126 Y-16.7858 F60.00
G01 X9.9357 Y-16.7940 F60.00
G01 X9.9578 Y-16.8045 F60.00
G01 X9.9789 Y-16.8171 F60.00
G01 X9.9986 Y-16.8317 F60.00
G01 X10.0168 Y-16.8482 F60.00
G01 X10.0333 Y-16.8664 F60.00
G01 X10.0479 Y-16.8861 F60.00
G01 X10.0605 Y-16.9072 F60.00
G01 X10.0710 Y-16.9293 F60.00
G01 X10.0792 Y-16.9524 F60.00
G01 X10.0852 Y-16.9762 F60.00
G01 X10.0888 Y-17.0005 F60.00
G01 X10.0900 Y-17.0250 F60.00
G00 Z2.0000
G00 X9.4340 Y-20.5740
G01 F60.00
G01 Z-0.5000
G01 F60.00
G01 X9.4328 Y-20.5985 F60.00
G01 X9.4292 Y-20.6228 F60.00
G01 X9.4232 Y-20.6466 F60.00
G01 X9.4150 Y-20.6697 F60.00
G01 X9.4045 Y-20.6918 F60.00
G01 X9.3919 Y-20.7129 F60.00
G01 X9.3773 Y-20.7326 F60.00
G01 X9.3608 Y-20.7508 F60.00
G01 X9.3426 Y-20.7673 F60.00
G01 X9.3229 Y-20.7819 F60.00
G01 X9.3018 Y-20.7945 F60.00
G01 X9.2797 Y-20.8050 F60.00
G01 X9.2566 Y-20.8132 F60.00
G01 X9.2328 Y-20.8192 F60.00
G01 X9.2085 Y-20.8228 F60.00
G01 X9.1840 Y-20.8240 F60.00
G01 X9.1595 Y-20.8228 F60.00
G01 X9.1352 Y-20.8192 F60.00
G01 X9.1114 Y-20.8132 F60.00
G01 X9.0883 Y-20.8050 F60.00
G01 X9.0662 Y-20.7945 F60.00
G01 X9.0451 Y-20.7819 F60.00
G01 X9.0254 Y-20.7673 F60.00
G01 X9.0072 Y-20.7508 F60.00
G01 X8.9907 Y-20.7326 F60.00
G01 X8.9761 Y-20.7129 F60.00
G01 X8.9635 Y-20.6918 F60.00
G01 X8.9530 Y-20.6697 F60.00
G01 X8.9448 Y-20.6466 F60.00
G01 X8.9388 Y-20.6228 F60.00
G01 X8.9352 Y-20.5985 F60.00
G01 X8.9340 Y-20.5740 F60.00
G01 X8.9352 Y-20.5495 F60.00
G01 X8.9388 Y-20.5252 F60.00
G01 X8.9448 Y-20.5014 F60.00
G01 X8.9530 Y-20.4783 F60.00
G01 X8.9635 Y-20.4562 F60.00
G01 X8.9761 Y-20.4351 F60.00
G01 X8.9907 Y-20.4154 F60.00
G01 X9.0072 Y-20.3972 F60.00
G01 X9.0254 Y-20.3807 F60.00
G01 X9.0451 Y-20.3661 F60.00
G01 X9.0662 Y-20.3535 F60.00
G01 X9.0883 Y-20.3430 F60.00
G01 X9.1114 Y-20.3348 F60.00
G01 X9.1352 Y-20.3288 F60.00
G01 X9.1595 Y-20.3252 F60.00
G01 X9.1840 Y-20.3240 F60.00
G01 X9.2085 Y-20.3252 F60.00
G01 X9.2328 Y-20.3288 F60.00
G01 X9.2566 Y-20.3348 F60.00
G01 X9.2797 Y-20.3430 F60.00
G01 X9.3018 Y-20.3535 F60.00
G01 X9.3229 Y-20.3661 F60.00
G01 X9.3426 Y-20.3807 F60.00
G01 X9.3608 Y-20.3972 F60.00
G01 X9.3773 Y-20.4154 F60.00
G01 X9.3919 Y-20.4351 F60.00
G01 X9.4045 Y-20.4562 F60.00
G01 X9.4150 Y-20.4783 F60.00
G01 X9.4232 Y-20.5014 F60.00
G01 X9.4292 Y-20.5252 F60.00
G01 X9.4328 Y-20.5495 F60.00
G01 X9.4340 Y-20.5740 F60.00
G00 X9.4340 Y-20.5740
G01 F60.00
G01 Z-1.0000
G01 F60.00
G01 X9.4328 Y-20.5985 F60.00
G01 X9.4292 Y-20.6228 F60.00
G01 X9.4232 Y-20.6466 F60.00
G01 X9.4150 Y-20.6697 F60.00
G01 X9.4045 Y-20.6918 F60.00
G01 X9.3919 Y-20.7129 F60.00
G01 X9.3773 Y-20.7326 F60.00
G01 X9.3608 Y-20.7508 F60.00
G01 X9.3426 Y-20.7673 F60.00
G01 X9.3229 Y-20.7819 F60.00
G01 X9.3018 Y-20.7945 F60.00
G01 X9.2797 Y-20.8050 F60.00
G01 X9.2566 Y-20.8132 F60.00
G01 X9.2328 Y-20.8192 F60.00
G01 X9.2085 Y-20.8228 F60.00
G01 X9.1840 Y-20.8240 F60.00
G01 X9.1595 Y-20.8228 F60.00
G01 X9.1352 Y-20.8192 F60.00
G01 X9.1114 Y-20.8132 F60.00
G01 X9.0883 Y-20.8050 F60.00
G01 X9.0662 Y-20.7945 F60.00
G01 X9.0451 Y-20.7819 F60.00
G01 X9.0254 Y-20.7673 F60.00
G01 X9.0072 Y-20.7508 F60.00
G01 X8.9907 Y-20.7326 F60.00
G01 X8.9761 Y-20.7129 F60.00
G01 X8.9635 Y-20.6918 F60.00
G01 X8.9530 Y-20.6697 F60.00
G01 X8.9448 Y-20.6466 F60.00
G01 X8.9388 Y-20.6228 F60.00
G01 X8.9352 Y-20.5985 F60.00
G01 X8.9340 Y-20.5740 F60.00
G01 X8.9352 Y-20.5495 F60.00
G01 X8.9388 Y-20.5252 F60.00
G01 X8.9448 Y-20.5014 F60.00
G01 X8.9530 Y-20.4783 F60.00
G01 X8.9635 Y-20.4562 F60.00
G01 X8.9761 Y-20.4351 F60.00
G01 X8.9907 Y-20.4154 F60.00
G01 X9.0072 Y-20.3972 F60.00
G01 X9.0254 Y-20.3807 F60.00
G01 X9.0451 Y-20.3661 F60.00
G01 X9.0662 Y-20.3535 F60.00
G01 X9.0883 Y-20.3430 F60.00
G01 X9.1114 Y-20.3348 F60.00
G01 X9.1352 Y-20.3288 F60.00
G01 X9.1595 Y-20.3252 F60.00
G01 X9.1840 Y-20.3240 F60.00
G01 X9.2085 Y-20.3252 F60.00
G01 X9.2328 Y-20.3288 F60.00
G01 X9.2566 Y-20.3348 F60.00
G01 X9.2797 Y-20.3430 F60.00
G01 X9.3018 Y-20.3535 F60.00
G01 X9.3229 Y-20.3661 F60.00
G01 X9.3426 Y-20.3807 F60.00
G01 X9.3608 Y-20.3972 F60.00
G01 X9.3773 Y-20.4154 F60.00
G01 X9.3919 Y-20.4351 F60.00
G01 X9.4045 Y-20.4562 F60.00
G01 X9.4150 Y-20.4783 F60.00
G01 X9.4232 Y-20.5014 F60.00
G01 X9.4292 Y-20.5252 F60.00
G01 X9.4328 Y-20.5495 F60.00
G01 X9.4340 Y-20.5740 F60.00
G00 X9.4340 Y-20.5740
G01 F60.00
G01 Z-1.5000
G01 F60.00
G01 X9.4328 Y-20.5985 F60.00
G01 X9.4292 Y-20.6228 F60.00
G01 X9.4232 Y-20.6466 F60.00
G01 X9.4150 Y-20.6697 F60.00
G01 X9.4045 Y-20.6918 F60.00
G01 X9.3919 Y-20.7129 F60.00
G01 X9.3773 Y-20.7326 F60.00
G01 X9.3608 Y-20.7508 F60.00
G01 X9.3426 Y-20.7673 F60.00
G01 X9.3229 Y-20.7819 F60.00
G01 X9.3018 Y-20.7945 F60.00
G01 X9.2797 Y-20.8050 F60.00
G01 X9.2566 Y-20.8132 F60.00
G01 X9.2328 Y-20.8192 F60.00
G01 X9.2085 Y-20.8228 F60.00
G01 X9.1840 Y-20.8240 F60.00
G01 X9.1595 Y-20.8228 F60.00
G01 X9.1352 Y-20.8192 F60.00
G01 X9.1114 Y-20.8132 F60.00
G01 X9.0883 Y-20.8050 F60.00
G01 X9.0662 Y-20.7945 F60.00
G01 X9.0451 Y-20.7819 F60.00
G01 X9.0254 Y-20.7673 F60.00
G01 X9.0072 Y-20.7508 F60.00
G01 X8.9907 Y-20.7326 F60.00
G01 X8.9761 Y-20.7129 F60.00
G01 X8.9635 Y-20.6918 F60.00
G01 X8.9530 Y-20.6697 F60.00
G01 X8.9448 Y-20.6466 F60.00
G01 X8.9388 Y-20.6228 F60.00
G01 X8.9352 Y-20.5985 F60.00
G01 X8.9340 Y-20.5740 F60.00
G01 X8.9352 Y-20.5495 F60.00
G01 X8.9388 Y-20.5252 F60.00
G01 X8.9448 Y-20.5014 F60.00
G01 X8.9530 Y-20.4783 F60.00
G01 X8.9635 Y-20.4562 F60.00
G01 X8.9761 Y-20.4351 F60.00
G01 X8.9907 Y-20.4154 F60.00
G01 X9.0072 Y-20.3972 F60.00
G01 X9.0254 Y-20.3807 F60.00
G01 X9.0451 Y-20.3661 F60.00
G01 X9.0662 Y-20.3535 F60.00
G01 X9.0883 Y-20.3430 F60.00
G01 X9.1114 Y-20.3348 F60.00
G01 X9.1352 Y-20.3288 F60.00
G01 X9.1595 Y-20.3252 F60.00
G01 X9.1840 Y-20.3240 F60.00
G01 X9.2085 Y-20.3252 F60.00
G01 X9.2328 Y-20.3288 F60.00
G01 X9.2566 Y-20.3348 F60.00
G01 X9.2797 Y-20.3430 F60.00
G01 X9.3018 Y-20.3535 F60.00
G01 X9.3229 Y-20.3661 F60.00
G01 X9.3426 Y-20.3807 F60.00
G01 X9.3608 Y-20.3972 F60.00
G01 X9.3773 Y-20.4154 F60.00
G01 X9.3919 Y-20.4351 F60.00
G01 X9.4045 Y-20.4562 F60.00
G01 X9.4150 Y-20.4783 F60.00
G01 X9.4232 Y-20.5014 F60.00
G01 X9.4292 Y-20.5252 F60.00
G01 X9.4328 Y-20.5495 F60.00
G01 X9.4340 Y-20.5740 F60.00
G00 X9.4340 Y-20.5740
G01 F60.00
G01 Z-2.0000
G01 F60.00
G01 X9.4328 Y-20.5985 F60.00
G01 X9.4292 Y-20.6228 F60.00
G01 X9.4232 Y-20.6466 F60.00
G01 X9.4150 Y-20.6697 F60.00
G01 X9.4045 Y-20.6918 F60.00
G01 X9.3919 Y-20.7129 F60.00
G01 X9.3773 Y-20.7326 F60.00
G01 X9.3608 Y-20.7508 F60.00
G01 X9.3426 Y-20.7673 F60.00
G01 X9.3229 Y-20.7819 F60.00
G01 X9.3018 Y-20.7945 F60.00
G01 X9.2797 Y-20.8050 F60.00
G01 X9.2566 Y-20.8132 F60.00
G01 X9.2328 Y-20.8192 F60.00
G01 X9.2085 Y-20.8228 F60.00
G01 X9.1840 Y-20.8240 F60.00
G01 X9.1595 Y-20.8228 F60.00
G01 X9.1352 Y-20.8192 F60.00
G01 X9.1114 Y-20.8132 F60.00
G01 X9.0883 Y-20.8050 F60.00
G01 X9.0662 Y-20.7945 F60.00
G01 X9.0451 Y-20.7819 F60.00
G01 X9.0254 Y-20.7673 F60.00
G01 X9.0072 Y-20.7508 F60.00
G01 X8.9907 Y-20.7326 F60.00
G01 X8.9761 Y-20.7129 F60.00
G01 X8.9635 Y-20.6918 F60.00
G01 X8.9530 Y-20.6697 F60.00
G01 X8.9448 Y-20.6466 F60.00
G01 X8.9388 Y-20.6228 F60.00
G01 X8.9352 Y-20.5985 F60.00
G01 X8.9340 Y-20.5740 F60.00
G01 X8.9352 Y-20.5495 F60.00
G01 X8.9388 Y-20.5252 F60.00
G01 X8.9448 Y-20.5014 F60.00
G01 X8.9530 Y-20.4783 F60.00
G01 X8.9635 Y-20.4562 F60.00
G01 X8.9761 Y-20.4351 F60.00
G01 X8.9907 Y-20.4154 F60.00
G01 X9.0072 Y-20.3972 F60.00
G01 X9.0254 Y-20.3807 F60.00
G01 X9.0451 Y-20.3661 F60.00
G01 X9.0662 Y-20.3535 F60.00
G01 X9.0883 Y-20.3430 F60.00
G01 X9.1114 Y-20.3348 F60.00
G01 X9.1352 Y-20.3288 F60.00
G01 X9.1595 Y-20.3252 F60.00
G01 X9.1840 Y-20.3240 F60.00
G01 X9.2085 Y-20.3252 F60.00
G01 X9.2328 Y-20.3288 F60.00
G01 X9.2566 Y-20.3348 F60.00
G01 X9.2797 Y-20.3430 F60.00
G01 X9.3018 Y-20.3535 F60.00
G01 X9.3229 Y-20.3661 F60.00
G01 X9.3426 Y-20.3807 F60.00
G01 X9.3608 Y-20.3972 F60.00
G01 X9.3773 Y-20.4154 F60.00
G01 X9.3919 Y-20.4351 F60.00
G01 X9.4045 Y-20.4562 F60.00
G01 X9.4150 Y-20.4783 F60.00
G01 X9.4232 Y-20.5014 F60.00
G01 X9.4292 Y-20.5252 F60.00
G01 X9.4328 Y-20.5495 F60.00
G01 X9.4340 Y-20.5740 F60.00
G00 X9.4340 Y-20.5740
G01 F60.00
G01 Z-2.5000
G01 F60.00
G01 X9.4328 Y-20.5985 F60.00
G01 X9.4292 Y-20.6228 F60.00
G01 X9.4232 Y-20.6466 F60.00
G01 X9.4150 Y-20.6697 F60.00
G01 X9.4045 Y-20.6918 F60.00
G01 X9.3919 Y-20.7129 F60.00
G01 X9.3773 Y-20.7326 F60.00
G01 X9.3608 Y-20.7508 F60.00
G01 X9.3426 Y-20.7673 F60.00
G01 X9.3229 Y-20.7819 F60.00
G01 X9.3018 Y-20.7945 F60.00
G01 X9.2797 Y-20.8050 F60.00
G01 X9.2566 Y-20.8132 F60.00
G01 X9.2328 Y-20.8192 F60.00
G01 X9.2085 Y-20.8228 F60.00
G01 X9.1840 Y-20.8240 F60.00
G01 X9.1595 Y-20.8228 F60.00
G01 X9.1352 Y-20.8192 F60.00
G01 X9.1114 Y-20.8132 F60.00
G01 X9.0883 Y-20.8050 F60.00
G01 X9.0662 Y-20.7945 F60.00
G01 X9.0451 Y-20.7819 F60.00
G01 X9.0254 Y-20.7673 F60.00
G01 X9.0072 Y-20.7508 F60.00
G01 X8.9907 Y-20.7326 F60.00
G01 X8.9761 Y-20.7129 F60.00
G01 X8.9635 Y-20.6918 F60.00
G01 X8.9530 Y-20.6697 F60.00
G01 X8.9448 Y-20.6466 F60.00
G01 X8.9388 Y-20.6228 F60.00
G01 X8.9352 Y-20.5985 F60.00
G01 X8.9340 Y-20.5740 F60.00
G01 X8.9352 Y-20.5495 F60.00
G01 X8.9388 Y-20.5252 F60.00
G01 X8.9448 Y-20.5014 F60.00
G01 X8.9530 Y-20.4783 F60.00
G01 X8.9635 Y-20.4562 F60.00
G01 X8.9761 Y-20.4351 F60.00
G01 X8.9907 Y-20.4154 F60.00
G01 X9.0072 Y-20.3972 F60.00
G01 X9.0254 Y-20.3807 F60.00
G01 X9.0451 Y-20.3661 F60.00
G01 X9.0662 Y-20.3535 F60.00
G01 X9.0883 Y-20.3430 F60.00
G01 X9.1114 Y-20.3348 F60.00
G01 X9.1352 Y-20.3288 F60.00
G01 X9.1595 Y-20.3252 F60.00
G01 X9.1840 Y-20.3240 F60.00
G01 X9.2085 Y-20.3252 F60.00
G01 X9.2328 Y-20.3288 F60.00
G01 X9.2566 Y-20.3348 F60.00
G01 X9.2797 Y-20.3430 F60.00
G01 X9.3018 Y-20.3535 F60.00
G01 X9.3229 Y-20.3661 F60.00
G01 X9.3426 Y-20.3807 F60.00
G01 X9.3608 Y-20.3972 F60.00
G01 X9.3773 Y-20.4154 F60.00
G01 X9.3919 Y-20.4351 F60.00
G01 X9.4045 Y-20.4562 F60.00
G01 X9.4150 Y-20.4783 F60.00
G01 X9.4232 Y-20.5014 F60.00
G01 X9.4292 Y-20.5252 F60.00
G01 X9.4328 Y-20.5495 F60.00
G01 X9.4340 Y-20.5740 F60.00
G00 Z2.0000
G00 X9.4540 Y-23.1650
G01 F60.00
G01 Z-0.5000
G01 F60.00
G01 X9.4528 Y-23.1895 F60.00
G01 X9.4492 Y-23.2138 F60.00
G01 X9.4432 Y-23.2376 F60.00
G01 X9.4350 Y-23.2607 F60.00
G01 X9.4245 Y-23.2828 F60.00
G01 X9.4119 Y-23.3039 F60.00
G01 X9.3973 Y-23.3236 F60.00
G01 X9.3808 Y-23.3418 F60.00
G01 X9.3626 Y-23.3583 F60.00
G01 X9.3429 Y-23.3729 F60.00
G01 X9.3218 Y-23.3855 F60.00
G01 X9.2997 Y-23.3960 F60.00
G01 X9.2766 Y-23.4042 F60.00
G01 X9.2528 Y-23.4102 F60.00
G01 X9.2285 Y-23.4138 F60.00
G01 X9.2040 Y-23.4150 F60.00
G01 X9.1795 Y-23.4138 F60.00
G01 X9.1552 Y-23.4102 F60.00
G01 X9.1314 Y-23.4042 F60.00
G01 X9.1083 Y-23.3960 F60.00
G01 X9.0862 Y-23.3855 F60.00
G01 X9.0651 Y-23.3729 F60.00
G01 X9.0454 Y-23.3583 F60.00
G01 X9.0272 Y-23.3418 F60.00
G01 X9.0107 Y-23.3236 F60.00
G01 X8.9961 Y-23.3039 F60.00
G01 X8.9835 Y-23.2828 F60.00
G01 X8.9730 Y-23.2607 F60.00
G01 X8.9648 Y-23.2376 F60.00
G01 X8.9588 Y-23.2138 F60.00
G01 X8.9552 Y-23.1895 F60.00
G01 X8.9540 Y-23.1650 F60.00
G01 X8.9552 Y-23.1405 F60.00
G01 X8.9588 Y-23.1162 F60.00
G01 X8.9648 Y-23.0924 F60.00
G01 X8.9730 Y-23.0693 F60.00
G01 X8.9835 Y-23.0472 F60.00
G01 X8.9961 Y-23.0261 F60.00
G01 X9.0107 Y-23.0064 F60.00
G01 X9.0272 Y-22.9882 F60.00
G01 X9.0454 Y-22.9717 F60.00
G01 X9.0651 Y-22.9571 F60.00
G01 X9.0862 Y-22.9445 F60.00
G01 X9.1083 Y-22.9340 F60.00
G01 X9.1314 Y-22.9258 F60.00
G01 X9.1552 Y-22.9198 F60.00
G01 X9.1795 Y-22.9162 F60.00
G01 X9.2040 Y-22.9150 F60.00
G01 X9.2285 Y-22.9162 F60.00
G01 X9.2528 Y-22.9198 F60.00
G01 X9.2766 Y-22.9258 F60.00
G01 X9.2997 Y-22.9340 F60.00
G01 X9.3218 Y-22.9445 F60.00
G01 X9.3429 Y-22.9571 F60.00
G01 X9.3626 Y-22.9717 F60.00
G01 X9.3808 Y-22.9882 F60.00
G01 X9.3973 Y-23.0064 F60.00
G01 X9.4119 Y-23.0261 F60.00
G01 X9.4245 Y-23.0472 F60.00
G01 X9.4350 Y-23.0693 F60.00
G01 X9.4432 Y-23.0924 F60.00
G01 X9.4492 Y-23.1162 F60.00
G01 X9.4528 Y-23.1405 F60.00
G01 X9.4540 Y-23.1650 F60.00
G00 X9.4540 Y-23.1650
G01 F60.00
G01 Z-1.0000
G01 F60.00
G01 X9.4528 Y-23.1895 F60.00
G01 X9.4492 Y-23.2138 F60.00
G01 X9.4432 Y-23.2376 F60.00
G01 X9.4350 Y-23.2607 F60.00
G01 X9.4245 Y-23.2828 F60.00
G01 X9.4119 Y-23.3039 F60.00
G01 X9.3973 Y-23.3236 F60.00
G01 X9.3808 Y-23.3418 F60.00
G01 X9.3626 Y-23.3583 F60.00
G01 X9.3429 Y-23.3729 F60.00
G01 X9.3218 Y-23.3855 F60.00
G01 X9.2997 Y-23.3960 F60.00
G01 X9.2766 Y-23.4042 F60.00
G01 X9.2528 Y-23.4102 F60.00
G01 X9.2285 Y-23.4138 F60.00
G01 X9.2040 Y-23.4150 F60.00
G01 X9.1795 Y-23.4138 F60.00
G01 X9.1552 Y-23.4102 F60.00
G01 X9.1314 Y-23.4042 F60.00
G01 X9.1083 Y-23.3960 F60.00
G01 X9.0862 Y-23.3855 F60.00
G01 X9.0651 Y-23.3729 F60.00
G01 X9.0454 Y-23.3583 F60.00
G01 X9.0272 Y-23.3418 F60.00
G01 X9.0107 Y-23.3236 F60.00
G01 X8.9961 Y-23.3039 F60.00
G01 X8.9835 Y-23.2828 F60.00
G01 X8.9730 Y-23.2607 F60.00
G01 X8.9648 Y-23.2376 F60.00
G01 X8.9588 Y-23.2138 F60.00
G01 X8.9552 Y-23.1895 F60.00
G01 X8.9540 Y-23.1650 F60.00
G01 X8.9552 Y-23.1405 F60.00
G01 X8.9588 Y-23.1162 F60.00
G01 X8.9648 Y-23.0924 F60.00
G01 X8.9730 Y-23.0693 F60.00
G01 X8.9835 Y-23.0472 F60.00
G01 X8.9961 Y-23.0261 F60.00
G01 X9.0107 Y-23.0064 F60.00
G01 X9.0272 Y-22.9882 F60.00
G01 X9.0454 Y-22.9717 F60.00
G01 X9.0651 Y-22.9571 F60.00
G01 X9.0862 Y-22.9445 F60.00
G01 X9.1083 Y-22.9340 F60.00
G01 X9.1314 Y-22.9258 F60.00
G01 X9.1552 Y-22.9198 F60.00
G01 X9.1795 Y-22.9162 F60.00
G01 X9.2040 Y-22.9150 F60.00
G01 X9.2285 Y-22.9162 F60.00
G01 X9.2528 Y-22.9198 F60.00
G01 X9.2766 Y-22.9258 F60.00
G01 X9.2997 Y-22.9340 F60.00
G01 X9.3218 Y-22.9445 F60.00
G01 X9.3429 Y-22.9571 F60.00
G01 X9.3626 Y-22.9717 F60.00
G01 X9.3808 Y-22.9882 F60.00
G01 X9.3973 Y-23.0064 F60.00
G01 X9.4119 Y-23.0261 F60.00
G01 X9.4245 Y-23.0472 F60.00
G01 X9.4350 Y-23.0693 F60.00
G01 X9.4432 Y-23.0924 F60.00
G01 X9.4492 Y-23.1162 F60.00
G01 X9.4528 Y-23.1405 F60.00
G01 X9.4540 Y-23.1650 F60.00
G00 X9.4540 Y-23.1650
G01 F60.00
G01 Z-1.5000
G01 F60.00
G01 X9.4528 Y-23.1895 F60.00
G01 X9.4492 Y-23.2138 F60.00
G01 X9.4432 Y-23.2376 F60.00
G01 X9.4350 Y-23.2607 F60.00
G01 X9.4245 Y-23.2828 F60.00
G01 X9.4119 Y-23.3039 F60.00
G01 X9.3973 Y-23.3236 F60.00
G01 X9.3808 Y-23.3418 F60.00
G01 X9.3626 Y-23.3583 F60.00
G01 X9.3429 Y-23.3729 F60.00
G01 X9.3218 Y-23.3855 F60.00
G01 X9.2997 Y-23.3960 F60.00
G01 X9.2766 Y-23.4042 F60.00
G01 X9.2528 Y-23.4102 F60.00
G01 X9.2285 Y-23.4138 F60.00
G01 X9.2040 Y-23.4150 F60.00
G01 X9.1795 Y-23.4138 F60.00
G01 X9.1552 Y-23.4102 F60.00
G01 X9.1314 Y-23.4042 F60.00
G01 X9.1083 Y-23.3960 F60.00
G01 X9.0862 Y-23.3855 F60.00
G01 X9.0651 Y-23.3729 F60.00
G01 X9.0454 Y-23.3583 F60.00
G01 X9.0272 Y-23.3418 F60.00
G01 X9.0107 Y-23.3236 F60.00
G01 X8.9961 Y-23.3039 F60.00
G01 X8.9835 Y-23.2828 F60.00
G01 X8.9730 Y-23.2607 F60.00
G01 X8.9648 Y-23.2376 F60.00
G01 X8.9588 Y-23.2138 F60.00
G01 X8.9552 Y-23.1895 F60.00
G01 X8.9540 Y-23.1650 F60.00
G01 X8.9552 Y-23.1405 F60.00
G01 X8.9588 Y-23.1162 F60.00
G01 X8.9648 Y-23.0924 F60.00
G01 X8.9730 Y-23.0693 F60.00
G01 X8.9835 Y-23.0472 F60.00
G01 X8.9961 Y-23.0261 F60.00
G01 X9.0107 Y-23.0064 F60.00
G01 X9.0272 Y-22.9882 F60.00
G01 X9.0454 Y-22.9717 F60.00
G01 X9.0651 Y-22.9571 F60.00
G01 X9.0862 Y-22.9445 F60.00
G01 X9.1083 Y-22.9340 F60.00
G01 X9.1314 Y-22.9258 F60.00
G01 X9.1552 Y-22.9198 F60.00
G01 X9.1795 Y-22.9162 F60.00
G01 X9.2040 Y-22.9150 F60.00
G01 X9.2285 Y-22.9162 F60.00
G01 X9.2528 Y-22.9198 F60.00
G01 X9.2766 Y-22.9258 F60.00
G01 X9.2997 Y-22.9340 F60.00
G01 X9.3218 Y-22.9445 F60.00
G01 X9.3429 Y-22.9571 F60.00
G01 X9.3626 Y-22.9717 F60.00
G01 X9.3808 Y-22.9882 F60.00
G01 X9.3973 Y-23.0064 F60.00
G01 X9.4119 Y-23.0261 F60.00
G01 X9.4245 Y-23.0472 F60.00
G01 X9.4350 Y-23.0693 F60.00
G01 X9.4432 Y-23.0924 F60.00
G01 X9.4492 Y-23.1162 F60.00
G01 X9.4528 Y-23.1405 F60.00
G01 X9.4540 Y-23.1650 F60.00
G00 X9.4540 Y-23.1650
G01 F60.00
G01 Z-2.0000
G01 F60.00
G01 X9.4528 Y-23.1895 F60.00
G01 X9.4492 Y-23.2138 F60.00
G01 X9.4432 Y-23.2376 F60.00
G01 X9.4350 Y-23.2607 F60.00
G01 X9.4245 Y-23.2828 F60.00
G01 X9.4119 Y-23.3039 F60.00
G01 X9.3973 Y-23.3236 F60.00
G01 X9.3808 Y-23.3418 F60.00
G01 X9.3626 Y-23.3583 F60.00
G01 X9.3429 Y-23.3729 F60.00
G01 X9.3218 Y-23.3855 F60.00
G01 X9.2997 Y-23.3960 F60.00
G01 X9.2766 Y-23.4042 F60.00
G01 X9.2528 Y-23.4102 F60.00
G01 X9.2285 Y-23.4138 F60.00
G01 X9.2040 Y-23.4150 F60.00
G01 X9.1795 Y-23.4138 F60.00
G01 X9.1552 Y-23.4102 F60.00
G01 X9.1314 Y-23.4042 F60.00
G01 X9.1083 Y-23.3960 F60.00
G01 X9.0862 Y-23.3855 F60.00
G01 X9.0651 Y-23.3729 F60.00
G01 X9.0454 Y-23.3583 F60.00
G01 X9.0272 Y-23.3418 F60.00
G01 X9.0107 Y-23.3236 F60.00
G01 X8.9961 Y-23.3039 F60.00
G01 X8.9835 Y-23.2828 F60.00
G01 X8.9730 Y-23.2607 F60.00
G01 X8.9648 Y-23.2376 F60.00
G01 X8.9588 Y-23.2138 F60.00
G01 X8.9552 Y-23.1895 F60.00
G01 X8.9540 Y-23.1650 F60.00
G01 X8.9552 Y-23.1405 F60.00
G01 X8.9588 Y-23.1162 F60.00
G01 X8.9648 Y-23.0924 F60.00
G01 X8.9730 Y-23.0693 F60.00
G01 X8.9835 Y-23.0472 F60.00
G01 X8.9961 Y-23.0261 F60.00
G01 X9.0107 Y-23.0064 F60.00
G01 X9.0272 Y-22.9882 F60.00
G01 X9.0454 Y-22.9717 F60.00
G01 X9.0651 Y-22.9571 F60.00
G01 X9.0862 Y-22.9445 F60.00
G01 X9.1083 Y-22.9340 F60.00
G01 X9.1314 Y-22.9258 F60.00
G01 X9.1552 Y-22.9198 F60.00
G01 X9.1795 Y-22.9162 F60.00
G01 X9.2040 Y-22.9150 F60.00
G01 X9.2285 Y-22.9162 F60.00
G01 X9.2528 Y-22.9198 F60.00
G01 X9.2766 Y-22.9258 F60.00
G01 X9.2997 Y-22.9340 F60.00
G01 X9.3218 Y-22.9445 F60.00
G01 X9.3429 Y-22.9571 F60.00
G01 X9.3626 Y-22.9717 F60.00
G01 X9.3808 Y-22.9882 F60.00
G01 X9.3973 Y-23.0064 F60.00
G01 X9.4119 Y-23.0261 F60.00
G01 X9.4245 Y-23.0472 F60.00
G01 X9.4350 Y-23.0693 F60.00
G01 X9.4432 Y-23.0924 F60.00
G01 X9.4492 Y-23.1162 F60.00
G01 X9.4528 Y-23.1405 F60.00
G01 X9.4540 Y-23.1650 F60.00
G00 X9.4540 Y-23.1650
G01 F60.00
G01 Z-2.5000
G01 F60.00
G01 X9.4528 Y-23.1895 F60.00
G01 X9.4492 Y-23.2138 F60.00
G01 X9.4432 Y-23.2376 F60.00
G01 X9.4350 Y-23.2607 F60.00
G01 X9.4245 Y-23.2828 F60.00
G01 X9.4119 Y-23.3039 F60.00
G01 X9.3973 Y-23.3236 F60.00
G01 X9.3808 Y-23.3418 F60.00
G01 X9.3626 Y-23.3583 F60.00
G01 X9.3429 Y-23.3729 F60.00
G01 X9.3218 Y-23.3855 F60.00
G01 X9.2997 Y-23.3960 F60.00
G01 X9.2766 Y-23.4042 F60.00
G01 X9.2528 Y-23.4102 F60.00
G01 X9.2285 Y-23.4138 F60.00
G01 X9.2040 Y-23.4150 F60.00
G01 X9.1795 Y-23.4138 F60.00
G01 X9.1552 Y-23.4102 F60.00
G01 X9.1314 Y-23.4042 F60.00
G01 X9.1083 Y-23.3960 F60.00
G01 X9.0862 Y-23.3855 F60.00
G01 X9.0651 Y-23.3729 F60.00
G01 X9.0454 Y-23.3583 F60.00
G01 X9.0272 Y-23.3418 F60.00
G01 X9.0107 Y-23.3236 F60.00
G01 X8.9961 Y-23.3039 F60.00
G01 X8.9835 Y-23.2828 F60.00
G01 X8.9730 Y-23.2607 F60.00
G01 X8.9648 Y-23.2376 F60.00
G01 X8.9588 Y-23.2138 F60.00
G01 X8.9552 Y-23.1895 F60.00
G01 X8.9540 Y-23.1650 F60.00
G01 X8.9552 Y-23.1405 F60.00
G01 X8.9588 Y-23.1162 F60.00
G01 X8.9648 Y-23.0924 F60.00
G01 X8.9730 Y-23.0693 F60.00
G01 X8.9835 Y-23.0472 F60.00
G01 X8.9961 Y-23.0261 F60.00
G01 X9.0107 Y-23.0064 F60.00
G01 X9.0272 Y-22.9882 F60.00
G01 X9.0454 Y-22.9717 F60.00
G01 X9.0651 Y-22.9571 F60.00
G01 X9.0862 Y-22.9445 F60.00
G01 X9.1083 Y-22.9340 F60.00
G01 X9.1314 Y-22.9258 F60.00
G01 X9.1552 Y-22.9198 F60.00
G01 X9.1795 Y-22.9162 F60.00
G01 X9.2040 Y-22.9150 F60.00
G01 X9.2285 Y-22.9162 F60.00
G01 X9.2528 Y-22.9198 F60.00
G01 X9.2766 Y-22.9258 F60.00
G01 X9.2997 Y-22.9340 F60.00
G01 X9.3218 Y-22.9445 F60.00
G01 X9.3429 Y-22.9571 F60.00
G01 X9.3626 Y-22.9717 F60.00
G01 X9.3808 Y-22.9882 F60.00
G01 X9.3973 Y-23.0064 F60.00
G01 X9.4119 Y-23.0261 F60.00
G01 X9.4245 Y-23.0472 F60.00
G01 X9.4350 Y-23.0693 F60.00
G01 X9.4432 Y-23.0924 F60.00
G01 X9.4492 Y-23.1162 F60.00
G01 X9.4528 Y-23.1405 F60.00
G01 X9.4540 Y-23.1650 F60.00
G00 Z2.0000
G00 X6.1070 Y-24.0900
G01 F60.00
G01 Z-0.5000
G01 F60.00
G01 X6.1058 Y-24.1145 F60.00
G01 X6.1022 Y-24.1388 F60.00
G01 X6.0962 Y-24.1626 F60.00
G01 X6.0880 Y-24.1857 F60.00
G01 X6.0775 Y-24.2078 F60.00
G01 X6.0649 Y-24.2289 F60.00
G01 X6.0503 Y-24.2486 F60.00
G01 X6.0338 Y-24.2668 F60.00
G01 X6.0156 Y-24.2833 F60.00
G01 X5.9959 Y-24.2979 F60.00
G01 X5.9748 Y-24.3105 F60.00
G01 X5.9527 Y-24.3210 F60.00
G01 X5.9296 Y-24.3292 F60.00
G01 X5.9058 Y-24.3352 F60.00
G01 X5.8815 Y-24.3388 F60.00
G01 X5.8570 Y-24.3400 F60.00
G01 X5.8325 Y-24.3388 F60.00
G01 X5.8082 Y-24.3352 F60.00
G01 X5.7844 Y-24.3292 F60.00
G01 X5.7613 Y-24.3210 F60.00
G01 X5.7392 Y-24.3105 F60.00
G01 X5.7181 Y-24.2979 F60.00
G01 X5.6984 Y-24.2833 F60.00
G01 X5.6802 Y-24.2668 F60.00
G01 X5.6637 Y-24.2486 F60.00
G01 X5.6491 Y-24.2289 F60.00
G01 X5.6365 Y-24.2078 F60.00
G01 X5.6260 Y-24.1857 F60.00
G01 X5.6178 Y-24.1626 F60.00
G01 X5.6118 Y-24.1388 F60.00
G01 X5.6082 Y-24.1145 F60.00
G01 X5.6070 Y-24.0900 F60.00
G01 X5.6082 Y-24.0655 F60.00
G01 X5.6118 Y-24.0412 F60.00
G01 X5.6178 Y-24.0174 F60.00
G01 X5.6260 Y-23.9943 F60.00
G01 X5.6365 Y-23.9722 F60.00
G01 X5.6491 Y-23.9511 F60.00
G01 X5.6637 Y-23.9314 F60.00
G01 X5.6802 Y-23.9132 F60.00
G01 X5.6984 Y-23.8967 F60.00
G01 X5.7181 Y-23.8821 F60.00
G01 X5.7392 Y-23.8695 F60.00
G01 X5.7613 Y-23.8590 F60.00
G01 X5.7844 Y-23.8508 F60.00
G01 X5.8082 Y-23.8448 F60.00
G01 X5.8325 Y-23.8412 F60.00
G01 X5.8570 Y-23.8400 F60.00
G01 X5.8815 Y-23.8412 F60.00
G01 X5.9058 Y-23.8448 F60.00
G01 X5.9296 Y-23.8508 F60.00
G01 X5.9527 Y-23.8590 F60.00
G01 X5.9748 Y-23.8695 F60.00
G01 X5.9959 Y-23.8821 F60.00
G01 X6.0156 Y-23.8967 F60.00
G01 X6.0338 Y-23.9132 F60.00
G01 X6.0503 Y-23.9314 F60.00
G01 X6.0649 Y-23.9511 F60.00
G01 X6.0775 Y-23.9722 F60.00
G01 X6.0880 Y-23.9943 F60.00
G01 X6.0962 Y-24.0174 F60.00
G01 X6.1022 Y-24.0412 F60.00
G01 X6.1058 Y-24.0655 F60.00
G01 X6.1070 Y-24.0900 F60.00
G00 X6.1070 Y-24.0900
G01 F60.00
G01 Z-1.0000
G01 F60.00
G01 X6.1058 Y-24.1145 F60.00
G01 X6.1022 Y-24.1388 F60.00
G01 X6.0962 Y-24.1626 F60.00
G01 X6.0880 Y-24.1857 F60.00
G01 X6.0775 Y-24.2078 F60.00
G01 X6.0649 Y-24.2289 F60.00
G01 X6.0503 Y-24.2486 F60.00
G01 X6.0338 Y-24.2668 F60.00
G01 X6.0156 Y-24.2833 F60.00
G01 X5.9959 Y-24.2979 F60.00
G01 X5.9748 Y-24.3105 F60.00
G01 X5.9527 Y-24.3210 F60.00
G01 X5.9296 Y-24.3292 F60.00
G01 X5.9058 Y-24.3352 F60.00
G01 X5.8815 Y-24.3388 F60.00
G01 X5.8570 Y-24.3400 F60.00
G01 X5.8325 Y-24.3388 F60.00
G01 X5.8082 Y-24.3352 F60.00
G01 X5.7844 Y-24.3292 F60.00
G01 X5.7613 Y-24.3210 F60.00
G01 X5.7392 Y-24.3105 F60.00
G01 X5.7181 Y-24.2979 F60.00
G01 X5.6984 Y-24.2833 F60.00
G01 X5.6802 Y-24.2668 F60.00
G01 X5.6637 Y-24.2486 F60.00
G01 X5.6491 Y-24.2289 F60.00
G01 X5.6365 Y-24.2078 F60.00
G01 X5.6260 Y-24.1857 F60.00
G01 X5.6178 Y-24.1626 F60.00
G01 X5.6118 Y-24.1388 F60.00
G01 X5.6082 Y-24.1145 F60.00
G01 X5.6070 Y-24.0900 F60.00
G01 X5.6082 Y-24.0655 F60.00
G01 X5.6118 Y-24.0412 F60.00
G01 X5.6178 Y-24.0174 F60.00
G01 X5.6260 Y-23.9943 F60.00
G01 X5.6365 Y-23.9722 F60.00
G01 X5.6491 Y-23.9511 F60.00
G01 X5.6637 Y-23.9314 F60.00
G01 X5.6802 Y-23.9132 F60.00
G01 X5.6984 Y-23.8967 F60.00
G01 X5.7181 Y-23.8821 F60.00
G01 X5.7392 Y-23.8695 F60.00
G01 X5.7613 Y-23.8590 F60.00
G01 X5.7844 Y-23.8508 F60.00
G01 X5.8082 Y-23.8448 F60.00
G01 X5.8325 Y-23.8412 F60.00
G01 X5.8570 Y-23.8400 F60.00
G01 X5.8815 Y-23.8412 F60.00
G01 X5.9058 Y-23.8448 F60.00
G01 X5.9296 Y-23.8508 F60.00
G01 X5.9527 Y-23.8590 F60.00
G01 X5.9748 Y-23.8695 F60.00
G01 X5.9959 Y-23.8821 F60.00
G01 X6.0156 Y-23.8967 F60.00
G01 X6.0338 Y-23.9132 F60.00
G01 X6.0503 Y-23.9314 F60.00
G01 X6.0649 Y-23.9511 F60.00
G01 X6.0775 Y-23.9722 F60.00
G01 X6.0880 Y-23.9943 F60.00
G01 X6.0962 Y-24.0174 F60.00
G01 X6.1022 Y-24.0412 F60.00
G01 X6.1058 Y-24.0655 F60.00
G01 X6.1070 Y-24.0900 F60.00
G00 X6.1070 Y-24.0900
G01 F60.00
G01 Z-1.5000
G01 F60.00
G01 X6.1058 Y-24.1145 F60.00
G01 X6.1022 Y-24.1388 F60.00
G01 X6.0962 Y-24.1626 F60.00
G01 X6.0880 Y-24.1857 F60.00
G01 X6.0775 Y-24.2078 F60.00
G01 X6.0649 Y-24.2289 F60.00
G01 X6.0503 Y-24.2486 F60.00
G01 X6.0338 Y-24.2668 F60.00
G01 X6.0156 Y-24.2833 F60.00
G01 X5.9959 Y-24.2979 F60.00
G01 X5.9748 Y-24.3105 F60.00
G01 X5.9527 Y-24.3210 F60.00
G01 X5.9296 Y-24.3292 F60.00
G01 X5.9058 Y-24.3352 F60.00
G01 X5.8815 Y-24.3388 F60.00
G01 X5.8570 Y-24.3400 F60.00
G01 X5.8325 Y-24.3388 F60.00
G01 X5.8082 Y-24.3352 F60.00
G01 X5.7844 Y-24.3292 F60.00
G01 X5.7613 Y-24.3210 F60.00
G01 X5.7392 Y-24.3105 F60.00
G01 X5.7181 Y-24.2979 F60.00
G01 X5.6984 Y-24.2833 F60.00
G01 X5.6802 Y-24.2668 F60.00
G01 X5.6637 Y-24.2486 F60.00
G01 X5.6491 Y-24.2289 F60.00
G01 X5.6365 Y-24.2078 F60.00
G01 X5.6260 Y-24.1857 F60.00
G01 X5.6178 Y-24.1626 F60.00
G01 X5.6118 Y-24.1388 F60.00
G01 X5.6082 Y-24.1145 F60.00
G01 X5.6070 Y-24.0900 F60.00
G01 X5.6082 Y-24.0655 F60.00
G01 X5.6118 Y-24.0412 F60.00
G01 X5.6178 Y-24.0174 F60.00
G01 X5.6260 Y-23.9943 F60.00
G01 X5.6365 Y-23.9722 F60.00
G01 X5.6491 Y-23.9511 F60.00
G01 X5.6637 Y-23.9314 F60.00
G01 X5.6802 Y-23.9132 F60.00
G01 X5.6984 Y-23.8967 F60.00
G01 X5.7181 Y-23.8821 F60.00
G01 X5.7392 Y-23.8695 F60.00
G01 X5.7613 Y-23.8590 F60.00
G01 X5.7844 Y-23.8508 F60.00
G01 X5.8082 Y-23.8448 F60.00
G01 X5.8325 Y-23.8412 F60.00
G01 X5.8570 Y-23.8400 F60.00
G01 X5.8815 Y-23.8412 F60.00
G01 X5.9058 Y-23.8448 F60.00
G01 X5.9296 Y-23.8508 F60.00
G01 X5.9527 Y-23.8590 F60.00
G01 X5.9748 Y-23.8695 F60.00
G01 X5.9959 Y-23.8821 F60.00
G01 X6.0156 Y-23.8967 F60.00
G01 X6.0338 Y-23.9132 F60.00
G01 X6.0503 Y-23.9314 F60.00
G01 X6.0649 Y-23.9511 F60.00
G01 X6.0775 Y-23.9722 F60.00
G01 X6.0880 Y-23.9943 F60.00
G01 X6.0962 Y-24.0174 F60.00
G01 X6.1022 Y-24.0412 F60.00
G01 X6.1058 Y-24.0655 F60.00
G01 X6.1070 Y-24.0900 F60.00
G00 X6.1070 Y-24.0900
G01 F60.00
G01 Z-2.0000
G01 F60.00
G01 X6.1058 Y-24.1145 F60.00
G01 X6.1022 Y-24.1388 F60.00
G01 X6.0962 Y-24.1626 F60.00
G01 X6.0880 Y-24.1857 F60.00
G01 X6.0775 Y-24.2078 F60.00
G01 X6.0649 Y-24.2289 F60.00
G01 X6.0503 Y-24.2486 F60.00
G01 X6.0338 Y-24.2668 F60.00
G01 X6.0156 Y-24.2833 F60.00
G01 X5.9959 Y-24.2979 F60.00
G01 X5.9748 Y-24.3105 F60.00
G01 X5.9527 Y-24.3210 F60.00
G01 X5.9296 Y-24.3292 F60.00
G01 X5.9058 Y-24.3352 F60.00
G01 X5.8815 Y-24.3388 F60.00
G01 X5.8570 Y-24.3400 F60.00
G01 X5.8325 Y-24.3388 F60.00
G01 X5.8082 Y-24.3352 F60.00
G01 X5.7844 Y-24.3292 F60.00
G01 X5.7613 Y-24.3210 F60.00
G01 X5.7392 Y-24.3105 F60.00
G01 X5.7181 Y-24.2979 F60.00
G01 X5.6984 Y-24.2833 F60.00
G01 X5.6802 Y-24.2668 F60.00
G01 X5.6637 Y-24.2486 F60.00
G01 X5.6491 Y-24.2289 F60.00
G01 X5.6365 Y-24.2078 F60.00
G01 X5.6260 Y-24.1857 F60.00
G01 X5.6178 Y-24.1626 F60.00
G01 X5.6118 Y-24.1388 F60.00
G01 X5.6082 Y-24.1145 F60.00
G01 X5.6070 Y-24.0900 F60.00
G01 X5.6082 Y-24.0655 F60.00
G01 X5.6118 Y-24.0412 F60.00
G01 X5.6178 Y-24.0174 F60.00
G01 X5.6260 Y-23.9943 F60.00
G01 X5.6365 Y-23.9722 F60.00
G01 X5.6491 Y-23.9511 F60.00
G01 X5.6637 Y-23.9314 F60.00
G01 X5.6802 Y-23.9132 F60.00
G01 X5.6984 Y-23.8967 F60.00
G01 X5.7181 Y-23.8821 F60.00
G01 X5.7392 Y-23.8695 F60.00
G01 X5.7613 Y-23.8590 F60.00
G01 X5.7844 Y-23.8508 F60.00
G01 X5.8082 Y-23.8448 F60.00
G01 X5.8325 Y-23.8412 F60.00
G01 X5.8570 Y-23.8400 F60.00
G01 X5.8815 Y-23.8412 F60.00
G01 X5.9058 Y-23.8448 F60.00
G01 X5.9296 Y-23.8508 F60.00
G01 X5.9527 Y-23.8590 F60.00
G01 X5.9748 Y-23.8695 F60.00
G01 X5.9959 Y-23.8821 F60.00
G01 X6.0156 Y-23.8967 F60.00
G01 X6.0338 Y-23.9132 F60.00
G01 X6.0503 Y-23.9314 F60.00
G01 X6.0649 Y-23.9511 F60.00
G01 X6.0775 Y-23.9722 F60.00
G01 X6.0880 Y-23.9943 F60.00
G01 X6.0962 Y-24.0174 F60.00
G01 X6.1022 Y-24.0412 F60.00
G01 X6.1058 Y-24.0655 F60.00
G01 X6.1070 Y-24.0900 F60.00
G00 X6.1070 Y-24.0900
G01 F60.00
G01 Z-2.5000
G01 F60.00
G01 X6.1058 Y-24.1145 F60.00
G01 X6.1022 Y-24.1388 F60.00
G01 X6.0962 Y-24.1626 F60.00
G01 X6.0880 Y-24.1857 F60.00
G01 X6.0775 Y-24.2078 F60.00
G01 X6.0649 Y-24.2289 F60.00
G01 X6.0503 Y-24.2486 F60.00
G01 X6.0338 Y-24.2668 F60.00
G01 X6.0156 Y-24.2833 F60.00
G01 X5.9959 Y-24.2979 F60.00
G01 X5.9748 Y-24.3105 F60.00
G01 X5.9527 Y-24.3210 F60.00
G01 X5.9296 Y-24.3292 F60.00
G01 X5.9058 Y-24.3352 F60.00
G01 X5.8815 Y-24.3388 F60.00
G01 X5.8570 Y-24.3400 F60.00
G01 X5.8325 Y-24.3388 F60.00
G01 X5.8082 Y-24.3352 F60.00
G01 X5.7844 Y-24.3292 F60.00
G01 X5.7613 Y-24.3210 F60.00
G01 X5.7392 Y-24.3105 F60.00
G01 X5.7181 Y-24.2979 F60.00
G01 X5.6984 Y-24.2833 F60.00
G01 X5.6802 Y-24.2668 F60.00
G01 X5.6637 Y-24.2486 F60.00
G01 X5.6491 Y-24.2289 F60.00
G01 X5.6365 Y-24.2078 F60.00
G01 X5.6260 Y-24.1857 F60.00
G01 X5.6178 Y-24.1626 F60.00
G01 X5.6118 Y-24.1388 F60.00
G01 X5.6082 Y-24.1145 F60.00
G01 X5.6070 Y-24.0900 F60.00
G01 X5.6082 Y-24.0655 F60.00
G01 X5.6118 Y-24.0412 F60.00
G01 X5.6178 Y-24.0174 F60.00
G01 X5.6260 Y-23.9943 F60.00
G01 X5.6365 Y-23.9722 F60.00
G01 X5.6491 Y-23.9511 F60.00
G01 X5.6637 Y-23.9314 F60.00
G01 X5.6802 Y-23.9132 F60.00
G01 X5.6984 Y-23.8967 F60.00
G01 X5.7181 Y-23.8821 F60.00
G01 X5.7392 Y-23.8695 F60.00
G01 X5.7613 Y-23.8590 F60.00
G01 X5.7844 Y-23.8508 F60.00
G01 X5.8082 Y-23.8448 F60.00
G01 X5.8325 Y-23.8412 F60.00
G01 X5.8570 Y-23.8400 F60.00
G01 X5.8815 Y-23.8412 F60.00
G01 X5.9058 Y-23.8448 F60.00
G01 X5.9296 Y-23.8508 F60.00
G01 X5.9527 Y-23.8590 F60.00
G01 X5.9748 Y-23.8695 F60.00
G01 X5.9959 Y-23.8821 F60.00
G01 X6.0156 Y-23.8967 F60.00
G01 X6.0338 Y-23.9132 F60.00
G01 X6.0503 Y-23.9314 F60.00
G01 X6.0649 Y-23.9511 F60.00
G01 X6.0775 Y-23.9722 F60.00
G01 X6.0880 Y-23.9943 F60.00
G01 X6.0962 Y-24.0174 F60.00
G01 X6.1022 Y-24.0412 F60.00
G01 X6.1058 Y-24.0655 F60.00
G01 X6.1070 Y-24.0900 F60.00
G00 Z2.0000
G00 X10.1560 Y-26.8470
G01 F60.00
G01 Z-0.5000
G01 F60.00
G01 X10.1548 Y-26.8715 F60.00
G01 X10.1512 Y-26.8958 F60.00
G01 X10.1452 Y-26.9196 F60.00
G01 X10.1370 Y-26.9427 F60.00
G01 X10.1265 Y-26.9648 F60.00
G01 X10.1139 Y-26.9859 F60.00
G01 X10.0993 Y-27.0056 F60.00
G01 X10.0828 Y-27.0238 F60.00
G01 X10.0646 Y-27.0403 F60.00
G01 X10.0449 Y-27.0549 F60.00
G01 X10.0238 Y-27.0675 F60.00
G01 X10.0017 Y-27.0780 F60.00
G01 X9.9786 Y-27.0862 F60.00
G01 X9.9548 Y-27.0922 F60.00
G01 X9.9305 Y-27.0958 F60.00
G01 X9.9060 Y-27.0970 F60.00
G01 X9.8815 Y-27.0958 F60.00
G01 X9.8572 Y-27.0922 F60.00
G01 X9.8334 Y-27.0862 F60.00
G01 X9.8103 Y-27.0780 F60.00
G01 X9.7882 Y-27.0675 F60.00
G01 X9.7671 Y-27.0549 F60.00
G01 X9.7474 Y-27.0403 F60.00
G01 X9.7292 Y-27.0238 F60.00
G01 X9.7127 Y-27.0056 F60.00
G01 X9.6981 Y-26.9859 F60.00
G01 X9.6855 Y-26.9648 F60.00
G01 X9.6750 Y-26.9427 F60.00
G01 X9.6668 Y-26.9196 F60.00
G01 X9.6608 Y-26.8958 F60.00
G01 X9.6572 Y-26.8715 F60.00
G01 X9.6560 Y-26.8470 F60.00
G01 X9.6572 Y-26.8225 F60.00
G01 X9.6608 Y-26.7982 F60.00
G01 X9.6668 Y-26.7744 F60.00
G01 X9.6750 Y-26.7513 F60.00
G01 X9.6855 Y-26.7292 F60.00
G01 X9.6981 Y-26.7081 F60.00
G01 X9.7127 Y-26.6884 F60.00
G01 X9.7292 Y-26.6702 F60.00
G01 X9.7474 Y-26.6537 F60.00
G01 X9.7671 Y-26.6391 F60.00
G01 X9.7882 Y-26.6265 F60.00
G01 X9.8103 Y-26.6160 F60.00
G01 X9.8334 Y-26.6078 F60.00
G01 X9.8572 Y-26.6018 F60.00
G01 X9.8815 Y-26.5982 F60.00
G01 X9.9060 Y-26.5970 F60.00
G01 X9.9305 Y-26.5982 F60.00
G01 X9.9548 Y-26.6018 F60.00
G01 X9.9786 Y-26.6078 F60.00
G01 X10.0017 Y-26.6160 F60.00
G01 X10.0238 Y-26.6265 F60.00
G01 X10.0449 Y-26.6391 F60.00
G01 X10.0646 Y-26.6537 F60.00
G01 X10.0828 Y-26.6702 F60.00
G01 X10.0993 Y-26.6884 F60.00
G01 X10.1139 Y-26.7081 F60.00
G01 X10.1265 Y-26.7292 F60.00
G01 X10.1370 Y-26.7513 F60.00
G01 X10.1452 Y-26.7744 F60.00
G01 X10.1512 Y-26.7982 F60.00
G01 X10.1548 Y-26.8225 F60.00
G01 X10.1560 Y-26.8470 F60.00
G00 X10.1560 Y-26.8470
G01 F60.00
G01 Z-1.0000
G01 F60.00
G01 X10.1548 Y-26.8715 F60.00
G01 X10.1512 Y-26.8958 F60.00
G01 X10.1452 Y-26.9196 F60.00
G01 X10.1370 Y-26.9427 F60.00
G01 X10.1265 Y-26.9648 F60.00
G01 X10.1139 Y-26.9859 F60.00
G01 X10.0993 Y-27.0056 F60.00
G01 X10.0828 Y-27.0238 F60.00
G01 X10.0646 Y-27.0403 F60.00
G01 X10.0449 Y-27.0549 F60.00
G01 X10.0238 Y-27.0675 F60.00
G01 X10.0017 Y-27.0780 F60.00
G01 X9.9786 Y-27.0862 F60.00
G01 X9.9548 Y-27.0922 F60.00
G01 X9.9305 Y-27.0958 F60.00
G01 X9.9060 Y-27.0970 F60.00
G01 X9.8815 Y-27.0958 F60.00
G01 X9.8572 Y-27.0922 F60.00
G01 X9.8334 Y-27.0862 F60.00
G01 X9.8103 Y-27.0780 F60.00
G01 X9.7882 Y-27.0675 F60.00
G01 X9.7671 Y-27.0549 F60.00
G01 X9.7474 Y-27.0403 F60.00
G01 X9.7292 Y-27.0238 F60.00
G01 X9.7127 Y-27.0056 F60.00
G01 X9.6981 Y-26.9859 F60.00
G01 X9.6855 Y-26.9648 F60.00
G01 X9.6750 Y-26.9427 F60.00
G01 X9.6668 Y-26.9196 F60.00
G01 X9.6608 Y-26.8958 F60.00
G01 X9.6572 Y-26.8715 F60.00
G01 X9.6560 Y-26.8470 F60.00
G01 X9.6572 Y-26.8225 F60.00
G01 X9.6608 Y-26.7982 F60.00
G01 X9.6668 Y-26.7744 F60.00
G01 X9.6750 Y-26.7513 F60.00
G01 X9.6855 Y-26.7292 F60.00
G01 X9.6981 Y-26.7081 F60.00
G01 X9.7127 Y-26.6884 F60.00
G01 X9.7292 Y-26.6702 F60.00
G01 X9.7474 Y-26.6537 F60.00
G01 X9.7671 Y-26.6391 F60.00
G01 X9.7882 Y-26.6265 F60.00
G01 X9.8103 Y-26.6160 F60.00
G01 X9.8334 Y-26.6078 F60.00
G01 X9.8572 Y-26.6018 F60.00
G01 X9.8815 Y-26.5982 F60.00
G01 X9.9060 Y-26.5970 F60.00
G01 X9.9305 Y-26.5982 F60.00
G01 X9.9548 Y-26.6018 F60.00
G01 X9.9786 Y-26.6078 F60.00
G01 X10.0017 Y-26.6160 F60.00
G01 X10.0238 Y-26.6265 F60.00
G01 X10.0449 Y-26.6391 F60.00
G01 X10.0646 Y-26.6537 F60.00
G01 X10.0828 Y-26.6702 F60.00
G01 X10.0993 Y-26.6884 F60.00
G01 X10.1139 Y-26.7081 F60.00
G01 X10.1265 Y-26.7292 F60.00
G01 X10.1370 Y-26.7513 F60.00
G01 X10.1452 Y-26.7744 F60.00
G01 X10.1512 Y-26.7982 F60.00
G01 X10.1548 Y-26.8225 F60.00
G01 X10.1560 Y-26.8470 F60.00
G00 X10.1560 Y-26.8470
G01 F60.00
G01 Z-1.5000
G01 F60.00
G01 X10.1548 Y-26.8715 F60.00
G01 X10.1512 Y-26.8958 F60.00
G01 X10.1452 Y-26.9196 F60.00
G01 X10.1370 Y-26.9427 F60.00
G01 X10.1265 Y-26.9648 F60.00
