(G-CODE GENERATED BY FLATCAM v8.994 - www.flatcam.org - Version Date: 2020/11/7)

(Name: Active_Electrode-F_Cu.gbr_cutout_cnc)
(Type: G-code from Geometry)
(Units: MM)

(Created on Thursday, 14 March 2024 at 18:11)

(This preprocessor is used with a motion controller loaded with GRBL firmware.)
(It is configured to be compatible with almost any version of GRBL firmware.)

(TOOL DIAMETER: 0.5 mm)
(Feedrate_XY: 90.0 mm/min)
(Feedrate_Z: 60.0 mm/min)
(Feedrate rapids 1500.0 mm/min)

(Z_Cut: -1.0 mm)
(DepthPerCut: 0.25 mm <=>4 passes)
(Z_Move: 2.0 mm)
(Z Start: None mm)
(Z End: 15.0 mm)
(X,Y End: 0.0000, 0.0000 mm)
(Steps per circle: 64)
(Steps per circle: 64)
(Preprocessor Geometry: GRBL_11_no_M6)

(X range:   -0.3500 ...   30.5760  mm)
(Y range:  -60.0400 ...    0.3500  mm)

(Spindle Speed: 0.0 RPM)
G21
G90
G17
G94


G01 F90.00

M5             
G00 Z15.0000
G00 X0.0000 Y0.0000                
T9999
(MSG, Change to Tool Dia = 0.5000)
M0
G00 Z15.0000
        
M03
G01 F90.00
G00 X-0.3500 Y-27.4950
G01 F60.00
G01 Z-0.2500
G01 F90.00
G01 X-0.3500 Y-31.9950 F90.00
G00 X-0.3500 Y-31.9950
G01 F60.00
G01 Z-0.5000
G01 F90.00
G01 X-0.3500 Y-27.4950 F90.00
G00 X-0.3500 Y-27.4950
G01 F60.00
G01 Z-0.7500
G01 F90.00
G01 X-0.3500 Y-31.9950 F90.00
G00 X-0.3500 Y-31.9950
G01 F60.00
G01 Z-1.0000
G01 F90.00
G01 X-0.3500 Y-27.4950 F90.00
G00 Z2.0000
G00 X30.5760 Y-27.4950
G01 F60.00
G01 Z-0.2500
G01 F90.00
G01 X30.5760 Y-31.9950 F90.00
G00 X30.5760 Y-31.9950
G01 F60.00
G01 Z-0.5000
G01 F90.00
G01 X30.5760 Y-27.4950 F90.00
G00 X30.5760 Y-27.4950
G01 F60.00
G01 Z-0.7500
G01 F90.00
G01 X30.5760 Y-31.9950 F90.00
G00 X30.5760 Y-31.9950
G01 F60.00
G01 Z-1.0000
G01 F90.00
G01 X30.5760 Y-27.4950 F90.00
G00 Z2.0000
M05
G00 Z2.0000
G00 Z15.00
G00 X0.0 Y0.0


