(G-CODE GENERATED BY FLATCAM v8.994 - www.flatcam.org - Version Date: 2020/11/7)

(Name: Active_Electrode-F_Cu.gbr_iso_combined_cnc)
(Type: G-code from Geometry)
(Units: MM)

(Created on Saturday, 09 March 2024 at 23:57)

(This preprocessor is used with a motion controller loaded with GRBL firmware.)
(It is configured to be compatible with almost any version of GRBL firmware.)

(TOOL DIAMETER: 0.0212 mm)
(Feedrate_XY: 120.0 mm/min)
(Feedrate_Z: 60.0 mm/min)
(Feedrate rapids 1500.0 mm/min)

(Z_Cut: -0.0801 mm)
(Z_Move: 2.0 mm)
(Z Start: None mm)
(Z End: 15.0 mm)
(X,Y End: None mm)
(Steps per circle: 64)
(Steps per circle: 64)
(Preprocessor Geometry: GRBL_11_no_M6)

(X range:   -0.0106 ...   30.2366  mm)
(Y range:  -59.7006 ...    0.0106  mm)

(Spindle Speed: 0.0 RPM)
G21
G90
G17
G94


G01 F120.00

M5             
G00 Z15.0000
G00 X0.0000 Y0.0000                
T1
(MSG, Change to Tool Dia = 0.0212)
M0
G00 Z15.0000
        
M03
G01 F120.00
G00 X11.1625 Y-6.3262
G01 F60.00
G01 Z-0.0801
G01 F120.00
G01 X11.1546 Y-6.3223 F120.00
G01 X11.0611 Y-6.2662 F120.00
G01 X10.9727 Y-6.2007 F120.00
G01 X10.8912 Y-6.1268 F120.00
G01 X10.8173 Y-6.0453 F120.00
G01 X10.7518 Y-5.9569 F120.00
G01 X10.6952 Y-5.8625 F120.00
G01 X10.6481 Y-5.7631 F120.00
G01 X10.6111 Y-5.6595 F120.00
G01 X10.5843 Y-5.5527 F120.00
G01 X10.5682 Y-5.4439 F120.00
G01 X10.5628 Y-5.3340 F120.00
G01 X10.5682 Y-5.2241 F120.00
G01 X10.5843 Y-5.1153 F120.00
G01 X10.6111 Y-5.0085 F120.00
G01 X10.6481 Y-4.9049 F120.00
G01 X10.6952 Y-4.8055 F120.00
G01 X10.7518 Y-4.7111 F120.00
G01 X10.8173 Y-4.6227 F120.00
G01 X10.8912 Y-4.5412 F120.00
G01 X10.9727 Y-4.4673 F120.00
G01 X11.0611 Y-4.4018 F120.00
G01 X11.1555 Y-4.3452 F120.00
G01 X11.2549 Y-4.2981 F120.00
G01 X11.3585 Y-4.2611 F120.00
G01 X11.4653 Y-4.2343 F120.00
G01 X11.5741 Y-4.2182 F120.00
G01 X11.6840 Y-4.2128 F120.00
G01 X11.7939 Y-4.2182 F120.00
G01 X11.9027 Y-4.2343 F120.00
G01 X12.0095 Y-4.2611 F120.00
G01 X12.1131 Y-4.2981 F120.00
G01 X12.2125 Y-4.3452 F120.00
G01 X12.3069 Y-4.4018 F120.00
G01 X12.3960 Y-4.4679 F120.00
G01 X12.4768 Y-4.5412 F120.00
G01 X12.5501 Y-4.6220 F120.00
G01 X12.6162 Y-4.7111 F120.00
G01 X12.6728 Y-4.8055 F120.00
G01 X12.7202 Y-4.9058 F120.00
G01 X12.7569 Y-5.0085 F120.00
G01 X12.7834 Y-5.1143 F120.00
G01 X12.7998 Y-5.2241 F120.00
G01 X12.8052 Y-5.3350 F120.00
G01 X12.7998 Y-5.4439 F120.00
G01 X12.7837 Y-5.5527 F120.00
G01 X12.7569 Y-5.6595 F120.00
G01 X12.7202 Y-5.7622 F120.00
G01 X12.6728 Y-5.8625 F120.00
G01 X12.6162 Y-5.9569 F120.00
G01 X12.5513 Y-6.0445 F120.00
G01 X12.4768 Y-6.1268 F120.00
G01 X12.3953 Y-6.2007 F120.00
G01 X12.3077 Y-6.2657 F120.00
G01 X12.2134 Y-6.3223 F120.00
G01 X12.2055 Y-6.3262 F120.00
G01 X12.2055 Y-6.8039 F120.00
G01 X12.3011 Y-6.8381 F120.00
G01 X12.3997 Y-6.8847 F120.00
G01 X12.4949 Y-6.9418 F120.00
G01 X12.5840 Y-7.0079 F120.00
G01 X12.6648 Y-7.0812 F120.00
G01 X12.7381 Y-7.1620 F120.00
G01 X12.8042 Y-7.2511 F120.00
G01 X12.8613 Y-7.3463 F120.00
G01 X12.9079 Y-7.4449 F120.00
G01 X12.9446 Y-7.5476 F120.00
G01 X12.9718 Y-7.6558 F120.00
G01 X12.9879 Y-7.7651 F120.00
G01 X12.9932 Y-7.8740 F120.00
G01 X12.9879 Y-7.9829 F120.00
G01 X12.9717 Y-8.0927 F120.00
G01 X12.9446 Y-8.2004 F120.00
G01 X12.9079 Y-8.3031 F120.00
G01 X12.8608 Y-8.4025 F120.00
G01 X12.8042 Y-8.4969 F120.00
G01 X12.7387 Y-8.5853 F120.00
G01 X12.6648 Y-8.6668 F120.00
G01 X12.5833 Y-8.7407 F120.00
G01 X12.4949 Y-8.8062 F120.00
G01 X12.4014 Y-8.8623 F120.00
G01 X12.3935 Y-8.8662 F120.00
G01 X12.3935 Y-9.2928 F120.00
G01 X12.9725 Y-9.2928 F120.00
G01 X12.9761 Y-9.2932 F120.00
G01 X12.9791 Y-9.2940 F120.00
G01 X12.9824 Y-9.2956 F120.00
G01 X12.9854 Y-9.2976 F120.00
G01 X12.9877 Y-9.2998 F120.00
G01 X12.9899 Y-9.3027 F120.00
G01 X12.9914 Y-9.3054 F120.00
G01 X12.9926 Y-9.3088 F120.00
G01 X12.9932 Y-9.3139 F120.00
G01 X12.9932 Y-11.5141 F120.00
G01 X12.9929 Y-11.5176 F120.00
G01 X12.9921 Y-11.5207 F120.00
G01 X12.9893 Y-11.5262 F120.00
G01 X12.9850 Y-11.5307 F120.00
G01 X12.9820 Y-11.5327 F120.00
G01 X12.9791 Y-11.5340 F120.00
G01 X12.9756 Y-11.5349 F120.00
G01 X12.9721 Y-11.5352 F120.00
G01 X10.7719 Y-11.5352 F120.00
G01 X10.7668 Y-11.5346 F120.00
G01 X10.7620 Y-11.5327 F120.00
G01 X10.7578 Y-11.5297 F120.00
G01 X10.7544 Y-11.5258 F120.00
G01 X10.7517 Y-11.5202 F120.00
G01 X10.7508 Y-11.5141 F120.00
G01 X10.7508 Y-9.3139 F120.00
G01 X10.7516 Y-9.3083 F120.00
G01 X10.7526 Y-9.3054 F120.00
G01 X10.7544 Y-9.3022 F120.00
G01 X10.7566 Y-9.2994 F120.00
G01 X10.7590 Y-9.2973 F120.00
G01 X10.7620 Y-9.2953 F120.00
G01 X10.7649 Y-9.2940 F120.00
G01 X10.7679 Y-9.2932 F120.00
G01 X10.7715 Y-9.2928 F120.00
G01 X11.3505 Y-9.2928 F120.00
G01 X11.3505 Y-8.8662 F120.00
G01 X11.3426 Y-8.8623 F120.00
G01 X11.2483 Y-8.8057 F120.00
G01 X11.1607 Y-8.7407 F120.00
G01 X11.0792 Y-8.6668 F120.00
G01 X11.0053 Y-8.5853 F120.00
G01 X10.9403 Y-8.4977 F120.00
G01 X10.8837 Y-8.4034 F120.00
G01 X10.8798 Y-8.3955 F120.00
G01 X10.2315 Y-8.3955 F120.00
G01 X10.2168 Y-8.4540 F120.00
G01 X10.1796 Y-8.5575 F120.00
G01 X10.1328 Y-8.6565 F120.00
G01 X10.0765 Y-8.7505 F120.00
G01 X10.0101 Y-8.8400 F120.00
G01 X9.9368 Y-8.9208 F120.00
G01 X9.8549 Y-8.9950 F120.00
G01 X9.7669 Y-9.0602 F120.00
G01 X9.6734 Y-9.1163 F120.00
G01 X9.5722 Y-9.1642 F120.00
G01 X9.4695 Y-9.2009 F120.00
G01 X9.3627 Y-9.2277 F120.00
G01 X9.2539 Y-9.2438 F120.00
G01 X9.1445 Y-9.2492 F120.00
G01 X9.0331 Y-9.2437 F120.00
G01 X8.9253 Y-9.2277 F120.00
G01 X8.8185 Y-9.2009 F120.00
G01 X8.7149 Y-9.1639 F120.00
G01 X8.6163 Y-9.1173 F120.00
G01 X8.5203 Y-9.0597 F120.00
G01 X8.4327 Y-8.9947 F120.00
G01 X8.3519 Y-8.9215 F120.00
G01 X8.2767 Y-8.8385 F120.00
G01 X8.2118 Y-8.7509 F120.00
G01 X8.1552 Y-8.6565 F120.00
G01 X8.1081 Y-8.5571 F120.00
G01 X8.0714 Y-8.4544 F120.00
G01 X8.0442 Y-8.3458 F120.00
G01 X8.0282 Y-8.2379 F120.00
G01 X8.0228 Y-8.1280 F120.00
G01 X8.0282 Y-8.0181 F120.00
G01 X8.0442 Y-7.9102 F120.00
G01 X8.0714 Y-7.8016 F120.00
G01 X8.1081 Y-7.6989 F120.00
G01 X8.1552 Y-7.5995 F120.00
G01 X8.2118 Y-7.5051 F120.00
G01 X8.2767 Y-7.4175 F120.00
G01 X8.3519 Y-7.3345 F120.00
G01 X8.4327 Y-7.2613 F120.00
G01 X8.5207 Y-7.1961 F120.00
G01 X8.6155 Y-7.1392 F120.00
G01 X8.7140 Y-7.0925 F120.00
G01 X8.8195 Y-7.0548 F120.00
G01 X8.9253 Y-7.0283 F120.00
G01 X9.0341 Y-7.0122 F120.00
G01 X9.1440 Y-7.0068 F120.00
G01 X9.2534 Y-7.0122 F120.00
G01 X9.3627 Y-7.0283 F120.00
G01 X9.4695 Y-7.0551 F120.00
G01 X9.5731 Y-7.0921 F120.00
G01 X9.6717 Y-7.1387 F120.00
G01 X9.7669 Y-7.1958 F120.00
G01 X9.8549 Y-7.2610 F120.00
G01 X9.9364 Y-7.3348 F120.00
G01 X9.9526 Y-7.3525 F120.00
G01 X10.8798 Y-7.3525 F120.00
G01 X10.8837 Y-7.3446 F120.00
G01 X10.9398 Y-7.2511 F120.00
G01 X11.0053 Y-7.1627 F120.00
G01 X11.0792 Y-7.0812 F120.00
G01 X11.1625 Y-7.0059 F120.00
G01 X11.1625 Y-6.3262 F120.00
G00 Z2.0000
G00 X15.8121 Y-2.9678
G01 F60.00
G01 Z-0.0801
G01 F120.00
G01 X15.8161 Y-2.9682 F120.00
G01 X15.8201 Y-2.9694 F120.00
G01 X15.8238 Y-2.9714 F120.00
G01 X15.8270 Y-2.9740 F120.00
G01 X15.8296 Y-2.9772 F120.00
G01 X15.8316 Y-2.9809 F120.00
G01 X15.8328 Y-2.9849 F120.00
G01 X15.8332 Y-2.9889 F120.00
G01 X15.8332 Y-5.1891 F120.00
G01 X15.8326 Y-5.1942 F120.00
G01 X15.8314 Y-5.1976 F120.00
G01 X15.8299 Y-5.2003 F120.00
G01 X15.8281 Y-5.2028 F120.00
G01 X15.8254 Y-5.2054 F120.00
G01 X15.8229 Y-5.2072 F120.00
G01 X15.8196 Y-5.2088 F120.00
G01 X15.8161 Y-5.2098 F120.00
G01 X15.8125 Y-5.2102 F120.00
G01 X15.2335 Y-5.2102 F120.00
G01 X15.2335 Y-16.5541 F120.00
G01 X15.2310 Y-16.6046 F120.00
G01 X15.2232 Y-16.6567 F120.00
G01 X15.2110 Y-16.7054 F120.00
G01 X15.1938 Y-16.7536 F120.00
G01 X15.1714 Y-16.8007 F120.00
G01 X15.1456 Y-16.8437 F120.00
G01 X15.1157 Y-16.8840 F120.00
G01 X15.0808 Y-16.9227 F120.00
G01 X14.7455 Y-17.2580 F120.00
G01 X14.7455 Y-31.8101 F120.00
G01 X14.7429 Y-31.8611 F120.00
G01 X14.7356 Y-31.9108 F120.00
G01 X14.7227 Y-31.9623 F120.00
G01 X14.7058 Y-32.0096 F120.00
G01 X14.6839 Y-32.0558 F120.00
G01 X14.6570 Y-32.1005 F120.00
G01 X14.6271 Y-32.1408 F120.00
G01 X14.5934 Y-32.1780 F120.00
G01 X13.4660 Y-33.3054 F120.00
G01 X13.4288 Y-33.3391 F120.00
G01 X13.3877 Y-33.3696 F120.00
G01 X13.3438 Y-33.3959 F120.00
G01 X13.2971 Y-33.4180 F120.00
G01 X13.2494 Y-33.4350 F120.00
G01 X13.1992 Y-33.4475 F120.00
G01 X13.1486 Y-33.4550 F120.00
G01 X13.0985 Y-33.4574 F120.00
G01 X13.0592 Y-33.4575 F120.00
G01 X13.0592 Y-34.0365 F120.00
G01 X13.0584 Y-34.0417 F120.00
G01 X13.0562 Y-34.0469 F120.00
G01 X13.0526 Y-34.0514 F120.00
G01 X13.0480 Y-34.0547 F120.00
G01 X13.0432 Y-34.0566 F120.00
G01 X13.0381 Y-34.0572 F120.00
G01 X10.8349 Y-34.0570 F120.00
G01 X10.8309 Y-34.0560 F120.00
G01 X10.8276 Y-34.0544 F120.00
G01 X10.8246 Y-34.0524 F120.00
G01 X10.8219 Y-34.0498 F120.00
G01 X10.8198 Y-34.0469 F120.00
G01 X10.8182 Y-34.0436 F120.00
G01 X10.8172 Y-34.0401 F120.00
G01 X10.8168 Y-34.0361 F120.00
G01 X10.8168 Y-31.8359 F120.00
G01 X10.8173 Y-31.8314 F120.00
G01 X10.8188 Y-31.8269 F120.00
G01 X10.8210 Y-31.8234 F120.00
G01 X10.8242 Y-31.8199 F120.00
G01 X10.8271 Y-31.8178 F120.00
G01 X10.8304 Y-31.8162 F120.00
G01 X10.8339 Y-31.8152 F120.00
G01 X10.8379 Y-31.8148 F120.00
G01 X13.0381 Y-31.8148 F120.00
G01 X13.0421 Y-31.8152 F120.00
G01 X13.0451 Y-31.8160 F120.00
G01 X13.0484 Y-31.8176 F120.00
G01 X13.0514 Y-31.8196 F120.00
G01 X13.0541 Y-31.8222 F120.00
G01 X13.0562 Y-31.8251 F120.00
G01 X13.0578 Y-31.8284 F120.00
G01 X13.0588 Y-31.8319 F120.00
G01 X13.0592 Y-31.8350 F120.00
G01 X13.0592 Y-32.2374 F120.00
G01 X13.7025 Y-31.5940 F120.00
G01 X13.7025 Y-18.3009 F120.00
G01 X13.6003 Y-18.4031 F120.00
G01 X13.5624 Y-18.4374 F120.00
G01 X13.5217 Y-18.4676 F120.00
G01 X13.4787 Y-18.4934 F120.00
G01 X13.4306 Y-18.5161 F120.00
G01 X13.3834 Y-18.5330 F120.00
G01 X13.3347 Y-18.5452 F120.00
G01 X13.2831 Y-18.5529 F120.00
G01 X13.2321 Y-18.5555 F120.00
G01 X12.9932 Y-18.5555 F120.00
G01 X12.9932 Y-19.1345 F120.00
G01 X12.9929 Y-19.1376 F120.00
G01 X12.9920 Y-19.1411 F120.00
G01 X12.9907 Y-19.1440 F120.00
G01 X12.9887 Y-19.1470 F120.00
G01 X12.9862 Y-19.1497 F120.00
G01 X12.9838 Y-19.1516 F120.00
G01 X12.9811 Y-19.1532 F120.00
G01 X12.9777 Y-19.1544 F120.00
G01 X12.9721 Y-19.1552 F120.00
G01 X10.7719 Y-19.1552 F120.00
G01 X10.7674 Y-19.1547 F120.00
G01 X10.7629 Y-19.1532 F120.00
G01 X10.7578 Y-19.1497 F120.00
G01 X10.7541 Y-19.1453 F120.00
G01 X10.7517 Y-19.1402 F120.00
G01 X10.7508 Y-19.1341 F120.00
G01 X10.7510 Y-16.9309 F120.00
G01 X10.7520 Y-16.9269 F120.00
G01 X10.7536 Y-16.9236 F120.00
G01 X10.7556 Y-16.9206 F120.00
G01 X10.7582 Y-16.9179 F120.00
G01 X10.7611 Y-16.9158 F120.00
G01 X10.7644 Y-16.9142 F120.00
G01 X10.7679 Y-16.9132 F120.00
G01 X10.7719 Y-16.9128 F120.00
G01 X12.9721 Y-16.9128 F120.00
G01 X12.9772 Y-16.9134 F120.00
G01 X12.9806 Y-16.9146 F120.00
G01 X12.9838 Y-16.9164 F120.00
G01 X12.9866 Y-16.9186 F120.00
G01 X12.9887 Y-16.9210 F120.00
G01 X12.9904 Y-16.9236 F120.00
G01 X12.9920 Y-16.9269 F120.00
G01 X12.9929 Y-16.9304 F120.00
G01 X12.9932 Y-16.9335 F120.00
G01 X12.9932 Y-17.5125 F120.00
G01 X13.0160 Y-17.5125 F120.00
G01 X14.1905 Y-16.3380 F120.00
G01 X14.1905 Y-5.2102 F120.00
G01 X13.6115 Y-5.2102 F120.00
G01 X13.6084 Y-5.2099 F120.00
G01 X13.6049 Y-5.2090 F120.00
G01 X13.6020 Y-5.2077 F120.00
G01 X13.5990 Y-5.2057 F120.00
G01 X13.5966 Y-5.2036 F120.00
G01 X13.5944 Y-5.2008 F120.00
G01 X13.5928 Y-5.1981 F120.00
G01 X13.5916 Y-5.1947 F120.00
G01 X13.5908 Y-5.1891 F120.00
G01 X13.5910 Y-2.9864 F120.00
G01 X13.5917 Y-2.9828 F120.00
G01 X13.5931 Y-2.9795 F120.00
G01 X13.5950 Y-2.9764 F120.00
G01 X13.5978 Y-2.9733 F120.00
G01 X13.6007 Y-2.9711 F120.00
G01 X13.6044 Y-2.9692 F120.00
G01 X13.6079 Y-2.9682 F120.00
G01 X13.6119 Y-2.9678 F120.00
G01 X15.8121 Y-2.9678 F120.00
G00 Z2.0000
G00 X16.1308 Y-2.9889
G01 F60.00
G01 Z-0.0801
G01 F120.00
G01 X16.1312 Y-2.9849 F120.00
G01 X16.1324 Y-2.9809 F120.00
G01 X16.1344 Y-2.9772 F120.00
G01 X16.1370 Y-2.9740 F120.00
G01 X16.1402 Y-2.9714 F120.00
G01 X16.1439 Y-2.9694 F120.00
G01 X16.1479 Y-2.9682 F120.00
G01 X16.1519 Y-2.9678 F120.00
G01 X18.3521 Y-2.9678 F120.00
G01 X18.3561 Y-2.9682 F120.00
G01 X18.3596 Y-2.9692 F120.00
G01 X18.3629 Y-2.9708 F120.00
G01 X18.3658 Y-2.9729 F120.00
G01 X18.3684 Y-2.9756 F120.00
G01 X18.3704 Y-2.9786 F120.00
G01 X18.3721 Y-2.9823 F120.00
G01 X18.3730 Y-2.9859 F120.00
G01 X18.3732 Y-5.1891 F120.00
G01 X18.3724 Y-5.1947 F120.00
G01 X18.3714 Y-5.1976 F120.00
G01 X18.3696 Y-5.2008 F120.00
G01 X18.3677 Y-5.2032 F120.00
G01 X18.3650 Y-5.2057 F120.00
G01 X18.3620 Y-5.2077 F120.00
G01 X18.3591 Y-5.2090 F120.00
G01 X18.3556 Y-5.2099 F120.00
G01 X18.3525 Y-5.2102 F120.00
G01 X17.7735 Y-5.2102 F120.00
G01 X17.7735 Y-14.0780 F120.00
G01 X18.6680 Y-14.9725 F120.00
G01 X18.6908 Y-14.9725 F120.00
G01 X18.6908 Y-14.3935 F120.00
G01 X18.6912 Y-14.3899 F120.00
G01 X18.6920 Y-14.3869 F120.00
G01 X18.6936 Y-14.3836 F120.00
G01 X18.6953 Y-14.3810 F120.00
G01 X18.6978 Y-14.3783 F120.00
G01 X18.7002 Y-14.3764 F120.00
G01 X18.7034 Y-14.3746 F120.00
G01 X18.7063 Y-14.3736 F120.00
G01 X18.7119 Y-14.3728 F120.00
G01 X20.9121 Y-14.3728 F120.00
G01 X20.9166 Y-14.3733 F120.00
G01 X20.9206 Y-14.3746 F120.00
G01 X20.9254 Y-14.3776 F120.00
G01 X20.9296 Y-14.3822 F120.00
G01 X20.9321 Y-14.3873 F120.00
G01 X20.9332 Y-14.3935 F120.00
G01 X20.9332 Y-14.9725 F120.00
G01 X21.1725 Y-14.9726 F120.00
G01 X21.2231 Y-14.9751 F120.00
G01 X21.2732 Y-14.9825 F120.00
G01 X21.3234 Y-14.9950 F120.00
G01 X21.3716 Y-15.0122 F120.00
G01 X21.4178 Y-15.0341 F120.00
G01 X21.4625 Y-15.0610 F120.00
G01 X21.5028 Y-15.0909 F120.00
G01 X21.5407 Y-15.1252 F120.00
G01 X22.4668 Y-16.0513 F120.00
G01 X22.5011 Y-16.0892 F120.00
G01 X22.5316 Y-16.1303 F120.00
G01 X22.5583 Y-16.1751 F120.00
G01 X22.5798 Y-16.2204 F120.00
G01 X22.5970 Y-16.2686 F120.00
G01 X22.6096 Y-16.3192 F120.00
G01 X22.6169 Y-16.3689 F120.00
G01 X22.6194 Y-16.4195 F120.00
G01 X22.6195 Y-21.3361 F120.00
G01 X22.6168 Y-21.3881 F120.00
G01 X22.6094 Y-21.4377 F120.00
G01 X22.5970 Y-21.4874 F120.00
G01 X22.5798 Y-21.5356 F120.00
G01 X22.5583 Y-21.5809 F120.00
G01 X22.5310 Y-21.6265 F120.00
G01 X22.5011 Y-21.6668 F120.00
G01 X22.4671 Y-21.7043 F120.00
G01 X17.7935 Y-26.3780 F120.00
G01 X17.7935 Y-37.5221 F120.00
G01 X17.7908 Y-37.5741 F120.00
G01 X17.7834 Y-37.6237 F120.00
G01 X17.7713 Y-37.6724 F120.00
G01 X17.7538 Y-37.7216 F120.00
G01 X17.7316 Y-37.7683 F120.00
G01 X17.7056 Y-37.8117 F120.00
G01 X17.6757 Y-37.8520 F120.00
G01 X17.6408 Y-37.8907 F120.00
G01 X14.6067 Y-40.9248 F120.00
G01 X14.5680 Y-40.9597 F120.00
G01 X14.5277 Y-40.9896 F120.00
G01 X14.4843 Y-41.0156 F120.00
G01 X14.4376 Y-41.0378 F120.00
G01 X14.3884 Y-41.0553 F120.00
G01 X14.3397 Y-41.0674 F120.00
G01 X14.2901 Y-41.0748 F120.00
G01 X14.2390 Y-41.0774 F120.00
G01 X13.0592 Y-41.0775 F120.00
G01 X13.0592 Y-41.6565 F120.00
G01 X13.0588 Y-41.6601 F120.00
G01 X13.0578 Y-41.6636 F120.00
G01 X13.0562 Y-41.6669 F120.00
G01 X13.0541 Y-41.6698 F120.00
G01 X13.0514 Y-41.6724 F120.00
G01 X13.0484 Y-41.6744 F120.00
G01 X13.0451 Y-41.6760 F120.00
G01 X13.0416 Y-41.6769 F120.00
G01 X13.0381 Y-41.6772 F120.00
G01 X10.8349 Y-41.6770 F120.00
G01 X10.8309 Y-41.6760 F120.00
G01 X10.8276 Y-41.6744 F120.00
G01 X10.8246 Y-41.6724 F120.00
G01 X10.8219 Y-41.6698 F120.00
G01 X10.8198 Y-41.6669 F120.00
G01 X10.8182 Y-41.6636 F120.00
G01 X10.8172 Y-41.6601 F120.00
G01 X10.8168 Y-41.6561 F120.00
G01 X10.8168 Y-39.4559 F120.00
G01 X10.8174 Y-39.4508 F120.00
G01 X10.8191 Y-39.4465 F120.00
G01 X10.8219 Y-39.4422 F120.00
G01 X10.8254 Y-39.4390 F120.00
G01 X10.8285 Y-39.4371 F120.00
G01 X10.8313 Y-39.4359 F120.00
G01 X10.8344 Y-39.4351 F120.00
G01 X10.8379 Y-39.4348 F120.00
G01 X13.0381 Y-39.4348 F120.00
G01 X13.0421 Y-39.4352 F120.00
G01 X13.0456 Y-39.4362 F120.00
G01 X13.0489 Y-39.4378 F120.00
G01 X13.0518 Y-39.4399 F120.00
G01 X13.0544 Y-39.4426 F120.00
G01 X13.0564 Y-39.4456 F120.00
G01 X13.0580 Y-39.4489 F120.00
G01 X13.0588 Y-39.4519 F120.00
G01 X13.0592 Y-39.4555 F120.00
G01 X13.0592 Y-40.0345 F120.00
G01 X14.0220 Y-40.0345 F120.00
G01 X16.7505 Y-37.3060 F120.00
G01 X16.7505 Y-26.1619 F120.00
G01 X16.7531 Y-26.1109 F120.00
G01 X16.7604 Y-26.0612 F120.00
G01 X16.7730 Y-26.0106 F120.00
G01 X16.7902 Y-25.9624 F120.00
G01 X16.8126 Y-25.9153 F120.00
G01 X16.8384 Y-25.8723 F120.00
G01 X16.8683 Y-25.8320 F120.00
G01 X16.9032 Y-25.7933 F120.00
G01 X21.5765 Y-21.1200 F120.00
G01 X21.5765 Y-16.6360 F120.00
G01 X20.9560 Y-16.0155 F120.00
G01 X20.9332 Y-16.0155 F120.00
G01 X20.9332 Y-16.5945 F120.00
G01 X20.9329 Y-16.5976 F120.00
G01 X20.9320 Y-16.6011 F120.00
G01 X20.9307 Y-16.6040 F120.00
G01 X20.9287 Y-16.6070 F120.00
G01 X20.9262 Y-16.6097 F120.00
G01 X20.9238 Y-16.6116 F120.00
G01 X20.9211 Y-16.6132 F120.00
G01 X20.9177 Y-16.6144 F120.00
G01 X20.9121 Y-16.6152 F120.00
G01 X18.7119 Y-16.6152 F120.00
G01 X18.7074 Y-16.6147 F120.00
G01 X18.7034 Y-16.6134 F120.00
G01 X18.6986 Y-16.6104 F120.00
G01 X18.6944 Y-16.6058 F120.00
G01 X18.6919 Y-16.6007 F120.00
G01 X18.6908 Y-16.5945 F120.00
G01 X18.6908 Y-16.0155 F120.00
G01 X18.4515 Y-16.0154 F120.00
G01 X18.4009 Y-16.0129 F120.00
G01 X18.3503 Y-16.0054 F120.00
G01 X18.2997 Y-15.9927 F120.00
G01 X18.2524 Y-15.9758 F120.00
G01 X18.2071 Y-15.9543 F120.00
G01 X18.1623 Y-15.9276 F120.00
G01 X18.1212 Y-15.8971 F120.00
G01 X18.0833 Y-15.8628 F120.00
G01 X16.8829 Y-14.6623 F120.00
G01 X16.8483 Y-14.6240 F120.00
G01 X16.8184 Y-14.5837 F120.00
G01 X16.7926 Y-14.5407 F120.00
G01 X16.7702 Y-14.4936 F120.00
G01 X16.7530 Y-14.4454 F120.00
G01 X16.7404 Y-14.3948 F120.00
G01 X16.7331 Y-14.3451 F120.00
G01 X16.7305 Y-14.2941 F120.00
G01 X16.7305 Y-5.2102 F120.00
G01 X16.1515 Y-5.2102 F120.00
G01 X16.1484 Y-5.2099 F120.00
G01 X16.1449 Y-5.2090 F120.00
G01 X16.1420 Y-5.2077 F120.00
G01 X16.1390 Y-5.2057 F120.00
G01 X16.1366 Y-5.2036 F120.00
G01 X16.1344 Y-5.2008 F120.00
G01 X16.1326 Y-5.1976 F120.00
G01 X16.1316 Y-5.1947 F120.00
G01 X16.1308 Y-5.1891 F120.00
G01 X16.1308 Y-2.9889 F120.00
G00 Z2.0000
G00 X20.2962 Y-7.3525
G01 F60.00
G01 Z-0.0801
G01 F120.00
G01 X20.8281 Y-7.3525 F120.00
G01 X20.8801 Y-7.3552 F120.00
G01 X20.9297 Y-7.3626 F120.00
G01 X20.9784 Y-7.3747 F120.00
G01 X21.0276 Y-7.3922 F120.00
G01 X21.0738 Y-7.4141 F120.00
G01 X21.1169 Y-7.4399 F120.00
G01 X21.1595 Y-7.4715 F120.00
G01 X21.1967 Y-7.5052 F120.00
G01 X25.2611 Y-11.5697 F120.00
G01 X25.2951 Y-11.6072 F120.00
G01 X25.3256 Y-11.6483 F120.00
G01 X25.3519 Y-11.6922 F120.00
G01 X25.3734 Y-11.7376 F120.00
G01 X25.3913 Y-11.7876 F120.00
G01 X25.4034 Y-11.8363 F120.00
G01 X25.4110 Y-11.8874 F120.00
G01 X25.4135 Y-11.9379 F120.00
G01 X25.4135 Y-13.9701 F120.00
G01 X25.4109 Y-14.0211 F120.00
G01 X25.4036 Y-14.0708 F120.00
G01 X25.3910 Y-14.1214 F120.00
G01 X25.3738 Y-14.1696 F120.00
G01 X25.3514 Y-14.2167 F120.00
G01 X25.3256 Y-14.2597 F120.00
G01 X25.2957 Y-14.3000 F120.00
G01 X25.2614 Y-14.3380 F120.00
G01 X24.3975 Y-15.2020 F120.00
G01 X24.3975 Y-22.3521 F120.00
G01 X24.3949 Y-22.4031 F120.00
G01 X24.3875 Y-22.4532 F120.00
G01 X24.3747 Y-22.5043 F120.00
G01 X24.3578 Y-22.5516 F120.00
G01 X24.3363 Y-22.5969 F120.00
G01 X24.3096 Y-22.6417 F120.00
G01 X24.2785 Y-22.6835 F120.00
G01 X24.2448 Y-22.7207 F120.00
G01 X23.4215 Y-23.5440 F120.00
G01 X23.4215 Y-39.6478 F120.00
G01 X23.4294 Y-39.6517 F120.00
G01 X23.5229 Y-39.7078 F120.00
G01 X23.6120 Y-39.7739 F120.00
G01 X23.6928 Y-39.8472 F120.00
G01 X23.7661 Y-39.9280 F120.00
G01 X23.8328 Y-40.0179 F120.00
G01 X23.8888 Y-40.1115 F120.00
G01 X23.9355 Y-40.2100 F120.00
G01 X23.9729 Y-40.3145 F120.00
G01 X23.9997 Y-40.4213 F120.00
G01 X24.0157 Y-40.5291 F120.00
G01 X24.0212 Y-40.6400 F120.00
G01 X24.0157 Y-40.7509 F120.00
G01 X23.9997 Y-40.8587 F120.00
G01 X23.9729 Y-40.9655 F120.00
G01 X23.9355 Y-41.0700 F120.00
G01 X23.8888 Y-41.1685 F120.00
G01 X23.8328 Y-41.2621 F120.00
G01 X23.7661 Y-41.3520 F120.00
G01 X23.6928 Y-41.4328 F120.00
G01 X23.6120 Y-41.5061 F120.00
G01 X23.5229 Y-41.5722 F120.00
G01 X23.4294 Y-41.6283 F120.00
G01 X23.4215 Y-41.6322 F120.00
G01 X23.4215 Y-42.4418 F120.00
G01 X23.4294 Y-42.4457 F120.00
G01 X23.5229 Y-42.5018 F120.00
G01 X23.6120 Y-42.5679 F120.00
G01 X23.6928 Y-42.6412 F120.00
G01 X23.7661 Y-42.7220 F120.00
G01 X23.8328 Y-42.8119 F120.00
G01 X23.8888 Y-42.9055 F120.00
G01 X23.9355 Y-43.0040 F120.00
G01 X23.9729 Y-43.1085 F120.00
G01 X23.9997 Y-43.2153 F120.00
G01 X24.0157 Y-43.3231 F120.00
G01 X24.0212 Y-43.4340 F120.00
G01 X24.0157 Y-43.5449 F120.00
G01 X23.9997 Y-43.6527 F120.00
G01 X23.9729 Y-43.7595 F120.00
G01 X23.9355 Y-43.8640 F120.00
G01 X23.8888 Y-43.9625 F120.00
G01 X23.8328 Y-44.0561 F120.00
G01 X23.7661 Y-44.1460 F120.00
G01 X23.6928 Y-44.2268 F120.00
G01 X23.6120 Y-44.3001 F120.00
G01 X23.5229 Y-44.3662 F120.00
G01 X23.4294 Y-44.4223 F120.00
G01 X23.4215 Y-44.4262 F120.00
G01 X23.4215 Y-55.5208 F120.00
G01 X23.9605 Y-55.5208 F120.00
G01 X23.9636 Y-55.5211 F120.00
G01 X23.9671 Y-55.5220 F120.00
G01 X23.9704 Y-55.5236 F120.00
G01 X23.9730 Y-55.5253 F120.00
G01 X23.9754 Y-55.5274 F120.00
G01 X23.9776 Y-55.5302 F120.00
G01 X23.9794 Y-55.5334 F120.00
G01 X23.9806 Y-55.5368 F120.00
G01 X23.9812 Y-55.5419 F120.00
G01 X23.9812 Y-57.7421 F120.00
G01 X23.9808 Y-57.7461 F120.00
G01 X23.9796 Y-57.7501 F120.00
G01 X23.9776 Y-57.7538 F120.00
G01 X23.9754 Y-57.7566 F120.00
G01 X23.9726 Y-57.7590 F120.00
G01 X23.9691 Y-57.7612 F120.00
G01 X23.9657 Y-57.7624 F120.00
G01 X23.9616 Y-57.7631 F120.00
G01 X21.7599 Y-57.7632 F120.00
G01 X21.7559 Y-57.7628 F120.00
G01 X21.7524 Y-57.7618 F120.00
G01 X21.7487 Y-57.7599 F120.00
G01 X21.7458 Y-57.7577 F120.00
G01 X21.7433 Y-57.7550 F120.00
G01 X21.7411 Y-57.7515 F120.00
G01 X21.7396 Y-57.7477 F120.00
G01 X21.7389 Y-57.7441 F120.00
G01 X21.7388 Y-55.5419 F120.00
G01 X21.7396 Y-55.5363 F120.00
G01 X21.7408 Y-55.5329 F120.00
G01 X21.7424 Y-55.5302 F120.00
G01 X21.7446 Y-55.5274 F120.00
G01 X21.7470 Y-55.5253 F120.00
G01 X21.7500 Y-55.5233 F120.00
G01 X21.7529 Y-55.5220 F120.00
G01 X21.7564 Y-55.5211 F120.00
G01 X21.7595 Y-55.5208 F120.00
G01 X22.3785 Y-55.5208 F120.00
G01 X22.3785 Y-44.4262 F120.00
G01 X22.3706 Y-44.4223 F120.00
G01 X22.2771 Y-44.3662 F120.00
G01 X22.1880 Y-44.3001 F120.00
G01 X22.1072 Y-44.2268 F120.00
G01 X22.0339 Y-44.1460 F120.00
G01 X21.9672 Y-44.0561 F120.00
G01 X21.9112 Y-43.9625 F120.00
G01 X21.8645 Y-43.8640 F120.00
G01 X21.8271 Y-43.7595 F120.00
G01 X21.8002 Y-43.6518 F120.00
G01 X21.7842 Y-43.5439 F120.00
G01 X21.7788 Y-43.4345 F120.00
G01 X21.7843 Y-43.3231 F120.00
G01 X21.8003 Y-43.2153 F120.00
G01 X21.8271 Y-43.1085 F120.00
G01 X21.8645 Y-43.0040 F120.00
G01 X21.9112 Y-42.9055 F120.00
G01 X21.9672 Y-42.8119 F120.00
G01 X22.0339 Y-42.7220 F120.00
G01 X22.1072 Y-42.6412 F120.00
G01 X22.1880 Y-42.5679 F120.00
G01 X22.2771 Y-42.5018 F120.00
G01 X22.3706 Y-42.4457 F120.00
G01 X22.3785 Y-42.4418 F120.00
G01 X22.3785 Y-41.6322 F120.00
G01 X22.3706 Y-41.6283 F120.00
G01 X22.2771 Y-41.5722 F120.00
G01 X22.1880 Y-41.5061 F120.00
G01 X22.1072 Y-41.4328 F120.00
G01 X22.0339 Y-41.3520 F120.00
G01 X21.9678 Y-41.2629 F120.00
G01 X21.9112 Y-41.1685 F120.00
G01 X21.8638 Y-41.0682 F120.00
G01 X21.8271 Y-40.9655 F120.00
G01 X21.8006 Y-40.8597 F120.00
G01 X21.7843 Y-40.7504 F120.00
G01 X21.7788 Y-40.6400 F120.00
G01 X21.7842 Y-40.5301 F120.00
G01 X21.8003 Y-40.4213 F120.00
G01 X21.8272 Y-40.3140 F120.00
G01 X21.8641 Y-40.2109 F120.00
G01 X21.9114 Y-40.1110 F120.00
G01 X21.9681 Y-40.0167 F120.00
G01 X22.0330 Y-39.9291 F120.00
G01 X22.0618 Y-39.8972 F120.00
G01 X20.7020 Y-38.5375 F120.00
G01 X20.6792 Y-38.5375 F120.00
G01 X20.6792 Y-39.1165 F120.00
G01 X20.6788 Y-39.1201 F120.00
G01 X20.6778 Y-39.1236 F120.00
G01 X20.6762 Y-39.1269 F120.00
G01 X20.6744 Y-39.1294 F120.00
G01 X20.6718 Y-39.1321 F120.00
G01 X20.6693 Y-39.1339 F120.00
G01 X20.6661 Y-39.1356 F120.00
G01 X20.6632 Y-39.1366 F120.00
G01 X20.6581 Y-39.1372 F120.00
G01 X18.4579 Y-39.1372 F120.00
G01 X18.4539 Y-39.1368 F120.00
G01 X18.4499 Y-39.1356 F120.00
G01 X18.4467 Y-39.1339 F120.00
G01 X18.4434 Y-39.1314 F120.00
G01 X18.4407 Y-39.1282 F120.00
G01 X18.4388 Y-39.1251 F120.00
G01 X18.4376 Y-39.1217 F120.00
G01 X18.4369 Y-39.1176 F120.00
G01 X18.4368 Y-36.9159 F120.00
G01 X18.4372 Y-36.9119 F120.00
G01 X18.4382 Y-36.9084 F120.00
G01 X18.4398 Y-36.9051 F120.00
G01 X18.4423 Y-36.9018 F120.00
G01 X18.4454 Y-36.8990 F120.00
G01 X18.4485 Y-36.8971 F120.00
G01 X18.4523 Y-36.8956 F120.00
G01 X18.4559 Y-36.8949 F120.00
G01 X20.6581 Y-36.8948 F120.00
G01 X20.6626 Y-36.8953 F120.00
G01 X20.6671 Y-36.8968 F120.00
G01 X20.6722 Y-36.9003 F120.00
G01 X20.6759 Y-36.9047 F120.00
G01 X20.6783 Y-36.9098 F120.00
G01 X20.6792 Y-36.9155 F120.00
G01 X20.6792 Y-37.4945 F120.00
G01 X20.9185 Y-37.4946 F120.00
G01 X20.9691 Y-37.4971 F120.00
G01 X21.0192 Y-37.5045 F120.00
G01 X21.0694 Y-37.5170 F120.00
G01 X21.1176 Y-37.5342 F120.00
G01 X21.1638 Y-37.5561 F120.00
G01 X21.2085 Y-37.5830 F120.00
G01 X21.2488 Y-37.6129 F120.00
G01 X21.2867 Y-37.6472 F120.00
G01 X22.3785 Y-38.7391 F120.00
G01 X22.3785 Y-23.3279 F120.00
G01 X22.3810 Y-23.2774 F120.00
G01 X22.3888 Y-23.2253 F120.00
G01 X22.4010 Y-23.1766 F120.00
G01 X22.4182 Y-23.1284 F120.00
G01 X22.4401 Y-23.0822 F120.00
G01 X22.4659 Y-23.0391 F120.00
G01 X22.4972 Y-22.9968 F120.00
G01 X22.5312 Y-22.9593 F120.00
G01 X23.3545 Y-22.1360 F120.00
G01 X23.3545 Y-14.9859 F120.00
G01 X23.3571 Y-14.9349 F120.00
G01 X23.3646 Y-14.8843 F120.00
G01 X23.3773 Y-14.8337 F120.00
G01 X23.3942 Y-14.7864 F120.00
G01 X23.4157 Y-14.7411 F120.00
G01 X23.4424 Y-14.6963 F120.00
G01 X23.4735 Y-14.6545 F120.00
G01 X23.5072 Y-14.6173 F120.00
G01 X24.3705 Y-13.7540 F120.00
G01 X24.3705 Y-12.1540 F120.00
G01 X20.6120 Y-8.3955 F120.00
G01 X20.2962 Y-8.3955 F120.00
G01 X20.2923 Y-8.4034 F120.00
G01 X20.2362 Y-8.4969 F120.00
G01 X20.1701 Y-8.5860 F120.00
G01 X20.0968 Y-8.6668 F120.00
G01 X20.0160 Y-8.7401 F120.00
G01 X19.9261 Y-8.8068 F120.00
G01 X19.8325 Y-8.8628 F120.00
G01 X19.7340 Y-8.9095 F120.00
G01 X19.6295 Y-8.9469 F120.00
G01 X19.5227 Y-8.9737 F120.00
G01 X19.4149 Y-8.9897 F120.00
G01 X19.3040 Y-8.9952 F120.00
G01 X19.1931 Y-8.9897 F120.00
G01 X19.0853 Y-8.9737 F120.00
G01 X18.9795 Y-8.9472 F120.00
G01 X18.8749 Y-8.9099 F120.00
G01 X18.7746 Y-8.8623 F120.00
G01 X18.6811 Y-8.8062 F120.00
G01 X18.5935 Y-8.7413 F120.00
G01 X18.5112 Y-8.6668 F120.00
G01 X18.4367 Y-8.5845 F120.00
G01 X18.3718 Y-8.4969 F120.00
G01 X18.3152 Y-8.4025 F120.00
G01 X18.2681 Y-8.3031 F120.00
G01 X18.2311 Y-8.1995 F120.00
G01 X18.2043 Y-8.0927 F120.00
G01 X18.1882 Y-7.9839 F120.00
G01 X18.1828 Y-7.8740 F120.00
G01 X18.1882 Y-7.7641 F120.00
G01 X18.2043 Y-7.6553 F120.00
G01 X18.2311 Y-7.5485 F120.00
G01 X18.2681 Y-7.4449 F120.00
G01 X18.3152 Y-7.3455 F120.00
G01 X18.3718 Y-7.2511 F120.00
G01 X18.4373 Y-7.1627 F120.00
G01 X18.5112 Y-7.0812 F120.00
G01 X18.5927 Y-7.0073 F120.00
G01 X18.6811 Y-6.9418 F120.00
G01 X18.7755 Y-6.8852 F120.00
G01 X18.8749 Y-6.8381 F120.00
G01 X18.9785 Y-6.8011 F120.00
G01 X19.0853 Y-6.7743 F120.00
G01 X19.1941 Y-6.7582 F120.00
G01 X19.3040 Y-6.7528 F120.00
G01 X19.4139 Y-6.7582 F120.00
G01 X19.5227 Y-6.7743 F120.00
G01 X19.6295 Y-6.8011 F120.00
G01 X19.7331 Y-6.8381 F120.00
G01 X19.8325 Y-6.8852 F120.00
G01 X19.9269 Y-6.9418 F120.00
G01 X20.0153 Y-7.0073 F120.00
G01 X20.0968 Y-7.0812 F120.00
G01 X20.1707 Y-7.1627 F120.00
G01 X20.2362 Y-7.2511 F120.00
G01 X20.2923 Y-7.3446 F120.00
G01 X20.2962 Y-7.3525 F120.00
G00 Z2.0000
G00 X18.6908 Y-9.3139
G01 F60.00
G01 Z-0.0801
G01 F120.00
G01 X18.6912 Y-9.3099 F120.00
G01 X18.6924 Y-9.3059 F120.00
G01 X18.6944 Y-9.3022 F120.00
G01 X18.6970 Y-9.2990 F120.00
G01 X18.7002 Y-9.2964 F120.00
G01 X18.7039 Y-9.2944 F120.00
G01 X18.7079 Y-9.2932 F120.00
G01 X18.7119 Y-9.2928 F120.00
G01 X20.9121 Y-9.2928 F120.00
G01 X20.9161 Y-9.2932 F120.00
G01 X20.9201 Y-9.2944 F120.00
G01 X20.9238 Y-9.2964 F120.00
G01 X20.9270 Y-9.2990 F120.00
G01 X20.9296 Y-9.3022 F120.00
G01 X20.9316 Y-9.3059 F120.00
G01 X20.9328 Y-9.3099 F120.00
G01 X20.9332 Y-9.3139 F120.00
G01 X20.9332 Y-11.5141 F120.00
G01 X20.9327 Y-11.5186 F120.00
G01 X20.9316 Y-11.5221 F120.00
G01 X20.9299 Y-11.5253 F120.00
G01 X20.9277 Y-11.5282 F120.00
G01 X20.9254 Y-11.5304 F120.00
G01 X20.9229 Y-11.5322 F120.00
G01 X20.9196 Y-11.5338 F120.00
G01 X20.9161 Y-11.5348 F120.00
G01 X20.9125 Y-11.5352 F120.00
G01 X20.3335 Y-11.5352 F120.00
G01 X20.3335 Y-11.8328 F120.00
G01 X20.9121 Y-11.8328 F120.00
G01 X20.9161 Y-11.8332 F120.00
G01 X20.9201 Y-11.8344 F120.00
G01 X20.9238 Y-11.8364 F120.00
G01 X20.9270 Y-11.8390 F120.00
G01 X20.9296 Y-11.8422 F120.00
G01 X20.9316 Y-11.8459 F120.00
G01 X20.9328 Y-11.8499 F120.00
G01 X20.9332 Y-11.8539 F120.00
G01 X20.9332 Y-12.4325 F120.00
G01 X21.3998 Y-12.4325 F120.00
G01 X21.4037 Y-12.4246 F120.00
G01 X21.4598 Y-12.3311 F120.00
G01 X21.5253 Y-12.2427 F120.00
G01 X21.5992 Y-12.1612 F120.00
G01 X21.6815 Y-12.0867 F120.00
G01 X21.7691 Y-12.0218 F120.00
G01 X21.8626 Y-11.9657 F120.00
G01 X21.9620 Y-11.9185 F120.00
G01 X22.0665 Y-11.8811 F120.00
G01 X22.1733 Y-11.8543 F120.00
G01 X22.2821 Y-11.8382 F120.00
G01 X22.3920 Y-11.8328 F120.00
G01 X22.5019 Y-11.8382 F120.00
G01 X22.6107 Y-11.8543 F120.00
G01 X22.7175 Y-11.8811 F120.00
G01 X22.8211 Y-11.9181 F120.00
G01 X22.9205 Y-11.9652 F120.00
G01 X23.0149 Y-12.0218 F120.00
G01 X23.1033 Y-12.0873 F120.00
G01 X23.1855 Y-12.1619 F120.00
G01 X23.2593 Y-12.2435 F120.00
G01 X23.3242 Y-12.3311 F120.00
G01 X23.3803 Y-12.4246 F120.00
G01 X23.4279 Y-12.5249 F120.00
G01 X23.4649 Y-12.6285 F120.00
G01 X23.4917 Y-12.7353 F120.00
G01 X23.5078 Y-12.8441 F120.00
G01 X23.5132 Y-12.9540 F120.00
G01 X23.5077 Y-13.0649 F120.00
G01 X23.4917 Y-13.1727 F120.00
G01 X23.4652 Y-13.2785 F120.00
G01 X23.4282 Y-13.3822 F120.00
G01 X23.3808 Y-13.4825 F120.00
G01 X23.3242 Y-13.5769 F120.00
G01 X23.2587 Y-13.6653 F120.00
G01 X23.1848 Y-13.7468 F120.00
G01 X23.1033 Y-13.8207 F120.00
G01 X23.0141 Y-13.8868 F120.00
G01 X22.9197 Y-13.9433 F120.00
G01 X22.8211 Y-13.9899 F120.00
G01 X22.7184 Y-14.0266 F120.00
G01 X22.6107 Y-14.0537 F120.00
G01 X22.5019 Y-14.0698 F120.00
G01 X22.3920 Y-14.0752 F120.00
G01 X22.2816 Y-14.0697 F120.00
G01 X22.1723 Y-14.0534 F120.00
G01 X22.0665 Y-14.0269 F120.00
G01 X21.9638 Y-13.9902 F120.00
G01 X21.8635 Y-13.9428 F120.00
G01 X21.7691 Y-13.8862 F120.00
G01 X21.6800 Y-13.8201 F120.00
G01 X21.5992 Y-13.7468 F120.00
G01 X21.5259 Y-13.6660 F120.00
G01 X21.4598 Y-13.5769 F120.00
G01 X21.4037 Y-13.4834 F120.00
G01 X21.3998 Y-13.4755 F120.00
G01 X20.9332 Y-13.4755 F120.00
G01 X20.9332 Y-14.0545 F120.00
G01 X20.9329 Y-14.0576 F120.00
G01 X20.9320 Y-14.0611 F120.00
G01 X20.9307 Y-14.0640 F120.00
G01 X20.9287 Y-14.0670 F120.00
G01 X20.9262 Y-14.0697 F120.00
G01 X20.9238 Y-14.0716 F120.00
G01 X20.9206 Y-14.0734 F120.00
G01 X20.9177 Y-14.0744 F120.00
G01 X20.9121 Y-14.0752 F120.00
G01 X18.7119 Y-14.0752 F120.00
G01 X18.7079 Y-14.0748 F120.00
G01 X18.7039 Y-14.0736 F120.00
G01 X18.7002 Y-14.0716 F120.00
G01 X18.6970 Y-14.0690 F120.00
G01 X18.6944 Y-14.0658 F120.00
G01 X18.6924 Y-14.0621 F120.00
G01 X18.6912 Y-14.0581 F120.00
G01 X18.6908 Y-14.0541 F120.00
G01 X18.6908 Y-11.8539 F120.00
G01 X18.6913 Y-11.8494 F120.00
G01 X18.6924 Y-11.8459 F120.00
G01 X18.6938 Y-11.8431 F120.00
G01 X18.6959 Y-11.8402 F120.00
G01 X18.6986 Y-11.8376 F120.00
G01 X18.7016 Y-11.8356 F120.00
G01 X18.7049 Y-11.8340 F120.00
G01 X18.7079 Y-11.8332 F120.00
G01 X18.7115 Y-11.8328 F120.00
G01 X19.2905 Y-11.8328 F120.00
G01 X19.2905 Y-11.5352 F120.00
G01 X18.7115 Y-11.5352 F120.00
G01 X18.7079 Y-11.5348 F120.00
G01 X18.7049 Y-11.5340 F120.00
G01 X18.7020 Y-11.5327 F120.00
G01 X18.6990 Y-11.5307 F120.00
G01 X18.6963 Y-11.5282 F120.00
G01 X18.6944 Y-11.5258 F120.00
G01 X18.6928 Y-11.5231 F120.00
G01 X18.6916 Y-11.5197 F120.00
G01 X18.6908 Y-11.5141 F120.00
G01 X18.6908 Y-9.3139 F120.00
G00 Z2.0000
G00 X12.9721 Y-11.8328
G01 F60.00
G01 Z-0.0801
G01 F120.00
G01 X12.9761 Y-11.8332 F120.00
G01 X12.9801 Y-11.8344 F120.00
G01 X12.9838 Y-11.8364 F120.00
G01 X12.9870 Y-11.8390 F120.00
G01 X12.9896 Y-11.8422 F120.00
G01 X12.9916 Y-11.8459 F120.00
G01 X12.9928 Y-11.8499 F120.00
G01 X12.9932 Y-11.8539 F120.00
G01 X12.9932 Y-14.0541 F120.00
G01 X12.9927 Y-14.0586 F120.00
G01 X12.9916 Y-14.0621 F120.00
G01 X12.9899 Y-14.0653 F120.00
G01 X12.9881 Y-14.0678 F120.00
G01 X12.9854 Y-14.0704 F120.00
G01 X12.9824 Y-14.0724 F120.00
G01 X12.9796 Y-14.0738 F120.00
G01 X12.9761 Y-14.0748 F120.00
G01 X12.9725 Y-14.0752 F120.00
G01 X12.3935 Y-14.0752 F120.00
G01 X12.3935 Y-14.3728 F120.00
G01 X12.9725 Y-14.3728 F120.00
G01 X12.9761 Y-14.3732 F120.00
G01 X12.9791 Y-14.3740 F120.00
G01 X12.9820 Y-14.3753 F120.00
G01 X12.9850 Y-14.3773 F120.00
G01 X12.9874 Y-14.3794 F120.00
G01 X12.9896 Y-14.3822 F120.00
G01 X12.9912 Y-14.3849 F120.00
G01 X12.9924 Y-14.3883 F120.00
G01 X12.9932 Y-14.3939 F120.00
G01 X12.9932 Y-16.5941 F120.00
G01 X12.9929 Y-16.5976 F120.00
G01 X12.9920 Y-16.6011 F120.00
G01 X12.9904 Y-16.6044 F120.00
G01 X12.9884 Y-16.6074 F120.00
G01 X12.9850 Y-16.6107 F120.00
G01 X12.9811 Y-16.6132 F120.00
G01 X12.9766 Y-16.6147 F120.00
G01 X12.9721 Y-16.6152 F120.00
G01 X10.7719 Y-16.6152 F120.00
G01 X10.7684 Y-16.6149 F120.00
G01 X10.7653 Y-16.6141 F120.00
G01 X10.7620 Y-16.6127 F120.00
G01 X10.7590 Y-16.6107 F120.00
G01 X10.7563 Y-16.6082 F120.00
G01 X10.7541 Y-16.6053 F120.00
G01 X10.7524 Y-16.6021 F120.00
G01 X10.7513 Y-16.5986 F120.00
G01 X10.7508 Y-16.5950 F120.00
G01 X10.7508 Y-16.1926 F120.00
G01 X7.4195 Y-19.5239 F120.00
G01 X7.4394 Y-19.6035 F120.00
G01 X7.4555 Y-19.7114 F120.00
G01 X7.4610 Y-19.8222 F120.00
G01 X7.4555 Y-19.9331 F120.00
G01 X7.4394 Y-20.0410 F120.00
G01 X7.4127 Y-20.1477 F120.00
G01 X7.3752 Y-20.2522 F120.00
G01 X7.3286 Y-20.3508 F120.00
G01 X7.2720 Y-20.4451 F120.00
G01 X7.2058 Y-20.5343 F120.00
G01 X7.1326 Y-20.6150 F120.00
G01 X7.0514 Y-20.6886 F120.00
G01 X6.9627 Y-20.7545 F120.00
G01 X6.8691 Y-20.8106 F120.00
G01 X6.7679 Y-20.8584 F120.00
G01 X6.6652 Y-20.8952 F120.00
G01 X6.5585 Y-20.9219 F120.00
G01 X6.4497 Y-20.9380 F120.00
G01 X6.3398 Y-20.9434 F120.00
G01 X6.2299 Y-20.9380 F120.00
G01 X6.1210 Y-20.9219 F120.00
G01 X6.0143 Y-20.8952 F120.00
G01 X5.9116 Y-20.8584 F120.00
G01 X5.8104 Y-20.8106 F120.00
G01 X5.7169 Y-20.7545 F120.00
G01 X5.6285 Y-20.6889 F120.00
G01 X5.5470 Y-20.6150 F120.00
G01 X5.4731 Y-20.5335 F120.00
G01 X5.4075 Y-20.4451 F120.00
G01 X5.3510 Y-20.3508 F120.00
G01 X5.3039 Y-20.2513 F120.00
G01 X5.2668 Y-20.1477 F120.00
G01 X5.2401 Y-20.0410 F120.00
G01 X5.2240 Y-19.9321 F120.00
G01 X5.2186 Y-19.8222 F120.00
G01 X5.2240 Y-19.7123 F120.00
G01 X5.2401 Y-19.6035 F120.00
G01 X5.2668 Y-19.4968 F120.00
G01 X5.3039 Y-19.3932 F120.00
G01 X5.3510 Y-19.2937 F120.00
G01 X5.4075 Y-19.1993 F120.00
G01 X5.4737 Y-19.1102 F120.00
G01 X5.5470 Y-19.0294 F120.00
G01 X5.6277 Y-18.9562 F120.00
G01 X5.7169 Y-18.8900 F120.00
G01 X5.8112 Y-18.8334 F120.00
G01 X5.9098 Y-18.7868 F120.00
G01 X6.0148 Y-18.7492 F120.00
G01 X6.1210 Y-18.7226 F120.00
G01 X6.2289 Y-18.7065 F120.00
G01 X6.3403 Y-18.7010 F120.00
G01 X6.4497 Y-18.7064 F120.00
G01 X6.5580 Y-18.7225 F120.00
G01 X6.6647 Y-18.7492 F120.00
G01 X6.7050 Y-18.7635 F120.00
G01 X10.3437 Y-15.1249 F120.00
G01 X10.3812 Y-15.0909 F120.00
G01 X10.4223 Y-15.0604 F120.00
G01 X10.4662 Y-15.0341 F120.00
G01 X10.5129 Y-15.0120 F120.00
G01 X10.5606 Y-14.9950 F120.00
G01 X10.6108 Y-14.9825 F120.00
G01 X10.6614 Y-14.9750 F120.00
G01 X10.7115 Y-14.9726 F120.00
G01 X10.7508 Y-14.9725 F120.00
G01 X10.7508 Y-14.3939 F120.00
G01 X10.7513 Y-14.3894 F120.00
G01 X10.7526 Y-14.3854 F120.00
G01 X10.7547 Y-14.3818 F120.00
G01 X10.7574 Y-14.3786 F120.00
G01 X10.7602 Y-14.3764 F120.00
G01 X10.7639 Y-14.3744 F120.00
G01 X10.7679 Y-14.3732 F120.00
G01 X10.7719 Y-14.3728 F120.00
G01 X11.3505 Y-14.3728 F120.00
G01 X11.3505 Y-14.0752 F120.00
G01 X10.7715 Y-14.0752 F120.00
G01 X10.7679 Y-14.0748 F120.00
G01 X10.7649 Y-14.0740 F120.00
G01 X10.7616 Y-14.0724 F120.00
G01 X10.7586 Y-14.0704 F120.00
G01 X10.7563 Y-14.0682 F120.00
G01 X10.7541 Y-14.0653 F120.00
G01 X10.7524 Y-14.0621 F120.00
G01 X10.7513 Y-14.0586 F120.00
G01 X10.7508 Y-14.0541 F120.00
G01 X10.7508 Y-11.8539 F120.00
G01 X10.7511 Y-11.8504 F120.00
G01 X10.7520 Y-11.8469 F120.00
G01 X10.7536 Y-11.8436 F120.00
G01 X10.7556 Y-11.8406 F120.00
G01 X10.7590 Y-11.8373 F120.00
G01 X10.7629 Y-11.8348 F120.00
G01 X10.7674 Y-11.8333 F120.00
G01 X10.7719 Y-11.8328 F120.00
G01 X12.9721 Y-11.8328 F120.00
G00 Z2.0000
G00 X26.3217 Y-13.2869
G01 F60.00
G01 Z-0.0801
G01 F120.00
G01 X26.3188 Y-13.2785 F120.00
G01 X26.2923 Y-13.1727 F120.00
G01 X26.2762 Y-13.0639 F120.00
G01 X26.2708 Y-12.9540 F120.00
G01 X26.2762 Y-12.8441 F120.00
G01 X26.2923 Y-12.7353 F120.00
G01 X26.3191 Y-12.6285 F120.00
G01 X26.3561 Y-12.5249 F120.00
G01 X26.4032 Y-12.4255 F120.00
G01 X26.4598 Y-12.3311 F120.00
G01 X26.5253 Y-12.2427 F120.00
G01 X26.5992 Y-12.1612 F120.00
G01 X26.6807 Y-12.0873 F120.00
G01 X26.7691 Y-12.0218 F120.00
G01 X26.8635 Y-11.9652 F120.00
G01 X26.9629 Y-11.9181 F120.00
G01 X27.0665 Y-11.8811 F120.00
G01 X27.1733 Y-11.8543 F120.00
G01 X27.2821 Y-11.8382 F120.00
G01 X27.3920 Y-11.8328 F120.00
G01 X27.5019 Y-11.8382 F120.00
G01 X27.6107 Y-11.8543 F120.00
G01 X27.7175 Y-11.8811 F120.00
G01 X27.8211 Y-11.9181 F120.00
G01 X27.9205 Y-11.9652 F120.00
G01 X28.0149 Y-12.0218 F120.00
G01 X28.1033 Y-12.0873 F120.00
G01 X28.1848 Y-12.1612 F120.00
G01 X28.2587 Y-12.2427 F120.00
G01 X28.3242 Y-12.3311 F120.00
G01 X28.3808 Y-12.4255 F120.00
G01 X28.4279 Y-12.5249 F120.00
G01 X28.4649 Y-12.6285 F120.00
G01 X28.4917 Y-12.7353 F120.00
G01 X28.5078 Y-12.8441 F120.00
G01 X28.5132 Y-12.9540 F120.00
G01 X28.5077 Y-13.0649 F120.00
G01 X28.4917 Y-13.1727 F120.00
G01 X28.4652 Y-13.2785 F120.00
G01 X28.4282 Y-13.3822 F120.00
G01 X28.3808 Y-13.4825 F120.00
G01 X28.3245 Y-13.5765 F120.00
G01 X28.2581 Y-13.6660 F120.00
G01 X28.1848 Y-13.7468 F120.00
G01 X28.1033 Y-13.8207 F120.00
G01 X28.0149 Y-13.8862 F120.00
G01 X27.9214 Y-13.9423 F120.00
G01 X27.8211 Y-13.9899 F120.00
G01 X27.7165 Y-14.0272 F120.00
G01 X27.6107 Y-14.0537 F120.00
G01 X27.5019 Y-14.0698 F120.00
G01 X27.3910 Y-14.0752 F120.00
G01 X27.2821 Y-14.0698 F120.00
G01 X27.1915 Y-14.0564 F120.00
G01 X27.1914 Y-14.9865 F120.00
G01 X27.1889 Y-15.0371 F120.00
G01 X27.1814 Y-15.0877 F120.00
G01 X27.1690 Y-15.1374 F120.00
G01 X27.1514 Y-15.1864 F120.00
G01 X27.1299 Y-15.2318 F120.00
G01 X27.1036 Y-15.2757 F120.00
G01 X27.0731 Y-15.3168 F120.00
G01 X27.0391 Y-15.3543 F120.00
G01 X26.1755 Y-16.2180 F120.00
G01 X26.1754 Y-23.1145 F120.00
G01 X26.1728 Y-23.1661 F120.00
G01 X26.1654 Y-23.2157 F120.00
G01 X26.1533 Y-23.2644 F120.00
G01 X26.1358 Y-23.3136 F120.00
G01 X26.1139 Y-23.3598 F120.00
G01 X26.0876 Y-23.4037 F120.00
G01 X26.0568 Y-23.4452 F120.00
G01 X26.0231 Y-23.4823 F120.00
G01 X25.9215 Y-23.5840 F120.00
G01 X25.9215 Y-55.5208 F120.00
G01 X26.5005 Y-55.5208 F120.00
G01 X26.5041 Y-55.5212 F120.00
G01 X26.5071 Y-55.5220 F120.00
G01 X26.5104 Y-55.5236 F120.00
G01 X26.5130 Y-55.5253 F120.00
G01 X26.5154 Y-55.5274 F120.00
G01 X26.5176 Y-55.5302 F120.00
G01 X26.5192 Y-55.5329 F120.00
G01 X26.5204 Y-55.5363 F120.00
G01 X26.5212 Y-55.5419 F120.00
G01 X26.5211 Y-57.7441 F120.00
G01 X26.5204 Y-57.7477 F120.00
G01 X26.5189 Y-57.7515 F120.00
G01 X26.5167 Y-57.7550 F120.00
G01 X26.5142 Y-57.7577 F120.00
G01 X26.5113 Y-57.7599 F120.00
G01 X26.5076 Y-57.7618 F120.00
G01 X26.5041 Y-57.7628 F120.00
G01 X26.5001 Y-57.7632 F120.00
G01 X24.2990 Y-57.7632 F120.00
G01 X24.2948 Y-57.7626 F120.00
G01 X24.2909 Y-57.7612 F120.00
G01 X24.2878 Y-57.7593 F120.00
G01 X24.2846 Y-57.7566 F120.00
G01 X24.2821 Y-57.7533 F120.00
G01 X24.2804 Y-57.7501 F120.00
G01 X24.2792 Y-57.7461 F120.00
G01 X24.2788 Y-57.7421 F120.00
G01 X24.2788 Y-55.5419 F120.00
G01 X24.2794 Y-55.5368 F120.00
G01 X24.2804 Y-55.5339 F120.00
G01 X24.2821 Y-55.5307 F120.00
G01 X24.2843 Y-55.5278 F120.00
G01 X24.2866 Y-55.5256 F120.00
G01 X24.2896 Y-55.5236 F120.00
G01 X24.2924 Y-55.5222 F120.00
G01 X24.2959 Y-55.5212 F120.00
G01 X24.2995 Y-55.5208 F120.00
G01 X24.8785 Y-55.5208 F120.00
G01 X24.8785 Y-23.3679 F120.00
G01 X24.8812 Y-23.3159 F120.00
G01 X24.8886 Y-23.2663 F120.00
G01 X24.9007 Y-23.2176 F120.00
G01 X24.9182 Y-23.1684 F120.00
G01 X24.9401 Y-23.1222 F120.00
G01 X24.9664 Y-23.0783 F120.00
G01 X24.9972 Y-23.0368 F120.00
G01 X25.0309 Y-22.9997 F120.00
G01 X25.1325 Y-22.8980 F120.00
G01 X25.1326 Y-16.0010 F120.00
G01 X25.1351 Y-15.9509 F120.00
G01 X25.1426 Y-15.9003 F120.00
G01 X25.1550 Y-15.8506 F120.00
G01 X25.1719 Y-15.8034 F120.00
G01 X25.1946 Y-15.7553 F120.00
G01 X25.2204 Y-15.7123 F120.00
G01 X25.2509 Y-15.6712 F120.00
G01 X25.2852 Y-15.6333 F120.00
G01 X26.1485 Y-14.7700 F120.00
G01 X26.1485 Y-13.6759 F120.00
G01 X26.1511 Y-13.6244 F120.00
G01 X26.1586 Y-13.5743 F120.00
G01 X26.1710 Y-13.5246 F120.00
G01 X26.1882 Y-13.4764 F120.00
G01 X26.2099 Y-13.4307 F120.00
G01 X26.2364 Y-13.3863 F120.00
G01 X26.2666 Y-13.3456 F120.00
G01 X26.3009 Y-13.3077 F120.00
G01 X26.3217 Y-13.2869 F120.00
G00 Z2.0000
G00 X30.1021 Y0.0212
G01 F60.00
G01 Z-0.0801
G01 F120.00
G01 X30.1079 Y0.0204 F120.00
G01 X30.1755 Y0.0005 F120.00
G01 X30.1803 Y-0.0017 F120.00
G01 X30.1840 Y-0.0046 F120.00
G01 X30.2309 Y-0.0587 F120.00
G01 X30.2335 Y-0.0625 F120.00
G01 X30.2355 Y-0.0679 F120.00
G01 X30.2467 Y-0.1196 F120.00
G01 X30.2472 Y-0.1239 F120.00
G01 X30.2472 Y-59.5661 F120.00
G01 X30.2464 Y-59.5719 F120.00
G01 X30.2266 Y-59.6391 F120.00
G01 X30.2253 Y-59.6424 F120.00
G01 X30.2231 Y-59.6460 F120.00
G01 X30.2206 Y-59.6487 F120.00
G01 X30.1673 Y-59.6949 F120.00
G01 X30.1639 Y-59.6973 F120.00
G01 X30.1581 Y-59.6995 F120.00
G01 X30.1064 Y-59.7107 F120.00
G01 X30.1021 Y-59.7112 F120.00
G01 X0.1239 Y-59.7112 F120.00
G01 X0.1181 Y-59.7104 F120.00
G01 X0.0509 Y-59.6906 F120.00
G01 X0.0476 Y-59.6893 F120.00
G01 X0.0444 Y-59.6874 F120.00
G01 X0.0413 Y-59.6846 F120.00
G01 X-0.0049 Y-59.6313 F120.00
G01 X-0.0073 Y-59.6279 F120.00
G01 X-0.0095 Y-59.6221 F120.00
G01 X-0.0207 Y-59.5704 F120.00
G01 X-0.0212 Y-59.5661 F120.00
G01 X-0.0212 Y-0.1239 F120.00
G01 X-0.0204 Y-0.1181 F120.00
G01 X-0.0006 Y-0.0509 F120.00
G01 X0.0007 Y-0.0476 F120.00
G01 X0.0029 Y-0.0440 F120.00
G01 X0.0054 Y-0.0413 F120.00
G01 X0.0587 Y0.0049 F120.00
G01 X0.0621 Y0.0073 F120.00
G01 X0.0679 Y0.0095 F120.00
G01 X0.1196 Y0.0207 F120.00
G01 X0.1239 Y0.0212 F120.00
G01 X30.1021 Y0.0212 F120.00
G00 Z2.0000
G00 X18.4368 Y-26.7559
G01 F60.00
G01 Z-0.0801
G01 F120.00
G01 X18.4372 Y-26.7519 F120.00
G01 X18.4384 Y-26.7479 F120.00
G01 X18.4404 Y-26.7442 F120.00
G01 X18.4430 Y-26.7410 F120.00
G01 X18.4462 Y-26.7384 F120.00
G01 X18.4499 Y-26.7364 F120.00
G01 X18.4539 Y-26.7352 F120.00
G01 X18.4579 Y-26.7348 F120.00
G01 X20.6581 Y-26.7348 F120.00
G01 X20.6621 Y-26.7352 F120.00
G01 X20.6661 Y-26.7364 F120.00
G01 X20.6698 Y-26.7384 F120.00
G01 X20.6730 Y-26.7410 F120.00
G01 X20.6756 Y-26.7442 F120.00
G01 X20.6776 Y-26.7479 F120.00
G01 X20.6788 Y-26.7519 F120.00
G01 X20.6792 Y-26.7559 F120.00
G01 X20.6792 Y-28.9561 F120.00
G01 X20.6788 Y-28.9601 F120.00
G01 X20.6776 Y-28.9641 F120.00
G01 X20.6756 Y-28.9678 F120.00
G01 X20.6730 Y-28.9710 F120.00
G01 X20.6698 Y-28.9736 F120.00
G01 X20.6661 Y-28.9756 F120.00
G01 X20.6621 Y-28.9768 F120.00
G01 X20.6581 Y-28.9772 F120.00
G01 X18.4579 Y-28.9772 F120.00
G01 X18.4539 Y-28.9768 F120.00
G01 X18.4499 Y-28.9756 F120.00
G01 X18.4462 Y-28.9736 F120.00
G01 X18.4430 Y-28.9710 F120.00
G01 X18.4404 Y-28.9678 F120.00
G01 X18.4384 Y-28.9641 F120.00
G01 X18.4372 Y-28.9601 F120.00
G01 X18.4368 Y-28.9561 F120.00
G01 X18.4368 Y-26.7559 F120.00
G00 Z2.0000
G00 X18.4368 Y-29.2959
G01 F60.00
G01 Z-0.0801
G01 F120.00
G01 X18.4372 Y-29.2919 F120.00
G01 X18.4384 Y-29.2879 F120.00
G01 X18.4404 Y-29.2842 F120.00
G01 X18.4430 Y-29.2810 F120.00
G01 X18.4462 Y-29.2784 F120.00
G01 X18.4499 Y-29.2764 F120.00
G01 X18.4539 Y-29.2752 F120.00
G01 X18.4579 Y-29.2748 F120.00
G01 X20.6581 Y-29.2748 F120.00
G01 X20.6621 Y-29.2752 F120.00
G01 X20.6661 Y-29.2764 F120.00
G01 X20.6698 Y-29.2784 F120.00
G01 X20.6730 Y-29.2810 F120.00
G01 X20.6756 Y-29.2842 F120.00
G01 X20.6776 Y-29.2879 F120.00
G01 X20.6788 Y-29.2919 F120.00
G01 X20.6792 Y-29.2959 F120.00
G01 X20.6792 Y-31.4961 F120.00
G01 X20.6788 Y-31.5001 F120.00
G01 X20.6776 Y-31.5041 F120.00
G01 X20.6756 Y-31.5078 F120.00
G01 X20.6730 Y-31.5110 F120.00
G01 X20.6698 Y-31.5136 F120.00
G01 X20.6661 Y-31.5156 F120.00
G01 X20.6621 Y-31.5168 F120.00
G01 X20.6581 Y-31.5172 F120.00
G01 X18.4579 Y-31.5172 F120.00
G01 X18.4539 Y-31.5168 F120.00
G01 X18.4499 Y-31.5156 F120.00
G01 X18.4462 Y-31.5136 F120.00
G01 X18.4430 Y-31.5110 F120.00
G01 X18.4404 Y-31.5078 F120.00
G01 X18.4384 Y-31.5041 F120.00
G01 X18.4372 Y-31.5001 F120.00
G01 X18.4368 Y-31.4961 F120.00
G01 X18.4368 Y-29.2959 F120.00
G00 Z2.0000
G00 X18.4368 Y-31.8359
G01 F60.00
G01 Z-0.0801
G01 F120.00
G01 X18.4372 Y-31.8319 F120.00
G01 X18.4384 Y-31.8279 F120.00
G01 X18.4404 Y-31.8242 F120.00
G01 X18.4430 Y-31.8210 F120.00
G01 X18.4462 Y-31.8184 F120.00
G01 X18.4499 Y-31.8164 F120.00
G01 X18.4539 Y-31.8152 F120.00
G01 X18.4579 Y-31.8148 F120.00
G01 X20.6581 Y-31.8148 F120.00
G01 X20.6621 Y-31.8152 F120.00
G01 X20.6661 Y-31.8164 F120.00
G01 X20.6698 Y-31.8184 F120.00
G01 X20.6730 Y-31.8210 F120.00
G01 X20.6756 Y-31.8242 F120.00
G01 X20.6776 Y-31.8279 F120.00
G01 X20.6788 Y-31.8319 F120.00
G01 X20.6792 Y-31.8359 F120.00
G01 X20.6792 Y-34.0361 F120.00
G01 X20.6788 Y-34.0401 F120.00
G01 X20.6776 Y-34.0441 F120.00
G01 X20.6756 Y-34.0478 F120.00
G01 X20.6730 Y-34.0510 F120.00
G01 X20.6698 Y-34.0536 F120.00
G01 X20.6661 Y-34.0556 F120.00
G01 X20.6621 Y-34.0568 F120.00
G01 X20.6581 Y-34.0572 F120.00
G01 X18.4579 Y-34.0572 F120.00
G01 X18.4539 Y-34.0568 F120.00
G01 X18.4499 Y-34.0556 F120.00
G01 X18.4462 Y-34.0536 F120.00
G01 X18.4430 Y-34.0510 F120.00
G01 X18.4404 Y-34.0478 F120.00
G01 X18.4384 Y-34.0441 F120.00
G01 X18.4372 Y-34.0401 F120.00
G01 X18.4368 Y-34.0361 F120.00
G01 X18.4368 Y-31.8359 F120.00
G00 Z2.0000
G00 X18.4368 Y-34.3759
G01 F60.00
G01 Z-0.0801
G01 F120.00
G01 X18.4372 Y-34.3719 F120.00
G01 X18.4384 Y-34.3679 F120.00
G01 X18.4404 Y-34.3642 F120.00
G01 X18.4430 Y-34.3610 F120.00
G01 X18.4462 Y-34.3584 F120.00
G01 X18.4499 Y-34.3564 F120.00
G01 X18.4539 Y-34.3552 F120.00
G01 X18.4579 Y-34.3548 F120.00
G01 X20.6581 Y-34.3548 F120.00
G01 X20.6621 Y-34.3552 F120.00
G01 X20.6661 Y-34.3564 F120.00
G01 X20.6698 Y-34.3584 F120.00
G01 X20.6730 Y-34.3610 F120.00
G01 X20.6756 Y-34.3642 F120.00
G01 X20.6776 Y-34.3679 F120.00
G01 X20.6788 Y-34.3719 F120.00
G01 X20.6792 Y-34.3759 F120.00
G01 X20.6792 Y-36.5761 F120.00
G01 X20.6788 Y-36.5801 F120.00
G01 X20.6776 Y-36.5841 F120.00
G01 X20.6756 Y-36.5878 F120.00
G01 X20.6730 Y-36.5910 F120.00
G01 X20.6698 Y-36.5936 F120.00
G01 X20.6661 Y-36.5956 F120.00
G01 X20.6621 Y-36.5968 F120.00
G01 X20.6581 Y-36.5972 F120.00
G01 X18.4579 Y-36.5972 F120.00
G01 X18.4539 Y-36.5968 F120.00
G01 X18.4499 Y-36.5956 F120.00
G01 X18.4462 Y-36.5936 F120.00
G01 X18.4430 Y-36.5910 F120.00
G01 X18.4404 Y-36.5878 F120.00
G01 X18.4384 Y-36.5841 F120.00
G01 X18.4372 Y-36.5801 F120.00
G01 X18.4368 Y-36.5761 F120.00
G01 X18.4368 Y-34.3759 F120.00
G00 Z2.0000
G00 X18.4368 Y-39.4559
G01 F60.00
G01 Z-0.0801
G01 F120.00
G01 X18.4372 Y-39.4519 F120.00
G01 X18.4384 Y-39.4479 F120.00
G01 X18.4404 Y-39.4442 F120.00
G01 X18.4430 Y-39.4410 F120.00
G01 X18.4462 Y-39.4384 F120.00
G01 X18.4499 Y-39.4364 F120.00
G01 X18.4539 Y-39.4352 F120.00
G01 X18.4579 Y-39.4348 F120.00
G01 X20.6581 Y-39.4348 F120.00
G01 X20.6621 Y-39.4352 F120.00
G01 X20.6661 Y-39.4364 F120.00
G01 X20.6698 Y-39.4384 F120.00
G01 X20.6730 Y-39.4410 F120.00
G01 X20.6756 Y-39.4442 F120.00
G01 X20.6776 Y-39.4479 F120.00
G01 X20.6788 Y-39.4519 F120.00
G01 X20.6792 Y-39.4559 F120.00
G01 X20.6792 Y-41.6561 F120.00
G01 X20.6788 Y-41.6601 F120.00
G01 X20.6776 Y-41.6641 F120.00
G01 X20.6756 Y-41.6678 F120.00
G01 X20.6730 Y-41.6710 F120.00
G01 X20.6698 Y-41.6736 F120.00
G01 X20.6661 Y-41.6756 F120.00
G01 X20.6621 Y-41.6768 F120.00
G01 X20.6581 Y-41.6772 F120.00
G01 X18.4579 Y-41.6772 F120.00
G01 X18.4539 Y-41.6768 F120.00
G01 X18.4499 Y-41.6756 F120.00
G01 X18.4462 Y-41.6736 F120.00
G01 X18.4430 Y-41.6710 F120.00
G01 X18.4404 Y-41.6678 F120.00
G01 X18.4384 Y-41.6641 F120.00
G01 X18.4372 Y-41.6601 F120.00
G01 X18.4368 Y-41.6561 F120.00
G01 X18.4368 Y-39.4559 F120.00
G00 Z2.0000
G00 X18.4368 Y-41.9959
G01 F60.00
G01 Z-0.0801
G01 F120.00
G01 X18.4372 Y-41.9919 F120.00
G01 X18.4384 Y-41.9879 F120.00
G01 X18.4404 Y-41.9842 F120.00
G01 X18.4430 Y-41.9810 F120.00
G01 X18.4462 Y-41.9784 F120.00
G01 X18.4499 Y-41.9764 F120.00
G01 X18.4539 Y-41.9752 F120.00
G01 X18.4579 Y-41.9748 F120.00
G01 X20.6581 Y-41.9748 F120.00
G01 X20.6621 Y-41.9752 F120.00
G01 X20.6661 Y-41.9764 F120.00
G01 X20.6698 Y-41.9784 F120.00
G01 X20.6730 Y-41.9810 F120.00
G01 X20.6756 Y-41.9842 F120.00
G01 X20.6776 Y-41.9879 F120.00
G01 X20.6788 Y-41.9919 F120.00
G01 X20.6792 Y-41.9959 F120.00
G01 X20.6792 Y-44.1961 F120.00
G01 X20.6788 Y-44.2001 F120.00
G01 X20.6776 Y-44.2041 F120.00
G01 X20.6756 Y-44.2078 F120.00
G01 X20.6730 Y-44.2110 F120.00
G01 X20.6698 Y-44.2136 F120.00
G01 X20.6661 Y-44.2156 F120.00
G01 X20.6621 Y-44.2168 F120.00
G01 X20.6581 Y-44.2172 F120.00
G01 X18.4579 Y-44.2172 F120.00
G01 X18.4539 Y-44.2168 F120.00
G01 X18.4499 Y-44.2156 F120.00
G01 X18.4462 Y-44.2136 F120.00
G01 X18.4430 Y-44.2110 F120.00
G01 X18.4404 Y-44.2078 F120.00
G01 X18.4384 Y-44.2041 F120.00
G01 X18.4372 Y-44.2001 F120.00
G01 X18.4368 Y-44.1961 F120.00
G01 X18.4368 Y-41.9959 F120.00
G00 Z2.0000
G00 X18.4368 Y-44.5359
G01 F60.00
G01 Z-0.0801
G01 F120.00
G01 X18.4372 Y-44.5319 F120.00
G01 X18.4384 Y-44.5279 F120.00
G01 X18.4404 Y-44.5242 F120.00
G01 X18.4430 Y-44.5210 F120.00
G01 X18.4462 Y-44.5184 F120.00
G01 X18.4499 Y-44.5164 F120.00
G01 X18.4539 Y-44.5152 F120.00
G01 X18.4579 Y-44.5148 F120.00
G01 X20.6581 Y-44.5148 F120.00
G01 X20.6621 Y-44.5152 F120.00
G01 X20.6661 Y-44.5164 F120.00
G01 X20.6698 Y-44.5184 F120.00
G01 X20.6730 Y-44.5210 F120.00
G01 X20.6756 Y-44.5242 F120.00
G01 X20.6776 Y-44.5279 F120.00
G01 X20.6788 Y-44.5319 F120.00
G01 X20.6792 Y-44.5359 F120.00
G01 X20.6792 Y-46.7361 F120.00
G01 X20.6788 Y-46.7401 F120.00
G01 X20.6776 Y-46.7441 F120.00
G01 X20.6756 Y-46.7478 F120.00
G01 X20.6730 Y-46.7510 F120.00
G01 X20.6698 Y-46.7536 F120.00
G01 X20.6661 Y-46.7556 F120.00
G01 X20.6621 Y-46.7568 F120.00
G01 X20.6581 Y-46.7572 F120.00
G01 X18.4579 Y-46.7572 F120.00
G01 X18.4539 Y-46.7568 F120.00
G01 X18.4499 Y-46.7556 F120.00
G01 X18.4462 Y-46.7536 F120.00
G01 X18.4430 Y-46.7510 F120.00
G01 X18.4404 Y-46.7478 F120.00
G01 X18.4384 Y-46.7441 F120.00
G01 X18.4372 Y-46.7401 F120.00
G01 X18.4368 Y-46.7361 F120.00
G01 X18.4368 Y-44.5359 F120.00
G00 Z2.0000
G00 X10.8168 Y-44.5359
G01 F60.00
G01 Z-0.0801
G01 F120.00
G01 X10.8172 Y-44.5319 F120.00
G01 X10.8184 Y-44.5279 F120.00
G01 X10.8204 Y-44.5242 F120.00
G01 X10.8230 Y-44.5210 F120.00
G01 X10.8262 Y-44.5184 F120.00
G01 X10.8299 Y-44.5164 F120.00
G01 X10.8339 Y-44.5152 F120.00
G01 X10.8379 Y-44.5148 F120.00
G01 X13.0381 Y-44.5148 F120.00
G01 X13.0416 Y-44.5151 F120.00
G01 X13.0451 Y-44.5160 F120.00
G01 X13.0484 Y-44.5176 F120.00
G01 X13.0514 Y-44.5196 F120.00
G01 X13.0547 Y-44.5230 F120.00
G01 X13.0572 Y-44.5269 F120.00
G01 X13.0587 Y-44.5314 F120.00
G01 X13.0592 Y-44.5359 F120.00
G01 X13.0592 Y-45.3418 F120.00
G01 X18.1488 Y-50.4313 F120.00
G01 X18.1831 Y-50.4692 F120.00
G01 X18.2141 Y-50.5111 F120.00
G01 X18.2399 Y-50.5542 F120.00
G01 X18.2614 Y-50.5996 F120.00
G01 X18.2790 Y-50.6486 F120.00
G01 X18.2916 Y-50.6992 F120.00
G01 X18.2989 Y-50.7489 F120.00
G01 X18.3014 Y-50.7995 F120.00
G01 X18.3015 Y-55.5208 F120.00
G01 X18.8805 Y-55.5208 F120.00
G01 X18.8841 Y-55.5212 F120.00
G01 X18.8871 Y-55.5220 F120.00
G01 X18.8904 Y-55.5236 F120.00
G01 X18.8930 Y-55.5253 F120.00
G01 X18.8957 Y-55.5278 F120.00
G01 X18.8979 Y-55.5307 F120.00
G01 X18.8994 Y-55.5334 F120.00
G01 X18.9006 Y-55.5368 F120.00
G01 X18.9012 Y-55.5419 F120.00
G01 X18.9012 Y-57.7421 F120.00
G01 X18.9004 Y-57.7477 F120.00
G01 X18.8984 Y-57.7524 F120.00
G01 X18.8950 Y-57.7570 F120.00
G01 X18.8909 Y-57.7602 F120.00
G01 X18.8857 Y-57.7624 F120.00
G01 X18.8801 Y-57.7632 F120.00
G01 X16.6799 Y-57.7632 F120.00
G01 X16.6764 Y-57.7629 F120.00
G01 X16.6729 Y-57.7620 F120.00
G01 X16.6696 Y-57.7604 F120.00
G01 X16.6670 Y-57.7587 F120.00
G01 X16.6643 Y-57.7562 F120.00
G01 X16.6624 Y-57.7538 F120.00
G01 X16.6606 Y-57.7506 F120.00
G01 X16.6594 Y-57.7472 F120.00
G01 X16.6588 Y-57.7421 F120.00
G01 X16.6588 Y-55.5419 F120.00
G01 X16.6596 Y-55.5363 F120.00
G01 X16.6608 Y-55.5329 F120.00
G01 X16.6624 Y-55.5302 F120.00
G01 X16.6646 Y-55.5274 F120.00
G01 X16.6670 Y-55.5253 F120.00
G01 X16.6696 Y-55.5236 F120.00
G01 X16.6729 Y-55.5220 F120.00
G01 X16.6759 Y-55.5212 F120.00
G01 X16.6795 Y-55.5208 F120.00
G01 X17.2585 Y-55.5208 F120.00
G01 X17.2585 Y-51.0160 F120.00
G01 X12.9998 Y-46.7572 F120.00
G01 X10.8379 Y-46.7572 F120.00
G01 X10.8339 Y-46.7568 F120.00
G01 X10.8299 Y-46.7556 F120.00
G01 X10.8262 Y-46.7536 F120.00
G01 X10.8230 Y-46.7510 F120.00
G01 X10.8204 Y-46.7478 F120.00
G01 X10.8184 Y-46.7441 F120.00
G01 X10.8172 Y-46.7401 F120.00
G01 X10.8168 Y-46.7361 F120.00
G01 X10.8168 Y-44.5359 F120.00
G00 Z2.0000
G00 X10.8168 Y-41.9959
G01 F60.00
G01 Z-0.0801
G01 F120.00
G01 X10.8172 Y-41.9919 F120.00
G01 X10.8184 Y-41.9879 F120.00
G01 X10.8204 Y-41.9842 F120.00
G01 X10.8230 Y-41.9810 F120.00
G01 X10.8262 Y-41.9784 F120.00
G01 X10.8299 Y-41.9764 F120.00
G01 X10.8339 Y-41.9752 F120.00
G01 X10.8379 Y-41.9748 F120.00
G01 X13.0381 Y-41.9748 F120.00
G01 X13.0416 Y-41.9751 F120.00
G01 X13.0451 Y-41.9760 F120.00
G01 X13.0484 Y-41.9776 F120.00
G01 X13.0514 Y-41.9796 F120.00
G01 X13.0547 Y-41.9830 F120.00
G01 X13.0569 Y-41.9865 F120.00
G01 X13.0586 Y-41.9908 F120.00
G01 X13.0592 Y-41.9955 F120.00
G01 X13.0592 Y-42.6098 F120.00
G01 X13.0720 Y-42.6144 F120.00
G01 X13.1173 Y-42.6359 F120.00
G01 X13.1613 Y-42.6621 F120.00
G01 X13.2028 Y-42.6929 F120.00
G01 X13.2407 Y-42.7272 F120.00
G01 X20.6888 Y-50.1753 F120.00
G01 X20.7231 Y-50.2132 F120.00
G01 X20.7536 Y-50.2543 F120.00
G01 X20.7803 Y-50.2991 F120.00
G01 X20.8018 Y-50.3444 F120.00
G01 X20.8190 Y-50.3926 F120.00
G01 X20.8316 Y-50.4432 F120.00
G01 X20.8389 Y-50.4929 F120.00
G01 X20.8414 Y-50.5435 F120.00
G01 X20.8415 Y-55.5208 F120.00
G01 X21.4205 Y-55.5208 F120.00
G01 X21.4241 Y-55.5212 F120.00
G01 X21.4271 Y-55.5220 F120.00
G01 X21.4304 Y-55.5236 F120.00
G01 X21.4330 Y-55.5253 F120.00
G01 X21.4354 Y-55.5274 F120.00
G01 X21.4376 Y-55.5302 F120.00
G01 X21.4394 Y-55.5334 F120.00
G01 X21.4404 Y-55.5363 F120.00
G01 X21.4412 Y-55.5419 F120.00
G01 X21.4412 Y-57.7421 F120.00
G01 X21.4406 Y-57.7472 F120.00
G01 X21.4387 Y-57.7520 F120.00
G01 X21.4357 Y-57.7562 F120.00
G01 X21.4318 Y-57.7596 F120.00
G01 X21.4262 Y-57.7623 F120.00
G01 X21.4201 Y-57.7632 F120.00
G01 X19.2199 Y-57.7632 F120.00
G01 X19.2164 Y-57.7629 F120.00
G01 X19.2129 Y-57.7620 F120.00
G01 X19.2096 Y-57.7604 F120.00
G01 X19.2066 Y-57.7584 F120.00
G01 X19.2043 Y-57.7562 F120.00
G01 X19.2021 Y-57.7533 F120.00
G01 X19.2004 Y-57.7501 F120.00
G01 X19.1993 Y-57.7466 F120.00
G01 X19.1988 Y-57.7421 F120.00
G01 X19.1988 Y-55.5419 F120.00
G01 X19.1996 Y-55.5363 F120.00
G01 X19.2008 Y-55.5329 F120.00
G01 X19.2024 Y-55.5302 F120.00
G01 X19.2046 Y-55.5274 F120.00
G01 X19.2070 Y-55.5253 F120.00
G01 X19.2096 Y-55.5236 F120.00
G01 X19.2129 Y-55.5220 F120.00
G01 X19.2164 Y-55.5211 F120.00
G01 X19.2195 Y-55.5208 F120.00
G01 X19.7985 Y-55.5208 F120.00
G01 X19.7985 Y-50.7600 F120.00
G01 X13.0592 Y-44.0206 F120.00
G01 X13.0591 Y-44.1981 F120.00
G01 X13.0584 Y-44.2017 F120.00
G01 X13.0572 Y-44.2051 F120.00
G01 X13.0553 Y-44.2082 F120.00
G01 X13.0530 Y-44.2110 F120.00
G01 X13.0502 Y-44.2133 F120.00
G01 X13.0466 Y-44.2154 F120.00
G01 X13.0432 Y-44.2166 F120.00
G01 X13.0396 Y-44.2171 F120.00
G01 X10.8379 Y-44.2172 F120.00
G01 X10.8339 Y-44.2168 F120.00
G01 X10.8299 Y-44.2156 F120.00
G01 X10.8262 Y-44.2136 F120.00
G01 X10.8230 Y-44.2110 F120.00
G01 X10.8204 Y-44.2078 F120.00
G01 X10.8184 Y-44.2041 F120.00
G01 X10.8172 Y-44.2001 F120.00
G01 X10.8168 Y-44.1961 F120.00
G01 X10.8168 Y-41.9959 F120.00
G00 Z2.0000
G00 X8.6226 Y-39.6478
G01 F60.00
G01 Z-0.0801
G01 F120.00
G01 X8.6251 Y-39.5989 F120.00
G01 X8.6326 Y-39.5483 F120.00
G01 X8.6450 Y-39.4986 F120.00
G01 X8.6619 Y-39.4514 F120.00
G01 X8.6846 Y-39.4033 F120.00
G01 X8.7104 Y-39.3603 F120.00
G01 X8.7415 Y-39.3185 F120.00
G01 X8.7752 Y-39.2813 F120.00
G01 X10.4093 Y-37.6472 F120.00
G01 X10.4472 Y-37.6129 F120.00
G01 X10.4883 Y-37.5824 F120.00
G01 X10.5322 Y-37.5561 F120.00
G01 X10.5789 Y-37.5340 F120.00
G01 X10.6266 Y-37.5170 F120.00
G01 X10.6768 Y-37.5045 F120.00
G01 X10.7274 Y-37.4970 F120.00
G01 X10.7775 Y-37.4946 F120.00
G01 X10.8168 Y-37.4945 F120.00
G01 X10.8168 Y-36.9155 F120.00
G01 X10.8176 Y-36.9103 F120.00
G01 X10.8193 Y-36.9060 F120.00
G01 X10.8223 Y-36.9018 F120.00
G01 X10.8262 Y-36.8984 F120.00
G01 X10.8318 Y-36.8957 F120.00
G01 X10.8379 Y-36.8948 F120.00
G01 X13.0381 Y-36.8948 F120.00
G01 X13.0421 Y-36.8952 F120.00
G01 X13.0451 Y-36.8960 F120.00
G01 X13.0484 Y-36.8976 F120.00
G01 X13.0514 Y-36.8996 F120.00
G01 X13.0541 Y-36.9022 F120.00
G01 X13.0562 Y-36.9051 F120.00
G01 X13.0578 Y-36.9084 F120.00
G01 X13.0587 Y-36.9114 F120.00
G01 X13.0592 Y-36.9150 F120.00
G01 X13.0592 Y-37.3174 F120.00
G01 X15.2265 Y-35.1500 F120.00
G01 X15.2265 Y-24.6379 F120.00
G01 X15.2290 Y-24.5874 F120.00
G01 X15.2366 Y-24.5363 F120.00
G01 X15.2490 Y-24.4866 F120.00
G01 X15.2662 Y-24.4384 F120.00
G01 X15.2884 Y-24.3917 F120.00
G01 X15.3144 Y-24.3483 F120.00
G01 X15.3449 Y-24.3072 F120.00
G01 X15.3789 Y-24.2697 F120.00
G01 X15.4397 Y-24.2089 F120.00
G01 X15.4368 Y-24.2005 F120.00
G01 X15.4102 Y-24.0938 F120.00
G01 X15.3942 Y-23.9859 F120.00
G01 X15.3888 Y-23.8750 F120.00
G01 X15.3942 Y-23.7661 F120.00
G01 X15.4103 Y-23.6573 F120.00
G01 X15.4371 Y-23.5505 F120.00
G01 X15.4744 Y-23.4465 F120.00
G01 X15.5212 Y-23.3475 F120.00
G01 X15.5778 Y-23.2531 F120.00
G01 X15.6433 Y-23.1647 F120.00
G01 X15.7165 Y-23.0839 F120.00
G01 X15.7987 Y-23.0093 F120.00
G01 X15.8863 Y-22.9443 F120.00
G01 X15.9806 Y-22.8877 F120.00
G01 X15.9885 Y-22.8838 F120.00
G01 X15.9885 Y-22.0931 F120.00
G01 X15.9410 Y-22.0706 F120.00
G01 X15.8467 Y-22.0139 F120.00
G01 X15.7587 Y-21.9487 F120.00
G01 X15.6768 Y-21.8744 F120.00
G01 X15.6033 Y-21.7933 F120.00
G01 X15.5378 Y-21.7049 F120.00
G01 X15.4812 Y-21.6105 F120.00
G01 X15.4344 Y-21.5115 F120.00
G01 X15.3971 Y-21.4075 F120.00
G01 X15.3706 Y-21.3017 F120.00
G01 X15.3541 Y-21.1909 F120.00
G01 X15.3488 Y-21.0820 F120.00
G01 X15.3542 Y-20.9721 F120.00
G01 X15.3703 Y-20.8633 F120.00
G01 X15.3971 Y-20.7565 F120.00
G01 X15.4341 Y-20.6529 F120.00
G01 X15.4812 Y-20.5535 F120.00
G01 X15.5378 Y-20.4591 F120.00
G01 X15.6039 Y-20.3700 F120.00
G01 X15.6772 Y-20.2892 F120.00
G01 X15.7580 Y-20.2159 F120.00
G01 X15.8463 Y-20.1503 F120.00
G01 X15.9415 Y-20.0932 F120.00
G01 X16.0409 Y-20.0461 F120.00
G01 X16.1445 Y-20.0091 F120.00
G01 X16.2522 Y-19.9822 F120.00
G01 X16.3601 Y-19.9662 F120.00
G01 X16.4690 Y-19.9608 F120.00
G01 X16.5789 Y-19.9661 F120.00
G01 X16.6887 Y-19.9823 F120.00
G01 X16.7955 Y-20.0091 F120.00
G01 X16.8991 Y-20.0461 F120.00
G01 X16.9977 Y-20.0927 F120.00
G01 X17.0091 Y-20.0995 F120.00
G01 X18.6908 Y-18.4178 F120.00
G01 X18.6908 Y-16.9339 F120.00
G01 X18.6914 Y-16.9288 F120.00
G01 X18.6933 Y-16.9240 F120.00
G01 X18.6963 Y-16.9198 F120.00
G01 X18.6998 Y-16.9167 F120.00
G01 X18.7053 Y-16.9139 F120.00
G01 X18.7084 Y-16.9131 F120.00
G01 X18.7119 Y-16.9128 F120.00
G01 X20.9121 Y-16.9128 F120.00
G01 X20.9172 Y-16.9134 F120.00
G01 X20.9220 Y-16.9153 F120.00
G01 X20.9266 Y-16.9186 F120.00
G01 X20.9302 Y-16.9231 F120.00
G01 X20.9324 Y-16.9283 F120.00
G01 X20.9332 Y-16.9339 F120.00
G01 X20.9332 Y-19.1341 F120.00
G01 X20.9324 Y-19.1397 F120.00
G01 X20.9304 Y-19.1444 F120.00
G01 X20.9270 Y-19.1490 F120.00
G01 X20.9229 Y-19.1522 F120.00
G01 X20.9177 Y-19.1544 F120.00
G01 X20.9121 Y-19.1552 F120.00
G01 X19.4282 Y-19.1552 F120.00
G01 X17.5870 Y-20.9964 F120.00
G01 X17.5912 Y-21.0820 F120.00
G01 X17.5859 Y-21.1909 F120.00
G01 X17.5697 Y-21.3007 F120.00
G01 X17.5429 Y-21.4075 F120.00
G01 X17.5062 Y-21.5102 F120.00
G01 X17.4588 Y-21.6105 F120.00
G01 X17.4017 Y-21.7057 F120.00
G01 X17.3367 Y-21.7933 F120.00
G01 X17.2632 Y-21.8744 F120.00
G01 X17.1809 Y-21.9490 F120.00
G01 X17.0929 Y-22.0142 F120.00
G01 X17.0315 Y-22.0511 F120.00
G01 X17.0315 Y-22.8838 F120.00
G01 X17.0394 Y-22.8877 F120.00
G01 X17.1337 Y-22.9443 F120.00
G01 X17.2213 Y-23.0093 F120.00
G01 X17.3035 Y-23.0839 F120.00
G01 X17.3767 Y-23.1647 F120.00
G01 X17.4422 Y-23.2531 F120.00
G01 X17.4988 Y-23.3475 F120.00
G01 X17.5459 Y-23.4469 F120.00
G01 X17.5829 Y-23.5505 F120.00
G01 X17.6097 Y-23.6573 F120.00
G01 X17.6258 Y-23.7661 F120.00
G01 X17.6312 Y-23.8750 F120.00
G01 X17.6257 Y-23.9869 F120.00
G01 X17.6097 Y-24.0947 F120.00
G01 X17.5828 Y-24.2020 F120.00
G01 X17.5459 Y-24.3051 F120.00
G01 X17.4988 Y-24.4045 F120.00
G01 X17.4422 Y-24.4989 F120.00
G01 X17.3767 Y-24.5873 F120.00
G01 X17.3028 Y-24.6688 F120.00
G01 X17.2213 Y-24.7427 F120.00
G01 X17.1329 Y-24.8082 F120.00
G01 X17.0394 Y-24.8643 F120.00
G01 X16.9391 Y-24.9119 F120.00
G01 X16.8355 Y-24.9489 F120.00
G01 X16.7287 Y-24.9757 F120.00
G01 X16.6209 Y-24.9917 F120.00
G01 X16.5100 Y-24.9972 F120.00
G01 X16.4011 Y-24.9919 F120.00
G01 X16.2918 Y-24.9758 F120.00
G01 X16.2695 Y-24.9702 F120.00
G01 X16.2695 Y-35.3661 F120.00
G01 X16.2669 Y-35.4171 F120.00
G01 X16.2592 Y-35.4687 F120.00
G01 X16.2470 Y-35.5174 F120.00
G01 X16.2301 Y-35.5646 F120.00
G01 X16.2083 Y-35.6109 F120.00
G01 X16.1810 Y-35.6565 F120.00
G01 X16.1511 Y-35.6968 F120.00
G01 X16.1168 Y-35.7347 F120.00
G01 X13.4663 Y-38.3851 F120.00
G01 X13.4288 Y-38.4191 F120.00
G01 X13.3877 Y-38.4496 F120.00
G01 X13.3438 Y-38.4759 F120.00
G01 X13.2971 Y-38.4980 F120.00
G01 X13.2494 Y-38.5150 F120.00
G01 X13.1992 Y-38.5275 F120.00
G01 X13.1486 Y-38.5350 F120.00
G01 X13.0985 Y-38.5374 F120.00
G01 X13.0592 Y-38.5375 F120.00
G01 X13.0592 Y-39.1165 F120.00
G01 X13.0584 Y-39.1217 F120.00
G01 X13.0564 Y-39.1264 F120.00
G01 X13.0534 Y-39.1306 F120.00
G01 X13.0493 Y-39.1339 F120.00
G01 X13.0442 Y-39.1363 F120.00
G01 X13.0381 Y-39.1372 F120.00
G01 X10.8379 Y-39.1372 F120.00
G01 X10.8339 Y-39.1368 F120.00
G01 X10.8309 Y-39.1360 F120.00
G01 X10.8276 Y-39.1344 F120.00
G01 X10.8246 Y-39.1324 F120.00
G01 X10.8219 Y-39.1298 F120.00
G01 X10.8198 Y-39.1269 F120.00
G01 X10.8182 Y-39.1236 F120.00
G01 X10.8173 Y-39.1206 F120.00
G01 X10.8168 Y-39.1170 F120.00
G01 X10.8168 Y-38.7146 F120.00
G01 X9.7995 Y-39.7319 F120.00
G01 X9.8553 Y-39.7733 F120.00
G01 X9.9364 Y-39.8468 F120.00
G01 X10.0104 Y-39.9283 F120.00
G01 X10.0762 Y-40.0171 F120.00
G01 X10.1331 Y-40.1119 F120.00
G01 X10.1802 Y-40.2118 F120.00
G01 X10.2169 Y-40.3145 F120.00
G01 X10.2434 Y-40.4203 F120.00
G01 X10.2598 Y-40.5301 F120.00
G01 X10.2652 Y-40.6405 F120.00
G01 X10.2598 Y-40.7499 F120.00
G01 X10.2438 Y-40.8578 F120.00
G01 X10.2169 Y-40.9655 F120.00
G01 X10.1795 Y-41.0700 F120.00
G01 X10.1328 Y-41.1685 F120.00
G01 X10.0768 Y-41.2621 F120.00
G01 X10.0101 Y-41.3520 F120.00
G01 X9.9368 Y-41.4328 F120.00
G01 X9.8560 Y-41.5061 F120.00
G01 X9.7669 Y-41.5722 F120.00
G01 X9.6734 Y-41.6283 F120.00
G01 X9.6655 Y-41.6322 F120.00
G01 X9.6655 Y-44.3397 F120.00
G01 X9.6734 Y-44.3435 F120.00
G01 X9.7669 Y-44.3996 F120.00
G01 X9.8560 Y-44.4658 F120.00
G01 X9.9368 Y-44.5391 F120.00
G01 X10.0101 Y-44.6198 F120.00
G01 X10.0768 Y-44.7098 F120.00
G01 X10.1328 Y-44.8033 F120.00
G01 X10.1795 Y-44.9019 F120.00
G01 X10.2169 Y-45.0064 F120.00
G01 X10.2437 Y-45.1131 F120.00
G01 X10.2597 Y-45.2210 F120.00
G01 X10.2652 Y-45.3324 F120.00
G01 X10.2598 Y-45.4418 F120.00
G01 X10.2438 Y-45.5496 F120.00
G01 X10.2169 Y-45.6573 F120.00
G01 X10.1795 Y-45.7618 F120.00
G01 X10.1328 Y-45.8604 F120.00
G01 X10.0768 Y-45.9539 F120.00
G01 X10.0101 Y-46.0439 F120.00
G01 X9.9368 Y-46.1247 F120.00
G01 X9.8560 Y-46.1979 F120.00
G01 X9.7669 Y-46.2641 F120.00
G01 X9.6734 Y-46.3202 F120.00
G01 X9.6655 Y-46.3240 F120.00
G01 X9.6655 Y-47.0280 F120.00
G01 X15.6088 Y-52.9713 F120.00
G01 X15.6431 Y-53.0092 F120.00
G01 X15.6739 Y-53.0507 F120.00
G01 X15.6999 Y-53.0942 F120.00
G01 X15.7214 Y-53.1396 F120.00
G01 X15.7390 Y-53.1886 F120.00
G01 X15.7516 Y-53.2392 F120.00
G01 X15.7589 Y-53.2889 F120.00
G01 X15.7614 Y-53.3395 F120.00
G01 X15.7615 Y-55.5208 F120.00
G01 X16.3405 Y-55.5208 F120.00
G01 X16.3441 Y-55.5212 F120.00
G01 X16.3476 Y-55.5222 F120.00
G01 X16.3509 Y-55.5238 F120.00
G01 X16.3538 Y-55.5259 F120.00
G01 X16.3564 Y-55.5286 F120.00
G01 X16.3584 Y-55.5316 F120.00
G01 X16.3600 Y-55.5349 F120.00
G01 X16.3610 Y-55.5389 F120.00
G01 X16.3612 Y-57.7421 F120.00
G01 X16.3603 Y-57.7482 F120.00
G01 X16.3576 Y-57.7538 F120.00
G01 X16.3534 Y-57.7584 F120.00
G01 X16.3481 Y-57.7616 F120.00
G01 X16.3441 Y-57.7628 F120.00
G01 X16.3401 Y-57.7632 F120.00
G01 X14.1399 Y-57.7632 F120.00
G01 X14.1348 Y-57.7626 F120.00
G01 X14.1305 Y-57.7609 F120.00
G01 X14.1262 Y-57.7581 F120.00
G01 X14.1230 Y-57.7546 F120.00
G01 X14.1213 Y-57.7520 F120.00
G01 X14.1199 Y-57.7487 F120.00
G01 X14.1191 Y-57.7456 F120.00
G01 X14.1188 Y-57.7421 F120.00
G01 X14.1190 Y-55.5389 F120.00
G01 X14.1199 Y-55.5353 F120.00
G01 X14.1213 Y-55.5320 F120.00
G01 X14.1236 Y-55.5286 F120.00
G01 X14.1262 Y-55.5259 F120.00
G01 X14.1291 Y-55.5238 F120.00
G01 X14.1324 Y-55.5222 F120.00
G01 X14.1359 Y-55.5212 F120.00
G01 X14.1395 Y-55.5208 F120.00
G01 X14.7185 Y-55.5208 F120.00
G01 X14.7185 Y-53.5560 F120.00
G01 X8.7752 Y-47.6127 F120.00
G01 X8.7409 Y-47.5748 F120.00
G01 X8.7104 Y-47.5337 F120.00
G01 X8.6841 Y-47.4898 F120.00
G01 X8.6622 Y-47.4436 F120.00
G01 X8.6450 Y-47.3954 F120.00
G01 X8.6326 Y-47.3457 F120.00
G01 X8.6251 Y-47.2951 F120.00
G01 X8.6226 Y-47.2445 F120.00
G01 X8.6225 Y-46.3240 F120.00
G01 X8.6146 Y-46.3202 F120.00
G01 X8.5211 Y-46.2641 F120.00
G01 X8.4320 Y-46.1979 F120.00
G01 X8.3512 Y-46.1247 F120.00
G01 X8.2779 Y-46.0439 F120.00
G01 X8.2112 Y-45.9539 F120.00
G01 X8.1552 Y-45.8604 F120.00
G01 X8.1085 Y-45.7618 F120.00
G01 X8.0711 Y-45.6573 F120.00
G01 X8.0443 Y-45.5506 F120.00
G01 X8.0283 Y-45.4427 F120.00
G01 X8.0228 Y-45.3319 F120.00
G01 X8.0283 Y-45.2210 F120.00
G01 X8.0443 Y-45.1131 F120.00
G01 X8.0711 Y-45.0064 F120.00
G01 X8.1085 Y-44.9019 F120.00
G01 X8.1552 Y-44.8033 F120.00
G01 X8.2112 Y-44.7098 F120.00
G01 X8.2779 Y-44.6198 F120.00
G01 X8.3512 Y-44.5391 F120.00
G01 X8.4320 Y-44.4658 F120.00
G01 X8.5211 Y-44.3996 F120.00
G01 X8.6146 Y-44.3435 F120.00
G01 X8.6225 Y-44.3397 F120.00
G01 X8.6225 Y-41.6322 F120.00
G01 X8.6146 Y-41.6283 F120.00
G01 X8.5203 Y-41.5717 F120.00
G01 X8.4327 Y-41.5067 F120.00
G01 X8.3512 Y-41.4328 F120.00
G01 X8.2767 Y-41.3505 F120.00
G01 X8.2118 Y-41.2629 F120.00
G01 X8.1552 Y-41.1685 F120.00
G01 X8.1078 Y-41.0682 F120.00
G01 X8.0711 Y-40.9655 F120.00
G01 X8.0443 Y-40.8587 F120.00
G01 X8.0282 Y-40.7499 F120.00
G01 X8.0228 Y-40.6410 F120.00
G01 X8.0282 Y-40.5301 F120.00
G01 X8.0446 Y-40.4203 F120.00
G01 X8.0711 Y-40.3145 F120.00
G01 X8.1078 Y-40.2118 F120.00
G01 X8.1552 Y-40.1115 F120.00
G01 X8.2118 Y-40.0171 F120.00
G01 X8.2779 Y-39.9280 F120.00
G01 X8.3512 Y-39.8472 F120.00
G01 X8.4320 Y-39.7739 F120.00
G01 X8.5211 Y-39.7078 F120.00
G01 X8.6146 Y-39.6517 F120.00
G01 X8.6226 Y-39.6478 F120.00
G00 Z2.0000
G00 X10.8168 Y-29.2959
G01 F60.00
G01 Z-0.0801
G01 F120.00
G01 X10.8172 Y-29.2919 F120.00
G01 X10.8184 Y-29.2879 F120.00
G01 X10.8204 Y-29.2842 F120.00
G01 X10.8230 Y-29.2810 F120.00
G01 X10.8262 Y-29.2784 F120.00
G01 X10.8299 Y-29.2764 F120.00
G01 X10.8339 Y-29.2752 F120.00
G01 X10.8379 Y-29.2748 F120.00
G01 X13.0381 Y-29.2748 F120.00
G01 X13.0421 Y-29.2752 F120.00
G01 X13.0461 Y-29.2764 F120.00
G01 X13.0498 Y-29.2784 F120.00
G01 X13.0530 Y-29.2810 F120.00
G01 X13.0556 Y-29.2842 F120.00
G01 X13.0576 Y-29.2879 F120.00
G01 X13.0588 Y-29.2919 F120.00
G01 X13.0592 Y-29.2959 F120.00
G01 X13.0592 Y-31.4961 F120.00
G01 X13.0589 Y-31.4996 F120.00
G01 X13.0580 Y-31.5031 F120.00
G01 X13.0564 Y-31.5064 F120.00
G01 X13.0547 Y-31.5090 F120.00
G01 X13.0514 Y-31.5124 F120.00
G01 X13.0475 Y-31.5149 F120.00
G01 X13.0432 Y-31.5166 F120.00
G01 X13.0381 Y-31.5172 F120.00
G01 X10.8379 Y-31.5172 F120.00
G01 X10.8334 Y-31.5167 F120.00
G01 X10.8304 Y-31.5158 F120.00
G01 X10.8271 Y-31.5142 F120.00
G01 X10.8242 Y-31.5121 F120.00
G01 X10.8216 Y-31.5094 F120.00
G01 X10.8196 Y-31.5064 F120.00
G01 X10.8180 Y-31.5031 F120.00
G01 X10.8171 Y-31.4996 F120.00
G01 X10.8168 Y-31.4965 F120.00
G01 X10.8168 Y-30.9175 F120.00
G01 X10.4600 Y-30.9175 F120.00
G01 X6.1095 Y-35.2680 F120.00
G01 X6.1095 Y-50.4306 F120.00
G01 X10.5288 Y-54.8499 F120.00
G01 X10.5625 Y-54.8871 F120.00
G01 X10.5936 Y-54.9289 F120.00
G01 X10.6203 Y-54.9737 F120.00
G01 X10.6418 Y-55.0191 F120.00
G01 X10.6587 Y-55.0663 F120.00
G01 X10.6714 Y-55.1169 F120.00
G01 X10.6789 Y-55.1675 F120.00
G01 X10.6814 Y-55.2181 F120.00
G01 X10.6815 Y-55.5208 F120.00
G01 X11.2605 Y-55.5208 F120.00
G01 X11.2641 Y-55.5212 F120.00
G01 X11.2681 Y-55.5224 F120.00
G01 X11.2713 Y-55.5241 F120.00
G01 X11.2742 Y-55.5263 F120.00
G01 X11.2767 Y-55.5290 F120.00
G01 X11.2789 Y-55.5325 F120.00
G01 X11.2803 Y-55.5358 F120.00
G01 X11.2810 Y-55.5394 F120.00
G01 X11.2812 Y-57.7421 F120.00
G01 X11.2808 Y-57.7461 F120.00
G01 X11.2796 Y-57.7501 F120.00
G01 X11.2776 Y-57.7538 F120.00
G01 X11.2750 Y-57.7570 F120.00
G01 X11.2718 Y-57.7596 F120.00
G01 X11.2681 Y-57.7616 F120.00
G01 X11.2641 Y-57.7628 F120.00
G01 X11.2601 Y-57.7632 F120.00
G01 X9.0584 Y-57.7631 F120.00
G01 X9.0548 Y-57.7626 F120.00
G01 X9.0509 Y-57.7612 F120.00
G01 X9.0478 Y-57.7593 F120.00
G01 X9.0446 Y-57.7566 F120.00
G01 X9.0421 Y-57.7533 F120.00
G01 X9.0404 Y-57.7501 F120.00
G01 X9.0392 Y-57.7461 F120.00
G01 X9.0388 Y-57.7421 F120.00
G01 X9.0388 Y-55.5419 F120.00
G01 X9.0394 Y-55.5368 F120.00
G01 X9.0404 Y-55.5339 F120.00
G01 X9.0421 Y-55.5307 F120.00
G01 X9.0443 Y-55.5278 F120.00
G01 X9.0466 Y-55.5256 F120.00
G01 X9.0496 Y-55.5236 F120.00
G01 X9.0524 Y-55.5222 F120.00
G01 X9.0559 Y-55.5212 F120.00
G01 X9.0595 Y-55.5208 F120.00
G01 X9.6385 Y-55.5208 F120.00
G01 X9.6385 Y-55.4346 F120.00
G01 X5.2189 Y-51.0150 F120.00
G01 X5.1849 Y-50.9774 F120.00
G01 X5.1550 Y-50.9371 F120.00
G01 X5.1281 Y-50.8924 F120.00
G01 X5.1062 Y-50.8462 F120.00
G01 X5.0893 Y-50.7989 F120.00
G01 X5.0765 Y-50.7478 F120.00
G01 X5.0691 Y-50.6977 F120.00
G01 X5.0665 Y-50.6467 F120.00
G01 X5.0665 Y-35.0519 F120.00
G01 X5.0690 Y-35.0014 F120.00
G01 X5.0766 Y-34.9503 F120.00
G01 X5.0887 Y-34.9016 F120.00
G01 X5.1066 Y-34.8516 F120.00
G01 X5.1281 Y-34.8062 F120.00
G01 X5.1544 Y-34.7623 F120.00
G01 X5.1849 Y-34.7212 F120.00
G01 X5.2189 Y-34.6837 F120.00
G01 X9.8753 Y-30.0272 F120.00
G01 X9.9125 Y-29.9935 F120.00
G01 X9.9551 Y-29.9619 F120.00
G01 X9.9982 Y-29.9361 F120.00
G01 X10.0444 Y-29.9142 F120.00
G01 X10.0936 Y-29.8967 F120.00
G01 X10.1423 Y-29.8846 F120.00
G01 X10.1924 Y-29.8771 F120.00
G01 X10.2439 Y-29.8745 F120.00
G01 X10.8168 Y-29.8745 F120.00
G01 X10.8168 Y-29.2959 F120.00
G00 Z2.0000
G00 X10.8168 Y-26.7559
G01 F60.00
G01 Z-0.0801
G01 F120.00
G01 X10.8172 Y-26.7519 F120.00
G01 X10.8184 Y-26.7479 F120.00
G01 X10.8204 Y-26.7442 F120.00
G01 X10.8230 Y-26.7410 F120.00
G01 X10.8262 Y-26.7384 F120.00
G01 X10.8299 Y-26.7364 F120.00
G01 X10.8339 Y-26.7352 F120.00
G01 X10.8379 Y-26.7348 F120.00
G01 X13.0381 Y-26.7348 F120.00
G01 X13.0421 Y-26.7352 F120.00
G01 X13.0461 Y-26.7364 F120.00
G01 X13.0498 Y-26.7384 F120.00
G01 X13.0530 Y-26.7410 F120.00
G01 X13.0556 Y-26.7442 F120.00
G01 X13.0576 Y-26.7479 F120.00
G01 X13.0588 Y-26.7519 F120.00
G01 X13.0592 Y-26.7559 F120.00
G01 X13.0592 Y-28.9561 F120.00
G01 X13.0588 Y-28.9601 F120.00
G01 X13.0578 Y-28.9636 F120.00
G01 X13.0562 Y-28.9669 F120.00
G01 X13.0537 Y-28.9702 F120.00
G01 X13.0506 Y-28.9730 F120.00
G01 X13.0466 Y-28.9754 F120.00
G01 X13.0426 Y-28.9767 F120.00
G01 X13.0381 Y-28.9772 F120.00
G01 X10.8379 Y-28.9772 F120.00
G01 X10.8339 Y-28.9768 F120.00
G01 X10.8304 Y-28.9758 F120.00
G01 X10.8271 Y-28.9742 F120.00
G01 X10.8242 Y-28.9721 F120.00
G01 X10.8216 Y-28.9694 F120.00
G01 X10.8196 Y-28.9664 F120.00
G01 X10.8180 Y-28.9631 F120.00
G01 X10.8171 Y-28.9596 F120.00
G01 X10.8168 Y-28.9565 F120.00
G01 X10.8168 Y-28.3775 F120.00
G01 X9.9520 Y-28.3775 F120.00
G01 X4.3315 Y-33.9980 F120.00
G01 X4.3315 Y-51.0920 F120.00
G01 X7.9888 Y-54.7493 F120.00
G01 X8.0228 Y-54.7868 F120.00
G01 X8.0536 Y-54.8283 F120.00
G01 X8.0803 Y-54.8731 F120.00
G01 X8.1018 Y-54.9184 F120.00
G01 X8.1187 Y-54.9657 F120.00
G01 X8.1315 Y-55.0168 F120.00
G01 X8.1389 Y-55.0669 F120.00
G01 X8.1414 Y-55.1175 F120.00
G01 X8.1415 Y-55.5208 F120.00
G01 X8.7205 Y-55.5208 F120.00
G01 X8.7241 Y-55.5212 F120.00
G01 X8.7281 Y-55.5224 F120.00
G01 X8.7313 Y-55.5241 F120.00
G01 X8.7342 Y-55.5263 F120.00
G01 X8.7367 Y-55.5290 F120.00
G01 X8.7389 Y-55.5325 F120.00
G01 X8.7403 Y-55.5358 F120.00
G01 X8.7411 Y-55.5399 F120.00
G01 X8.7412 Y-57.7421 F120.00
G01 X8.7408 Y-57.7461 F120.00
G01 X8.7396 Y-57.7501 F120.00
G01 X8.7376 Y-57.7538 F120.00
G01 X8.7350 Y-57.7570 F120.00
G01 X8.7318 Y-57.7596 F120.00
G01 X8.7281 Y-57.7616 F120.00
G01 X8.7241 Y-57.7628 F120.00
G01 X8.7201 Y-57.7632 F120.00
G01 X6.5169 Y-57.7630 F120.00
G01 X6.5133 Y-57.7621 F120.00
G01 X6.5096 Y-57.7604 F120.00
G01 X6.5066 Y-57.7584 F120.00
G01 X6.5039 Y-57.7558 F120.00
G01 X6.5018 Y-57.7529 F120.00
G01 X6.5002 Y-57.7496 F120.00
G01 X6.4992 Y-57.7461 F120.00
G01 X6.4988 Y-57.7421 F120.00
G01 X6.4988 Y-55.5419 F120.00
G01 X6.4994 Y-55.5368 F120.00
G01 X6.5004 Y-55.5339 F120.00
G01 X6.5021 Y-55.5307 F120.00
G01 X6.5043 Y-55.5278 F120.00
G01 X6.5066 Y-55.5256 F120.00
G01 X6.5096 Y-55.5236 F120.00
G01 X6.5124 Y-55.5222 F120.00
G01 X6.5159 Y-55.5212 F120.00
G01 X6.5195 Y-55.5208 F120.00
G01 X7.0985 Y-55.5208 F120.00
G01 X7.0985 Y-55.3340 F120.00
G01 X3.4409 Y-51.6763 F120.00
G01 X3.4069 Y-51.6388 F120.00
G01 X3.3770 Y-51.5985 F120.00
G01 X3.3497 Y-51.5529 F120.00
G01 X3.3282 Y-51.5076 F120.00
G01 X3.3110 Y-51.4594 F120.00
G01 X3.2986 Y-51.4097 F120.00
G01 X3.2911 Y-51.3596 F120.00
G01 X3.2885 Y-51.3081 F120.00
G01 X3.2885 Y-33.7819 F120.00
G01 X3.2912 Y-33.7299 F120.00
G01 X3.2986 Y-33.6803 F120.00
G01 X3.3110 Y-33.6306 F120.00
G01 X3.3282 Y-33.5824 F120.00
G01 X3.3497 Y-33.5371 F120.00
G01 X3.3770 Y-33.4915 F120.00
G01 X3.4069 Y-33.4512 F120.00
G01 X3.4409 Y-33.4137 F120.00
G01 X9.3680 Y-27.4866 F120.00
G01 X9.4052 Y-27.4529 F120.00
G01 X9.4463 Y-27.4224 F120.00
G01 X9.4902 Y-27.3961 F120.00
G01 X9.5356 Y-27.3746 F120.00
G01 X9.5856 Y-27.3567 F120.00
G01 X9.6343 Y-27.3446 F120.00
G01 X9.6849 Y-27.3371 F120.00
G01 X9.7359 Y-27.3345 F120.00
G01 X10.8168 Y-27.3345 F120.00
G01 X10.8168 Y-26.7559 F120.00
G00 Z2.0000
G00 X1.7339 Y-23.6906
G01 F60.00
G01 Z-0.0801
G01 F120.00
G01 X1.7310 Y-23.6823 F120.00
G01 X1.7046 Y-23.5765 F120.00
G01 X1.6884 Y-23.4677 F120.00
G01 X1.6830 Y-23.3578 F120.00
G01 X1.6884 Y-23.2479 F120.00
G01 X1.7046 Y-23.1390 F120.00
G01 X1.7313 Y-23.0323 F120.00
G01 X1.7684 Y-22.9287 F120.00
G01 X1.8154 Y-22.8292 F120.00
G01 X1.8720 Y-22.7349 F120.00
G01 X1.9375 Y-22.6465 F120.00
G01 X2.0114 Y-22.5650 F120.00
G01 X2.0930 Y-22.4911 F120.00
G01 X2.1813 Y-22.4255 F120.00
G01 X2.2757 Y-22.3690 F120.00
G01 X2.3752 Y-22.3219 F120.00
G01 X2.4788 Y-22.2848 F120.00
G01 X2.5855 Y-22.2581 F120.00
G01 X2.6943 Y-22.2420 F120.00
G01 X2.8042 Y-22.2366 F120.00
G01 X2.9141 Y-22.2420 F120.00
G01 X3.0230 Y-22.2581 F120.00
G01 X3.1297 Y-22.2848 F120.00
G01 X3.2333 Y-22.3219 F120.00
G01 X3.3328 Y-22.3690 F120.00
G01 X3.4271 Y-22.4255 F120.00
G01 X3.5155 Y-22.4911 F120.00
G01 X3.5970 Y-22.5650 F120.00
G01 X3.6709 Y-22.6465 F120.00
G01 X3.7365 Y-22.7349 F120.00
G01 X3.7930 Y-22.8292 F120.00
G01 X3.8401 Y-22.9287 F120.00
G01 X3.8772 Y-23.0323 F120.00
G01 X3.9041 Y-23.1400 F120.00
G01 X3.9200 Y-23.2479 F120.00
G01 X3.9254 Y-23.3568 F120.00
G01 X3.9200 Y-23.4677 F120.00
G01 X3.9037 Y-23.5775 F120.00
G01 X3.8772 Y-23.6832 F120.00
G01 X3.8404 Y-23.7859 F120.00
G01 X3.7930 Y-23.8863 F120.00
G01 X3.7359 Y-23.9815 F120.00
G01 X3.6709 Y-24.0690 F120.00
G01 X3.5974 Y-24.1502 F120.00
G01 X3.5147 Y-24.2251 F120.00
G01 X3.4271 Y-24.2900 F120.00
G01 X3.3336 Y-24.3461 F120.00
G01 X3.2333 Y-24.3936 F120.00
G01 X3.1292 Y-24.4308 F120.00
G01 X3.0230 Y-24.4574 F120.00
G01 X2.9151 Y-24.4735 F120.00
G01 X2.8048 Y-24.4790 F120.00
G01 X2.6938 Y-24.4735 F120.00
G01 X2.5860 Y-24.4575 F120.00
G01 X2.5535 Y-24.4494 F120.00
G01 X2.5535 Y-53.3780 F120.00
G01 X4.6962 Y-55.5208 F120.00
G01 X6.1801 Y-55.5208 F120.00
G01 X6.1846 Y-55.5213 F120.00
G01 X6.1891 Y-55.5228 F120.00
G01 X6.1930 Y-55.5253 F120.00
G01 X6.1964 Y-55.5286 F120.00
G01 X6.1984 Y-55.5316 F120.00
G01 X6.2000 Y-55.5349 F120.00
G01 X6.2009 Y-55.5384 F120.00
G01 X6.2012 Y-55.5419 F120.00
G01 X6.2012 Y-57.7421 F120.00
G01 X6.2008 Y-57.7461 F120.00
G01 X6.1998 Y-57.7496 F120.00
G01 X6.1982 Y-57.7529 F120.00
G01 X6.1957 Y-57.7562 F120.00
G01 X6.1926 Y-57.7590 F120.00
G01 X6.1895 Y-57.7609 F120.00
G01 X6.1862 Y-57.7623 F120.00
G01 X6.1826 Y-57.7630 F120.00
G01 X3.9799 Y-57.7632 F120.00
G01 X3.9759 Y-57.7628 F120.00
G01 X3.9724 Y-57.7618 F120.00
G01 X3.9691 Y-57.7602 F120.00
G01 X3.9662 Y-57.7581 F120.00
G01 X3.9630 Y-57.7546 F120.00
G01 X3.9608 Y-57.7511 F120.00
G01 X3.9593 Y-57.7466 F120.00
G01 X3.9588 Y-57.7421 F120.00
G01 X3.9588 Y-56.2582 F120.00
G01 X1.6629 Y-53.9623 F120.00
G01 X1.6289 Y-53.9248 F120.00
G01 X1.5990 Y-53.8845 F120.00
G01 X1.5717 Y-53.8389 F120.00
G01 X1.5502 Y-53.7936 F120.00
G01 X1.5330 Y-53.7454 F120.00
G01 X1.5206 Y-53.6957 F120.00
G01 X1.5131 Y-53.6456 F120.00
G01 X1.5105 Y-53.5941 F120.00
G01 X1.5105 Y-24.1299 F120.00
G01 X1.5131 Y-24.0789 F120.00
G01 X1.5208 Y-24.0273 F120.00
G01 X1.5330 Y-23.9786 F120.00
G01 X1.5499 Y-23.9314 F120.00
G01 X1.5719 Y-23.8847 F120.00
G01 X1.5984 Y-23.8403 F120.00
G01 X1.6289 Y-23.7992 F120.00
G01 X1.6629 Y-23.7617 F120.00
G01 X1.7339 Y-23.6906 F120.00
G00 Z2.0000
M05
G00 Z2.0000
G00 Z15.00


