(G-code generated by FlatCAM Evo vUnstable - Version Date: 2023/6/31)

(Name: Active_Electrode-F_Cu_cutout_cnc)
(Type: G-code from Geometry)
(Units: MM)

(Created on Sunday, 17 March 2024 at 22:51)

(This preprocessor is used with a motion controller loaded with GRBL firmware.)
(It is configured to be compatible with almost any version of GRBL firmware. No M6 command.)

(TOOL DIAMETER: 0.5 mm)
(Feedrate_XY: 60.0 mm/min)
(Feedrate_Z: 60.0 mm/min)
(Feedrate rapids 1500.0 mm/min)

(Z_Cut: -2.0 mm)
(DepthPerCut: 0.5 mm <=>4 passes)
(Z_Move: 2.0 mm)
(Z Start: None mm)
(Z End: 15.0 mm)
(X,Y End: 0.0000, 0.0000 mm)
(Steps per circle: 16)
(Steps per circle: 16)
(Preprocessor Geometry: GRBL_11_no_M6)

(X range:   -0.3500 ...   30.5760  mm)
(Y range:  -60.0400 ...    0.3500  mm)

(Spindle Speed: 0.0 RPM)
G21
G90
G17
G94


G01 F60.00

M5             
G00 Z15.0000
G00 X0.0000 Y0.0000                
T1
(MSG, Change to Tool Dia = 0.5000)
M0
G00 Z15.0000
        
M03
G01 F60.00
G00 X14.3630 Y0.3500
G01 F60.00
G01 Z-0.5000
G01 F60.00
G01 X0.1803 Y0.3495 F60.00
G01 X0.0982 Y0.3404 F60.00
G01 X0.0200 Y0.3180 F60.00
G01 X-0.1106 Y0.2534 F60.00
G01 X-0.1726 Y0.2041 F60.00
G01 X-0.2603 Y0.0973 F60.00
G01 X-0.2956 Y0.0392 F60.00
G01 X-0.3178 Y-0.0199 F60.00
G01 X-0.3412 Y-0.1211 F60.00
G01 X-0.3500 Y-0.1990 F60.00
G01 X-0.3500 Y-59.4910 F60.00
G01 X-0.3327 Y-59.6274 F60.00
G01 X-0.2534 Y-59.8006 F60.00
G01 X-0.1748 Y-59.8887 F60.00
G01 X-0.0728 Y-59.9671 F60.00
G01 X-0.0119 Y-59.9974 F60.00
G01 X0.1803 Y-60.0395 F60.00
G01 X14.3630 Y-60.0400 F60.00
G00 X14.3630 Y-60.0400
G01 F60.00
G01 Z-1.0000
G01 F60.00
G01 X0.1803 Y-60.0395 F60.00
G01 X0.0278 Y-60.0098 F60.00
G01 X-0.0392 Y-59.9856 F60.00
G01 X-0.0973 Y-59.9503 F60.00
G01 X-0.2098 Y-59.8566 F60.00
G01 X-0.2656 Y-59.7794 F60.00
G01 X-0.3239 Y-59.6549 F60.00
G01 X-0.3404 Y-59.5918 F60.00
G01 X-0.3500 Y-59.4910 F60.00
G01 X-0.3500 Y-0.1990 F60.00
G01 X-0.3454 Y-0.1422 F60.00
G01 X-0.3198 Y-0.0278 F60.00
G01 X-0.2956 Y0.0392 F60.00
G01 X-0.2640 Y0.0923 F60.00
G01 X-0.1890 Y0.1865 F60.00
G01 X-0.1285 Y0.2414 F60.00
G01 X0.0351 Y0.3239 F60.00
G01 X0.0982 Y0.3404 F60.00
G01 X0.1990 Y0.3500 F60.00
G01 X14.3630 Y0.3500 F60.00
G00 X14.3630 Y0.3500
G01 F60.00
G01 Z-1.5000
G01 F60.00
G01 X0.1803 Y0.3495 F60.00
G01 X0.0982 Y0.3404 F60.00
G01 X0.0200 Y0.3180 F60.00
G01 X-0.1106 Y0.2534 F60.00
G01 X-0.1726 Y0.2041 F60.00
G01 X-0.2603 Y0.0973 F60.00
G01 X-0.2956 Y0.0392 F60.00
G01 X-0.3178 Y-0.0199 F60.00
G01 X-0.3412 Y-0.1211 F60.00
G01 X-0.3500 Y-0.1990 F60.00
G01 X-0.3500 Y-59.4910 F60.00
G01 X-0.3327 Y-59.6274 F60.00
G01 X-0.2534 Y-59.8006 F60.00
G01 X-0.1748 Y-59.8887 F60.00
G01 X-0.0728 Y-59.9671 F60.00
G01 X-0.0119 Y-59.9974 F60.00
G01 X0.1803 Y-60.0395 F60.00
G01 X14.3630 Y-60.0400 F60.00
G00 X14.3630 Y-60.0400
G01 F60.00
G01 Z-2.0000
G01 F60.00
G01 X0.1803 Y-60.0395 F60.00
G01 X0.0278 Y-60.0098 F60.00
G01 X-0.0392 Y-59.9856 F60.00
G01 X-0.0973 Y-59.9503 F60.00
G01 X-0.2098 Y-59.8566 F60.00
G01 X-0.2656 Y-59.7794 F60.00
G01 X-0.3239 Y-59.6549 F60.00
G01 X-0.3404 Y-59.5918 F60.00
G01 X-0.3500 Y-59.4910 F60.00
G01 X-0.3500 Y-0.1990 F60.00
G01 X-0.3454 Y-0.1422 F60.00
G01 X-0.3198 Y-0.0278 F60.00
G01 X-0.2956 Y0.0392 F60.00
G01 X-0.2640 Y0.0923 F60.00
G01 X-0.1890 Y0.1865 F60.00
G01 X-0.1285 Y0.2414 F60.00
G01 X0.0351 Y0.3239 F60.00
G01 X0.0982 Y0.3404 F60.00
G01 X0.1990 Y0.3500 F60.00
G01 X14.3630 Y0.3500 F60.00
G00 Z2.0000
G00 X15.8630 Y0.3500
G01 F60.00
G01 Z-0.5000
G01 F60.00
G01 X30.0457 Y0.3495 F60.00
G01 X30.1982 Y0.3198 F60.00
G01 X30.2652 Y0.2956 F60.00
G01 X30.3233 Y0.2603 F60.00
G01 X30.4358 Y0.1666 F60.00
G01 X30.4916 Y0.0894 F60.00
G01 X30.5499 Y-0.0351 F60.00
G01 X30.5664 Y-0.0982 F60.00
G01 X30.5760 Y-0.1990 F60.00
G01 X30.5760 Y-59.4910 F60.00
G01 X30.5714 Y-59.5478 F60.00
G01 X30.5458 Y-59.6622 F60.00
G01 X30.5216 Y-59.7292 F60.00
G01 X30.4900 Y-59.7823 F60.00
G01 X30.4150 Y-59.8765 F60.00
G01 X30.3545 Y-59.9314 F60.00
G01 X30.1909 Y-60.0139 F60.00
G01 X30.1278 Y-60.0304 F60.00
G01 X30.0270 Y-60.0400 F60.00
G01 X15.8630 Y-60.0400 F60.00
G00 X15.8630 Y-60.0400
G01 F60.00
G01 Z-1.0000
G01 F60.00
G01 X30.0457 Y-60.0395 F60.00
G01 X30.1278 Y-60.0304 F60.00
G01 X30.2060 Y-60.0080 F60.00
G01 X30.3366 Y-59.9434 F60.00
G01 X30.3986 Y-59.8941 F60.00
G01 X30.4863 Y-59.7873 F60.00
G01 X30.5216 Y-59.7292 F60.00
G01 X30.5438 Y-59.6701 F60.00
G01 X30.5672 Y-59.5689 F60.00
G01 X30.5760 Y-59.4910 F60.00
G01 X30.5760 Y-0.1990 F60.00
G01 X30.5587 Y-0.0626 F60.00
G01 X30.4794 Y0.1106 F60.00
G01 X30.4008 Y0.1987 F60.00
G01 X30.2988 Y0.2771 F60.00
G01 X30.2379 Y0.3074 F60.00
G01 X30.0457 Y0.3495 F60.00
G01 X15.8630 Y0.3500 F60.00
G00 X15.8630 Y0.3500
G01 F60.00
G01 Z-1.5000
G01 F60.00
G01 X30.0457 Y0.3495 F60.00
G01 X30.1982 Y0.3198 F60.00
G01 X30.2652 Y0.2956 F60.00
G01 X30.3233 Y0.2603 F60.00
G01 X30.4358 Y0.1666 F60.00
G01 X30.4916 Y0.0894 F60.00
G01 X30.5499 Y-0.0351 F60.00
G01 X30.5664 Y-0.0982 F60.00
G01 X30.5760 Y-0.1990 F60.00
G01 X30.5760 Y-59.4910 F60.00
G01 X30.5714 Y-59.5478 F60.00
G01 X30.5458 Y-59.6622 F60.00
G01 X30.5216 Y-59.7292 F60.00
G01 X30.4900 Y-59.7823 F60.00
G01 X30.4150 Y-59.8765 F60.00
G01 X30.3545 Y-59.9314 F60.00
G01 X30.1909 Y-60.0139 F60.00
G01 X30.1278 Y-60.0304 F60.00
G01 X30.0270 Y-60.0400 F60.00
G01 X15.8630 Y-60.0400 F60.00
G00 X15.8630 Y-60.0400
G01 F60.00
G01 Z-2.0000
G01 F60.00
G01 X30.0457 Y-60.0395 F60.00
G01 X30.1278 Y-60.0304 F60.00
G01 X30.2060 Y-60.0080 F60.00
G01 X30.3366 Y-59.9434 F60.00
G01 X30.3986 Y-59.8941 F60.00
G01 X30.4863 Y-59.7873 F60.00
G01 X30.5216 Y-59.7292 F60.00
G01 X30.5438 Y-59.6701 F60.00
G01 X30.5672 Y-59.5689 F60.00
G01 X30.5760 Y-59.4910 F60.00
G01 X30.5760 Y-0.1990 F60.00
G01 X30.5587 Y-0.0626 F60.00
G01 X30.4794 Y0.1106 F60.00
G01 X30.4008 Y0.1987 F60.00
G01 X30.2988 Y0.2771 F60.00
G01 X30.2379 Y0.3074 F60.00
G01 X30.0457 Y0.3495 F60.00
G01 X15.8630 Y0.3500 F60.00
G00 Z2.0000
G01 F60.00

M5             
G00 Z15.0000
G00 X0.0000 Y0.0000                
T99
(MSG, Change to Tool Dia = 0.5000)
M0
G00 Z15.0000
        
M03
G01 F60.00
G00 X14.3630 Y0.3500
G01 F60.00
G01 Z-0.5000
G01 F60.00
G01 X15.8630 Y0.3500 F60.00
G00 X15.8630 Y0.3500
G01 F60.00
G01 Z-1.0000
G01 F60.00
G01 X14.3630 Y0.3500 F60.00
G00 Z2.0000
G00 X15.8630 Y-60.0400
G01 F60.00
G01 Z-0.5000
G01 F60.00
G01 X14.3630 Y-60.0400 F60.00
G00 X14.3630 Y-60.0400
G01 F60.00
G01 Z-1.0000
G01 F60.00
G01 X15.8630 Y-60.0400 F60.00
G00 Z2.0000
M05
G00 Z2.0000
G00 Z15.00
G00 X0.0 Y0.0


