(G-CODE GENERATED BY FLATCAM v8.994 - www.flatcam.org - Version Date: 2020/11/7)

(Name: Active_Electrode-F_Cu.gbr_iso_combined_cnc)
(Type: G-code from Geometry)
(Units: MM)

(Created on Monday, 11 March 2024 at 21:41)

(This preprocessor is used with a motion controller loaded with GRBL firmware.)
(It is configured to be compatible with almost any version of GRBL firmware.)

(TOOL DIAMETER: 0.4 mm)
(Feedrate_XY: 90.0 mm/min)
(Feedrate_Z: 60.0 mm/min)
(Feedrate rapids 1500.0 mm/min)

(Z_Cut: -0.085 mm)
(Z_Move: 2.0 mm)
(Z Start: None mm)
(Z End: 15.0 mm)
(X,Y End: 0.0000, 0.0000 mm)
(Steps per circle: 64)
(Steps per circle: 64)
(Preprocessor Geometry: GRBL_11_no_M6)

(X range:   -0.2000 ...   30.4260  mm)
(Y range:  -59.8900 ...    0.2000  mm)

(Spindle Speed: 0.0 RPM)
G21
G90
G17
G94


G01 F90.00

M5             
G00 Z15.0000
G00 X0.0000 Y0.0000                
T1
(MSG, Change to Tool Dia = 0.4000)
M0
G00 Z15.0000
        
M03
G01 F90.00
G00 X5.3313 Y-4.7173
G01 F60.00
G01 Z-0.0850
G01 F90.00
G01 X5.2970 Y-4.8603 F90.00
G01 X5.2797 Y-5.0800 F90.00
G01 X5.2970 Y-5.2997 F90.00
G01 X5.3313 Y-5.4427 F90.00
G01 X5.4151 Y-5.3590 F90.00
G01 X5.4100 Y-5.3384 F90.00
G01 X5.4081 Y-5.3288 F90.00
G01 X5.3908 Y-5.2123 F90.00
G01 X5.3895 Y-5.1976 F90.00
G01 X5.3840 Y-5.0800 F90.00
G01 X5.3895 Y-4.9624 F90.00
G01 X5.3908 Y-4.9480 F90.00
G01 X5.4081 Y-4.8312 F90.00
G01 X5.4100 Y-4.8216 F90.00
G01 X5.4151 Y-4.8010 F90.00
G01 X5.3313 Y-4.7173 F90.00
G00 Z2.0000
G00 X6.3213 Y-3.7273
G01 F60.00
G01 Z-0.0850
G01 F90.00
G01 X6.4050 Y-3.8111 F90.00
G01 X6.4256 Y-3.8060 F90.00
G01 X6.4352 Y-3.8041 F90.00
G01 X6.5517 Y-3.7868 F90.00
G01 X6.5664 Y-3.7855 F90.00
G01 X6.6840 Y-3.7800 F90.00
G01 X6.8016 Y-3.7855 F90.00
G01 X6.8160 Y-3.7868 F90.00
G01 X6.9328 Y-3.8041 F90.00
G01 X6.9424 Y-3.8060 F90.00
G01 X6.9630 Y-3.8111 F90.00
G01 X7.0467 Y-3.7273 F90.00
G01 X6.9037 Y-3.6930 F90.00
G01 X6.6840 Y-3.6757 F90.00
G01 X6.4643 Y-3.6930 F90.00
G01 X6.3213 Y-3.7273 F90.00
G00 Z2.0000
G00 X8.0367 Y-4.7173
G01 F60.00
G01 Z-0.0850
G01 F90.00
G01 X7.9529 Y-4.8010 F90.00
G01 X7.9580 Y-4.8216 F90.00
G01 X7.9599 Y-4.8312 F90.00
G01 X7.9772 Y-4.9477 F90.00
G01 X7.9785 Y-4.9624 F90.00
G01 X7.9840 Y-5.0800 F90.00
G01 X7.9785 Y-5.1976 F90.00
G01 X7.9772 Y-5.2120 F90.00
G01 X7.9599 Y-5.3288 F90.00
G01 X7.9580 Y-5.3384 F90.00
G01 X7.9529 Y-5.3590 F90.00
G01 X8.0367 Y-5.4427 F90.00
G01 X8.0710 Y-5.2997 F90.00
G01 X8.0883 Y-5.0800 F90.00
G01 X8.0710 Y-4.8603 F90.00
G01 X8.0367 Y-4.7173 F90.00
G00 Z2.0000
G00 X6.4050 Y-6.3489
G01 F60.00
G01 Z-0.0850
G01 F90.00
G01 X6.3213 Y-6.4327 F90.00
G01 X6.4643 Y-6.4670 F90.00
G01 X6.6840 Y-6.4843 F90.00
G01 X6.9037 Y-6.4670 F90.00
G01 X7.0467 Y-6.4327 F90.00
G01 X6.9630 Y-6.3489 F90.00
G01 X6.9424 Y-6.3540 F90.00
G01 X6.9328 Y-6.3559 F90.00
G01 X6.8163 Y-6.3732 F90.00
G01 X6.8016 Y-6.3745 F90.00
G01 X6.6840 Y-6.3800 F90.00
G01 X6.5664 Y-6.3745 F90.00
G01 X6.5520 Y-6.3732 F90.00
G01 X6.4352 Y-6.3559 F90.00
G01 X6.4256 Y-6.3540 F90.00
G01 X6.4050 Y-6.3489 F90.00
G00 Z2.0000
G00 X5.4967 Y-7.5113
G01 F60.00
G01 Z-0.0850
G01 F90.00
G01 X5.4129 Y-7.5950 F90.00
G01 X5.4180 Y-7.6156 F90.00
G01 X5.4199 Y-7.6252 F90.00
G01 X5.4372 Y-7.7417 F90.00
G01 X5.4385 Y-7.7564 F90.00
G01 X5.4440 Y-7.8740 F90.00
G01 X5.4385 Y-7.9916 F90.00
G01 X5.4372 Y-8.0060 F90.00
G01 X5.4199 Y-8.1228 F90.00
G01 X5.4180 Y-8.1324 F90.00
G01 X5.4129 Y-8.1530 F90.00
G01 X5.4967 Y-8.2367 F90.00
G01 X5.5310 Y-8.0937 F90.00
G01 X5.5483 Y-7.8740 F90.00
G01 X5.5310 Y-7.6543 F90.00
G01 X5.4967 Y-7.5113 F90.00
G00 Z2.0000
G00 X3.7813 Y-6.5213
G01 F60.00
G01 Z-0.0850
G01 F90.00
G01 X3.8650 Y-6.6051 F90.00
G01 X3.8856 Y-6.6000 F90.00
G01 X3.8952 Y-6.5981 F90.00
G01 X4.0117 Y-6.5808 F90.00
G01 X4.0264 Y-6.5795 F90.00
G01 X4.1440 Y-6.5740 F90.00
G01 X4.2616 Y-6.5795 F90.00
G01 X4.2760 Y-6.5808 F90.00
G01 X4.3928 Y-6.5981 F90.00
G01 X4.4024 Y-6.6000 F90.00
G01 X4.4230 Y-6.6051 F90.00
G01 X4.5067 Y-6.5213 F90.00
G01 X4.3637 Y-6.4870 F90.00
G01 X4.1440 Y-6.4697 F90.00
G01 X3.9243 Y-6.4870 F90.00
G01 X3.7813 Y-6.5213 F90.00
G00 Z2.0000
G00 X2.7913 Y-7.5113
G01 F60.00
G01 Z-0.0850
G01 F90.00
G01 X2.7570 Y-7.6543 F90.00
G01 X2.7397 Y-7.8740 F90.00
G01 X2.7570 Y-8.0937 F90.00
G01 X2.7913 Y-8.2367 F90.00
G01 X2.8751 Y-8.1530 F90.00
G01 X2.8700 Y-8.1324 F90.00
G01 X2.8681 Y-8.1228 F90.00
G01 X2.8508 Y-8.0063 F90.00
G01 X2.8495 Y-7.9916 F90.00
G01 X2.8440 Y-7.8740 F90.00
G01 X2.8495 Y-7.7564 F90.00
G01 X2.8508 Y-7.7420 F90.00
G01 X2.8681 Y-7.6252 F90.00
G01 X2.8700 Y-7.6156 F90.00
G01 X2.8751 Y-7.5950 F90.00
G01 X2.7913 Y-7.5113 F90.00
G00 Z2.0000
G00 X3.8650 Y-9.1429
G01 F60.00
G01 Z-0.0850
G01 F90.00
G01 X3.7813 Y-9.2267 F90.00
G01 X3.9243 Y-9.2610 F90.00
G01 X4.1440 Y-9.2783 F90.00
G01 X4.3637 Y-9.2610 F90.00
G01 X4.5067 Y-9.2267 F90.00
G01 X4.4230 Y-9.1429 F90.00
G01 X4.4024 Y-9.1480 F90.00
G01 X4.3928 Y-9.1499 F90.00
G01 X4.2763 Y-9.1672 F90.00
G01 X4.2616 Y-9.1685 F90.00
G01 X4.1440 Y-9.1740 F90.00
G01 X4.0264 Y-9.1685 F90.00
G01 X4.0120 Y-9.1672 F90.00
G01 X3.8952 Y-9.1499 F90.00
G01 X3.8856 Y-9.1480 F90.00
G01 X3.8650 Y-9.1429 F90.00
G00 Z2.0000
G00 X7.8496 Y-7.7564
G01 F60.00
G01 Z-0.0850
G01 F90.00
G01 X7.8440 Y-7.8740 F90.00
G01 X7.8503 Y-8.0014 F90.00
G01 X7.8690 Y-8.1276 F90.00
G01 X7.8974 Y-8.2419 F90.00
G01 X7.9031 Y-8.2607 F90.00
G01 X7.9394 Y-8.3623 F90.00
G01 X7.9468 Y-8.3803 F90.00
G01 X7.9975 Y-8.4868 F90.00
G01 X8.0631 Y-8.5962 F90.00
G01 X8.1391 Y-8.6987 F90.00
G01 X8.2180 Y-8.7861 F90.00
G01 X8.2319 Y-8.8000 F90.00
G01 X8.3119 Y-8.8725 F90.00
G01 X8.3270 Y-8.8850 F90.00
G01 X8.4218 Y-8.9549 F90.00
G01 X8.5308 Y-9.0203 F90.00
G01 X8.5400 Y-9.0249 F90.00
G01 X8.6465 Y-9.0750 F90.00
G01 X8.7573 Y-9.1149 F90.00
G01 X8.7761 Y-9.1206 F90.00
G01 X8.8808 Y-9.1469 F90.00
G01 X8.9001 Y-9.1507 F90.00
G01 X9.0068 Y-9.1665 F90.00
G01 X9.0173 Y-9.1678 F90.00
G01 X9.1342 Y-9.1738 F90.00
G01 X9.1538 Y-9.1738 F90.00
G01 X9.2714 Y-9.1677 F90.00
G01 X9.3976 Y-9.1490 F90.00
G01 X9.5214 Y-9.1180 F90.00
G01 X9.6369 Y-9.0769 F90.00
G01 X9.6503 Y-9.0712 F90.00
G01 X9.7480 Y-9.0249 F90.00
G01 X9.7654 Y-9.0157 F90.00
G01 X9.8662 Y-8.9549 F90.00
G01 X9.9610 Y-8.8850 F90.00
G01 X9.9725 Y-8.8758 F90.00
G01 X10.0632 Y-8.7932 F90.00
G01 X10.1458 Y-8.7025 F90.00
G01 X10.1550 Y-8.6910 F90.00
G01 X10.2221 Y-8.6003 F90.00
G01 X10.2302 Y-8.5879 F90.00
G01 X10.2588 Y-8.5403 F90.00
G01 X10.8116 Y-8.5403 F90.00
G01 X10.8224 Y-8.5581 F90.00
G01 X10.8279 Y-8.5663 F90.00
G01 X10.8980 Y-8.6609 F90.00
G01 X10.9075 Y-8.6721 F90.00
G01 X10.9833 Y-8.7557 F90.00
G01 X10.9939 Y-8.7660 F90.00
G01 X11.0813 Y-8.8449 F90.00
G01 X11.1717 Y-8.9123 F90.00
G01 X11.1717 Y-9.1440 F90.00
G01 X10.7971 Y-9.1441 F90.00
G01 X10.7824 Y-9.1450 F90.00
G01 X10.7678 Y-9.1469 F90.00
G01 X10.7582 Y-9.1489 F90.00
G01 X10.7439 Y-9.1526 F90.00
G01 X10.7300 Y-9.1574 F90.00
G01 X10.7210 Y-9.1612 F90.00
G01 X10.7077 Y-9.1676 F90.00
G01 X10.6950 Y-9.1750 F90.00
G01 X10.6829 Y-9.1834 F90.00
G01 X10.6714 Y-9.1926 F90.00
G01 X10.6606 Y-9.2026 F90.00
G01 X10.6506 Y-9.2134 F90.00
G01 X10.6414 Y-9.2249 F90.00
G01 X10.6330 Y-9.2370 F90.00
G01 X10.6280 Y-9.2454 F90.00
G01 X10.6212 Y-9.2585 F90.00
G01 X10.6154 Y-9.2720 F90.00
G01 X10.6106 Y-9.2859 F90.00
G01 X10.6069 Y-9.3002 F90.00
G01 X10.6049 Y-9.3098 F90.00
G01 X10.6025 Y-9.3293 F90.00
G01 X10.6020 Y-9.3440 F90.00
G01 X10.6021 Y-11.4889 F90.00
G01 X10.6025 Y-11.4987 F90.00
G01 X10.6042 Y-11.5133 F90.00
G01 X10.6080 Y-11.5326 F90.00
G01 X10.6121 Y-11.5467 F90.00
G01 X10.6154 Y-11.5560 F90.00
G01 X10.6212 Y-11.5695 F90.00
G01 X10.6256 Y-11.5783 F90.00
G01 X10.6357 Y-11.5951 F90.00
G01 X10.6443 Y-11.6070 F90.00
G01 X10.6506 Y-11.6146 F90.00
G01 X10.6606 Y-11.6254 F90.00
G01 X10.6677 Y-11.6322 F90.00
G01 X10.6829 Y-11.6446 F90.00
G01 X10.6950 Y-11.6530 F90.00
G01 X10.7077 Y-11.6604 F90.00
G01 X10.7210 Y-11.6668 F90.00
G01 X10.7346 Y-11.6723 F90.00
G01 X10.7534 Y-11.6780 F90.00
G01 X10.7678 Y-11.6811 F90.00
G01 X10.7824 Y-11.6830 F90.00
G01 X10.7971 Y-11.6839 F90.00
G01 X12.9469 Y-11.6839 F90.00
G01 X12.9567 Y-11.6835 F90.00
G01 X12.9713 Y-11.6818 F90.00
G01 X12.9858 Y-11.6791 F90.00
G01 X12.9953 Y-11.6768 F90.00
G01 X13.0140 Y-11.6706 F90.00
G01 X13.0230 Y-11.6668 F90.00
G01 X13.0363 Y-11.6604 F90.00
G01 X13.0531 Y-11.6503 F90.00
G01 X13.0650 Y-11.6417 F90.00
G01 X13.0726 Y-11.6354 F90.00
G01 X13.0799 Y-11.6288 F90.00
G01 X13.0902 Y-11.6183 F90.00
G01 X13.1026 Y-11.6031 F90.00
G01 X13.1110 Y-11.5910 F90.00
G01 X13.1184 Y-11.5783 F90.00
G01 X13.1248 Y-11.5650 F90.00
G01 X13.1303 Y-11.5514 F90.00
G01 X13.1360 Y-11.5326 F90.00
G01 X13.1391 Y-11.5182 F90.00
G01 X13.1410 Y-11.5036 F90.00
G01 X13.1419 Y-11.4889 F90.00
G01 X13.1420 Y-9.3440 F90.00
G01 X13.1410 Y-9.3244 F90.00
G01 X13.1382 Y-9.3050 F90.00
G01 X13.1348 Y-9.2907 F90.00
G01 X13.1303 Y-9.2766 F90.00
G01 X13.1248 Y-9.2630 F90.00
G01 X13.1184 Y-9.2497 F90.00
G01 X13.1110 Y-9.2370 F90.00
G01 X13.1026 Y-9.2249 F90.00
G01 X13.0934 Y-9.2134 F90.00
G01 X13.0868 Y-9.2061 F90.00
G01 X13.0799 Y-9.1992 F90.00
G01 X13.0689 Y-9.1894 F90.00
G01 X13.0572 Y-9.1805 F90.00
G01 X13.0448 Y-9.1725 F90.00
G01 X13.0319 Y-9.1654 F90.00
G01 X13.0185 Y-9.1592 F90.00
G01 X13.0094 Y-9.1557 F90.00
G01 X12.9953 Y-9.1512 F90.00
G01 X12.9810 Y-9.1478 F90.00
G01 X12.9713 Y-9.1462 F90.00
G01 X12.9616 Y-9.1450 F90.00
G01 X12.9469 Y-9.1441 F90.00
G01 X12.5723 Y-9.1440 F90.00
G01 X12.5723 Y-8.9548 F90.00
G01 X12.6199 Y-8.9262 F90.00
G01 X12.6323 Y-8.9181 F90.00
G01 X12.7269 Y-8.8480 F90.00
G01 X12.7381 Y-8.8385 F90.00
G01 X12.8181 Y-8.7660 F90.00
G01 X12.8287 Y-8.7557 F90.00
G01 X12.9109 Y-8.6647 F90.00
G01 X12.9813 Y-8.5703 F90.00
G01 X12.9922 Y-8.5539 F90.00
G01 X13.0477 Y-8.4614 F90.00
G01 X13.0544 Y-8.4491 F90.00
G01 X13.1070 Y-8.3375 F90.00
G01 X13.1469 Y-8.2267 F90.00
G01 X13.1526 Y-8.2079 F90.00
G01 X13.1810 Y-8.0936 F90.00
G01 X13.1985 Y-7.9772 F90.00
G01 X13.1998 Y-7.9667 F90.00
G01 X13.2058 Y-7.8498 F90.00
G01 X13.2058 Y-7.8302 F90.00
G01 X13.2005 Y-7.7224 F90.00
G01 X13.1985 Y-7.7028 F90.00
G01 X13.1810 Y-7.5864 F90.00
G01 X13.1526 Y-7.4721 F90.00
G01 X13.1469 Y-7.4533 F90.00
G01 X13.1071 Y-7.3426 F90.00
G01 X13.0569 Y-7.2360 F90.00
G01 X13.0477 Y-7.2186 F90.00
G01 X12.9869 Y-7.1178 F90.00
G01 X12.9170 Y-7.0230 F90.00
G01 X12.9045 Y-7.0079 F90.00
G01 X12.8320 Y-6.9279 F90.00
G01 X12.8181 Y-6.9140 F90.00
G01 X12.7307 Y-6.8351 F90.00
G01 X12.6363 Y-6.7647 F90.00
G01 X12.6199 Y-6.7538 F90.00
G01 X12.5192 Y-6.6937 F90.00
G01 X12.4125 Y-6.6429 F90.00
G01 X12.3989 Y-6.6371 F90.00
G01 X12.3843 Y-6.6318 F90.00
G01 X12.3843 Y-6.1744 F90.00
G01 X12.4021 Y-6.1636 F90.00
G01 X12.4103 Y-6.1581 F90.00
G01 X12.5087 Y-6.0849 F90.00
G01 X12.5961 Y-6.0060 F90.00
G01 X12.6100 Y-5.9921 F90.00
G01 X12.6889 Y-5.9047 F90.00
G01 X12.7593 Y-5.8103 F90.00
G01 X12.7702 Y-5.7939 F90.00
G01 X12.8257 Y-5.7014 F90.00
G01 X12.8345 Y-5.6849 F90.00
G01 X12.8850 Y-5.5775 F90.00
G01 X12.9249 Y-5.4667 F90.00
G01 X12.9306 Y-5.4479 F90.00
G01 X12.9590 Y-5.3336 F90.00
G01 X12.9765 Y-5.2172 F90.00
G01 X12.9778 Y-5.2067 F90.00
G01 X12.9838 Y-5.0898 F90.00
G01 X12.9838 Y-5.0702 F90.00
G01 X12.9777 Y-4.9526 F90.00
G01 X12.9590 Y-4.8264 F90.00
G01 X12.9280 Y-4.7026 F90.00
G01 X12.8851 Y-4.5826 F90.00
G01 X12.8349 Y-4.4760 F90.00
G01 X12.8257 Y-4.4586 F90.00
G01 X12.7649 Y-4.3578 F90.00
G01 X12.6950 Y-4.2630 F90.00
G01 X12.6825 Y-4.2479 F90.00
G01 X12.6100 Y-4.1679 F90.00
G01 X12.5961 Y-4.1540 F90.00
G01 X12.5087 Y-4.0751 F90.00
G01 X12.4143 Y-4.0047 F90.00
G01 X12.3979 Y-3.9938 F90.00
G01 X12.2972 Y-3.9337 F90.00
G01 X12.2880 Y-3.9291 F90.00
G01 X12.1815 Y-3.8790 F90.00
G01 X12.0614 Y-3.8360 F90.00
G01 X11.9376 Y-3.8050 F90.00
G01 X11.8212 Y-3.7875 F90.00
G01 X11.8107 Y-3.7862 F90.00
G01 X11.6840 Y-3.7800 F90.00
G01 X11.5566 Y-3.7863 F90.00
G01 X11.4401 Y-3.8033 F90.00
G01 X11.4208 Y-3.8071 F90.00
G01 X11.3066 Y-3.8360 F90.00
G01 X11.1957 Y-3.8754 F90.00
G01 X11.1777 Y-3.8828 F90.00
G01 X11.0800 Y-3.9291 F90.00
G01 X11.0626 Y-3.9383 F90.00
G01 X10.9618 Y-3.9991 F90.00
G01 X10.8670 Y-4.0690 F90.00
G01 X10.8519 Y-4.0815 F90.00
G01 X10.7648 Y-4.1608 F90.00
G01 X10.6791 Y-4.2553 F90.00
G01 X10.6031 Y-4.3578 F90.00
G01 X10.5423 Y-4.4586 F90.00
G01 X10.5356 Y-4.4709 F90.00
G01 X10.4830 Y-4.5825 F90.00
G01 X10.4400 Y-4.7026 F90.00
G01 X10.4090 Y-4.8264 F90.00
G01 X10.3915 Y-4.9428 F90.00
G01 X10.3902 Y-4.9533 F90.00
G01 X10.3840 Y-5.0800 F90.00
G01 X10.3903 Y-5.2074 F90.00
G01 X10.4090 Y-5.3336 F90.00
G01 X10.4374 Y-5.4479 F90.00
G01 X10.4431 Y-5.4667 F90.00
G01 X10.4829 Y-5.5774 F90.00
G01 X10.5375 Y-5.6928 F90.00
G01 X10.6031 Y-5.8022 F90.00
G01 X10.6730 Y-5.8970 F90.00
G01 X10.6855 Y-5.9121 F90.00
G01 X10.7648 Y-5.9992 F90.00
G01 X10.8519 Y-6.0785 F90.00
G01 X10.8670 Y-6.0910 F90.00
G01 X10.9537 Y-6.1553 F90.00
G01 X10.9659 Y-6.1636 F90.00
G01 X10.9837 Y-6.1744 F90.00
G01 X10.9837 Y-6.9238 F90.00
G01 X10.9075 Y-7.0079 F90.00
G01 X10.8980 Y-7.0191 F90.00
G01 X10.8279 Y-7.1137 F90.00
G01 X10.8224 Y-7.1219 F90.00
G01 X10.8116 Y-7.1397 F90.00
G01 X10.2163 Y-7.1397 F90.00
G01 X10.1489 Y-7.0493 F90.00
G01 X10.0700 Y-6.9619 F90.00
G01 X10.0561 Y-6.9480 F90.00
G01 X9.9687 Y-6.8691 F90.00
G01 X9.8662 Y-6.7931 F90.00
G01 X9.7654 Y-6.7323 F90.00
G01 X9.7489 Y-6.7235 F90.00
G01 X9.6415 Y-6.6730 F90.00
G01 X9.5214 Y-6.6300 F90.00
G01 X9.4072 Y-6.6011 F90.00
G01 X9.3879 Y-6.5973 F90.00
G01 X9.2812 Y-6.5815 F90.00
G01 X9.2707 Y-6.5802 F90.00
G01 X9.1440 Y-6.5740 F90.00
G01 X9.0264 Y-6.5795 F90.00
G01 X9.0068 Y-6.5815 F90.00
G01 X8.8904 Y-6.5990 F90.00
G01 X8.7666 Y-6.6300 F90.00
G01 X8.6557 Y-6.6694 F90.00
G01 X8.6377 Y-6.6768 F90.00
G01 X8.5400 Y-6.7231 F90.00
G01 X8.5226 Y-6.7323 F90.00
G01 X8.4218 Y-6.7931 F90.00
G01 X8.3193 Y-6.8691 F90.00
G01 X8.2248 Y-6.9548 F90.00
G01 X8.1455 Y-7.0419 F90.00
G01 X8.1330 Y-7.0570 F90.00
G01 X8.0687 Y-7.1437 F90.00
G01 X8.0578 Y-7.1601 F90.00
G01 X7.9977 Y-7.2608 F90.00
G01 X7.9931 Y-7.2700 F90.00
G01 X7.9430 Y-7.3765 F90.00
G01 X7.9000 Y-7.4966 F90.00
G01 X7.8711 Y-7.6108 F90.00
G01 X7.8673 Y-7.6301 F90.00
G01 X7.8515 Y-7.7368 F90.00
G01 X7.8496 Y-7.7564 F90.00
G00 Z2.0000
G00 X15.9820 Y-3.0190
G01 F60.00
G01 Z-0.0850
G01 F90.00
G01 X15.9820 Y-5.1590 F90.00
G01 X15.9822 Y-5.1688 F90.00
G01 X15.9835 Y-5.1835 F90.00
G01 X15.9849 Y-5.1932 F90.00
G01 X15.9880 Y-5.2076 F90.00
G01 X15.9921 Y-5.2217 F90.00
G01 X15.9972 Y-5.2355 F90.00
G01 X16.0012 Y-5.2445 F90.00
G01 X16.0080 Y-5.2576 F90.00
G01 X16.0157 Y-5.2701 F90.00
G01 X16.0243 Y-5.2820 F90.00
G01 X16.0338 Y-5.2933 F90.00
G01 X16.0406 Y-5.3004 F90.00
G01 X16.0514 Y-5.3104 F90.00
G01 X16.0590 Y-5.3167 F90.00
G01 X16.0668 Y-5.3225 F90.00
G01 X16.0792 Y-5.3305 F90.00
G01 X16.0921 Y-5.3376 F90.00
G01 X16.1010 Y-5.3418 F90.00
G01 X16.1146 Y-5.3473 F90.00
G01 X16.1287 Y-5.3518 F90.00
G01 X16.1382 Y-5.3541 F90.00
G01 X16.1527 Y-5.3568 F90.00
G01 X16.1673 Y-5.3585 F90.00
G01 X16.1771 Y-5.3589 F90.00
G01 X16.5517 Y-5.3590 F90.00
G01 X16.5517 Y-14.2940 F90.00
G01 X16.5551 Y-14.3626 F90.00
G01 X16.5635 Y-14.4209 F90.00
G01 X16.5674 Y-14.4402 F90.00
G01 X16.5819 Y-14.4973 F90.00
G01 X16.6051 Y-14.5620 F90.00
G01 X16.6300 Y-14.6153 F90.00
G01 X16.6393 Y-14.6326 F90.00
G01 X16.6698 Y-14.6830 F90.00
G01 X16.7047 Y-14.7305 F90.00
G01 X16.7139 Y-14.7420 F90.00
G01 X16.7501 Y-14.7820 F90.00
G01 X17.9568 Y-15.9892 F90.00
G01 X18.0040 Y-16.0321 F90.00
G01 X18.0155 Y-16.0413 F90.00
G01 X18.0630 Y-16.0762 F90.00
G01 X18.1219 Y-16.1116 F90.00
G01 X18.1840 Y-16.1409 F90.00
G01 X18.2487 Y-16.1641 F90.00
G01 X18.3154 Y-16.1808 F90.00
G01 X18.3834 Y-16.1909 F90.00
G01 X18.4471 Y-16.1942 F90.00
G01 X18.5420 Y-16.1943 F90.00
G01 X18.5420 Y-16.5640 F90.00
G01 X18.5430 Y-16.5836 F90.00
G01 X18.5458 Y-16.6030 F90.00
G01 X18.5506 Y-16.6221 F90.00
G01 X18.5554 Y-16.6360 F90.00
G01 X18.5592 Y-16.6450 F90.00
G01 X18.5656 Y-16.6583 F90.00
G01 X18.5705 Y-16.6668 F90.00
G01 X18.5757 Y-16.6751 F90.00
G01 X18.5843 Y-16.6870 F90.00
G01 X18.5938 Y-16.6983 F90.00
G01 X18.6006 Y-16.7054 F90.00
G01 X18.6114 Y-16.7154 F90.00
G01 X18.6190 Y-16.7217 F90.00
G01 X18.6309 Y-16.7303 F90.00
G01 X18.6392 Y-16.7355 F90.00
G01 X18.6565 Y-16.7448 F90.00
G01 X18.6746 Y-16.7523 F90.00
G01 X18.6839 Y-16.7554 F90.00
G01 X18.6982 Y-16.7591 F90.00
G01 X18.7078 Y-16.7611 F90.00
G01 X18.7224 Y-16.7630 F90.00
G01 X18.7420 Y-16.7640 F90.00
G01 X20.8820 Y-16.7640 F90.00
G01 X20.8967 Y-16.7635 F90.00
G01 X20.9113 Y-16.7618 F90.00
G01 X20.9258 Y-16.7591 F90.00
G01 X20.9353 Y-16.7568 F90.00
G01 X20.9494 Y-16.7523 F90.00
G01 X20.9585 Y-16.7488 F90.00
G01 X20.9675 Y-16.7448 F90.00
G01 X20.9806 Y-16.7380 F90.00
G01 X20.9890 Y-16.7330 F90.00
G01 X21.0011 Y-16.7246 F90.00
G01 X21.0126 Y-16.7154 F90.00
G01 X21.0199 Y-16.7088 F90.00
G01 X21.0268 Y-16.7019 F90.00
G01 X21.0366 Y-16.6909 F90.00
G01 X21.0455 Y-16.6792 F90.00
G01 X21.0510 Y-16.6710 F90.00
G01 X21.0584 Y-16.6583 F90.00
G01 X21.0628 Y-16.6495 F90.00
G01 X21.0703 Y-16.6314 F90.00
G01 X21.0748 Y-16.6173 F90.00
G01 X21.0791 Y-16.5982 F90.00
G01 X21.0815 Y-16.5787 F90.00
G01 X21.0820 Y-16.5640 F90.00
G01 X21.0820 Y-16.3943 F90.00
G01 X21.3977 Y-16.7101 F90.00
G01 X21.3977 Y-21.0459 F90.00
G01 X16.7768 Y-25.6668 F90.00
G01 X16.7371 Y-25.7103 F90.00
G01 X16.7247 Y-25.7255 F90.00
G01 X16.6898 Y-25.7730 F90.00
G01 X16.6593 Y-25.8234 F90.00
G01 X16.6500 Y-25.8407 F90.00
G01 X16.6251 Y-25.8940 F90.00
G01 X16.6019 Y-25.9587 F90.00
G01 X16.5874 Y-26.0158 F90.00
G01 X16.5835 Y-26.0351 F90.00
G01 X16.5751 Y-26.0934 F90.00
G01 X16.5717 Y-26.1620 F90.00
G01 X16.5717 Y-37.2319 F90.00
G01 X13.9479 Y-39.8557 F90.00
G01 X13.2080 Y-39.8557 F90.00
G01 X13.2079 Y-39.4811 F90.00
G01 X13.2070 Y-39.4664 F90.00
G01 X13.2051 Y-39.4518 F90.00
G01 X13.2031 Y-39.4422 F90.00
G01 X13.1994 Y-39.4279 F90.00
G01 X13.1963 Y-39.4186 F90.00
G01 X13.1908 Y-39.4050 F90.00
G01 X13.1844 Y-39.3917 F90.00
G01 X13.1770 Y-39.3790 F90.00
G01 X13.1686 Y-39.3669 F90.00
G01 X13.1594 Y-39.3554 F90.00
G01 X13.1494 Y-39.3446 F90.00
G01 X13.1386 Y-39.3346 F90.00
G01 X13.1271 Y-39.3254 F90.00
G01 X13.1150 Y-39.3170 F90.00
G01 X13.1023 Y-39.3096 F90.00
G01 X13.0935 Y-39.3052 F90.00
G01 X13.0845 Y-39.3012 F90.00
G01 X13.0707 Y-39.2961 F90.00
G01 X13.0566 Y-39.2920 F90.00
G01 X13.0422 Y-39.2889 F90.00
G01 X13.0276 Y-39.2870 F90.00
G01 X13.0080 Y-39.2860 F90.00
G01 X10.8631 Y-39.2861 F90.00
G01 X10.8435 Y-39.2875 F90.00
G01 X10.8290 Y-39.2898 F90.00
G01 X10.8147 Y-39.2932 F90.00
G01 X10.7960 Y-39.2994 F90.00
G01 X10.7825 Y-39.3052 F90.00
G01 X10.7694 Y-39.3120 F90.00
G01 X10.7528 Y-39.3225 F90.00
G01 X10.7411 Y-39.3314 F90.00
G01 X10.7266 Y-39.3446 F90.00
G01 X10.7198 Y-39.3517 F90.00
G01 X10.7103 Y-39.3630 F90.00
G01 X10.6990 Y-39.3790 F90.00
G01 X10.6940 Y-39.3874 F90.00
G01 X10.6872 Y-39.4005 F90.00
G01 X10.6797 Y-39.4186 F90.00
G01 X10.6766 Y-39.4279 F90.00
G01 X10.6729 Y-39.4422 F90.00
G01 X10.6695 Y-39.4615 F90.00
G01 X10.6681 Y-39.4811 F90.00
G01 X10.6682 Y-41.6358 F90.00
G01 X10.6702 Y-41.6553 F90.00
G01 X10.6740 Y-41.6746 F90.00
G01 X10.6781 Y-41.6887 F90.00
G01 X10.6852 Y-41.7070 F90.00
G01 X10.6940 Y-41.7246 F90.00
G01 X10.7017 Y-41.7371 F90.00
G01 X10.7103 Y-41.7490 F90.00
G01 X10.7232 Y-41.7639 F90.00
G01 X10.7374 Y-41.7774 F90.00
G01 X10.7489 Y-41.7866 F90.00
G01 X10.7610 Y-41.7950 F90.00
G01 X10.7781 Y-41.8046 F90.00
G01 X10.7915 Y-41.8108 F90.00
G01 X10.8099 Y-41.8174 F90.00
G01 X10.8242 Y-41.8211 F90.00
G01 X10.8435 Y-41.8245 F90.00
G01 X10.8533 Y-41.8255 F90.00
G01 X10.8680 Y-41.8260 F90.00
G01 X13.0080 Y-41.8260 F90.00
G01 X13.0276 Y-41.8250 F90.00
G01 X13.0422 Y-41.8231 F90.00
G01 X13.0518 Y-41.8211 F90.00
G01 X13.0661 Y-41.8174 F90.00
G01 X13.0800 Y-41.8126 F90.00
G01 X13.0935 Y-41.8068 F90.00
G01 X13.1066 Y-41.8000 F90.00
G01 X13.1191 Y-41.7923 F90.00
G01 X13.1310 Y-41.7837 F90.00
G01 X13.1386 Y-41.7774 F90.00
G01 X13.1494 Y-41.7674 F90.00
G01 X13.1594 Y-41.7566 F90.00
G01 X13.1686 Y-41.7451 F90.00
G01 X13.1770 Y-41.7330 F90.00
G01 X13.1820 Y-41.7246 F90.00
G01 X13.1888 Y-41.7115 F90.00
G01 X13.1946 Y-41.6980 F90.00
G01 X13.1994 Y-41.6841 F90.00
G01 X13.2031 Y-41.6698 F90.00
G01 X13.2058 Y-41.6553 F90.00
G01 X13.2070 Y-41.6456 F90.00
G01 X13.2079 Y-41.6309 F90.00
G01 X13.2080 Y-41.2563 F90.00
G01 X14.2380 Y-41.2563 F90.00
G01 X14.3017 Y-41.2533 F90.00
G01 X14.3164 Y-41.2517 F90.00
G01 X14.3746 Y-41.2428 F90.00
G01 X14.4413 Y-41.2261 F90.00
G01 X14.5060 Y-41.2029 F90.00
G01 X14.5593 Y-41.1780 F90.00
G01 X14.5724 Y-41.1712 F90.00
G01 X14.6270 Y-41.1382 F90.00
G01 X14.6745 Y-41.1033 F90.00
G01 X14.6897 Y-41.0909 F90.00
G01 X14.7332 Y-41.0512 F90.00
G01 X17.7672 Y-38.0172 F90.00
G01 X17.8069 Y-37.9737 F90.00
G01 X17.8193 Y-37.9585 F90.00
G01 X17.8542 Y-37.9110 F90.00
G01 X17.8847 Y-37.8606 F90.00
G01 X17.8940 Y-37.8433 F90.00
G01 X17.9189 Y-37.7900 F90.00
G01 X17.9390 Y-37.7346 F90.00
G01 X17.9447 Y-37.7158 F90.00
G01 X17.9588 Y-37.6586 F90.00
G01 X17.9677 Y-37.6004 F90.00
G01 X17.9696 Y-37.5808 F90.00
G01 X17.9723 Y-37.5220 F90.00
G01 X17.9723 Y-26.4521 F90.00
G01 X22.5966 Y-21.8276 F90.00
G01 X22.6393 Y-21.7802 F90.00
G01 X22.6802 Y-21.7250 F90.00
G01 X22.7156 Y-21.6661 F90.00
G01 X22.7410 Y-21.6129 F90.00
G01 X22.7485 Y-21.5948 F90.00
G01 X22.7666 Y-21.5440 F90.00
G01 X22.7707 Y-21.5298 F90.00
G01 X22.7848 Y-21.4726 F90.00
G01 X22.7943 Y-21.4095 F90.00
G01 X22.7956 Y-21.3948 F90.00
G01 X22.7983 Y-21.3360 F90.00
G01 X22.7982 Y-16.4151 F90.00
G01 X22.7949 Y-16.3514 F90.00
G01 X22.7865 Y-16.2931 F90.00
G01 X22.7826 Y-16.2738 F90.00
G01 X22.7681 Y-16.2167 F90.00
G01 X22.7485 Y-16.1612 F90.00
G01 X22.7410 Y-16.1431 F90.00
G01 X22.7156 Y-16.0899 F90.00
G01 X22.6802 Y-16.0310 F90.00
G01 X22.6393 Y-15.9758 F90.00
G01 X22.5932 Y-15.9248 F90.00
G01 X21.6672 Y-14.9988 F90.00
G01 X21.6237 Y-14.9591 F90.00
G01 X21.6124 Y-14.9496 F90.00
G01 X21.5610 Y-14.9118 F90.00
G01 X21.5021 Y-14.8764 F90.00
G01 X21.4400 Y-14.8471 F90.00
G01 X21.3753 Y-14.8239 F90.00
G01 X21.3086 Y-14.8072 F90.00
G01 X21.2406 Y-14.7971 F90.00
G01 X21.1769 Y-14.7938 F90.00
G01 X21.0820 Y-14.7937 F90.00
G01 X21.0820 Y-14.4240 F90.00
G01 X21.0815 Y-14.4093 F90.00
G01 X21.0805 Y-14.3995 F90.00
G01 X21.0771 Y-14.3802 F90.00
G01 X21.0748 Y-14.3707 F90.00
G01 X21.0703 Y-14.3566 F90.00
G01 X21.0648 Y-14.3430 F90.00
G01 X21.0606 Y-14.3341 F90.00
G01 X21.0560 Y-14.3254 F90.00
G01 X21.0483 Y-14.3129 F90.00
G01 X21.0366 Y-14.2971 F90.00
G01 X21.0268 Y-14.2861 F90.00
G01 X21.0199 Y-14.2792 F90.00
G01 X21.0089 Y-14.2694 F90.00
G01 X21.0011 Y-14.2634 F90.00
G01 X20.9890 Y-14.2550 F90.00
G01 X20.9806 Y-14.2500 F90.00
G01 X20.9630 Y-14.2412 F90.00
G01 X20.9447 Y-14.2341 F90.00
G01 X20.9258 Y-14.2289 F90.00
G01 X20.9065 Y-14.2255 F90.00
G01 X20.8918 Y-14.2242 F90.00
G01 X20.8820 Y-14.2240 F90.00
G01 X18.7420 Y-14.2240 F90.00
G01 X18.7273 Y-14.2245 F90.00
G01 X18.7127 Y-14.2262 F90.00
G01 X18.6982 Y-14.2289 F90.00
G01 X18.6887 Y-14.2312 F90.00
G01 X18.6746 Y-14.2357 F90.00
G01 X18.6655 Y-14.2392 F90.00
G01 X18.6565 Y-14.2432 F90.00
G01 X18.6434 Y-14.2500 F90.00
G01 X18.6309 Y-14.2577 F90.00
G01 X18.6229 Y-14.2634 F90.00
G01 X18.6151 Y-14.2694 F90.00
G01 X18.6041 Y-14.2792 F90.00
G01 X18.5972 Y-14.2861 F90.00
G01 X18.5874 Y-14.2971 F90.00
G01 X18.5814 Y-14.3049 F90.00
G01 X18.5730 Y-14.3170 F90.00
G01 X18.5656 Y-14.3297 F90.00
G01 X18.5612 Y-14.3385 F90.00
G01 X18.5554 Y-14.3520 F90.00
G01 X18.5492 Y-14.3707 F90.00
G01 X18.5449 Y-14.3898 F90.00
G01 X18.5425 Y-14.4093 F90.00
G01 X18.5420 Y-14.4240 F90.00
G01 X18.5420 Y-14.5937 F90.00
G01 X17.9523 Y-14.0039 F90.00
G01 X17.9523 Y-5.3590 F90.00
G01 X18.3269 Y-5.3589 F90.00
G01 X18.3416 Y-5.3580 F90.00
G01 X18.3513 Y-5.3568 F90.00
G01 X18.3658 Y-5.3541 F90.00
G01 X18.3753 Y-5.3518 F90.00
G01 X18.3894 Y-5.3473 F90.00
G01 X18.3985 Y-5.3438 F90.00
G01 X18.4119 Y-5.3376 F90.00
G01 X18.4248 Y-5.3305 F90.00
G01 X18.4372 Y-5.3225 F90.00
G01 X18.4489 Y-5.3136 F90.00
G01 X18.4599 Y-5.3038 F90.00
G01 X18.4668 Y-5.2969 F90.00
G01 X18.4734 Y-5.2896 F90.00
G01 X18.4826 Y-5.2781 F90.00
G01 X18.4910 Y-5.2660 F90.00
G01 X18.4984 Y-5.2533 F90.00
G01 X18.5048 Y-5.2400 F90.00
G01 X18.5103 Y-5.2264 F90.00
G01 X18.5148 Y-5.2123 F90.00
G01 X18.5171 Y-5.2028 F90.00
G01 X18.5205 Y-5.1835 F90.00
G01 X18.5215 Y-5.1737 F90.00
G01 X18.5220 Y-5.1590 F90.00
G01 X18.5220 Y-3.0190 F90.00
G01 X18.5210 Y-2.9994 F90.00
G01 X18.5191 Y-2.9848 F90.00
G01 X18.5148 Y-2.9657 F90.00
G01 X18.5103 Y-2.9516 F90.00
G01 X18.5048 Y-2.9380 F90.00
G01 X18.4984 Y-2.9247 F90.00
G01 X18.4910 Y-2.9120 F90.00
G01 X18.4826 Y-2.8999 F90.00
G01 X18.4734 Y-2.8884 F90.00
G01 X18.4634 Y-2.8776 F90.00
G01 X18.4526 Y-2.8676 F90.00
G01 X18.4411 Y-2.8584 F90.00
G01 X18.4290 Y-2.8500 F90.00
G01 X18.4163 Y-2.8426 F90.00
G01 X18.4030 Y-2.8362 F90.00
G01 X18.3894 Y-2.8307 F90.00
G01 X18.3753 Y-2.8262 F90.00
G01 X18.3610 Y-2.8228 F90.00
G01 X18.3465 Y-2.8205 F90.00
G01 X18.3318 Y-2.8192 F90.00
G01 X16.1771 Y-2.8191 F90.00
G01 X16.1575 Y-2.8205 F90.00
G01 X16.1382 Y-2.8239 F90.00
G01 X16.1193 Y-2.8291 F90.00
G01 X16.1010 Y-2.8362 F90.00
G01 X16.0834 Y-2.8450 F90.00
G01 X16.0668 Y-2.8555 F90.00
G01 X16.0551 Y-2.8644 F90.00
G01 X16.0406 Y-2.8776 F90.00
G01 X16.0274 Y-2.8921 F90.00
G01 X16.0157 Y-2.9079 F90.00
G01 X16.0056 Y-2.9247 F90.00
G01 X15.9972 Y-2.9425 F90.00
G01 X15.9906 Y-2.9609 F90.00
G01 X15.9858 Y-2.9800 F90.00
G01 X15.9830 Y-2.9994 F90.00
G01 X15.9820 Y-3.0190 F90.00
G00 Z2.0000
G00 X18.0096 Y-7.7264
G01 F60.00
G01 Z-0.0850
G01 F90.00
G01 X18.0040 Y-7.8440 F90.00
G01 X18.0103 Y-7.9714 F90.00
G01 X18.0290 Y-8.0976 F90.00
G01 X18.0574 Y-8.2119 F90.00
G01 X18.0631 Y-8.2307 F90.00
G01 X18.0994 Y-8.3323 F90.00
G01 X18.1068 Y-8.3503 F90.00
G01 X18.1575 Y-8.4568 F90.00
G01 X18.2231 Y-8.5662 F90.00
G01 X18.2991 Y-8.6687 F90.00
G01 X18.3780 Y-8.7561 F90.00
G01 X18.3919 Y-8.7700 F90.00
G01 X18.4719 Y-8.8425 F90.00
G01 X18.4870 Y-8.8550 F90.00
G01 X18.5818 Y-8.9249 F90.00
G01 X18.6908 Y-8.9903 F90.00
G01 X18.7000 Y-8.9949 F90.00
G01 X18.8065 Y-9.0450 F90.00
G01 X18.9220 Y-9.0865 F90.00
G01 X18.9361 Y-9.0906 F90.00
G01 X19.0408 Y-9.1169 F90.00
G01 X19.0601 Y-9.1207 F90.00
G01 X19.1668 Y-9.1365 F90.00
G01 X19.1773 Y-9.1378 F90.00
G01 X19.3040 Y-9.1440 F90.00
G01 X19.4314 Y-9.1377 F90.00
G01 X19.5479 Y-9.1207 F90.00
G01 X19.5672 Y-9.1169 F90.00
G01 X19.6719 Y-9.0906 F90.00
G01 X19.6860 Y-9.0865 F90.00
G01 X19.8014 Y-9.0451 F90.00
G01 X19.9168 Y-8.9905 F90.00
G01 X20.0262 Y-8.9249 F90.00
G01 X20.1249 Y-8.8520 F90.00
G01 X20.1361 Y-8.8425 F90.00
G01 X20.2232 Y-8.7632 F90.00
G01 X20.3025 Y-8.6761 F90.00
G01 X20.3150 Y-8.6610 F90.00
G01 X20.3793 Y-8.5743 F90.00
G01 X20.3876 Y-8.5621 F90.00
G01 X20.3984 Y-8.5442 F90.00
G01 X20.5079 Y-8.5442 F90.00
G01 X24.1917 Y-12.2281 F90.00
G01 X24.1917 Y-13.6799 F90.00
G01 X23.3808 Y-14.4908 F90.00
G01 X23.3347 Y-14.5418 F90.00
G01 X23.2994 Y-14.5889 F90.00
G01 X23.2885 Y-14.6053 F90.00
G01 X23.2584 Y-14.6559 F90.00
G01 X23.2291 Y-14.7180 F90.00
G01 X23.2059 Y-14.7827 F90.00
G01 X23.1914 Y-14.8398 F90.00
G01 X23.1875 Y-14.8591 F90.00
G01 X23.1791 Y-14.9174 F90.00
G01 X23.1757 Y-14.9860 F90.00
G01 X23.1757 Y-22.0619 F90.00
G01 X22.4048 Y-22.8328 F90.00
G01 X22.3587 Y-22.8838 F90.00
G01 X22.3234 Y-22.9309 F90.00
G01 X22.3125 Y-22.9473 F90.00
G01 X22.2824 Y-22.9979 F90.00
G01 X22.2531 Y-23.0600 F90.00
G01 X22.2299 Y-23.1247 F90.00
G01 X22.2154 Y-23.1818 F90.00
G01 X22.2115 Y-23.2011 F90.00
G01 X22.2043 Y-23.2496 F90.00
G01 X22.2027 Y-23.2643 F90.00
G01 X22.1997 Y-23.3280 F90.00
G01 X22.1997 Y-38.3074 F90.00
G01 X21.4132 Y-37.5208 F90.00
G01 X21.3622 Y-37.4747 F90.00
G01 X21.3151 Y-37.4394 F90.00
G01 X21.2987 Y-37.4285 F90.00
G01 X21.2524 Y-37.4008 F90.00
G01 X21.2393 Y-37.3940 F90.00
G01 X21.1949 Y-37.3730 F90.00
G01 X21.1768 Y-37.3655 F90.00
G01 X21.1260 Y-37.3474 F90.00
G01 X21.1118 Y-37.3433 F90.00
G01 X21.0546 Y-37.3292 F90.00
G01 X20.9866 Y-37.3191 F90.00
G01 X20.9229 Y-37.3158 F90.00
G01 X20.8280 Y-37.3157 F90.00
G01 X20.8279 Y-36.9411 F90.00
G01 X20.8265 Y-36.9215 F90.00
G01 X20.8242 Y-36.9070 F90.00
G01 X20.8220 Y-36.8974 F90.00
G01 X20.8194 Y-36.8879 F90.00
G01 X20.8146 Y-36.8740 F90.00
G01 X20.8108 Y-36.8650 F90.00
G01 X20.8044 Y-36.8517 F90.00
G01 X20.7970 Y-36.8390 F90.00
G01 X20.7915 Y-36.8308 F90.00
G01 X20.7857 Y-36.8230 F90.00
G01 X20.7762 Y-36.8117 F90.00
G01 X20.7694 Y-36.8046 F90.00
G01 X20.7586 Y-36.7946 F90.00
G01 X20.7471 Y-36.7854 F90.00
G01 X20.7391 Y-36.7797 F90.00
G01 X20.7308 Y-36.7745 F90.00
G01 X20.7179 Y-36.7674 F90.00
G01 X20.7045 Y-36.7612 F90.00
G01 X20.6954 Y-36.7577 F90.00
G01 X20.6813 Y-36.7532 F90.00
G01 X20.6622 Y-36.7489 F90.00
G01 X20.6476 Y-36.7470 F90.00
G01 X20.6280 Y-36.7460 F90.00
G01 X18.4880 Y-36.7460 F90.00
G01 X18.4733 Y-36.7465 F90.00
G01 X18.4538 Y-36.7489 F90.00
G01 X18.4394 Y-36.7520 F90.00
G01 X18.4206 Y-36.7577 F90.00
G01 X18.4025 Y-36.7652 F90.00
G01 X18.3894 Y-36.7720 F90.00
G01 X18.3728 Y-36.7825 F90.00
G01 X18.3574 Y-36.7946 F90.00
G01 X18.3432 Y-36.8081 F90.00
G01 X18.3303 Y-36.8230 F90.00
G01 X18.3190 Y-36.8390 F90.00
G01 X18.3116 Y-36.8517 F90.00
G01 X18.3032 Y-36.8695 F90.00
G01 X18.2966 Y-36.8879 F90.00
G01 X18.2918 Y-36.9070 F90.00
G01 X18.2890 Y-36.9264 F90.00
G01 X18.2880 Y-36.9460 F90.00
G01 X18.2881 Y-39.0909 F90.00
G01 X18.2895 Y-39.1105 F90.00
G01 X18.2918 Y-39.1250 F90.00
G01 X18.2940 Y-39.1346 F90.00
G01 X18.2997 Y-39.1534 F90.00
G01 X18.3072 Y-39.1715 F90.00
G01 X18.3165 Y-39.1888 F90.00
G01 X18.3217 Y-39.1971 F90.00
G01 X18.3303 Y-39.2090 F90.00
G01 X18.3366 Y-39.2166 F90.00
G01 X18.3466 Y-39.2274 F90.00
G01 X18.3611 Y-39.2406 F90.00
G01 X18.3728 Y-39.2495 F90.00
G01 X18.3852 Y-39.2575 F90.00
G01 X18.4025 Y-39.2668 F90.00
G01 X18.4160 Y-39.2726 F90.00
G01 X18.4347 Y-39.2788 F90.00
G01 X18.4490 Y-39.2822 F90.00
G01 X18.4635 Y-39.2845 F90.00
G01 X18.4831 Y-39.2859 F90.00
G01 X20.6280 Y-39.2860 F90.00
G01 X20.6378 Y-39.2858 F90.00
G01 X20.6525 Y-39.2845 F90.00
G01 X20.6622 Y-39.2831 F90.00
G01 X20.6766 Y-39.2800 F90.00
G01 X20.6861 Y-39.2774 F90.00
G01 X20.7000 Y-39.2726 F90.00
G01 X20.7135 Y-39.2668 F90.00
G01 X20.7266 Y-39.2600 F90.00
G01 X20.7391 Y-39.2523 F90.00
G01 X20.7471 Y-39.2466 F90.00
G01 X20.7586 Y-39.2374 F90.00
G01 X20.7659 Y-39.2308 F90.00
G01 X20.7762 Y-39.2203 F90.00
G01 X20.7826 Y-39.2129 F90.00
G01 X20.7915 Y-39.2012 F90.00
G01 X20.7970 Y-39.1930 F90.00
G01 X20.8044 Y-39.1803 F90.00
G01 X20.8088 Y-39.1715 F90.00
G01 X20.8163 Y-39.1534 F90.00
G01 X20.8208 Y-39.1393 F90.00
G01 X20.8251 Y-39.1202 F90.00
G01 X20.8275 Y-39.1007 F90.00
G01 X20.8280 Y-39.0860 F90.00
G01 X20.8280 Y-38.9163 F90.00
G01 X21.8234 Y-39.9117 F90.00
G01 X21.8138 Y-39.9261 F90.00
G01 X21.7537 Y-40.0268 F90.00
G01 X21.7491 Y-40.0360 F90.00
G01 X21.6990 Y-40.1425 F90.00
G01 X21.6560 Y-40.2626 F90.00
G01 X21.6250 Y-40.3864 F90.00
G01 X21.6075 Y-40.5028 F90.00
G01 X21.6062 Y-40.5133 F90.00
G01 X21.6000 Y-40.6400 F90.00
G01 X21.6063 Y-40.7674 F90.00
G01 X21.6250 Y-40.8936 F90.00
G01 X21.6560 Y-41.0174 F90.00
G01 X21.6989 Y-41.1374 F90.00
G01 X21.7535 Y-41.2528 F90.00
G01 X21.8191 Y-41.3622 F90.00
G01 X21.8951 Y-41.4647 F90.00
G01 X21.9808 Y-41.5592 F90.00
G01 X22.0679 Y-41.6385 F90.00
G01 X22.0791 Y-41.6480 F90.00
G01 X22.1737 Y-41.7181 F90.00
G01 X22.1819 Y-41.7236 F90.00
G01 X22.1997 Y-41.7344 F90.00
G01 X22.1997 Y-42.3396 F90.00
G01 X22.1819 Y-42.3504 F90.00
G01 X22.1737 Y-42.3559 F90.00
G01 X22.0753 Y-42.4291 F90.00
G01 X21.9879 Y-42.5080 F90.00
G01 X21.9740 Y-42.5219 F90.00
G01 X21.8951 Y-42.6093 F90.00
G01 X21.8247 Y-42.7037 F90.00
G01 X21.8138 Y-42.7201 F90.00
G01 X21.7537 Y-42.8208 F90.00
G01 X21.7491 Y-42.8300 F90.00
G01 X21.6990 Y-42.9365 F90.00
G01 X21.6591 Y-43.0473 F90.00
G01 X21.6534 Y-43.0661 F90.00
G01 X21.6250 Y-43.1804 F90.00
G01 X21.6075 Y-43.2968 F90.00
G01 X21.6055 Y-43.3164 F90.00
G01 X21.6000 Y-43.4340 F90.00
G01 X21.6063 Y-43.5614 F90.00
G01 X21.6233 Y-43.6779 F90.00
G01 X21.6271 Y-43.6972 F90.00
G01 X21.6560 Y-43.8114 F90.00
G01 X21.6954 Y-43.9223 F90.00
G01 X21.7028 Y-43.9403 F90.00
G01 X21.7535 Y-44.0468 F90.00
G01 X21.8138 Y-44.1479 F90.00
G01 X21.8247 Y-44.1643 F90.00
G01 X21.8951 Y-44.2587 F90.00
G01 X21.9740 Y-44.3461 F90.00
G01 X21.9879 Y-44.3600 F90.00
G01 X22.0753 Y-44.4389 F90.00
G01 X22.1737 Y-44.5121 F90.00
G01 X22.1819 Y-44.5176 F90.00
G01 X22.1997 Y-44.5284 F90.00
G01 X22.1997 Y-55.3720 F90.00
G01 X21.7851 Y-55.3721 F90.00
G01 X21.7655 Y-55.3735 F90.00
G01 X21.7558 Y-55.3749 F90.00
G01 X21.7414 Y-55.3780 F90.00
G01 X21.7273 Y-55.3821 F90.00
G01 X21.7135 Y-55.3872 F90.00
G01 X21.7045 Y-55.3912 F90.00
G01 X21.6914 Y-55.3980 F90.00
G01 X21.6830 Y-55.4030 F90.00
G01 X21.6709 Y-55.4114 F90.00
G01 X21.6594 Y-55.4206 F90.00
G01 X21.6486 Y-55.4306 F90.00
G01 X21.6386 Y-55.4414 F90.00
G01 X21.6323 Y-55.4490 F90.00
G01 X21.6237 Y-55.4609 F90.00
G01 X21.6160 Y-55.4734 F90.00
G01 X21.6092 Y-55.4865 F90.00
G01 X21.6052 Y-55.4955 F90.00
G01 X21.6001 Y-55.5093 F90.00
G01 X21.5960 Y-55.5234 F90.00
G01 X21.5938 Y-55.5330 F90.00
G01 X21.5915 Y-55.5475 F90.00
G01 X21.5905 Y-55.5573 F90.00
G01 X21.5900 Y-55.5720 F90.00
G01 X21.5900 Y-57.7120 F90.00
G01 X21.5905 Y-57.7267 F90.00
G01 X21.5915 Y-57.7365 F90.00
G01 X21.5938 Y-57.7510 F90.00
G01 X21.5986 Y-57.7701 F90.00
G01 X21.6052 Y-57.7885 F90.00
G01 X21.6114 Y-57.8019 F90.00
G01 X21.6185 Y-57.8148 F90.00
G01 X21.6294 Y-57.8311 F90.00
G01 X21.6386 Y-57.8426 F90.00
G01 X21.6521 Y-57.8568 F90.00
G01 X21.6670 Y-57.8697 F90.00
G01 X21.6789 Y-57.8783 F90.00
G01 X21.6957 Y-57.8884 F90.00
G01 X21.7090 Y-57.8948 F90.00
G01 X21.7273 Y-57.9019 F90.00
G01 X21.7414 Y-57.9060 F90.00
G01 X21.7558 Y-57.9091 F90.00
G01 X21.7753 Y-57.9115 F90.00
G01 X21.7900 Y-57.9120 F90.00
G01 X23.9300 Y-57.9120 F90.00
G01 X23.9447 Y-57.9115 F90.00
G01 X23.9545 Y-57.9105 F90.00
G01 X23.9738 Y-57.9071 F90.00
G01 X23.9881 Y-57.9034 F90.00
G01 X24.0065 Y-57.8968 F90.00
G01 X24.0199 Y-57.8906 F90.00
G01 X24.0370 Y-57.8810 F90.00
G01 X24.0491 Y-57.8726 F90.00
G01 X24.0606 Y-57.8634 F90.00
G01 X24.0748 Y-57.8499 F90.00
G01 X24.0877 Y-57.8350 F90.00
G01 X24.0963 Y-57.8231 F90.00
G01 X24.1064 Y-57.8063 F90.00
G01 X24.1128 Y-57.7930 F90.00
G01 X24.1183 Y-57.7794 F90.00
G01 X24.1240 Y-57.7606 F90.00
G01 X24.1271 Y-57.7462 F90.00
G01 X24.1295 Y-57.7267 F90.00
G01 X24.1300 Y-57.7120 F90.00
G01 X24.1300 Y-55.5720 F90.00
G01 X24.1295 Y-55.5573 F90.00
G01 X24.1278 Y-55.5427 F90.00
G01 X24.1251 Y-55.5282 F90.00
G01 X24.1214 Y-55.5139 F90.00
G01 X24.1166 Y-55.5000 F90.00
G01 X24.1128 Y-55.4910 F90.00
G01 X24.1086 Y-55.4821 F90.00
G01 X24.1015 Y-55.4692 F90.00
G01 X24.0935 Y-55.4568 F90.00
G01 X24.0846 Y-55.4451 F90.00
G01 X24.0748 Y-55.4341 F90.00
G01 X24.0643 Y-55.4238 F90.00
G01 X24.0530 Y-55.4143 F90.00
G01 X24.0411 Y-55.4057 F90.00
G01 X24.0286 Y-55.3980 F90.00
G01 X24.0155 Y-55.3912 F90.00
G01 X24.0065 Y-55.3872 F90.00
G01 X23.9927 Y-55.3821 F90.00
G01 X23.9786 Y-55.3780 F90.00
G01 X23.9642 Y-55.3749 F90.00
G01 X23.9496 Y-55.3730 F90.00
G01 X23.9349 Y-55.3721 F90.00
G01 X23.6003 Y-55.3720 F90.00
G01 X23.6003 Y-44.5284 F90.00
G01 X23.6181 Y-44.5176 F90.00
G01 X23.6263 Y-44.5121 F90.00
G01 X23.7247 Y-44.4389 F90.00
G01 X23.8121 Y-44.3600 F90.00
G01 X23.8260 Y-44.3461 F90.00
G01 X23.9049 Y-44.2587 F90.00
G01 X23.9753 Y-44.1643 F90.00
G01 X23.9862 Y-44.1479 F90.00
G01 X24.0463 Y-44.0472 F90.00
G01 X24.0971 Y-43.9405 F90.00
G01 X24.1046 Y-43.9223 F90.00
G01 X24.1440 Y-43.8114 F90.00
G01 X24.1729 Y-43.6972 F90.00
G01 X24.1767 Y-43.6779 F90.00
G01 X24.1925 Y-43.5712 F90.00
G01 X24.1938 Y-43.5607 F90.00
G01 X24.1998 Y-43.4438 F90.00
G01 X24.1999 Y-43.4291 F90.00
G01 X24.1945 Y-43.3164 F90.00
G01 X24.1925 Y-43.2968 F90.00
G01 X24.1750 Y-43.1804 F90.00
G01 X24.1466 Y-43.0661 F90.00
G01 X24.1409 Y-43.0473 F90.00
G01 X24.1011 Y-42.9366 F90.00
G01 X24.0509 Y-42.8300 F90.00
G01 X24.0441 Y-42.8169 F90.00
G01 X23.9809 Y-42.7118 F90.00
G01 X23.9110 Y-42.6170 F90.00
G01 X23.8985 Y-42.6019 F90.00
G01 X23.8227 Y-42.5183 F90.00
G01 X23.8121 Y-42.5080 F90.00
G01 X23.7247 Y-42.4291 F90.00
G01 X23.6263 Y-42.3559 F90.00
G01 X23.6181 Y-42.3504 F90.00
G01 X23.6003 Y-42.3396 F90.00
G01 X23.6003 Y-41.7344 F90.00
G01 X23.6181 Y-41.7236 F90.00
G01 X23.6263 Y-41.7181 F90.00
G01 X23.7247 Y-41.6449 F90.00
G01 X23.8121 Y-41.5660 F90.00
G01 X23.8260 Y-41.5521 F90.00
G01 X23.9049 Y-41.4647 F90.00
G01 X23.9753 Y-41.3703 F90.00
G01 X23.9862 Y-41.3539 F90.00
G01 X24.0463 Y-41.2532 F90.00
G01 X24.0509 Y-41.2440 F90.00
G01 X24.1010 Y-41.1375 F90.00
G01 X24.1409 Y-41.0267 F90.00
G01 X24.1466 Y-41.0079 F90.00
G01 X24.1750 Y-40.8936 F90.00
G01 X24.1925 Y-40.7772 F90.00
G01 X24.1945 Y-40.7576 F90.00
G01 X24.2000 Y-40.6400 F90.00
G01 X24.1937 Y-40.5126 F90.00
G01 X24.1767 Y-40.3961 F90.00
G01 X24.1729 Y-40.3768 F90.00
G01 X24.1440 Y-40.2626 F90.00
G01 X24.1046 Y-40.1517 F90.00
G01 X24.0972 Y-40.1337 F90.00
G01 X24.0465 Y-40.0272 F90.00
G01 X23.9862 Y-39.9261 F90.00
G01 X23.9753 Y-39.9097 F90.00
G01 X23.9049 Y-39.8153 F90.00
G01 X23.8260 Y-39.7279 F90.00
G01 X23.8121 Y-39.7140 F90.00
G01 X23.7247 Y-39.6351 F90.00
G01 X23.6263 Y-39.5619 F90.00
G01 X23.6181 Y-39.5564 F90.00
G01 X23.6003 Y-39.5456 F90.00
G01 X23.6003 Y-23.6181 F90.00
G01 X24.3712 Y-22.8472 F90.00
G01 X24.4141 Y-22.8000 F90.00
G01 X24.4233 Y-22.7885 F90.00
G01 X24.4526 Y-22.7491 F90.00
G01 X24.4635 Y-22.7327 F90.00
G01 X24.4936 Y-22.6821 F90.00
G01 X24.5190 Y-22.6289 F90.00
G01 X24.5265 Y-22.6108 F90.00
G01 X24.5461 Y-22.5553 F90.00
G01 X24.5606 Y-22.4982 F90.00
G01 X24.5637 Y-22.4838 F90.00
G01 X24.5729 Y-22.4206 F90.00
G01 X24.5763 Y-22.3520 F90.00
G01 X24.5763 Y-15.2761 F90.00
G01 X25.3872 Y-14.4652 F90.00
G01 X25.4269 Y-14.4217 F90.00
G01 X25.4393 Y-14.4065 F90.00
G01 X25.4742 Y-14.3590 F90.00
G01 X25.5096 Y-14.3001 F90.00
G01 X25.5389 Y-14.2380 F90.00
G01 X25.5621 Y-14.1733 F90.00
G01 X25.5766 Y-14.1162 F90.00
G01 X25.5805 Y-14.0969 F90.00
G01 X25.5889 Y-14.0386 F90.00
G01 X25.5923 Y-13.9700 F90.00
G01 X25.5923 Y-11.9380 F90.00
G01 X25.5896 Y-11.8792 F90.00
G01 X25.5883 Y-11.8645 F90.00
G01 X25.5788 Y-11.8014 F90.00
G01 X25.5647 Y-11.7442 F90.00
G01 X25.5606 Y-11.7300 F90.00
G01 X25.5425 Y-11.6792 F90.00
G01 X25.5350 Y-11.6611 F90.00
G01 X25.5096 Y-11.6079 F90.00
G01 X25.4742 Y-11.5490 F90.00
G01 X25.4333 Y-11.4938 F90.00
G01 X25.3906 Y-11.4464 F90.00
G01 X21.2931 Y-7.3488 F90.00
G01 X21.2497 Y-7.3091 F90.00
G01 X21.2345 Y-7.2967 F90.00
G01 X21.1870 Y-7.2618 F90.00
G01 X21.1281 Y-7.2264 F90.00
G01 X21.0660 Y-7.1971 F90.00
G01 X21.0013 Y-7.1739 F90.00
G01 X20.9346 Y-7.1572 F90.00
G01 X20.8715 Y-7.1477 F90.00
G01 X20.8568 Y-7.1464 F90.00
G01 X20.7980 Y-7.1437 F90.00
G01 X20.3984 Y-7.1437 F90.00
G01 X20.3876 Y-7.1259 F90.00
G01 X20.3793 Y-7.1137 F90.00
G01 X20.3150 Y-7.0270 F90.00
G01 X20.3025 Y-7.0119 F90.00
G01 X20.2232 Y-6.9248 F90.00
G01 X20.1361 Y-6.8455 F90.00
G01 X20.1249 Y-6.8360 F90.00
G01 X20.0262 Y-6.7631 F90.00
G01 X19.9172 Y-6.6977 F90.00
G01 X19.9080 Y-6.6931 F90.00
G01 X19.8015 Y-6.6430 F90.00
G01 X19.6860 Y-6.6015 F90.00
G01 X19.6719 Y-6.5974 F90.00
G01 X19.5576 Y-6.5690 F90.00
G01 X19.4412 Y-6.5515 F90.00
G01 X19.4216 Y-6.5495 F90.00
G01 X19.3040 Y-6.5440 F90.00
G01 X19.1864 Y-6.5495 F90.00
G01 X19.1668 Y-6.5515 F90.00
G01 X19.0601 Y-6.5673 F90.00
G01 X19.0408 Y-6.5711 F90.00
G01 X18.9266 Y-6.6000 F90.00
G01 X18.8157 Y-6.6394 F90.00
G01 X18.7977 Y-6.6468 F90.00
G01 X18.7000 Y-6.6931 F90.00
G01 X18.6826 Y-6.7023 F90.00
G01 X18.5818 Y-6.7631 F90.00
G01 X18.4793 Y-6.8391 F90.00
G01 X18.3848 Y-6.9248 F90.00
G01 X18.3055 Y-7.0119 F90.00
G01 X18.2930 Y-7.0270 F90.00
G01 X18.2287 Y-7.1137 F90.00
G01 X18.2178 Y-7.1301 F90.00
G01 X18.1577 Y-7.2308 F90.00
G01 X18.1531 Y-7.2400 F90.00
G01 X18.1030 Y-7.3465 F90.00
G01 X18.0600 Y-7.4666 F90.00
G01 X18.0311 Y-7.5808 F90.00
G01 X18.0273 Y-7.6001 F90.00
G01 X18.0115 Y-7.7068 F90.00
G01 X18.0096 Y-7.7264 F90.00
G00 Z2.0000
G00 X18.5420 Y-9.3440
G01 F60.00
G01 Z-0.0850
G01 F90.00
G01 X18.5420 Y-11.4840 F90.00
G01 X18.5425 Y-11.4987 F90.00
G01 X18.5435 Y-11.5085 F90.00
G01 X18.5458 Y-11.5230 F90.00
G01 X18.5480 Y-11.5326 F90.00
G01 X18.5521 Y-11.5467 F90.00
G01 X18.5572 Y-11.5605 F90.00
G01 X18.5612 Y-11.5695 F90.00
G01 X18.5680 Y-11.5826 F90.00
G01 X18.5757 Y-11.5951 F90.00
G01 X18.5843 Y-11.6070 F90.00
G01 X18.5906 Y-11.6146 F90.00
G01 X18.6006 Y-11.6254 F90.00
G01 X18.6114 Y-11.6354 F90.00
G01 X18.6190 Y-11.6417 F90.00
G01 X18.6309 Y-11.6503 F90.00
G01 X18.6392 Y-11.6555 F90.00
G01 X18.6521 Y-11.6626 F90.00
G01 X18.6655 Y-11.6688 F90.00
G01 X18.6746 Y-11.6723 F90.00
G01 X18.6887 Y-11.6768 F90.00
G01 X18.7030 Y-11.6802 F90.00
G01 X18.7127 Y-11.6818 F90.00
G01 X18.7224 Y-11.6830 F90.00
G01 X18.7371 Y-11.6839 F90.00
G01 X19.1117 Y-11.6840 F90.00
G01 X18.7371 Y-11.6841 F90.00
G01 X18.7273 Y-11.6845 F90.00
G01 X18.7127 Y-11.6862 F90.00
G01 X18.6982 Y-11.6889 F90.00
G01 X18.6887 Y-11.6912 F90.00
G01 X18.6746 Y-11.6957 F90.00
G01 X18.6610 Y-11.7012 F90.00
G01 X18.6477 Y-11.7076 F90.00
G01 X18.6392 Y-11.7125 F90.00
G01 X18.6268 Y-11.7205 F90.00
G01 X18.6190 Y-11.7263 F90.00
G01 X18.6077 Y-11.7358 F90.00
G01 X18.5972 Y-11.7461 F90.00
G01 X18.5906 Y-11.7534 F90.00
G01 X18.5814 Y-11.7649 F90.00
G01 X18.5730 Y-11.7770 F90.00
G01 X18.5656 Y-11.7897 F90.00
G01 X18.5592 Y-11.8030 F90.00
G01 X18.5537 Y-11.8166 F90.00
G01 X18.5492 Y-11.8307 F90.00
G01 X18.5458 Y-11.8450 F90.00
G01 X18.5430 Y-11.8644 F90.00
G01 X18.5420 Y-11.8840 F90.00
G01 X18.5421 Y-14.0289 F90.00
G01 X18.5435 Y-14.0485 F90.00
G01 X18.5469 Y-14.0678 F90.00
G01 X18.5521 Y-14.0867 F90.00
G01 X18.5592 Y-14.1050 F90.00
G01 X18.5680 Y-14.1226 F90.00
G01 X18.5785 Y-14.1392 F90.00
G01 X18.5906 Y-14.1546 F90.00
G01 X18.6041 Y-14.1688 F90.00
G01 X18.6190 Y-14.1817 F90.00
G01 X18.6350 Y-14.1930 F90.00
G01 X18.6477 Y-14.2004 F90.00
G01 X18.6655 Y-14.2088 F90.00
G01 X18.6839 Y-14.2154 F90.00
G01 X18.7030 Y-14.2202 F90.00
G01 X18.7175 Y-14.2225 F90.00
G01 X18.7371 Y-14.2239 F90.00
G01 X20.8820 Y-14.2240 F90.00
G01 X20.9016 Y-14.2230 F90.00
G01 X20.9210 Y-14.2202 F90.00
G01 X20.9353 Y-14.2168 F90.00
G01 X20.9494 Y-14.2123 F90.00
G01 X20.9630 Y-14.2068 F90.00
G01 X20.9763 Y-14.2004 F90.00
G01 X20.9890 Y-14.1930 F90.00
G01 X21.0011 Y-14.1846 F90.00
G01 X21.0089 Y-14.1786 F90.00
G01 X21.0199 Y-14.1688 F90.00
G01 X21.0302 Y-14.1583 F90.00
G01 X21.0397 Y-14.1470 F90.00
G01 X21.0455 Y-14.1392 F90.00
G01 X21.0535 Y-14.1268 F90.00
G01 X21.0606 Y-14.1139 F90.00
G01 X21.0648 Y-14.1050 F90.00
G01 X21.0703 Y-14.0914 F90.00
G01 X21.0748 Y-14.0773 F90.00
G01 X21.0771 Y-14.0678 F90.00
G01 X21.0798 Y-14.0533 F90.00
G01 X21.0815 Y-14.0387 F90.00
G01 X21.0819 Y-14.0289 F90.00
G01 X21.0820 Y-13.6543 F90.00
G01 X21.2976 Y-13.6543 F90.00
G01 X21.3084 Y-13.6721 F90.00
G01 X21.3139 Y-13.6803 F90.00
G01 X21.3840 Y-13.7749 F90.00
G01 X21.3935 Y-13.7861 F90.00
G01 X21.4728 Y-13.8732 F90.00
G01 X21.5673 Y-13.9589 F90.00
G01 X21.6617 Y-14.0293 F90.00
G01 X21.6781 Y-14.0402 F90.00
G01 X21.7706 Y-14.0957 F90.00
G01 X21.7880 Y-14.1049 F90.00
G01 X21.8945 Y-14.1550 F90.00
G01 X22.0053 Y-14.1949 F90.00
G01 X22.0241 Y-14.2006 F90.00
G01 X22.1384 Y-14.2290 F90.00
G01 X22.2548 Y-14.2465 F90.00
G01 X22.2653 Y-14.2478 F90.00
G01 X22.3920 Y-14.2540 F90.00
G01 X22.5096 Y-14.2485 F90.00
G01 X22.5292 Y-14.2465 F90.00
G01 X22.6359 Y-14.2307 F90.00
G01 X22.6552 Y-14.2269 F90.00
G01 X22.7694 Y-14.1980 F90.00
G01 X22.8803 Y-14.1586 F90.00
G01 X22.8983 Y-14.1512 F90.00
G01 X23.0048 Y-14.1005 F90.00
G01 X23.1142 Y-14.0349 F90.00
G01 X23.2167 Y-13.9589 F90.00
G01 X23.3041 Y-13.8800 F90.00
G01 X23.3147 Y-13.8697 F90.00
G01 X23.3969 Y-13.7787 F90.00
G01 X23.4729 Y-13.6762 F90.00
G01 X23.5383 Y-13.5672 F90.00
G01 X23.5891 Y-13.4605 F90.00
G01 X23.5966 Y-13.4423 F90.00
G01 X23.6360 Y-13.3314 F90.00
G01 X23.6649 Y-13.2172 F90.00
G01 X23.6687 Y-13.1979 F90.00
G01 X23.6845 Y-13.0912 F90.00
G01 X23.6865 Y-13.0716 F90.00
G01 X23.6920 Y-12.9540 F90.00
G01 X23.6865 Y-12.8364 F90.00
G01 X23.6845 Y-12.8168 F90.00
G01 X23.6670 Y-12.7004 F90.00
G01 X23.6360 Y-12.5766 F90.00
G01 X23.5931 Y-12.4566 F90.00
G01 X23.5385 Y-12.3412 F90.00
G01 X23.4729 Y-12.2318 F90.00
G01 X23.3969 Y-12.1293 F90.00
G01 X23.3112 Y-12.0348 F90.00
G01 X23.2241 Y-11.9555 F90.00
G01 X23.2129 Y-11.9460 F90.00
G01 X23.1142 Y-11.8731 F90.00
G01 X23.0052 Y-11.8077 F90.00
G01 X22.9960 Y-11.8031 F90.00
G01 X22.8895 Y-11.7530 F90.00
G01 X22.7694 Y-11.7100 F90.00
G01 X22.6456 Y-11.6790 F90.00
G01 X22.5292 Y-11.6615 F90.00
G01 X22.5187 Y-11.6602 F90.00
G01 X22.3920 Y-11.6540 F90.00
G01 X22.2744 Y-11.6595 F90.00
G01 X22.2548 Y-11.6615 F90.00
G01 X22.1481 Y-11.6773 F90.00
G01 X22.1288 Y-11.6811 F90.00
G01 X22.0146 Y-11.7100 F90.00
G01 X21.9037 Y-11.7494 F90.00
G01 X21.8857 Y-11.7568 F90.00
G01 X21.7792 Y-11.8075 F90.00
G01 X21.6739 Y-11.8704 F90.00
G01 X21.6617 Y-11.8787 F90.00
G01 X21.5673 Y-11.9491 F90.00
G01 X21.4728 Y-12.0348 F90.00
G01 X21.3935 Y-12.1219 F90.00
G01 X21.3840 Y-12.1331 F90.00
G01 X21.3139 Y-12.2277 F90.00
G01 X21.3084 Y-12.2359 F90.00
G01 X21.2976 Y-12.2537 F90.00
G01 X21.0820 Y-12.2537 F90.00
G01 X21.0820 Y-11.8840 F90.00
G01 X21.0815 Y-11.8693 F90.00
G01 X21.0805 Y-11.8595 F90.00
G01 X21.0782 Y-11.8450 F90.00
G01 X21.0748 Y-11.8307 F90.00
G01 X21.0703 Y-11.8166 F90.00
G01 X21.0628 Y-11.7985 F90.00
G01 X21.0535 Y-11.7812 F90.00
G01 X21.0455 Y-11.7688 F90.00
G01 X21.0334 Y-11.7534 F90.00
G01 X21.0234 Y-11.7426 F90.00
G01 X21.0089 Y-11.7294 F90.00
G01 X20.9972 Y-11.7205 F90.00
G01 X20.9806 Y-11.7100 F90.00
G01 X20.9675 Y-11.7032 F90.00
G01 X20.9494 Y-11.6957 F90.00
G01 X20.9353 Y-11.6912 F90.00
G01 X20.9210 Y-11.6878 F90.00
G01 X20.9065 Y-11.6855 F90.00
G01 X20.8967 Y-11.6845 F90.00
G01 X20.8820 Y-11.6840 F90.00
G01 X20.5123 Y-11.6840 F90.00
G01 X20.8869 Y-11.6839 F90.00
G01 X20.8967 Y-11.6835 F90.00
G01 X20.9113 Y-11.6818 F90.00
G01 X20.9258 Y-11.6791 F90.00
G01 X20.9353 Y-11.6768 F90.00
G01 X20.9494 Y-11.6723 F90.00
G01 X20.9630 Y-11.6668 F90.00
G01 X20.9763 Y-11.6604 F90.00
G01 X20.9848 Y-11.6555 F90.00
G01 X20.9972 Y-11.6475 F90.00
G01 X21.0050 Y-11.6417 F90.00
G01 X21.0163 Y-11.6322 F90.00
G01 X21.0268 Y-11.6219 F90.00
G01 X21.0334 Y-11.6146 F90.00
G01 X21.0426 Y-11.6031 F90.00
G01 X21.0510 Y-11.5910 F90.00
G01 X21.0584 Y-11.5783 F90.00
G01 X21.0648 Y-11.5650 F90.00
G01 X21.0703 Y-11.5514 F90.00
G01 X21.0748 Y-11.5373 F90.00
G01 X21.0782 Y-11.5230 F90.00
G01 X21.0810 Y-11.5036 F90.00
G01 X21.0820 Y-11.4840 F90.00
G01 X21.0819 Y-9.3391 F90.00
G01 X21.0805 Y-9.3195 F90.00
G01 X21.0771 Y-9.3002 F90.00
G01 X21.0719 Y-9.2813 F90.00
G01 X21.0648 Y-9.2630 F90.00
G01 X21.0560 Y-9.2454 F90.00
G01 X21.0455 Y-9.2288 F90.00
G01 X21.0334 Y-9.2134 F90.00
G01 X21.0199 Y-9.1992 F90.00
G01 X21.0050 Y-9.1863 F90.00
G01 X20.9890 Y-9.1750 F90.00
G01 X20.9763 Y-9.1676 F90.00
G01 X20.9585 Y-9.1592 F90.00
G01 X20.9447 Y-9.1541 F90.00
G01 X20.9258 Y-9.1489 F90.00
G01 X20.9065 Y-9.1455 F90.00
G01 X20.8869 Y-9.1441 F90.00
G01 X18.7322 Y-9.1442 F90.00
G01 X18.7127 Y-9.1462 F90.00
G01 X18.6934 Y-9.1500 F90.00
G01 X18.6746 Y-9.1557 F90.00
G01 X18.6565 Y-9.1632 F90.00
G01 X18.6434 Y-9.1700 F90.00
G01 X18.6268 Y-9.1805 F90.00
G01 X18.6114 Y-9.1926 F90.00
G01 X18.5972 Y-9.2061 F90.00
G01 X18.5843 Y-9.2210 F90.00
G01 X18.5757 Y-9.2329 F90.00
G01 X18.5656 Y-9.2497 F90.00
G01 X18.5572 Y-9.2675 F90.00
G01 X18.5506 Y-9.2859 F90.00
G01 X18.5458 Y-9.3050 F90.00
G01 X18.5430 Y-9.3244 F90.00
G01 X18.5420 Y-9.3440 F90.00
G00 Z2.0000
G00 X26.0976 Y-12.8364
G01 F60.00
G01 Z-0.0850
G01 F90.00
G01 X26.0920 Y-12.9540 F90.00
G01 X26.0978 Y-13.0765 F90.00
G01 X26.0995 Y-13.0912 F90.00
G01 X26.1161 Y-13.2028 F90.00
G01 X26.1180 Y-13.2124 F90.00
G01 X26.1242 Y-13.2375 F90.00
G01 X26.0878 Y-13.2870 F90.00
G01 X26.0573 Y-13.3374 F90.00
G01 X26.0480 Y-13.3547 F90.00
G01 X26.0231 Y-13.4080 F90.00
G01 X25.9999 Y-13.4727 F90.00
G01 X25.9854 Y-13.5298 F90.00
G01 X25.9815 Y-13.5491 F90.00
G01 X25.9743 Y-13.5976 F90.00
G01 X25.9727 Y-13.6123 F90.00
G01 X25.9697 Y-13.6760 F90.00
G01 X25.9697 Y-14.6959 F90.00
G01 X25.1588 Y-15.5068 F90.00
G01 X25.1191 Y-15.5503 F90.00
G01 X25.1096 Y-15.5616 F90.00
G01 X25.0718 Y-15.6130 F90.00
G01 X25.0413 Y-15.6634 F90.00
G01 X25.0342 Y-15.6763 F90.00
G01 X25.0110 Y-15.7251 F90.00
G01 X25.0035 Y-15.7432 F90.00
G01 X24.9839 Y-15.7987 F90.00
G01 X24.9672 Y-15.8654 F90.00
G01 X24.9571 Y-15.9334 F90.00
G01 X24.9540 Y-15.9922 F90.00
G01 X24.9537 Y-22.8239 F90.00
G01 X24.9014 Y-22.8764 F90.00
G01 X24.8651 Y-22.9163 F90.00
G01 X24.8556 Y-22.9276 F90.00
G01 X24.8234 Y-22.9709 F90.00
G01 X24.8125 Y-22.9873 F90.00
G01 X24.7848 Y-23.0336 F90.00
G01 X24.7780 Y-23.0467 F90.00
G01 X24.7570 Y-23.0911 F90.00
G01 X24.7495 Y-23.1092 F90.00
G01 X24.7299 Y-23.1647 F90.00
G01 X24.7132 Y-23.2314 F90.00
G01 X24.7031 Y-23.2994 F90.00
G01 X24.6997 Y-23.3680 F90.00
G01 X24.6997 Y-55.3720 F90.00
G01 X24.3251 Y-55.3721 F90.00
G01 X24.3104 Y-55.3730 F90.00
G01 X24.2958 Y-55.3749 F90.00
G01 X24.2814 Y-55.3780 F90.00
G01 X24.2719 Y-55.3806 F90.00
G01 X24.2580 Y-55.3854 F90.00
G01 X24.2445 Y-55.3912 F90.00
G01 X24.2357 Y-55.3956 F90.00
G01 X24.2230 Y-55.4030 F90.00
G01 X24.2109 Y-55.4114 F90.00
G01 X24.1994 Y-55.4206 F90.00
G01 X24.1886 Y-55.4306 F90.00
G01 X24.1786 Y-55.4414 F90.00
G01 X24.1694 Y-55.4529 F90.00
G01 X24.1610 Y-55.4650 F90.00
G01 X24.1536 Y-55.4777 F90.00
G01 X24.1472 Y-55.4910 F90.00
G01 X24.1417 Y-55.5046 F90.00
G01 X24.1386 Y-55.5139 F90.00
G01 X24.1349 Y-55.5282 F90.00
G01 X24.1322 Y-55.5427 F90.00
G01 X24.1305 Y-55.5573 F90.00
G01 X24.1300 Y-55.5720 F90.00
G01 X24.1300 Y-57.7120 F90.00
G01 X24.1305 Y-57.7267 F90.00
G01 X24.1329 Y-57.7462 F90.00
G01 X24.1360 Y-57.7606 F90.00
G01 X24.1417 Y-57.7794 F90.00
G01 X24.1472 Y-57.7930 F90.00
G01 X24.1536 Y-57.8063 F90.00
G01 X24.1637 Y-57.8231 F90.00
G01 X24.1754 Y-57.8389 F90.00
G01 X24.1886 Y-57.8534 F90.00
G01 X24.2031 Y-57.8666 F90.00
G01 X24.2189 Y-57.8783 F90.00
G01 X24.2357 Y-57.8884 F90.00
G01 X24.2490 Y-57.8948 F90.00
G01 X24.2673 Y-57.9019 F90.00
G01 X24.2862 Y-57.9071 F90.00
G01 X24.3055 Y-57.9105 F90.00
G01 X24.3202 Y-57.9118 F90.00
G01 X26.4700 Y-57.9120 F90.00
G01 X26.4847 Y-57.9115 F90.00
G01 X26.5042 Y-57.9091 F90.00
G01 X26.5186 Y-57.9060 F90.00
G01 X26.5374 Y-57.9003 F90.00
G01 X26.5555 Y-57.8928 F90.00
G01 X26.5686 Y-57.8860 F90.00
G01 X26.5852 Y-57.8755 F90.00
G01 X26.5969 Y-57.8666 F90.00
G01 X26.6114 Y-57.8534 F90.00
G01 X26.6214 Y-57.8426 F90.00
G01 X26.6335 Y-57.8272 F90.00
G01 X26.6415 Y-57.8148 F90.00
G01 X26.6508 Y-57.7975 F90.00
G01 X26.6583 Y-57.7794 F90.00
G01 X26.6628 Y-57.7653 F90.00
G01 X26.6671 Y-57.7462 F90.00
G01 X26.6690 Y-57.7316 F90.00
G01 X26.6700 Y-57.7120 F90.00
G01 X26.6700 Y-55.5720 F90.00
G01 X26.6698 Y-55.5622 F90.00
G01 X26.6685 Y-55.5475 F90.00
G01 X26.6662 Y-55.5330 F90.00
G01 X26.6640 Y-55.5234 F90.00
G01 X26.6599 Y-55.5093 F90.00
G01 X26.6566 Y-55.5000 F90.00
G01 X26.6508 Y-55.4865 F90.00
G01 X26.6440 Y-55.4734 F90.00
G01 X26.6390 Y-55.4650 F90.00
G01 X26.6306 Y-55.4529 F90.00
G01 X26.6214 Y-55.4414 F90.00
G01 X26.6114 Y-55.4306 F90.00
G01 X26.6043 Y-55.4238 F90.00
G01 X26.5930 Y-55.4143 F90.00
G01 X26.5811 Y-55.4057 F90.00
G01 X26.5686 Y-55.3980 F90.00
G01 X26.5555 Y-55.3912 F90.00
G01 X26.5465 Y-55.3872 F90.00
G01 X26.5374 Y-55.3837 F90.00
G01 X26.5233 Y-55.3792 F90.00
G01 X26.5138 Y-55.3769 F90.00
G01 X26.4993 Y-55.3742 F90.00
G01 X26.4847 Y-55.3725 F90.00
G01 X26.4749 Y-55.3721 F90.00
G01 X26.1003 Y-55.3720 F90.00
G01 X26.1003 Y-23.6581 F90.00
G01 X26.1526 Y-23.6056 F90.00
G01 X26.1889 Y-23.5657 F90.00
G01 X26.1984 Y-23.5544 F90.00
G01 X26.2306 Y-23.5111 F90.00
G01 X26.2415 Y-23.4947 F90.00
G01 X26.2692 Y-23.4484 F90.00
G01 X26.2760 Y-23.4353 F90.00
G01 X26.2970 Y-23.3909 F90.00
G01 X26.3045 Y-23.3728 F90.00
G01 X26.3241 Y-23.3173 F90.00
G01 X26.3408 Y-23.2506 F90.00
G01 X26.3509 Y-23.1826 F90.00
G01 X26.3542 Y-23.1189 F90.00
G01 X26.3543 Y-16.2921 F90.00
G01 X27.1686 Y-15.4776 F90.00
G01 X27.2113 Y-15.4302 F90.00
G01 X27.2466 Y-15.3831 F90.00
G01 X27.2575 Y-15.3667 F90.00
G01 X27.2827 Y-15.3246 F90.00
G01 X27.2898 Y-15.3117 F90.00
G01 X27.3169 Y-15.2540 F90.00
G01 X27.3401 Y-15.1893 F90.00
G01 X27.3568 Y-15.1226 F90.00
G01 X27.3657 Y-15.0644 F90.00
G01 X27.3673 Y-15.0497 F90.00
G01 X27.3703 Y-14.9860 F90.00
G01 X27.3703 Y-14.2532 F90.00
G01 X27.3871 Y-14.2539 F90.00
G01 X27.3969 Y-14.2539 F90.00
G01 X27.5194 Y-14.2477 F90.00
G01 X27.6456 Y-14.2290 F90.00
G01 X27.7694 Y-14.1980 F90.00
G01 X27.8894 Y-14.1551 F90.00
G01 X28.0048 Y-14.1005 F90.00
G01 X28.1142 Y-14.0349 F90.00
G01 X28.2167 Y-13.9589 F90.00
G01 X28.3077 Y-13.8767 F90.00
G01 X28.3180 Y-13.8661 F90.00
G01 X28.3969 Y-13.7787 F90.00
G01 X28.4729 Y-13.6762 F90.00
G01 X28.5383 Y-13.5672 F90.00
G01 X28.5429 Y-13.5580 F90.00
G01 X28.5930 Y-13.4515 F90.00
G01 X28.6360 Y-13.3314 F90.00
G01 X28.6670 Y-13.2076 F90.00
G01 X28.6845 Y-13.0912 F90.00
G01 X28.6858 Y-13.0807 F90.00
G01 X28.6918 Y-12.9638 F90.00
G01 X28.6918 Y-12.9442 F90.00
G01 X28.6857 Y-12.8266 F90.00
G01 X28.6670 Y-12.7004 F90.00
G01 X28.6360 Y-12.5766 F90.00
G01 X28.5931 Y-12.4566 F90.00
G01 X28.5385 Y-12.3412 F90.00
G01 X28.4729 Y-12.2318 F90.00
G01 X28.3969 Y-12.1293 F90.00
G01 X28.3180 Y-12.0419 F90.00
G01 X28.3041 Y-12.0280 F90.00
G01 X28.2241 Y-11.9555 F90.00
G01 X28.2090 Y-11.9430 F90.00
G01 X28.1142 Y-11.8731 F90.00
G01 X28.0134 Y-11.8123 F90.00
G01 X27.9960 Y-11.8031 F90.00
G01 X27.8895 Y-11.7530 F90.00
G01 X27.7694 Y-11.7100 F90.00
G01 X27.6456 Y-11.6790 F90.00
G01 X27.5292 Y-11.6615 F90.00
G01 X27.5096 Y-11.6595 F90.00
G01 X27.3920 Y-11.6540 F90.00
G01 X27.2646 Y-11.6603 F90.00
G01 X27.1384 Y-11.6790 F90.00
G01 X27.0146 Y-11.7100 F90.00
G01 X26.8946 Y-11.7529 F90.00
G01 X26.7792 Y-11.8075 F90.00
G01 X26.6698 Y-11.8731 F90.00
G01 X26.5673 Y-11.9491 F90.00
G01 X26.4728 Y-12.0348 F90.00
G01 X26.3871 Y-12.1293 F90.00
G01 X26.3111 Y-12.2318 F90.00
G01 X26.2457 Y-12.3408 F90.00
G01 X26.2411 Y-12.3500 F90.00
G01 X26.1910 Y-12.4565 F90.00
G01 X26.1480 Y-12.5766 F90.00
G01 X26.1170 Y-12.7004 F90.00
G01 X26.0995 Y-12.8168 F90.00
G01 X26.0976 Y-12.8364 F90.00
G00 Z2.0000
G00 X30.0270 Y0.2000
G01 F60.00
G01 Z-0.0850
G01 F90.00
G01 X0.1990 Y0.2000 F90.00
G01 X0.1811 Y0.1992 F90.00
G01 X0.1276 Y0.1932 F90.00
G01 X0.1133 Y0.1907 F90.00
G01 X0.0947 Y0.1858 F90.00
G01 X0.0812 Y0.1810 F90.00
G01 X0.0679 Y0.1752 F90.00
G01 X-0.0119 Y0.1368 F90.00
G01 X-0.0294 Y0.1272 F90.00
G01 X-0.0418 Y0.1190 F90.00
G01 X-0.0536 Y0.1098 F90.00
G01 X-0.0647 Y0.0998 F90.00
G01 X-0.0750 Y0.0889 F90.00
G01 X-0.1397 Y0.0081 F90.00
G01 X-0.1510 Y-0.0084 F90.00
G01 X-0.1583 Y-0.0214 F90.00
G01 X-0.1646 Y-0.0350 F90.00
G01 X-0.1682 Y-0.0443 F90.00
G01 X-0.1728 Y-0.0585 F90.00
G01 X-0.1753 Y-0.0682 F90.00
G01 X-0.1970 Y-0.1643 F90.00
G01 X-0.1990 Y-0.1791 F90.00
G01 X-0.2000 Y-0.1990 F90.00
G01 X-0.2000 Y-59.4910 F90.00
G01 X-0.1992 Y-59.5089 F90.00
G01 X-0.1932 Y-59.5624 F90.00
G01 X-0.1907 Y-59.5767 F90.00
G01 X-0.1858 Y-59.5953 F90.00
G01 X-0.1810 Y-59.6088 F90.00
G01 X-0.1752 Y-59.6221 F90.00
G01 X-0.1368 Y-59.7019 F90.00
G01 X-0.1272 Y-59.7194 F90.00
G01 X-0.1190 Y-59.7318 F90.00
G01 X-0.1098 Y-59.7436 F90.00
G01 X-0.0998 Y-59.7547 F90.00
G01 X-0.0889 Y-59.7650 F90.00
G01 X-0.0081 Y-59.8297 F90.00
G01 X0.0084 Y-59.8410 F90.00
G01 X0.0214 Y-59.8483 F90.00
G01 X0.0350 Y-59.8546 F90.00
G01 X0.0443 Y-59.8582 F90.00
G01 X0.0537 Y-59.8614 F90.00
G01 X0.0682 Y-59.8653 F90.00
G01 X0.1643 Y-59.8870 F90.00
G01 X0.1841 Y-59.8894 F90.00
G01 X0.1990 Y-59.8900 F90.00
G01 X30.0270 Y-59.8900 F90.00
G01 X30.0449 Y-59.8892 F90.00
G01 X30.0984 Y-59.8832 F90.00
G01 X30.1127 Y-59.8807 F90.00
G01 X30.1313 Y-59.8758 F90.00
G01 X30.1448 Y-59.8710 F90.00
G01 X30.1581 Y-59.8652 F90.00
G01 X30.2379 Y-59.8268 F90.00
G01 X30.2554 Y-59.8172 F90.00
G01 X30.2678 Y-59.8090 F90.00
G01 X30.2796 Y-59.7998 F90.00
G01 X30.2907 Y-59.7898 F90.00
G01 X30.3010 Y-59.7789 F90.00
G01 X30.3657 Y-59.6981 F90.00
G01 X30.3743 Y-59.6859 F90.00
G01 X30.3843 Y-59.6686 F90.00
G01 X30.3886 Y-59.6596 F90.00
G01 X30.3942 Y-59.6457 F90.00
G01 X30.3974 Y-59.6363 F90.00
G01 X30.4013 Y-59.6218 F90.00
G01 X30.4230 Y-59.5257 F90.00
G01 X30.4250 Y-59.5109 F90.00
G01 X30.4260 Y-59.4910 F90.00
G01 X30.4260 Y-0.1990 F90.00
G01 X30.4252 Y-0.1811 F90.00
G01 X30.4184 Y-0.1228 F90.00
G01 X30.4167 Y-0.1133 F90.00
G01 X30.4132 Y-0.0994 F90.00
G01 X30.4070 Y-0.0812 F90.00
G01 X30.4012 Y-0.0679 F90.00
G01 X30.3628 Y0.0119 F90.00
G01 X30.3558 Y0.0251 F90.00
G01 X30.3506 Y0.0336 F90.00
G01 X30.3420 Y0.0458 F90.00
G01 X30.3325 Y0.0574 F90.00
G01 X30.3222 Y0.0682 F90.00
G01 X30.3073 Y0.0814 F90.00
G01 X30.2341 Y0.1397 F90.00
G01 X30.2219 Y0.1483 F90.00
G01 X30.2133 Y0.1535 F90.00
G01 X30.1956 Y0.1626 F90.00
G01 X30.1817 Y0.1682 F90.00
G01 X30.1627 Y0.1741 F90.00
G01 X30.0715 Y0.1950 F90.00
G01 X30.0568 Y0.1978 F90.00
G01 X30.0469 Y0.1990 F90.00
G01 X30.0270 Y0.2000 F90.00
G00 Z2.0000
G00 X13.1420 Y-17.1337
G01 F60.00
G01 Z-0.0850
G01 F90.00
G01 X13.1420 Y-16.9640 F90.00
G01 X13.1415 Y-16.9493 F90.00
G01 X13.1391 Y-16.9298 F90.00
G01 X13.1348 Y-16.9107 F90.00
G01 X13.1286 Y-16.8920 F90.00
G01 X13.1206 Y-16.8741 F90.00
G01 X13.1135 Y-16.8612 F90.00
G01 X13.1055 Y-16.8488 F90.00
G01 X13.0997 Y-16.8410 F90.00
G01 X13.0902 Y-16.8297 F90.00
G01 X13.0834 Y-16.8226 F90.00
G01 X13.0726 Y-16.8126 F90.00
G01 X13.0611 Y-16.8034 F90.00
G01 X13.0531 Y-16.7977 F90.00
G01 X13.0448 Y-16.7925 F90.00
G01 X13.0319 Y-16.7854 F90.00
G01 X13.0230 Y-16.7812 F90.00
G01 X13.0094 Y-16.7757 F90.00
G01 X12.9953 Y-16.7712 F90.00
G01 X12.9810 Y-16.7678 F90.00
G01 X12.9665 Y-16.7655 F90.00
G01 X12.9567 Y-16.7645 F90.00
G01 X12.9420 Y-16.7640 F90.00
G01 X10.8020 Y-16.7640 F90.00
G01 X10.7873 Y-16.7645 F90.00
G01 X10.7678 Y-16.7669 F90.00
G01 X10.7534 Y-16.7700 F90.00
G01 X10.7346 Y-16.7757 F90.00
G01 X10.7210 Y-16.7812 F90.00
G01 X10.7077 Y-16.7876 F90.00
G01 X10.6909 Y-16.7977 F90.00
G01 X10.6790 Y-16.8063 F90.00
G01 X10.6641 Y-16.8192 F90.00
G01 X10.6538 Y-16.8297 F90.00
G01 X10.6414 Y-16.8449 F90.00
G01 X10.6330 Y-16.8570 F90.00
G01 X10.6234 Y-16.8741 F90.00
G01 X10.6154 Y-16.8920 F90.00
G01 X10.6106 Y-16.9059 F90.00
G01 X10.6069 Y-16.9202 F90.00
G01 X10.6035 Y-16.9395 F90.00
G01 X10.6022 Y-16.9542 F90.00
G01 X10.6020 Y-16.9640 F90.00
G01 X10.6022 Y-19.1138 F90.00
G01 X10.6035 Y-19.1285 F90.00
G01 X10.6049 Y-19.1382 F90.00
G01 X10.6069 Y-19.1478 F90.00
G01 X10.6106 Y-19.1621 F90.00
G01 X10.6154 Y-19.1760 F90.00
G01 X10.6192 Y-19.1850 F90.00
G01 X10.6234 Y-19.1939 F90.00
G01 X10.6305 Y-19.2068 F90.00
G01 X10.6385 Y-19.2192 F90.00
G01 X10.6443 Y-19.2270 F90.00
G01 X10.6538 Y-19.2383 F90.00
G01 X10.6606 Y-19.2454 F90.00
G01 X10.6714 Y-19.2554 F90.00
G01 X10.6790 Y-19.2617 F90.00
G01 X10.6909 Y-19.2703 F90.00
G01 X10.6992 Y-19.2755 F90.00
G01 X10.7121 Y-19.2826 F90.00
G01 X10.7255 Y-19.2888 F90.00
G01 X10.7346 Y-19.2923 F90.00
G01 X10.7487 Y-19.2968 F90.00
G01 X10.7630 Y-19.3002 F90.00
G01 X10.7727 Y-19.3018 F90.00
G01 X10.7873 Y-19.3035 F90.00
G01 X10.8020 Y-19.3040 F90.00
G01 X12.9420 Y-19.3040 F90.00
G01 X12.9616 Y-19.3030 F90.00
G01 X12.9713 Y-19.3018 F90.00
G01 X12.9858 Y-19.2991 F90.00
G01 X12.9953 Y-19.2968 F90.00
G01 X13.0094 Y-19.2923 F90.00
G01 X13.0230 Y-19.2868 F90.00
G01 X13.0363 Y-19.2804 F90.00
G01 X13.0490 Y-19.2730 F90.00
G01 X13.0611 Y-19.2646 F90.00
G01 X13.0726 Y-19.2554 F90.00
G01 X13.0799 Y-19.2488 F90.00
G01 X13.0868 Y-19.2419 F90.00
G01 X13.0966 Y-19.2309 F90.00
G01 X13.1055 Y-19.2192 F90.00
G01 X13.1135 Y-19.2068 F90.00
G01 X13.1206 Y-19.1939 F90.00
G01 X13.1268 Y-19.1805 F90.00
G01 X13.1303 Y-19.1714 F90.00
G01 X13.1348 Y-19.1573 F90.00
G01 X13.1382 Y-19.1430 F90.00
G01 X13.1398 Y-19.1333 F90.00
G01 X13.1410 Y-19.1236 F90.00
G01 X13.1419 Y-19.1089 F90.00
G01 X13.1420 Y-18.7343 F90.00
G01 X13.2369 Y-18.7342 F90.00
G01 X13.2908 Y-18.7316 F90.00
G01 X13.3104 Y-18.7297 F90.00
G01 X13.3638 Y-18.7217 F90.00
G01 X13.3782 Y-18.7186 F90.00
G01 X13.4258 Y-18.7067 F90.00
G01 X13.4400 Y-18.7026 F90.00
G01 X13.4954 Y-18.6828 F90.00
G01 X13.5045 Y-18.6790 F90.00
G01 X13.5237 Y-18.6700 F90.00
G01 X13.5237 Y-31.5199 F90.00
G01 X13.2060 Y-31.8377 F90.00
G01 X13.2031 Y-31.8222 F90.00
G01 X13.1979 Y-31.8033 F90.00
G01 X13.1908 Y-31.7850 F90.00
G01 X13.1844 Y-31.7717 F90.00
G01 X13.1770 Y-31.7590 F90.00
G01 X13.1657 Y-31.7430 F90.00
G01 X13.1528 Y-31.7281 F90.00
G01 X13.1423 Y-31.7178 F90.00
G01 X13.1271 Y-31.7054 F90.00
G01 X13.1150 Y-31.6970 F90.00
G01 X13.1023 Y-31.6896 F90.00
G01 X13.0845 Y-31.6812 F90.00
G01 X13.0661 Y-31.6746 F90.00
G01 X13.0518 Y-31.6709 F90.00
G01 X13.0325 Y-31.6675 F90.00
G01 X13.0178 Y-31.6662 F90.00
G01 X10.8631 Y-31.6661 F90.00
G01 X10.8435 Y-31.6675 F90.00
G01 X10.8290 Y-31.6698 F90.00
G01 X10.8099 Y-31.6746 F90.00
G01 X10.7915 Y-31.6812 F90.00
G01 X10.7737 Y-31.6896 F90.00
G01 X10.7569 Y-31.6997 F90.00
G01 X10.7411 Y-31.7114 F90.00
G01 X10.7266 Y-31.7246 F90.00
G01 X10.7134 Y-31.7391 F90.00
G01 X10.7045 Y-31.7508 F90.00
G01 X10.6940 Y-31.7674 F90.00
G01 X10.6852 Y-31.7850 F90.00
G01 X10.6781 Y-31.8033 F90.00
G01 X10.6729 Y-31.8222 F90.00
G01 X10.6695 Y-31.8415 F90.00
G01 X10.6681 Y-31.8611 F90.00
G01 X10.6682 Y-34.0158 F90.00
G01 X10.6702 Y-34.0353 F90.00
G01 X10.6740 Y-34.0546 F90.00
G01 X10.6781 Y-34.0687 F90.00
G01 X10.6852 Y-34.0870 F90.00
G01 X10.6940 Y-34.1046 F90.00
G01 X10.7017 Y-34.1171 F90.00
G01 X10.7103 Y-34.1290 F90.00
G01 X10.7232 Y-34.1439 F90.00
G01 X10.7374 Y-34.1574 F90.00
G01 X10.7489 Y-34.1666 F90.00
G01 X10.7610 Y-34.1750 F90.00
G01 X10.7781 Y-34.1846 F90.00
G01 X10.7915 Y-34.1908 F90.00
G01 X10.8099 Y-34.1974 F90.00
G01 X10.8242 Y-34.2011 F90.00
G01 X10.8435 Y-34.2045 F90.00
G01 X10.8533 Y-34.2055 F90.00
G01 X10.8680 Y-34.2060 F90.00
G01 X13.0080 Y-34.2060 F90.00
G01 X13.0178 Y-34.2058 F90.00
G01 X13.0325 Y-34.2045 F90.00
G01 X13.0422 Y-34.2031 F90.00
G01 X13.0566 Y-34.2000 F90.00
G01 X13.0661 Y-34.1974 F90.00
G01 X13.0800 Y-34.1926 F90.00
G01 X13.0935 Y-34.1868 F90.00
G01 X13.1066 Y-34.1800 F90.00
G01 X13.1191 Y-34.1723 F90.00
G01 X13.1271 Y-34.1666 F90.00
G01 X13.1423 Y-34.1542 F90.00
G01 X13.1562 Y-34.1403 F90.00
G01 X13.1626 Y-34.1329 F90.00
G01 X13.1715 Y-34.1212 F90.00
G01 X13.1820 Y-34.1046 F90.00
G01 X13.1888 Y-34.0915 F90.00
G01 X13.1928 Y-34.0825 F90.00
G01 X13.1994 Y-34.0641 F90.00
G01 X13.2031 Y-34.0498 F90.00
G01 X13.2051 Y-34.0402 F90.00
G01 X13.2070 Y-34.0256 F90.00
G01 X13.2080 Y-34.0060 F90.00
G01 X13.2080 Y-33.6270 F90.00
G01 X13.2298 Y-33.6237 F90.00
G01 X13.2394 Y-33.6218 F90.00
G01 X13.2918 Y-33.6087 F90.00
G01 X13.3060 Y-33.6046 F90.00
G01 X13.3660 Y-33.5829 F90.00
G01 X13.4237 Y-33.5558 F90.00
G01 X13.4366 Y-33.5487 F90.00
G01 X13.4787 Y-33.5235 F90.00
G01 X13.4951 Y-33.5126 F90.00
G01 X13.5422 Y-33.4773 F90.00
G01 X13.5932 Y-33.4312 F90.00
G01 X14.7192 Y-32.3052 F90.00
G01 X14.7621 Y-32.2580 F90.00
G01 X14.7713 Y-32.2465 F90.00
G01 X14.8006 Y-32.2071 F90.00
G01 X14.8115 Y-32.1907 F90.00
G01 X14.8416 Y-32.1401 F90.00
G01 X14.8670 Y-32.0869 F90.00
G01 X14.8745 Y-32.0688 F90.00
G01 X14.8941 Y-32.0133 F90.00
G01 X14.9086 Y-31.9562 F90.00
G01 X14.9125 Y-31.9369 F90.00
G01 X14.9209 Y-31.8786 F90.00
G01 X14.9243 Y-31.8100 F90.00
G01 X14.9243 Y-17.3321 F90.00
G01 X15.2106 Y-17.0456 F90.00
G01 X15.2533 Y-16.9982 F90.00
G01 X15.2942 Y-16.9430 F90.00
G01 X15.3247 Y-16.8926 F90.00
G01 X15.3340 Y-16.8753 F90.00
G01 X15.3589 Y-16.8220 F90.00
G01 X15.3790 Y-16.7666 F90.00
G01 X15.3847 Y-16.7478 F90.00
G01 X15.3988 Y-16.6906 F90.00
G01 X15.4077 Y-16.6324 F90.00
G01 X15.4093 Y-16.6177 F90.00
G01 X15.4123 Y-16.5540 F90.00
G01 X15.4123 Y-5.3590 F90.00
G01 X15.7869 Y-5.3589 F90.00
G01 X15.7967 Y-5.3585 F90.00
G01 X15.8113 Y-5.3568 F90.00
G01 X15.8258 Y-5.3541 F90.00
G01 X15.8401 Y-5.3504 F90.00
G01 X15.8540 Y-5.3456 F90.00
G01 X15.8675 Y-5.3398 F90.00
G01 X15.8763 Y-5.3354 F90.00
G01 X15.8890 Y-5.3280 F90.00
G01 X15.9011 Y-5.3196 F90.00
G01 X15.9126 Y-5.3104 F90.00
G01 X15.9234 Y-5.3004 F90.00
G01 X15.9334 Y-5.2896 F90.00
G01 X15.9426 Y-5.2781 F90.00
G01 X15.9510 Y-5.2660 F90.00
G01 X15.9560 Y-5.2576 F90.00
G01 X15.9628 Y-5.2445 F90.00
G01 X15.9686 Y-5.2310 F90.00
G01 X15.9719 Y-5.2217 F90.00
G01 X15.9760 Y-5.2076 F90.00
G01 X15.9791 Y-5.1932 F90.00
G01 X15.9815 Y-5.1737 F90.00
G01 X15.9820 Y-5.1590 F90.00
G01 X15.9820 Y-3.0190 F90.00
G01 X15.9815 Y-3.0043 F90.00
G01 X15.9798 Y-2.9897 F90.00
G01 X15.9771 Y-2.9752 F90.00
G01 X15.9719 Y-2.9563 F90.00
G01 X15.9668 Y-2.9425 F90.00
G01 X15.9584 Y-2.9247 F90.00
G01 X15.9510 Y-2.9120 F90.00
G01 X15.9426 Y-2.8999 F90.00
G01 X15.9334 Y-2.8884 F90.00
G01 X15.9234 Y-2.8776 F90.00
G01 X15.9126 Y-2.8676 F90.00
G01 X15.9011 Y-2.8584 F90.00
G01 X15.8848 Y-2.8475 F90.00
G01 X15.8675 Y-2.8382 F90.00
G01 X15.8540 Y-2.8324 F90.00
G01 X15.8401 Y-2.8276 F90.00
G01 X15.8210 Y-2.8228 F90.00
G01 X15.8016 Y-2.8200 F90.00
G01 X15.7820 Y-2.8190 F90.00
G01 X13.6420 Y-2.8190 F90.00
G01 X13.6273 Y-2.8195 F90.00
G01 X13.6127 Y-2.8212 F90.00
G01 X13.5934 Y-2.8250 F90.00
G01 X13.5793 Y-2.8291 F90.00
G01 X13.5655 Y-2.8342 F90.00
G01 X13.5477 Y-2.8426 F90.00
G01 X13.5350 Y-2.8500 F90.00
G01 X13.5229 Y-2.8584 F90.00
G01 X13.5114 Y-2.8676 F90.00
G01 X13.5006 Y-2.8776 F90.00
G01 X13.4874 Y-2.8921 F90.00
G01 X13.4785 Y-2.9038 F90.00
G01 X13.4680 Y-2.9204 F90.00
G01 X13.4612 Y-2.9335 F90.00
G01 X13.4554 Y-2.9470 F90.00
G01 X13.4492 Y-2.9657 F90.00
G01 X13.4458 Y-2.9800 F90.00
G01 X13.4430 Y-2.9994 F90.00
G01 X13.4420 Y-3.0190 F90.00
G01 X13.4420 Y-5.1590 F90.00
G01 X13.4422 Y-5.1688 F90.00
G01 X13.4435 Y-5.1835 F90.00
G01 X13.4449 Y-5.1932 F90.00
G01 X13.4480 Y-5.2076 F90.00
G01 X13.4506 Y-5.2171 F90.00
G01 X13.4554 Y-5.2310 F90.00
G01 X13.4592 Y-5.2400 F90.00
G01 X13.4656 Y-5.2533 F90.00
G01 X13.4730 Y-5.2660 F90.00
G01 X13.4814 Y-5.2781 F90.00
G01 X13.4906 Y-5.2896 F90.00
G01 X13.4972 Y-5.2969 F90.00
G01 X13.5077 Y-5.3072 F90.00
G01 X13.5151 Y-5.3136 F90.00
G01 X13.5268 Y-5.3225 F90.00
G01 X13.5392 Y-5.3305 F90.00
G01 X13.5521 Y-5.3376 F90.00
G01 X13.5655 Y-5.3438 F90.00
G01 X13.5793 Y-5.3489 F90.00
G01 X13.5887 Y-5.3518 F90.00
G01 X13.5982 Y-5.3541 F90.00
G01 X13.6127 Y-5.3568 F90.00
G01 X13.6224 Y-5.3580 F90.00
G01 X13.6371 Y-5.3589 F90.00
G01 X14.0117 Y-5.3590 F90.00
G01 X14.0117 Y-16.2639 F90.00
G01 X13.1420 Y-17.1337 F90.00
G00 Z2.0000
G00 X10.1173 Y-20.7193
G01 F60.00
G01 Z-0.0850
G01 F90.00
G01 X10.0830 Y-20.8623 F90.00
G01 X10.0657 Y-21.0820 F90.00
G01 X10.0830 Y-21.3017 F90.00
G01 X10.1173 Y-21.4447 F90.00
G01 X10.2011 Y-21.3610 F90.00
G01 X10.1960 Y-21.3404 F90.00
G01 X10.1941 Y-21.3308 F90.00
G01 X10.1768 Y-21.2143 F90.00
G01 X10.1755 Y-21.1996 F90.00
G01 X10.1700 Y-21.0820 F90.00
G01 X10.1755 Y-20.9644 F90.00
G01 X10.1768 Y-20.9500 F90.00
G01 X10.1941 Y-20.8332 F90.00
G01 X10.1960 Y-20.8236 F90.00
G01 X10.2011 Y-20.8030 F90.00
G01 X10.1173 Y-20.7193 F90.00
G00 Z2.0000
G00 X11.1910 Y-22.3509
G01 F60.00
G01 Z-0.0850
G01 F90.00
G01 X11.0829 Y-22.4590 F90.00
G01 X11.2310 Y-22.6071 F90.00
G01 X11.2516 Y-22.6020 F90.00
G01 X11.2612 Y-22.6001 F90.00
G01 X11.3777 Y-22.5828 F90.00
G01 X11.3924 Y-22.5815 F90.00
G01 X11.5100 Y-22.5760 F90.00
G01 X11.6276 Y-22.5815 F90.00
G01 X11.6420 Y-22.5828 F90.00
G01 X11.7588 Y-22.6001 F90.00
G01 X11.7684 Y-22.6020 F90.00
G01 X11.7890 Y-22.6071 F90.00
G01 X11.8971 Y-22.4990 F90.00
G01 X11.7490 Y-22.3509 F90.00
G01 X11.7284 Y-22.3560 F90.00
G01 X11.7188 Y-22.3579 F90.00
G01 X11.6023 Y-22.3752 F90.00
G01 X11.5876 Y-22.3765 F90.00
G01 X11.4700 Y-22.3820 F90.00
G01 X11.3524 Y-22.3765 F90.00
G01 X11.3380 Y-22.3752 F90.00
G01 X11.2212 Y-22.3579 F90.00
G01 X11.2116 Y-22.3560 F90.00
G01 X11.1910 Y-22.3509 F90.00
G00 Z2.0000
G00 X10.1573 Y-23.5133
G01 F60.00
G01 Z-0.0850
G01 F90.00
G01 X10.1230 Y-23.6563 F90.00
G01 X10.1057 Y-23.8760 F90.00
G01 X10.1230 Y-24.0957 F90.00
G01 X10.1573 Y-24.2387 F90.00
G01 X10.2411 Y-24.1550 F90.00
G01 X10.2360 Y-24.1344 F90.00
G01 X10.2341 Y-24.1248 F90.00
G01 X10.2168 Y-24.0083 F90.00
G01 X10.2155 Y-23.9936 F90.00
G01 X10.2100 Y-23.8760 F90.00
G01 X10.2155 Y-23.7584 F90.00
G01 X10.2168 Y-23.7440 F90.00
G01 X10.2341 Y-23.6272 F90.00
G01 X10.2360 Y-23.6176 F90.00
G01 X10.2411 Y-23.5970 F90.00
G01 X10.1573 Y-23.5133 F90.00
G00 Z2.0000
G00 X11.2310 Y-25.1449
G01 F60.00
G01 Z-0.0850
G01 F90.00
G01 X11.1473 Y-25.2287 F90.00
G01 X11.2903 Y-25.2630 F90.00
G01 X11.5100 Y-25.2803 F90.00
G01 X11.7297 Y-25.2630 F90.00
G01 X11.8727 Y-25.2287 F90.00
G01 X11.7890 Y-25.1449 F90.00
G01 X11.7684 Y-25.1500 F90.00
G01 X11.7588 Y-25.1519 F90.00
G01 X11.6423 Y-25.1692 F90.00
G01 X11.6276 Y-25.1705 F90.00
G01 X11.5100 Y-25.1760 F90.00
G01 X11.3924 Y-25.1705 F90.00
G01 X11.3780 Y-25.1692 F90.00
G01 X11.2612 Y-25.1519 F90.00
G01 X11.2516 Y-25.1500 F90.00
G01 X11.2310 Y-25.1449 F90.00
G00 Z2.0000
G00 X5.0453 Y-19.7046
G01 F60.00
G01 Z-0.0850
G01 F90.00
G01 X5.0400 Y-19.8124 F90.00
G01 X5.0400 Y-19.8320 F90.00
G01 X5.0460 Y-19.9497 F90.00
G01 X5.0631 Y-20.0662 F90.00
G01 X5.0669 Y-20.0854 F90.00
G01 X5.0957 Y-20.1996 F90.00
G01 X5.1352 Y-20.3106 F90.00
G01 X5.1427 Y-20.3287 F90.00
G01 X5.1933 Y-20.4350 F90.00
G01 X5.2536 Y-20.5362 F90.00
G01 X5.2645 Y-20.5525 F90.00
G01 X5.3349 Y-20.6469 F90.00
G01 X5.4138 Y-20.7344 F90.00
G01 X5.4276 Y-20.7482 F90.00
G01 X5.5151 Y-20.8271 F90.00
G01 X5.6095 Y-20.8975 F90.00
G01 X5.6258 Y-20.9084 F90.00
G01 X5.7265 Y-20.9685 F90.00
G01 X5.8333 Y-21.0193 F90.00
G01 X5.8514 Y-21.0268 F90.00
G01 X5.9624 Y-21.0663 F90.00
G01 X6.0766 Y-21.0951 F90.00
G01 X6.0958 Y-21.0989 F90.00
G01 X6.2026 Y-21.1148 F90.00
G01 X6.2130 Y-21.1160 F90.00
G01 X6.3398 Y-21.1222 F90.00
G01 X6.4574 Y-21.1167 F90.00
G01 X6.4769 Y-21.1148 F90.00
G01 X6.5934 Y-21.0973 F90.00
G01 X6.7077 Y-21.0689 F90.00
G01 X6.7265 Y-21.0632 F90.00
G01 X6.8326 Y-21.0251 F90.00
G01 X6.8460 Y-21.0194 F90.00
G01 X6.9526 Y-20.9687 F90.00
G01 X7.0537 Y-20.9084 F90.00
G01 X7.0700 Y-20.8975 F90.00
G01 X7.1567 Y-20.8332 F90.00
G01 X7.1719 Y-20.8207 F90.00
G01 X7.2590 Y-20.7415 F90.00
G01 X7.3447 Y-20.6469 F90.00
G01 X7.4207 Y-20.5445 F90.00
G01 X7.4860 Y-20.4355 F90.00
G01 X7.4907 Y-20.4263 F90.00
G01 X7.5408 Y-20.3197 F90.00
G01 X7.5807 Y-20.2089 F90.00
G01 X7.5864 Y-20.1901 F90.00
G01 X7.6126 Y-20.0854 F90.00
G01 X7.6165 Y-20.0662 F90.00
G01 X7.6323 Y-19.9594 F90.00
G01 X7.6336 Y-19.9490 F90.00
G01 X7.6398 Y-19.8222 F90.00
G01 X7.6335 Y-19.6948 F90.00
G01 X7.6167 Y-19.5796 F90.00
G01 X10.6040 Y-16.5923 F90.00
G01 X10.6069 Y-16.6078 F90.00
G01 X10.6121 Y-16.6267 F90.00
G01 X10.6192 Y-16.6450 F90.00
G01 X10.6256 Y-16.6583 F90.00
G01 X10.6330 Y-16.6710 F90.00
G01 X10.6443 Y-16.6870 F90.00
G01 X10.6572 Y-16.7019 F90.00
G01 X10.6677 Y-16.7122 F90.00
G01 X10.6790 Y-16.7217 F90.00
G01 X10.6950 Y-16.7330 F90.00
G01 X10.7121 Y-16.7426 F90.00
G01 X10.7255 Y-16.7488 F90.00
G01 X10.7439 Y-16.7554 F90.00
G01 X10.7582 Y-16.7591 F90.00
G01 X10.7727 Y-16.7618 F90.00
G01 X10.7922 Y-16.7638 F90.00
G01 X12.9469 Y-16.7639 F90.00
G01 X12.9665 Y-16.7625 F90.00
G01 X12.9810 Y-16.7602 F90.00
G01 X13.0001 Y-16.7554 F90.00
G01 X13.0185 Y-16.7488 F90.00
G01 X13.0363 Y-16.7404 F90.00
G01 X13.0531 Y-16.7303 F90.00
G01 X13.0689 Y-16.7186 F90.00
G01 X13.0834 Y-16.7054 F90.00
G01 X13.0966 Y-16.6909 F90.00
G01 X13.1055 Y-16.6792 F90.00
G01 X13.1160 Y-16.6626 F90.00
G01 X13.1248 Y-16.6450 F90.00
G01 X13.1319 Y-16.6267 F90.00
G01 X13.1371 Y-16.6078 F90.00
G01 X13.1405 Y-16.5885 F90.00
G01 X13.1419 Y-16.5689 F90.00
G01 X13.1420 Y-14.4240 F90.00
G01 X13.1410 Y-14.4044 F90.00
G01 X13.1382 Y-14.3850 F90.00
G01 X13.1348 Y-14.3707 F90.00
G01 X13.1303 Y-14.3566 F90.00
G01 X13.1248 Y-14.3430 F90.00
G01 X13.1184 Y-14.3297 F90.00
G01 X13.1110 Y-14.3170 F90.00
G01 X13.1026 Y-14.3049 F90.00
G01 X13.0934 Y-14.2934 F90.00
G01 X13.0868 Y-14.2861 F90.00
G01 X13.0799 Y-14.2792 F90.00
G01 X13.0689 Y-14.2694 F90.00
G01 X13.0572 Y-14.2605 F90.00
G01 X13.0448 Y-14.2525 F90.00
G01 X13.0319 Y-14.2454 F90.00
G01 X13.0185 Y-14.2392 F90.00
G01 X13.0094 Y-14.2357 F90.00
G01 X12.9953 Y-14.2312 F90.00
G01 X12.9810 Y-14.2278 F90.00
G01 X12.9713 Y-14.2262 F90.00
G01 X12.9616 Y-14.2250 F90.00
G01 X12.9469 Y-14.2241 F90.00
G01 X12.5723 Y-14.2240 F90.00
G01 X12.9469 Y-14.2239 F90.00
G01 X12.9567 Y-14.2235 F90.00
G01 X12.9713 Y-14.2218 F90.00
G01 X12.9858 Y-14.2191 F90.00
G01 X12.9953 Y-14.2168 F90.00
G01 X13.0094 Y-14.2123 F90.00
G01 X13.0230 Y-14.2068 F90.00
G01 X13.0363 Y-14.2004 F90.00
G01 X13.0490 Y-14.1930 F90.00
G01 X13.0611 Y-14.1846 F90.00
G01 X13.0726 Y-14.1754 F90.00
G01 X13.0799 Y-14.1688 F90.00
G01 X13.0902 Y-14.1583 F90.00
G01 X13.0997 Y-14.1470 F90.00
G01 X13.1055 Y-14.1392 F90.00
G01 X13.1135 Y-14.1268 F90.00
G01 X13.1206 Y-14.1139 F90.00
G01 X13.1268 Y-14.1005 F90.00
G01 X13.1303 Y-14.0914 F90.00
G01 X13.1348 Y-14.0773 F90.00
G01 X13.1382 Y-14.0630 F90.00
G01 X13.1410 Y-14.0436 F90.00
G01 X13.1420 Y-14.0240 F90.00
G01 X13.1419 Y-11.8791 F90.00
G01 X13.1405 Y-11.8595 F90.00
G01 X13.1371 Y-11.8402 F90.00
G01 X13.1334 Y-11.8259 F90.00
G01 X13.1268 Y-11.8075 F90.00
G01 X13.1184 Y-11.7897 F90.00
G01 X13.1083 Y-11.7729 F90.00
G01 X13.0966 Y-11.7571 F90.00
G01 X13.0834 Y-11.7426 F90.00
G01 X13.0689 Y-11.7294 F90.00
G01 X13.0531 Y-11.7177 F90.00
G01 X13.0363 Y-11.7076 F90.00
G01 X13.0185 Y-11.6992 F90.00
G01 X13.0001 Y-11.6926 F90.00
G01 X12.9810 Y-11.6878 F90.00
G01 X12.9616 Y-11.6850 F90.00
G01 X12.9420 Y-11.6840 F90.00
G01 X10.7971 Y-11.6841 F90.00
G01 X10.7775 Y-11.6855 F90.00
G01 X10.7582 Y-11.6889 F90.00
G01 X10.7439 Y-11.6926 F90.00
G01 X10.7255 Y-11.6992 F90.00
G01 X10.7077 Y-11.7076 F90.00
G01 X10.6909 Y-11.7177 F90.00
G01 X10.6751 Y-11.7294 F90.00
G01 X10.6606 Y-11.7426 F90.00
G01 X10.6474 Y-11.7571 F90.00
G01 X10.6357 Y-11.7729 F90.00
G01 X10.6256 Y-11.7897 F90.00
G01 X10.6172 Y-11.8075 F90.00
G01 X10.6106 Y-11.8259 F90.00
G01 X10.6069 Y-11.8402 F90.00
G01 X10.6035 Y-11.8595 F90.00
G01 X10.6021 Y-11.8791 F90.00
G01 X10.6020 Y-14.0240 F90.00
G01 X10.6030 Y-14.0436 F90.00
G01 X10.6058 Y-14.0630 F90.00
G01 X10.6092 Y-14.0773 F90.00
G01 X10.6137 Y-14.0914 F90.00
G01 X10.6192 Y-14.1050 F90.00
G01 X10.6256 Y-14.1183 F90.00
G01 X10.6330 Y-14.1310 F90.00
G01 X10.6414 Y-14.1431 F90.00
G01 X10.6506 Y-14.1546 F90.00
G01 X10.6572 Y-14.1619 F90.00
G01 X10.6677 Y-14.1722 F90.00
G01 X10.6751 Y-14.1786 F90.00
G01 X10.6868 Y-14.1875 F90.00
G01 X10.6992 Y-14.1955 F90.00
G01 X10.7121 Y-14.2026 F90.00
G01 X10.7210 Y-14.2068 F90.00
G01 X10.7346 Y-14.2123 F90.00
G01 X10.7487 Y-14.2168 F90.00
G01 X10.7582 Y-14.2191 F90.00
G01 X10.7727 Y-14.2218 F90.00
G01 X10.7824 Y-14.2230 F90.00
G01 X10.7971 Y-14.2239 F90.00
G01 X11.1717 Y-14.2240 F90.00
G01 X10.8020 Y-14.2240 F90.00
G01 X10.7824 Y-14.2250 F90.00
G01 X10.7678 Y-14.2269 F90.00
G01 X10.7487 Y-14.2312 F90.00
G01 X10.7346 Y-14.2357 F90.00
G01 X10.7165 Y-14.2432 F90.00
G01 X10.7034 Y-14.2500 F90.00
G01 X10.6909 Y-14.2577 F90.00
G01 X10.6751 Y-14.2694 F90.00
G01 X10.6641 Y-14.2792 F90.00
G01 X10.6538 Y-14.2897 F90.00
G01 X10.6414 Y-14.3049 F90.00
G01 X10.6305 Y-14.3212 F90.00
G01 X10.6234 Y-14.3341 F90.00
G01 X10.6172 Y-14.3475 F90.00
G01 X10.6106 Y-14.3659 F90.00
G01 X10.6058 Y-14.3850 F90.00
G01 X10.6035 Y-14.3995 F90.00
G01 X10.6022 Y-14.4142 F90.00
G01 X10.6020 Y-14.4240 F90.00
G01 X10.6020 Y-14.8030 F90.00
G01 X10.5802 Y-14.8063 F90.00
G01 X10.5706 Y-14.8082 F90.00
G01 X10.5182 Y-14.8213 F90.00
G01 X10.5040 Y-14.8254 F90.00
G01 X10.4440 Y-14.8471 F90.00
G01 X10.3863 Y-14.8742 F90.00
G01 X10.3734 Y-14.8813 F90.00
G01 X10.3313 Y-14.9065 F90.00
G01 X10.3149 Y-14.9174 F90.00
G01 X10.2678 Y-14.9527 F90.00
G01 X10.2204 Y-14.9954 F90.00
G01 X6.6536 Y-18.5621 F90.00
G01 X6.6030 Y-18.5494 F90.00
G01 X6.5886 Y-18.5463 F90.00
G01 X6.4717 Y-18.5290 F90.00
G01 X6.4574 Y-18.5278 F90.00
G01 X6.3447 Y-18.5223 F90.00
G01 X6.3300 Y-18.5225 F90.00
G01 X6.2123 Y-18.5285 F90.00
G01 X6.0958 Y-18.5455 F90.00
G01 X6.0813 Y-18.5482 F90.00
G01 X5.9719 Y-18.5756 F90.00
G01 X5.9531 Y-18.5813 F90.00
G01 X5.8424 Y-18.6211 F90.00
G01 X5.7357 Y-18.6713 F90.00
G01 X5.7184 Y-18.6806 F90.00
G01 X5.6175 Y-18.7413 F90.00
G01 X5.5228 Y-18.8113 F90.00
G01 X5.5076 Y-18.8237 F90.00
G01 X5.4205 Y-18.9030 F90.00
G01 X5.3349 Y-18.9975 F90.00
G01 X5.2589 Y-19.1000 F90.00
G01 X5.1935 Y-19.2090 F90.00
G01 X5.1889 Y-19.2182 F90.00
G01 X5.1387 Y-19.3247 F90.00
G01 X5.0957 Y-19.4449 F90.00
G01 X5.0647 Y-19.5686 F90.00
G01 X5.0472 Y-19.6851 F90.00
G01 X5.0453 Y-19.7046 F90.00
G00 Z2.0000
G00 X1.5098 Y-23.2401
G01 F60.00
G01 Z-0.0850
G01 F90.00
G01 X1.5042 Y-23.3578 F90.00
G01 X1.5101 Y-23.4803 F90.00
G01 X1.5117 Y-23.4949 F90.00
G01 X1.5283 Y-23.6066 F90.00
G01 X1.5302 Y-23.6162 F90.00
G01 X1.5353 Y-23.6365 F90.00
G01 X1.4907 Y-23.6858 F90.00
G01 X1.4498 Y-23.7410 F90.00
G01 X1.4144 Y-23.7999 F90.00
G01 X1.3851 Y-23.8620 F90.00
G01 X1.3619 Y-23.9267 F90.00
G01 X1.3452 Y-23.9934 F90.00
G01 X1.3351 Y-24.0614 F90.00
G01 X1.3317 Y-24.1300 F90.00
G01 X1.3317 Y-52.0700 F90.00
G01 X1.3344 Y-52.1288 F90.00
G01 X1.3357 Y-52.1435 F90.00
G01 X1.3452 Y-52.2066 F90.00
G01 X1.3593 Y-52.2638 F90.00
G01 X1.3634 Y-52.2780 F90.00
G01 X1.3815 Y-52.3288 F90.00
G01 X1.3890 Y-52.3469 F90.00
G01 X1.4144 Y-52.4001 F90.00
G01 X1.4498 Y-52.4590 F90.00
G01 X1.4907 Y-52.5142 F90.00
G01 X1.5334 Y-52.5616 F90.00
G01 X4.3437 Y-55.3720 F90.00
G01 X4.0051 Y-55.3721 F90.00
G01 X3.9904 Y-55.3730 F90.00
G01 X3.9758 Y-55.3749 F90.00
G01 X3.9614 Y-55.3780 F90.00
G01 X3.9519 Y-55.3806 F90.00
G01 X3.9380 Y-55.3854 F90.00
G01 X3.9245 Y-55.3912 F90.00
G01 X3.9157 Y-55.3956 F90.00
G01 X3.9030 Y-55.4030 F90.00
G01 X3.8948 Y-55.4085 F90.00
G01 X3.8831 Y-55.4174 F90.00
G01 X3.8721 Y-55.4272 F90.00
G01 X3.8618 Y-55.4377 F90.00
G01 X3.8523 Y-55.4490 F90.00
G01 X3.8437 Y-55.4609 F90.00
G01 X3.8360 Y-55.4734 F90.00
G01 X3.8314 Y-55.4821 F90.00
G01 X3.8252 Y-55.4955 F90.00
G01 X3.8201 Y-55.5093 F90.00
G01 X3.8160 Y-55.5234 F90.00
G01 X3.8138 Y-55.5330 F90.00
G01 X3.8110 Y-55.5524 F90.00
G01 X3.8100 Y-55.5720 F90.00
G01 X3.8101 Y-57.7169 F90.00
G01 X3.8110 Y-57.7316 F90.00
G01 X3.8129 Y-57.7462 F90.00
G01 X3.8160 Y-57.7606 F90.00
G01 X3.8217 Y-57.7794 F90.00
G01 X3.8272 Y-57.7930 F90.00
G01 X3.8360 Y-57.8106 F90.00
G01 X3.8437 Y-57.8231 F90.00
G01 X3.8554 Y-57.8389 F90.00
G01 X3.8686 Y-57.8534 F90.00
G01 X3.8794 Y-57.8634 F90.00
G01 X3.8870 Y-57.8697 F90.00
G01 X3.9030 Y-57.8810 F90.00
G01 X3.9201 Y-57.8906 F90.00
G01 X3.9380 Y-57.8986 F90.00
G01 X3.9473 Y-57.9019 F90.00
G01 X3.9614 Y-57.9060 F90.00
G01 X3.9758 Y-57.9091 F90.00
G01 X3.9855 Y-57.9105 F90.00
G01 X4.0051 Y-57.9119 F90.00
G01 X6.1500 Y-57.9120 F90.00
G01 X6.1647 Y-57.9115 F90.00
G01 X6.1745 Y-57.9105 F90.00
G01 X6.1938 Y-57.9071 F90.00
G01 X6.2081 Y-57.9034 F90.00
G01 X6.2265 Y-57.8968 F90.00
G01 X6.2399 Y-57.8906 F90.00
G01 X6.2570 Y-57.8810 F90.00
G01 X6.2691 Y-57.8726 F90.00
G01 X6.2843 Y-57.8602 F90.00
G01 X6.2982 Y-57.8463 F90.00
G01 X6.3077 Y-57.8350 F90.00
G01 X6.3190 Y-57.8190 F90.00
G01 X6.3264 Y-57.8063 F90.00
G01 X6.3348 Y-57.7885 F90.00
G01 X6.3414 Y-57.7701 F90.00
G01 X6.3451 Y-57.7558 F90.00
G01 X6.3485 Y-57.7365 F90.00
G01 X6.3498 Y-57.7218 F90.00
G01 X6.3500 Y-55.5720 F90.00
G01 X6.3495 Y-55.5573 F90.00
G01 X6.3485 Y-55.5475 F90.00
G01 X6.3471 Y-55.5378 F90.00
G01 X6.3440 Y-55.5234 F90.00
G01 X6.3399 Y-55.5093 F90.00
G01 X6.3366 Y-55.5000 F90.00
G01 X6.3308 Y-55.4865 F90.00
G01 X6.3240 Y-55.4734 F90.00
G01 X6.3190 Y-55.4650 F90.00
G01 X6.3106 Y-55.4529 F90.00
G01 X6.2982 Y-55.4377 F90.00
G01 X6.2843 Y-55.4238 F90.00
G01 X6.2769 Y-55.4174 F90.00
G01 X6.2652 Y-55.4085 F90.00
G01 X6.2486 Y-55.3980 F90.00
G01 X6.2355 Y-55.3912 F90.00
G01 X6.2265 Y-55.3872 F90.00
G01 X6.2081 Y-55.3806 F90.00
G01 X6.1890 Y-55.3758 F90.00
G01 X6.1696 Y-55.3730 F90.00
G01 X6.1500 Y-55.3720 F90.00
G01 X5.7803 Y-55.3720 F90.00
G01 X5.7802 Y-55.1131 F90.00
G01 X5.7769 Y-55.0494 F90.00
G01 X5.7685 Y-54.9911 F90.00
G01 X5.7658 Y-54.9766 F90.00
G01 X5.7527 Y-54.9242 F90.00
G01 X5.7470 Y-54.9054 F90.00
G01 X5.7269 Y-54.8500 F90.00
G01 X5.7020 Y-54.7967 F90.00
G01 X5.6927 Y-54.7794 F90.00
G01 X5.6622 Y-54.7290 F90.00
G01 X5.6273 Y-54.6815 F90.00
G01 X5.6181 Y-54.6700 F90.00
G01 X5.5752 Y-54.6228 F90.00
G01 X2.7323 Y-51.7799 F90.00
G01 X2.7323 Y-24.6545 F90.00
G01 X2.7944 Y-24.6575 F90.00
G01 X2.8091 Y-24.6577 F90.00
G01 X2.9268 Y-24.6519 F90.00
G01 X2.9414 Y-24.6503 F90.00
G01 X3.0530 Y-24.6337 F90.00
G01 X3.0674 Y-24.6306 F90.00
G01 X3.1816 Y-24.6018 F90.00
G01 X3.2971 Y-24.5607 F90.00
G01 X3.3105 Y-24.5549 F90.00
G01 X3.4170 Y-24.5043 F90.00
G01 X3.5265 Y-24.4387 F90.00
G01 X3.6289 Y-24.3627 F90.00
G01 X3.7200 Y-24.2804 F90.00
G01 X3.7302 Y-24.2699 F90.00
G01 X3.8091 Y-24.1825 F90.00
G01 X3.8851 Y-24.0800 F90.00
G01 X3.9505 Y-23.9710 F90.00
G01 X3.9551 Y-23.9618 F90.00
G01 X4.0053 Y-23.8553 F90.00
G01 X4.0483 Y-23.7351 F90.00
G01 X4.0793 Y-23.6114 F90.00
G01 X4.0968 Y-23.4949 F90.00
G01 X4.0980 Y-23.4845 F90.00
G01 X4.1040 Y-23.3676 F90.00
G01 X4.1040 Y-23.3480 F90.00
G01 X4.0980 Y-23.2303 F90.00
G01 X4.0793 Y-23.1041 F90.00
G01 X4.0483 Y-22.9804 F90.00
G01 X4.0053 Y-22.8604 F90.00
G01 X3.9507 Y-22.7450 F90.00
G01 X3.8851 Y-22.6355 F90.00
G01 X3.8091 Y-22.5331 F90.00
G01 X3.7235 Y-22.4385 F90.00
G01 X3.6289 Y-22.3529 F90.00
G01 X3.5265 Y-22.2769 F90.00
G01 X3.4175 Y-22.2115 F90.00
G01 X3.4083 Y-22.2069 F90.00
G01 X3.3017 Y-22.1567 F90.00
G01 X3.1816 Y-22.1137 F90.00
G01 X3.0579 Y-22.0827 F90.00
G01 X2.9414 Y-22.0652 F90.00
G01 X2.9310 Y-22.0640 F90.00
G01 X2.8140 Y-22.0580 F90.00
G01 X2.7944 Y-22.0580 F90.00
G01 X2.6768 Y-22.0640 F90.00
G01 X2.5506 Y-22.0827 F90.00
G01 X2.4269 Y-22.1137 F90.00
G01 X2.3068 Y-22.1567 F90.00
G01 X2.1914 Y-22.2113 F90.00
G01 X2.0820 Y-22.2769 F90.00
G01 X1.9795 Y-22.3529 F90.00
G01 X1.8921 Y-22.4318 F90.00
G01 X1.8782 Y-22.4456 F90.00
G01 X1.7993 Y-22.5331 F90.00
G01 X1.7233 Y-22.6355 F90.00
G01 X1.6580 Y-22.7445 F90.00
G01 X1.6072 Y-22.8513 F90.00
G01 X1.5997 Y-22.8694 F90.00
G01 X1.5602 Y-22.9804 F90.00
G01 X1.5314 Y-23.0946 F90.00
G01 X1.5275 Y-23.1138 F90.00
G01 X1.5117 Y-23.2206 F90.00
G01 X1.5098 Y-23.2401 F90.00
G00 Z2.0000
G00 X1.3284 Y-24.1699
G01 F60.00
G01 Z-0.0850
G01 F90.00
G01 X1.3312 Y-24.2061 F90.00
G01 X1.3315 Y-24.2165 F90.00
G01 X1.3315 Y-51.9835 F90.00
G01 X1.3312 Y-51.9939 F90.00
G01 X1.3284 Y-52.0301 F90.00
G01 X1.3310 Y-52.0779 F90.00
G01 X1.3315 Y-52.1067 F90.00
G01 X1.3340 Y-52.1354 F90.00
G01 X1.3365 Y-52.1832 F90.00
G01 X1.3421 Y-52.2136 F90.00
G01 X1.3569 Y-52.2591 F90.00
G01 X1.3614 Y-52.2740 F90.00
G01 X1.3752 Y-52.3253 F90.00
G01 X1.3870 Y-52.3538 F90.00
G01 X1.4109 Y-52.3953 F90.00
G01 X1.4185 Y-52.4090 F90.00
G01 X1.4427 Y-52.4563 F90.00
G01 X1.4601 Y-52.4818 F90.00
G01 X1.4922 Y-52.5174 F90.00
G01 X1.5107 Y-52.5394 F90.00
G01 X1.5307 Y-52.5601 F90.00
G01 X1.5627 Y-52.5957 F90.00
G01 X1.5903 Y-52.6193 F90.00
G01 X1.5979 Y-52.6265 F90.00
G01 X3.8528 Y-54.8814 F90.00
G01 X3.8661 Y-54.8962 F90.00
G01 X3.8780 Y-54.9122 F90.00
G01 X3.9304 Y-54.9957 F90.00
G01 X3.9376 Y-55.0088 F90.00
G01 X3.9418 Y-55.0178 F90.00
G01 X3.9472 Y-55.0318 F90.00
G01 X3.9503 Y-55.0413 F90.00
G01 X3.9529 Y-55.0509 F90.00
G01 X3.9558 Y-55.0656 F90.00
G01 X3.9676 Y-55.1684 F90.00
G01 X3.9684 Y-55.1883 F90.00
G01 X3.9676 Y-55.2033 F90.00
G01 X3.9658 Y-55.2181 F90.00
G01 X3.9628 Y-55.2328 F90.00
G01 X3.9572 Y-55.2519 F90.00
G01 X3.9279 Y-55.3355 F90.00
G01 X3.9231 Y-55.3479 F90.00
G01 X3.9190 Y-55.3568 F90.00
G01 X3.9096 Y-55.3740 F90.00
G01 X3.8985 Y-55.3902 F90.00
G01 X3.8649 Y-55.4324 F90.00
G01 X3.8559 Y-55.4425 F90.00
G01 X3.8458 Y-55.4527 F90.00
G01 X3.8169 Y-55.5093 F90.00
G01 X3.8095 Y-55.5562 F90.00
G01 X3.8095 Y-57.7278 F90.00
G01 X3.8169 Y-57.7747 F90.00
G01 X3.8458 Y-57.8313 F90.00
G01 X3.8907 Y-57.8762 F90.00
G01 X3.9473 Y-57.9051 F90.00
G01 X3.9942 Y-57.9125 F90.00
G01 X6.1658 Y-57.9125 F90.00
G01 X6.2286 Y-57.9025 F90.00
G01 X6.2460 Y-57.8979 F90.00
G01 X6.2656 Y-57.8947 F90.00
G01 X6.3588 Y-57.8862 F90.00
G01 X6.3781 Y-57.8854 F90.00
G01 X6.3926 Y-57.8860 F90.00
G01 X6.4118 Y-57.8885 F90.00
G01 X6.4560 Y-57.8984 F90.00
G01 X6.4714 Y-57.9025 F90.00
G01 X6.5342 Y-57.9125 F90.00
G01 X8.7058 Y-57.9125 F90.00
G01 X8.7686 Y-57.9025 F90.00
G01 X8.7860 Y-57.8979 F90.00
G01 X8.8056 Y-57.8947 F90.00
G01 X8.8988 Y-57.8862 F90.00
G01 X8.9181 Y-57.8854 F90.00
G01 X8.9326 Y-57.8860 F90.00
G01 X8.9518 Y-57.8885 F90.00
G01 X8.9960 Y-57.8984 F90.00
G01 X9.0114 Y-57.9025 F90.00
G01 X9.0742 Y-57.9125 F90.00
G01 X11.2694 Y-57.9126 F90.00
G01 X11.2893 Y-57.9141 F90.00
G01 X11.3041 Y-57.9165 F90.00
G01 X11.3953 Y-57.9372 F90.00
G01 X11.4135 Y-57.9423 F90.00
G01 X11.4277 Y-57.9476 F90.00
G01 X11.4414 Y-57.9539 F90.00
G01 X11.4502 Y-57.9587 F90.00
G01 X11.4781 Y-57.9755 F90.00
G01 X11.5690 Y-58.0094 F90.00
G01 X11.5929 Y-58.0120 F90.00
G01 X12.0000 Y-58.0120 F90.00
G01 X12.0000 Y-57.9120 F90.00
G01 X11.6251 Y-57.9119 F90.00
G01 X11.6153 Y-57.9115 F90.00
G01 X11.6007 Y-57.9098 F90.00
G01 X11.5862 Y-57.9071 F90.00
G01 X11.5767 Y-57.9048 F90.00
G01 X11.5626 Y-57.9003 F90.00
G01 X11.5535 Y-57.8968 F90.00
G01 X11.5401 Y-57.8906 F90.00
G01 X11.5272 Y-57.8835 F90.00
G01 X11.5148 Y-57.8755 F90.00
G01 X11.5031 Y-57.8666 F90.00
G01 X11.4957 Y-57.8602 F90.00
G01 X11.4852 Y-57.8499 F90.00
G01 X11.4754 Y-57.8389 F90.00
G01 X11.4665 Y-57.8272 F90.00
G01 X11.4585 Y-57.8148 F90.00
G01 X11.4536 Y-57.8063 F90.00
G01 X11.4492 Y-57.7975 F90.00
G01 X11.4434 Y-57.7840 F90.00
G01 X11.4386 Y-57.7701 F90.00
G01 X11.4349 Y-57.7558 F90.00
G01 X11.4315 Y-57.7365 F90.00
G01 X11.4302 Y-57.7218 F90.00
G01 X11.4300 Y-57.7120 F90.00
G01 X11.4300 Y-55.5720 F90.00
G01 X11.4305 Y-55.5573 F90.00
G01 X11.4315 Y-55.5475 F90.00
G01 X11.4338 Y-55.5330 F90.00
G01 X11.4372 Y-55.5187 F90.00
G01 X11.4417 Y-55.5046 F90.00
G01 X11.4472 Y-55.4910 F90.00
G01 X11.4536 Y-55.4777 F90.00
G01 X11.4585 Y-55.4692 F90.00
G01 X11.4637 Y-55.4609 F90.00
G01 X11.4723 Y-55.4490 F90.00
G01 X11.4818 Y-55.4377 F90.00
G01 X11.4921 Y-55.4272 F90.00
G01 X11.5031 Y-55.4174 F90.00
G01 X11.5148 Y-55.4085 F90.00
G01 X11.5230 Y-55.4030 F90.00
G01 X11.5357 Y-55.3956 F90.00
G01 X11.5535 Y-55.3872 F90.00
G01 X11.5673 Y-55.3821 F90.00
G01 X11.5767 Y-55.3792 F90.00
G01 X11.5958 Y-55.3749 F90.00
G01 X11.6104 Y-55.3730 F90.00
G01 X11.6202 Y-55.3722 F90.00
G01 X12.0000 Y-55.3720 F90.00
G01 X12.0000 Y-55.2720 F90.00
G01 X11.5929 Y-55.2720 F90.00
G01 X11.5690 Y-55.2746 F90.00
G01 X11.4757 Y-55.3093 F90.00
G01 X11.4649 Y-55.3146 F90.00
G01 X11.3795 Y-55.3525 F90.00
G01 X11.3702 Y-55.3561 F90.00
G01 X11.3561 Y-55.3605 F90.00
G01 X11.3417 Y-55.3640 F90.00
G01 X11.3319 Y-55.3656 F90.00
G01 X11.2838 Y-55.3706 F90.00
G01 X11.2693 Y-55.3714 F90.00
G01 X11.2311 Y-55.3714 F90.00
G01 X11.2112 Y-55.3699 F90.00
G01 X11.1916 Y-55.3665 F90.00
G01 X11.1004 Y-55.3456 F90.00
G01 X11.0861 Y-55.3414 F90.00
G01 X11.0721 Y-55.3361 F90.00
G01 X11.0541 Y-55.3274 F90.00
G01 X11.0455 Y-55.3225 F90.00
G01 X11.0330 Y-55.3142 F90.00
G01 X10.9558 Y-55.2529 F90.00
G01 X10.9444 Y-55.2431 F90.00
G01 X10.9337 Y-55.2323 F90.00
G01 X10.9238 Y-55.2208 F90.00
G01 X10.9149 Y-55.2086 F90.00
G01 X10.9094 Y-55.2001 F90.00
G01 X10.9044 Y-55.1913 F90.00
G01 X10.8684 Y-55.1242 F90.00
G01 X10.8640 Y-55.1150 F90.00
G01 X10.8583 Y-55.1007 F90.00
G01 X10.8351 Y-55.0295 F90.00
G01 X10.8292 Y-55.0095 F90.00
G01 X10.8168 Y-54.9633 F90.00
G01 X10.8050 Y-54.9347 F90.00
G01 X10.7810 Y-54.8933 F90.00
G01 X10.7735 Y-54.8796 F90.00
G01 X10.7494 Y-54.8323 F90.00
G01 X10.7319 Y-54.8068 F90.00
G01 X10.6998 Y-54.7713 F90.00
G01 X10.6813 Y-54.7492 F90.00
G01 X10.6613 Y-54.7285 F90.00
G01 X10.6293 Y-54.6929 F90.00
G01 X10.6017 Y-54.6693 F90.00
G01 X10.5941 Y-54.6621 F90.00
G01 X8.2326 Y-52.3006 F90.00
G01 X8.2225 Y-52.2896 F90.00
G01 X8.2102 Y-52.2739 F90.00
G01 X8.1576 Y-52.1906 F90.00
G01 X8.1478 Y-52.1732 F90.00
G01 X8.1436 Y-52.1642 F90.00
G01 X8.1382 Y-52.1502 F90.00
G01 X8.1325 Y-52.1311 F90.00
G01 X8.1296 Y-52.1164 F90.00
G01 X8.1282 Y-52.1066 F90.00
G01 X8.1174 Y-52.0086 F90.00
G01 X8.1170 Y-51.9937 F90.00
G01 X8.1183 Y-51.9738 F90.00
G01 X8.1215 Y-51.9541 F90.00
G01 X8.1252 Y-51.9396 F90.00
G01 X8.1282 Y-51.9301 F90.00
G01 X8.1592 Y-51.8418 F90.00
G01 X8.1650 Y-51.8280 F90.00
G01 X8.1718 Y-51.8147 F90.00
G01 X8.1796 Y-51.8020 F90.00
G01 X8.1853 Y-51.7938 F90.00
G01 X8.1947 Y-51.7821 F90.00
G01 X8.2014 Y-51.7747 F90.00
G01 X8.2710 Y-51.7050 F90.00
G01 X8.2823 Y-51.6952 F90.00
G01 X8.2942 Y-51.6861 F90.00
G01 X8.3111 Y-51.6755 F90.00
G01 X8.3199 Y-51.6709 F90.00
G01 X8.3335 Y-51.6647 F90.00
G01 X8.4264 Y-51.6319 F90.00
G01 X8.4456 Y-51.6263 F90.00
G01 X8.4602 Y-51.6233 F90.00
G01 X8.4751 Y-51.6215 F90.00
G01 X8.4950 Y-51.6207 F90.00
G01 X8.5149 Y-51.6220 F90.00
G01 X8.6079 Y-51.6325 F90.00
G01 X8.6179 Y-51.6341 F90.00
G01 X8.6277 Y-51.6363 F90.00
G01 X8.6375 Y-51.6389 F90.00
G01 X8.6471 Y-51.6420 F90.00
G01 X8.6675 Y-51.6498 F90.00
G01 X8.7100 Y-51.6675 F90.00
G01 X8.9243 Y-51.7189 F90.00
G01 X9.1440 Y-51.7362 F90.00
G01 X9.3637 Y-51.7189 F90.00
G01 X9.5067 Y-51.6846 F90.00
G01 X9.4230 Y-51.6008 F90.00
G01 X9.4024 Y-51.6059 F90.00
G01 X9.3928 Y-51.6078 F90.00
G01 X9.2714 Y-51.6256 F90.00
G01 X9.1538 Y-51.6316 F90.00
G01 X9.1342 Y-51.6316 F90.00
G01 X9.0173 Y-51.6257 F90.00
G01 X9.0068 Y-51.6244 F90.00
G01 X8.9001 Y-51.6086 F90.00
G01 X8.8808 Y-51.6047 F90.00
G01 X8.7761 Y-51.5785 F90.00
G01 X8.7620 Y-51.5744 F90.00
G01 X8.6557 Y-51.5364 F90.00
G01 X8.6375 Y-51.5289 F90.00
G01 X8.5308 Y-51.4781 F90.00
G01 X8.4301 Y-51.4180 F90.00
G01 X8.4137 Y-51.4071 F90.00
G01 X8.3193 Y-51.3368 F90.00
G01 X8.2248 Y-51.2511 F90.00
G01 X8.1391 Y-51.1566 F90.00
G01 X8.0687 Y-51.0621 F90.00
G01 X8.0578 Y-51.0458 F90.00
G01 X7.9975 Y-50.9447 F90.00
G01 X7.9468 Y-50.8381 F90.00
G01 X7.9394 Y-50.8202 F90.00
G01 X7.9015 Y-50.7139 F90.00
G01 X7.8974 Y-50.6998 F90.00
G01 X7.8711 Y-50.5951 F90.00
G01 X7.8673 Y-50.5758 F90.00
G01 X7.8503 Y-50.4593 F90.00
G01 X7.8442 Y-50.3417 F90.00
G01 X7.8442 Y-50.3220 F90.00
G01 X7.8502 Y-50.2051 F90.00
G01 X7.8515 Y-50.1947 F90.00
G01 X7.8681 Y-50.0831 F90.00
G01 X7.8700 Y-50.0734 F90.00
G01 X7.8751 Y-50.0529 F90.00
G01 X7.7913 Y-49.9691 F90.00
G01 X7.7570 Y-50.1122 F90.00
G01 X7.7397 Y-50.3319 F90.00
G01 X7.7570 Y-50.5515 F90.00
G01 X7.8084 Y-50.7658 F90.00
G01 X7.8296 Y-50.8177 F90.00
G01 X7.8341 Y-50.8320 F90.00
G01 X7.8365 Y-50.8416 F90.00
G01 X7.8533 Y-50.9387 F90.00
G01 X7.8552 Y-50.9536 F90.00
G01 X7.8561 Y-50.9685 F90.00
G01 X7.8560 Y-50.9785 F90.00
G01 X7.8550 Y-50.9934 F90.00
G01 X7.8528 Y-51.0082 F90.00
G01 X7.8483 Y-51.0276 F90.00
G01 X7.8223 Y-51.1175 F90.00
G01 X7.8173 Y-51.1316 F90.00
G01 X7.8090 Y-51.1497 F90.00
G01 X7.7989 Y-51.1669 F90.00
G01 X7.7872 Y-51.1830 F90.00
G01 X7.7183 Y-51.2603 F90.00
G01 X7.7040 Y-51.2742 F90.00
G01 X7.6923 Y-51.2836 F90.00
G01 X7.6758 Y-51.2947 F90.00
G01 X7.6582 Y-51.3041 F90.00
G01 X7.5627 Y-51.3439 F90.00
G01 X7.5437 Y-51.3501 F90.00
G01 X7.5243 Y-51.3545 F90.00
G01 X7.5045 Y-51.3568 F90.00
G01 X7.4895 Y-51.3573 F90.00
G01 X7.4795 Y-51.3570 F90.00
G01 X7.3812 Y-51.3512 F90.00
G01 X7.3615 Y-51.3481 F90.00
G01 X7.3470 Y-51.3445 F90.00
G01 X7.3281 Y-51.3380 F90.00
G01 X7.3100 Y-51.3297 F90.00
G01 X7.2267 Y-51.2837 F90.00
G01 X7.2183 Y-51.2787 F90.00
G01 X7.2062 Y-51.2705 F90.00
G01 X7.1984 Y-51.2645 F90.00
G01 X7.1874 Y-51.2548 F90.00
G01 X7.1753 Y-51.2432 F90.00
G01 X6.4054 Y-50.4733 F90.00
G01 X6.3952 Y-50.4624 F90.00
G01 X6.3859 Y-50.4507 F90.00
G01 X6.3801 Y-50.4425 F90.00
G01 X6.3303 Y-50.3633 F90.00
G01 X6.3207 Y-50.3462 F90.00
G01 X6.3146 Y-50.3328 F90.00
G01 X6.3081 Y-50.3143 F90.00
G01 X6.3034 Y-50.2952 F90.00
G01 X6.2913 Y-50.2247 F90.00
G01 X6.2890 Y-50.2056 F90.00
G01 X6.2885 Y-50.1912 F90.00
G01 X6.2885 Y-35.5074 F90.00
G01 X6.2895 Y-35.4875 F90.00
G01 X6.2925 Y-35.4678 F90.00
G01 X6.3144 Y-35.3718 F90.00
G01 X6.3201 Y-35.3530 F90.00
G01 X6.3257 Y-35.3394 F90.00
G01 X6.3322 Y-35.3262 F90.00
G01 X6.3423 Y-35.3094 F90.00
G01 X6.3865 Y-35.2471 F90.00
G01 X6.3955 Y-35.2359 F90.00
G01 X6.4020 Y-35.2287 F90.00
G01 X9.9864 Y-31.6443 F90.00
G01 X9.9973 Y-31.6341 F90.00
G01 X10.0050 Y-31.6278 F90.00
G01 X10.0214 Y-31.6164 F90.00
G01 X10.1006 Y-31.5666 F90.00
G01 X10.1183 Y-31.5573 F90.00
G01 X10.1320 Y-31.5515 F90.00
G01 X10.1510 Y-31.5454 F90.00
G01 X10.1656 Y-31.5421 F90.00
G01 X10.1754 Y-31.5405 F90.00
G01 X10.2734 Y-31.5294 F90.00
G01 X10.2933 Y-31.5287 F90.00
G01 X10.3032 Y-31.5291 F90.00
G01 X10.3181 Y-31.5306 F90.00
G01 X10.3280 Y-31.5322 F90.00
G01 X10.3425 Y-31.5355 F90.00
G01 X10.3568 Y-31.5399 F90.00
G01 X10.4451 Y-31.5709 F90.00
G01 X10.4634 Y-31.5788 F90.00
G01 X10.4808 Y-31.5886 F90.00
G01 X10.4971 Y-31.6000 F90.00
G01 X10.5122 Y-31.6130 F90.00
G01 X10.5853 Y-31.6864 F90.00
G01 X10.5918 Y-31.6939 F90.00
G01 X10.6008 Y-31.7058 F90.00
G01 X10.6114 Y-31.7227 F90.00
G01 X10.6183 Y-31.7360 F90.00
G01 X10.6241 Y-31.7498 F90.00
G01 X10.6566 Y-31.8429 F90.00
G01 X10.6595 Y-31.8527 F90.00
G01 X10.6619 Y-31.8626 F90.00
G01 X10.6638 Y-31.8727 F90.00
G01 X10.6651 Y-31.8828 F90.00
G01 X10.6672 Y-31.9152 F90.00
G01 X10.6675 Y-31.9264 F90.00
G01 X10.6673 Y-34.0504 F90.00
G01 X10.6659 Y-34.0653 F90.00
G01 X10.6635 Y-34.0801 F90.00
G01 X10.6428 Y-34.1713 F90.00
G01 X10.6377 Y-34.1895 F90.00
G01 X10.6324 Y-34.2037 F90.00
G01 X10.6261 Y-34.2174 F90.00
G01 X10.6213 Y-34.2262 F90.00
G01 X10.6045 Y-34.2541 F90.00
G01 X10.5787 Y-34.3232 F90.00
G01 X10.5711 Y-34.3405 F90.00
G01 X10.5643 Y-34.3529 F90.00
G01 X10.5593 Y-34.3609 F90.00
G01 X10.5106 Y-34.4349 F90.00
G01 X10.4989 Y-34.4510 F90.00
G01 X10.4890 Y-34.4623 F90.00
G01 X10.4746 Y-34.4761 F90.00
G01 X10.4630 Y-34.4855 F90.00
G01 X10.4464 Y-34.4966 F90.00
G01 X10.3618 Y-34.5471 F90.00
G01 X10.3438 Y-34.5556 F90.00
G01 X10.3250 Y-34.5623 F90.00
G01 X10.3105 Y-34.5660 F90.00
G01 X10.2909 Y-34.5693 F90.00
G01 X10.1977 Y-34.5780 F90.00
G01 X10.1828 Y-34.5788 F90.00
G01 X10.1678 Y-34.5785 F90.00
G01 X10.1529 Y-34.5770 F90.00
G01 X10.1382 Y-34.5745 F90.00
G01 X10.1237 Y-34.5709 F90.00
G01 X10.1095 Y-34.5662 F90.00
G01 X10.0265 Y-34.5352 F90.00
G01 X10.0124 Y-34.5294 F90.00
G01 X9.9993 Y-34.5227 F90.00
G01 X9.9909 Y-34.5177 F90.00
G01 X9.9795 Y-34.5102 F90.00
G01 X9.7815 Y-34.3887 F90.00
G01 X9.5780 Y-34.3044 F90.00
G01 X9.3637 Y-34.2530 F90.00
G01 X9.1440 Y-34.2357 F90.00
G01 X8.9243 Y-34.2530 F90.00
G01 X8.7813 Y-34.2873 F90.00
G01 X8.8650 Y-34.3711 F90.00
G01 X8.8856 Y-34.3660 F90.00
G01 X8.8952 Y-34.3641 F90.00
G01 X9.0117 Y-34.3468 F90.00
G01 X9.0264 Y-34.3455 F90.00
G01 X9.1440 Y-34.3400 F90.00
G01 X9.2707 Y-34.3462 F90.00
G01 X9.2812 Y-34.3475 F90.00
G01 X9.3879 Y-34.3633 F90.00
G01 X9.4024 Y-34.3660 F90.00
G01 X9.5214 Y-34.3960 F90.00
G01 X9.6323 Y-34.4354 F90.00
G01 X9.6505 Y-34.4429 F90.00
G01 X9.7489 Y-34.4895 F90.00
G01 X9.7613 Y-34.4960 F90.00
G01 X9.8662 Y-34.5591 F90.00
G01 X9.9649 Y-34.6320 F90.00
G01 X9.9761 Y-34.6415 F90.00
G01 X10.0597 Y-34.7173 F90.00
G01 X10.0700 Y-34.7279 F90.00
G01 X10.1134 Y-34.7757 F90.00
G01 X10.6680 Y-34.7757 F90.00
G01 X10.6681 Y-34.4011 F90.00
G01 X10.6690 Y-34.3864 F90.00
G01 X10.6702 Y-34.3767 F90.00
G01 X10.6729 Y-34.3622 F90.00
G01 X10.6752 Y-34.3527 F90.00
G01 X10.6781 Y-34.3433 F90.00
G01 X10.6832 Y-34.3295 F90.00
G01 X10.6894 Y-34.3161 F90.00
G01 X10.6965 Y-34.3032 F90.00
G01 X10.7045 Y-34.2908 F90.00
G01 X10.7134 Y-34.2791 F90.00
G01 X10.7232 Y-34.2681 F90.00
G01 X10.7301 Y-34.2612 F90.00
G01 X10.7374 Y-34.2546 F90.00
G01 X10.7489 Y-34.2454 F90.00
G01 X10.7569 Y-34.2397 F90.00
G01 X10.7694 Y-34.2320 F90.00
G01 X10.7825 Y-34.2252 F90.00
G01 X10.7960 Y-34.2194 F90.00
G01 X10.8099 Y-34.2146 F90.00
G01 X10.8194 Y-34.2120 F90.00
G01 X10.8338 Y-34.2089 F90.00
G01 X10.8435 Y-34.2075 F90.00
G01 X10.8582 Y-34.2062 F90.00
G01 X10.8680 Y-34.2060 F90.00
G01 X13.0080 Y-34.2060 F90.00
G01 X13.0276 Y-34.2070 F90.00
G01 X13.0422 Y-34.2089 F90.00
G01 X13.0518 Y-34.2109 F90.00
G01 X13.0661 Y-34.2146 F90.00
G01 X13.0800 Y-34.2194 F90.00
G01 X13.0935 Y-34.2252 F90.00
G01 X13.1023 Y-34.2296 F90.00
G01 X13.1150 Y-34.2370 F90.00
G01 X13.1232 Y-34.2425 F90.00
G01 X13.1349 Y-34.2514 F90.00
G01 X13.1423 Y-34.2578 F90.00
G01 X13.1494 Y-34.2646 F90.00
G01 X13.1594 Y-34.2754 F90.00
G01 X13.1657 Y-34.2830 F90.00
G01 X13.1743 Y-34.2949 F90.00
G01 X13.1820 Y-34.3074 F90.00
G01 X13.1866 Y-34.3161 F90.00
G01 X13.1908 Y-34.3250 F90.00
G01 X13.1963 Y-34.3386 F90.00
G01 X13.2020 Y-34.3574 F90.00
G01 X13.2058 Y-34.3767 F90.00
G01 X13.2078 Y-34.3962 F90.00
G01 X13.2080 Y-34.7760 F90.00
G01 X13.3080 Y-34.7760 F90.00
G01 X13.3080 Y-34.3689 F90.00
G01 X13.3054 Y-34.3450 F90.00
G01 X13.2707 Y-34.2517 F90.00
G01 X13.2654 Y-34.2409 F90.00
G01 X13.2257 Y-34.1509 F90.00
G01 X13.2208 Y-34.1368 F90.00
G01 X13.2171 Y-34.1225 F90.00
G01 X13.2137 Y-34.1030 F90.00
G01 X13.2087 Y-34.0501 F90.00
G01 X13.2086 Y-33.9064 F90.00
G01 X13.2095 Y-33.8915 F90.00
G01 X13.2125 Y-33.8718 F90.00
G01 X13.2332 Y-33.7806 F90.00
G01 X13.2386 Y-33.7614 F90.00
G01 X13.2459 Y-33.7428 F90.00
G01 X13.2502 Y-33.7338 F90.00
G01 X13.2575 Y-33.7208 F90.00
G01 X13.2688 Y-33.7043 F90.00
G01 X13.3271 Y-33.6311 F90.00
G01 X13.3368 Y-33.6198 F90.00
G01 X13.3474 Y-33.6092 F90.00
G01 X13.3587 Y-33.5995 F90.00
G01 X13.3708 Y-33.5906 F90.00
G01 X13.3995 Y-33.5711 F90.00
G01 X13.4233 Y-33.5570 F90.00
G01 X13.4370 Y-33.5495 F90.00
G01 X13.4843 Y-33.5253 F90.00
G01 X13.5098 Y-33.5079 F90.00
G01 X13.5453 Y-33.4758 F90.00
G01 X13.5674 Y-33.4573 F90.00
G01 X13.5881 Y-33.4373 F90.00
G01 X13.6237 Y-33.4053 F90.00
G01 X13.6473 Y-33.3777 F90.00
G01 X13.6545 Y-33.3701 F90.00
G01 X14.3699 Y-32.6548 F90.00
G01 X14.3850 Y-32.6418 F90.00
G01 X14.4014 Y-32.6304 F90.00
G01 X14.4806 Y-32.5806 F90.00
G01 X14.4938 Y-32.5735 F90.00
G01 X14.5028 Y-32.5693 F90.00
G01 X14.5167 Y-32.5638 F90.00
G01 X14.5310 Y-32.5594 F90.00
G01 X14.5407 Y-32.5571 F90.00
G01 X14.5554 Y-32.5545 F90.00
G01 X14.6533 Y-32.5434 F90.00
G01 X14.6733 Y-32.5427 F90.00
G01 X14.6882 Y-32.5434 F90.00
G01 X14.7080 Y-32.5462 F90.00
G01 X14.7177 Y-32.5483 F90.00
G01 X14.7321 Y-32.5523 F90.00
G01 X14.8251 Y-32.5849 F90.00
G01 X14.8434 Y-32.5928 F90.00
G01 X14.8565 Y-32.6000 F90.00
G01 X14.8691 Y-32.6081 F90.00
G01 X14.8771 Y-32.6140 F90.00
G01 X14.8886 Y-32.6236 F90.00
G01 X14.8958 Y-32.6305 F90.00
G01 X14.9653 Y-32.7004 F90.00
G01 X14.9749 Y-32.7118 F90.00
G01 X14.9863 Y-32.7281 F90.00
G01 X14.9961 Y-32.7455 F90.00
G01 X15.0022 Y-32.7592 F90.00
G01 X15.0350 Y-32.8521 F90.00
G01 X15.0381 Y-32.8618 F90.00
G01 X15.0408 Y-32.8717 F90.00
G01 X15.0429 Y-32.8816 F90.00
G01 X15.0451 Y-32.8968 F90.00
G01 X15.0472 Y-32.9292 F90.00
G01 X15.0475 Y-32.9404 F90.00
G01 X15.0474 Y-34.9156 F90.00
G01 X15.0465 Y-34.9305 F90.00
G01 X15.0435 Y-34.9502 F90.00
G01 X15.0228 Y-35.0414 F90.00
G01 X15.0175 Y-35.0603 F90.00
G01 X15.0141 Y-35.0695 F90.00
G01 X15.0083 Y-35.0831 F90.00
G01 X15.0038 Y-35.0918 F90.00
G01 X14.9964 Y-35.1045 F90.00
G01 X14.9495 Y-35.1709 F90.00
G01 X14.9405 Y-35.1821 F90.00
G01 X14.9340 Y-35.1893 F90.00
G01 X13.9684 Y-36.1550 F90.00
G01 X13.9536 Y-36.1683 F90.00
G01 X13.9376 Y-36.1802 F90.00
G01 X13.8498 Y-36.2351 F90.00
G01 X13.8320 Y-36.2440 F90.00
G01 X13.8133 Y-36.2510 F90.00
G01 X13.7940 Y-36.2562 F90.00
G01 X13.7793 Y-36.2588 F90.00
G01 X13.6814 Y-36.2698 F90.00
G01 X13.6615 Y-36.2706 F90.00
G01 X13.6465 Y-36.2698 F90.00
G01 X13.6366 Y-36.2687 F90.00
G01 X13.6268 Y-36.2671 F90.00
G01 X13.6122 Y-36.2638 F90.00
G01 X13.5979 Y-36.2593 F90.00
G01 X13.5064 Y-36.2272 F90.00
G01 X13.4886 Y-36.2190 F90.00
G01 X13.4716 Y-36.2092 F90.00
G01 X13.4596 Y-36.2007 F90.00
G01 X13.4285 Y-36.1760 F90.00
G01 X13.2080 Y-36.1760 F90.00
G01 X13.2079 Y-36.5509 F90.00
G01 X13.2070 Y-36.5656 F90.00
G01 X13.2051 Y-36.5802 F90.00
G01 X13.2031 Y-36.5898 F90.00
G01 X13.1994 Y-36.6041 F90.00
G01 X13.1946 Y-36.6180 F90.00
G01 X13.1908 Y-36.6270 F90.00
G01 X13.1844 Y-36.6403 F90.00
G01 X13.1770 Y-36.6530 F90.00
G01 X13.1715 Y-36.6612 F90.00
G01 X13.1626 Y-36.6729 F90.00
G01 X13.1528 Y-36.6839 F90.00
G01 X13.1423 Y-36.6942 F90.00
G01 X13.1310 Y-36.7037 F90.00
G01 X13.1232 Y-36.7095 F90.00
G01 X13.1108 Y-36.7175 F90.00
G01 X13.0979 Y-36.7246 F90.00
G01 X13.0845 Y-36.7308 F90.00
G01 X13.0707 Y-36.7359 F90.00
G01 X13.0566 Y-36.7400 F90.00
G01 X13.0422 Y-36.7431 F90.00
G01 X13.0276 Y-36.7450 F90.00
G01 X13.0080 Y-36.7460 F90.00
G01 X10.8680 Y-36.7460 F90.00
G01 X10.8484 Y-36.7450 F90.00
G01 X10.8338 Y-36.7431 F90.00
G01 X10.8194 Y-36.7400 F90.00
G01 X10.8053 Y-36.7359 F90.00
G01 X10.7915 Y-36.7308 F90.00
G01 X10.7781 Y-36.7246 F90.00
G01 X10.7652 Y-36.7175 F90.00
G01 X10.7528 Y-36.7095 F90.00
G01 X10.7411 Y-36.7006 F90.00
G01 X10.7301 Y-36.6908 F90.00
G01 X10.7198 Y-36.6803 F90.00
G01 X10.7103 Y-36.6690 F90.00
G01 X10.7017 Y-36.6571 F90.00
G01 X10.6940 Y-36.6446 F90.00
G01 X10.6872 Y-36.6315 F90.00
G01 X10.6797 Y-36.6134 F90.00
G01 X10.6740 Y-36.5946 F90.00
G01 X10.6709 Y-36.5802 F90.00
G01 X10.6690 Y-36.5656 F90.00
G01 X10.6681 Y-36.5509 F90.00
G01 X10.6680 Y-36.1763 F90.00
G01 X10.3270 Y-36.1763 F90.00
G01 X10.2903 Y-36.2532 F90.00
G01 X10.2249 Y-36.3622 F90.00
G01 X10.1489 Y-36.4647 F90.00
G01 X10.0667 Y-36.5557 F90.00
G01 X10.0561 Y-36.5660 F90.00
G01 X9.9761 Y-36.6385 F90.00
G01 X9.9610 Y-36.6510 F90.00
G01 X9.8662 Y-36.7209 F90.00
G01 X9.7568 Y-36.7865 F90.00
