(G-code generated by FlatCAM Evo vUnstable - Version Date: 2023/6/31)

(Name: Power_Breakout-Edge_Cuts_cutout_cnc)
(Type: G-code from Geometry)
(Units: MM)

(Created on Monday, 18 March 2024 at 19:24)

(This preprocessor is used with a motion controller loaded with GRBL firmware.)
(It is configured to be compatible with almost any version of GRBL firmware. No M6 command.)

(TOOL DIAMETER: 0.5 mm)
(Feedrate_XY: 60.0 mm/min)
(Feedrate_Z: 60.0 mm/min)
(Feedrate rapids 1500.0 mm/min)

(Z_Cut: -2.0 mm)
(DepthPerCut: 0.5 mm <=>4 passes)
(Z_Move: 2.0 mm)
(Z Start: None mm)
(Z End: 15.0 mm)
(X,Y End: 0.0000, 0.0000 mm)
(Steps per circle: 16)
(Steps per circle: 16)
(Preprocessor Geometry: GRBL_11_no_M6)

(X range:   -0.4000 ...   16.1480  mm)
(Y range:  -51.9620 ...    0.4000  mm)

(Spindle Speed: 0.0 RPM)
G21
G90
G17
G94


G01 F60.00

M5             
G00 Z15.0000
G00 X0.0000 Y0.0000                
T1
(MSG, Change to Tool Dia = 0.5000)
M0
G00 Z15.0000
        
M03
G01 F60.00
G00 X7.1240 Y0.4000
G01 F60.00
G01 Z-0.5000
G01 F60.00
G01 X-0.0221 Y0.3994 F60.00
G01 X-0.0996 Y0.3874 F60.00
G01 X-0.1732 Y0.3605 F60.00
G01 X-0.2402 Y0.3198 F60.00
G01 X-0.2947 Y0.2704 F60.00
G01 X-0.3326 Y0.2222 F60.00
G01 X-0.3696 Y0.1531 F60.00
G01 X-0.3923 Y0.0780 F60.00
G01 X-0.4000 Y-0.0000 F60.00
G01 X-0.3960 Y-51.6183 F60.00
G01 X-0.3828 Y-51.6781 F60.00
G01 X-0.3528 Y-51.7506 F60.00
G01 X-0.3092 Y-51.8158 F60.00
G01 X-0.2668 Y-51.8600 F60.00
G01 X-0.2077 Y-51.9038 F60.00
G01 X-0.1531 Y-51.9316 F60.00
G01 X-0.0780 Y-51.9543 F60.00
G01 X-0.0172 Y-51.9616 F60.00
G01 X7.1240 Y-51.9620 F60.00
G00 X7.1240 Y-51.9620
G01 F60.00
G01 Z-1.0000
G01 F60.00
G01 X-0.0221 Y-51.9614 F60.00
G01 X-0.0948 Y-51.9506 F60.00
G01 X-0.1688 Y-51.9246 F60.00
G01 X-0.2363 Y-51.8847 F60.00
G01 X-0.2947 Y-51.8324 F60.00
G01 X-0.3326 Y-51.7842 F60.00
G01 X-0.3696 Y-51.7151 F60.00
G01 X-0.3923 Y-51.6400 F60.00
G01 X-0.4000 Y-51.5620 F60.00
G01 X-0.3960 Y0.0563 F60.00
G01 X-0.3828 Y0.1161 F60.00
G01 X-0.3528 Y0.1886 F60.00
G01 X-0.3092 Y0.2538 F60.00
G01 X-0.2668 Y0.2980 F60.00
G01 X-0.2077 Y0.3418 F60.00
G01 X-0.1531 Y0.3696 F60.00
G01 X-0.0780 Y0.3923 F60.00
G01 X-0.0172 Y0.3996 F60.00
G01 X7.1240 Y0.4000 F60.00
G00 X7.1240 Y0.4000
G01 F60.00
G01 Z-1.5000
G01 F60.00
G01 X-0.0221 Y0.3994 F60.00
G01 X-0.0996 Y0.3874 F60.00
G01 X-0.1732 Y0.3605 F60.00
G01 X-0.2402 Y0.3198 F60.00
G01 X-0.2947 Y0.2704 F60.00
G01 X-0.3326 Y0.2222 F60.00
G01 X-0.3696 Y0.1531 F60.00
G01 X-0.3923 Y0.0780 F60.00
G01 X-0.4000 Y-0.0000 F60.00
G01 X-0.3960 Y-51.6183 F60.00
G01 X-0.3828 Y-51.6781 F60.00
G01 X-0.3528 Y-51.7506 F60.00
G01 X-0.3092 Y-51.8158 F60.00
G01 X-0.2668 Y-51.8600 F60.00
G01 X-0.2077 Y-51.9038 F60.00
G01 X-0.1531 Y-51.9316 F60.00
G01 X-0.0780 Y-51.9543 F60.00
G01 X-0.0172 Y-51.9616 F60.00
G01 X7.1240 Y-51.9620 F60.00
G00 X7.1240 Y-51.9620
G01 F60.00
G01 Z-2.0000
G01 F60.00
G01 X-0.0221 Y-51.9614 F60.00
G01 X-0.0948 Y-51.9506 F60.00
G01 X-0.1688 Y-51.9246 F60.00
G01 X-0.2363 Y-51.8847 F60.00
G01 X-0.2947 Y-51.8324 F60.00
G01 X-0.3326 Y-51.7842 F60.00
G01 X-0.3696 Y-51.7151 F60.00
G01 X-0.3923 Y-51.6400 F60.00
G01 X-0.4000 Y-51.5620 F60.00
G01 X-0.3960 Y0.0563 F60.00
G01 X-0.3828 Y0.1161 F60.00
G01 X-0.3528 Y0.1886 F60.00
G01 X-0.3092 Y0.2538 F60.00
G01 X-0.2668 Y0.2980 F60.00
G01 X-0.2077 Y0.3418 F60.00
G01 X-0.1531 Y0.3696 F60.00
G01 X-0.0780 Y0.3923 F60.00
G01 X-0.0172 Y0.3996 F60.00
G01 X7.1240 Y0.4000 F60.00
G00 Z2.0000
G00 X8.6240 Y0.4000
G01 F60.00
G01 Z-0.5000
G01 F60.00
G01 X15.7701 Y0.3994 F60.00
G01 X15.8428 Y0.3886 F60.00
G01 X15.9168 Y0.3626 F60.00
G01 X15.9843 Y0.3227 F60.00
G01 X16.0427 Y0.2704 F60.00
G01 X16.0806 Y0.2222 F60.00
G01 X16.1176 Y0.1531 F60.00
G01 X16.1403 Y0.0780 F60.00
G01 X16.1480 Y-0.0000 F60.00
G01 X16.1440 Y-51.6183 F60.00
G01 X16.1308 Y-51.6781 F60.00
G01 X16.1008 Y-51.7506 F60.00
G01 X16.0572 Y-51.8158 F60.00
G01 X16.0148 Y-51.8600 F60.00
G01 X15.9557 Y-51.9038 F60.00
G01 X15.9011 Y-51.9316 F60.00
G01 X15.8260 Y-51.9543 F60.00
G01 X15.7652 Y-51.9616 F60.00
G01 X8.6240 Y-51.9620 F60.00
G00 X8.6240 Y-51.9620
G01 F60.00
G01 Z-1.0000
G01 F60.00
G01 X15.7701 Y-51.9614 F60.00
G01 X15.8476 Y-51.9494 F60.00
G01 X15.9212 Y-51.9225 F60.00
G01 X15.9843 Y-51.8847 F60.00
G01 X16.0427 Y-51.8324 F60.00
G01 X16.0806 Y-51.7842 F60.00
G01 X16.1176 Y-51.7151 F60.00
G01 X16.1403 Y-51.6400 F60.00
G01 X16.1480 Y-51.5620 F60.00
G01 X16.1440 Y0.0563 F60.00
G01 X16.1308 Y0.1161 F60.00
G01 X16.1008 Y0.1886 F60.00
G01 X16.0572 Y0.2538 F60.00
G01 X16.0148 Y0.2980 F60.00
G01 X15.9557 Y0.3418 F60.00
G01 X15.9011 Y0.3696 F60.00
G01 X15.8260 Y0.3923 F60.00
G01 X15.7652 Y0.3996 F60.00
G01 X8.6240 Y0.4000 F60.00
G00 X8.6240 Y0.4000
G01 F60.00
G01 Z-1.5000
G01 F60.00
G01 X15.7701 Y0.3994 F60.00
G01 X15.8428 Y0.3886 F60.00
G01 X15.9168 Y0.3626 F60.00
G01 X15.9843 Y0.3227 F60.00
G01 X16.0427 Y0.2704 F60.00
G01 X16.0806 Y0.2222 F60.00
G01 X16.1176 Y0.1531 F60.00
G01 X16.1403 Y0.0780 F60.00
G01 X16.1480 Y-0.0000 F60.00
G01 X16.1440 Y-51.6183 F60.00
G01 X16.1308 Y-51.6781 F60.00
G01 X16.1008 Y-51.7506 F60.00
G01 X16.0572 Y-51.8158 F60.00
G01 X16.0148 Y-51.8600 F60.00
G01 X15.9557 Y-51.9038 F60.00
G01 X15.9011 Y-51.9316 F60.00
G01 X15.8260 Y-51.9543 F60.00
G01 X15.7652 Y-51.9616 F60.00
G01 X8.6240 Y-51.9620 F60.00
G00 X8.6240 Y-51.9620
G01 F60.00
G01 Z-2.0000
G01 F60.00
G01 X15.7701 Y-51.9614 F60.00
G01 X15.8476 Y-51.9494 F60.00
G01 X15.9212 Y-51.9225 F60.00
G01 X15.9843 Y-51.8847 F60.00
G01 X16.0427 Y-51.8324 F60.00
G01 X16.0806 Y-51.7842 F60.00
G01 X16.1176 Y-51.7151 F60.00
G01 X16.1403 Y-51.6400 F60.00
G01 X16.1480 Y-51.5620 F60.00
G01 X16.1440 Y0.0563 F60.00
G01 X16.1308 Y0.1161 F60.00
G01 X16.1008 Y0.1886 F60.00
G01 X16.0572 Y0.2538 F60.00
G01 X16.0148 Y0.2980 F60.00
G01 X15.9557 Y0.3418 F60.00
G01 X15.9011 Y0.3696 F60.00
G01 X15.8260 Y0.3923 F60.00
G01 X15.7652 Y0.3996 F60.00
G01 X8.6240 Y0.4000 F60.00
G00 Z2.0000
G01 F60.00

M5             
G00 Z15.0000
G00 X0.0000 Y0.0000                
T99
(MSG, Change to Tool Dia = 0.5000)
M0
G00 Z15.0000
        
M03
G01 F60.00
G00 X7.1240 Y0.4000
G01 F60.00
G01 Z-0.5000
G01 F60.00
G01 X8.6240 Y0.4000 F60.00
G00 X8.6240 Y0.4000
G01 F60.00
G01 Z-1.0000
G01 F60.00
G01 X7.1240 Y0.4000 F60.00
G00 Z2.0000
G00 X8.6240 Y-51.9620
G01 F60.00
G01 Z-0.5000
G01 F60.00
G01 X7.1240 Y-51.9620 F60.00
G00 X7.1240 Y-51.9620
G01 F60.00
G01 Z-1.0000
G01 F60.00
G01 X8.6240 Y-51.9620 F60.00
G00 Z2.0000
M05
G00 Z2.0000
G00 Z15.00
G00 X0.0 Y0.0


