(G-CODE GENERATED BY FLATCAM v8.994 - www.flatcam.org - Version Date: 2020/11/7)

(Name: Power_Breakout-F_Cu.gbr_iso_combined_cnc)
(Type: G-code from Geometry)
(Units: MM)

(Created on Monday, 18 March 2024 at 20:08)

(This preprocessor is used with a motion controller loaded with GRBL firmware.)
(It is configured to be compatible with almost any version of GRBL firmware.)

(TOOL DIAMETER: 0.4 mm)
(Feedrate_XY: 75.0 mm/min)
(Feedrate_Z: 45.0 mm/min)
(Feedrate rapids 1500.0 mm/min)

(Z_Cut: -0.085 mm)
(Z_Move: 2.0 mm)
(Z Start: None mm)
(Z End: 15.0 mm)
(X,Y End: 0.0000, 0.0000 mm)
(Steps per circle: 64)
(Steps per circle: 64)
(Preprocessor Geometry: GRBL_11_no_M6)

(X range:    2.0320 ...   13.7720  mm)
(Y range:  -49.0220 ...   -1.5240  mm)

(Spindle Speed: 0.0 RPM)
G21
G90
G17
G94


G01 F75.00

M5             
G00 Z15.0000
G00 X0.0000 Y0.0000                
T1
(MSG, Change to Tool Dia = 0.4000)
M0
G00 Z15.0000
        
M03
G01 F75.00
G00 X11.2320 Y-31.4420
G01 F45.00
G01 Z-0.0850
G01 F75.00
G01 X11.2320 Y-33.5820 F75.00
G01 X11.2325 Y-33.5967 F75.00
G01 X11.2335 Y-33.6065 F75.00
G01 X11.2358 Y-33.6210 F75.00
G01 X11.2380 Y-33.6306 F75.00
G01 X11.2406 Y-33.6401 F75.00
G01 X11.2454 Y-33.6540 F75.00
G01 X11.2512 Y-33.6675 F75.00
G01 X11.2580 Y-33.6806 F75.00
G01 X11.2657 Y-33.6931 F75.00
G01 X11.2714 Y-33.7011 F75.00
G01 X11.2806 Y-33.7126 F75.00
G01 X11.2906 Y-33.7234 F75.00
G01 X11.3014 Y-33.7334 F75.00
G01 X11.3090 Y-33.7397 F75.00
G01 X11.3209 Y-33.7483 F75.00
G01 X11.3292 Y-33.7535 F75.00
G01 X11.3421 Y-33.7606 F75.00
G01 X11.3555 Y-33.7668 F75.00
G01 X11.3693 Y-33.7719 F75.00
G01 X11.3787 Y-33.7748 F75.00
G01 X11.3882 Y-33.7771 F75.00
G01 X11.4027 Y-33.7798 F75.00
G01 X11.4173 Y-33.7815 F75.00
G01 X11.4271 Y-33.7819 F75.00
G01 X11.8017 Y-33.7820 F75.00
G01 X11.4271 Y-33.7821 F75.00
G01 X11.4124 Y-33.7830 F75.00
G01 X11.3978 Y-33.7849 F75.00
G01 X11.3834 Y-33.7880 F75.00
G01 X11.3693 Y-33.7921 F75.00
G01 X11.3555 Y-33.7972 F75.00
G01 X11.3421 Y-33.8034 F75.00
G01 X11.3292 Y-33.8105 F75.00
G01 X11.3168 Y-33.8185 F75.00
G01 X11.3051 Y-33.8274 F75.00
G01 X11.2941 Y-33.8372 F75.00
G01 X11.2838 Y-33.8477 F75.00
G01 X11.2743 Y-33.8590 F75.00
G01 X11.2657 Y-33.8709 F75.00
G01 X11.2580 Y-33.8834 F75.00
G01 X11.2512 Y-33.8965 F75.00
G01 X11.2454 Y-33.9100 F75.00
G01 X11.2406 Y-33.9239 F75.00
G01 X11.2358 Y-33.9430 F75.00
G01 X11.2335 Y-33.9575 F75.00
G01 X11.2322 Y-33.9722 F75.00
G01 X11.2320 Y-36.1220 F75.00
G01 X11.2325 Y-36.1367 F75.00
G01 X11.2335 Y-36.1465 F75.00
G01 X11.2358 Y-36.1610 F75.00
G01 X11.2380 Y-36.1706 F75.00
G01 X11.2406 Y-36.1801 F75.00
G01 X11.2454 Y-36.1940 F75.00
G01 X11.2512 Y-36.2075 F75.00
G01 X11.2580 Y-36.2206 F75.00
G01 X11.2657 Y-36.2331 F75.00
G01 X11.2714 Y-36.2411 F75.00
G01 X11.2806 Y-36.2526 F75.00
G01 X11.2906 Y-36.2634 F75.00
G01 X11.3014 Y-36.2734 F75.00
G01 X11.3090 Y-36.2797 F75.00
G01 X11.3168 Y-36.2855 F75.00
G01 X11.3292 Y-36.2935 F75.00
G01 X11.3421 Y-36.3006 F75.00
G01 X11.3555 Y-36.3068 F75.00
G01 X11.3693 Y-36.3119 F75.00
G01 X11.3787 Y-36.3148 F75.00
G01 X11.3882 Y-36.3171 F75.00
G01 X11.4027 Y-36.3198 F75.00
G01 X11.4173 Y-36.3215 F75.00
G01 X11.4271 Y-36.3219 F75.00
G01 X11.8017 Y-36.3220 F75.00
G01 X11.4271 Y-36.3221 F75.00
G01 X11.4124 Y-36.3230 F75.00
G01 X11.3978 Y-36.3249 F75.00
G01 X11.3834 Y-36.3280 F75.00
G01 X11.3693 Y-36.3321 F75.00
G01 X11.3555 Y-36.3372 F75.00
G01 X11.3421 Y-36.3434 F75.00
G01 X11.3292 Y-36.3505 F75.00
G01 X11.3168 Y-36.3585 F75.00
G01 X11.3051 Y-36.3674 F75.00
G01 X11.2941 Y-36.3772 F75.00
G01 X11.2838 Y-36.3877 F75.00
G01 X11.2743 Y-36.3990 F75.00
G01 X11.2657 Y-36.4109 F75.00
G01 X11.2580 Y-36.4234 F75.00
G01 X11.2512 Y-36.4365 F75.00
G01 X11.2454 Y-36.4500 F75.00
G01 X11.2406 Y-36.4639 F75.00
G01 X11.2358 Y-36.4830 F75.00
G01 X11.2335 Y-36.4975 F75.00
G01 X11.2322 Y-36.5122 F75.00
G01 X11.2320 Y-38.6620 F75.00
G01 X11.2325 Y-38.6767 F75.00
G01 X11.2335 Y-38.6865 F75.00
G01 X11.2358 Y-38.7010 F75.00
G01 X11.2380 Y-38.7106 F75.00
G01 X11.2406 Y-38.7201 F75.00
G01 X11.2454 Y-38.7340 F75.00
G01 X11.2512 Y-38.7475 F75.00
G01 X11.2580 Y-38.7606 F75.00
G01 X11.2657 Y-38.7731 F75.00
G01 X11.2714 Y-38.7811 F75.00
G01 X11.2806 Y-38.7926 F75.00
G01 X11.2906 Y-38.8034 F75.00
G01 X11.3014 Y-38.8134 F75.00
G01 X11.3090 Y-38.8197 F75.00
G01 X11.3209 Y-38.8283 F75.00
G01 X11.3292 Y-38.8335 F75.00
G01 X11.3421 Y-38.8406 F75.00
G01 X11.3555 Y-38.8468 F75.00
G01 X11.3693 Y-38.8519 F75.00
G01 X11.3787 Y-38.8548 F75.00
G01 X11.3882 Y-38.8571 F75.00
G01 X11.4027 Y-38.8598 F75.00
G01 X11.4173 Y-38.8615 F75.00
G01 X11.4271 Y-38.8619 F75.00
G01 X11.8017 Y-38.8620 F75.00
G01 X11.4271 Y-38.8621 F75.00
G01 X11.4124 Y-38.8630 F75.00
G01 X11.3978 Y-38.8649 F75.00
G01 X11.3834 Y-38.8680 F75.00
G01 X11.3693 Y-38.8721 F75.00
G01 X11.3555 Y-38.8772 F75.00
G01 X11.3421 Y-38.8834 F75.00
G01 X11.3292 Y-38.8905 F75.00
G01 X11.3168 Y-38.8985 F75.00
G01 X11.3051 Y-38.9074 F75.00
G01 X11.2941 Y-38.9172 F75.00
G01 X11.2838 Y-38.9277 F75.00
G01 X11.2743 Y-38.9390 F75.00
G01 X11.2657 Y-38.9509 F75.00
G01 X11.2580 Y-38.9634 F75.00
G01 X11.2512 Y-38.9765 F75.00
G01 X11.2454 Y-38.9900 F75.00
G01 X11.2406 Y-39.0039 F75.00
G01 X11.2358 Y-39.0230 F75.00
G01 X11.2335 Y-39.0375 F75.00
G01 X11.2322 Y-39.0522 F75.00
G01 X11.2320 Y-41.2020 F75.00
G01 X11.2325 Y-41.2167 F75.00
G01 X11.2335 Y-41.2265 F75.00
G01 X11.2358 Y-41.2410 F75.00
G01 X11.2380 Y-41.2506 F75.00
G01 X11.2406 Y-41.2601 F75.00
G01 X11.2454 Y-41.2740 F75.00
G01 X11.2512 Y-41.2875 F75.00
G01 X11.2580 Y-41.3006 F75.00
G01 X11.2657 Y-41.3131 F75.00
G01 X11.2714 Y-41.3211 F75.00
G01 X11.2806 Y-41.3326 F75.00
G01 X11.2906 Y-41.3434 F75.00
G01 X11.3014 Y-41.3534 F75.00
G01 X11.3090 Y-41.3597 F75.00
G01 X11.3168 Y-41.3655 F75.00
G01 X11.3292 Y-41.3735 F75.00
G01 X11.3421 Y-41.3806 F75.00
G01 X11.3555 Y-41.3868 F75.00
G01 X11.3693 Y-41.3919 F75.00
G01 X11.3787 Y-41.3948 F75.00
G01 X11.3882 Y-41.3971 F75.00
G01 X11.4027 Y-41.3998 F75.00
G01 X11.4173 Y-41.4015 F75.00
G01 X11.4271 Y-41.4019 F75.00
G01 X11.8017 Y-41.4020 F75.00
G01 X11.4271 Y-41.4021 F75.00
G01 X11.4124 Y-41.4030 F75.00
G01 X11.3978 Y-41.4049 F75.00
G01 X11.3834 Y-41.4080 F75.00
G01 X11.3693 Y-41.4121 F75.00
G01 X11.3555 Y-41.4172 F75.00
G01 X11.3421 Y-41.4234 F75.00
G01 X11.3292 Y-41.4305 F75.00
G01 X11.3168 Y-41.4385 F75.00
G01 X11.3051 Y-41.4474 F75.00
G01 X11.2941 Y-41.4572 F75.00
G01 X11.2838 Y-41.4677 F75.00
G01 X11.2743 Y-41.4790 F75.00
G01 X11.2657 Y-41.4909 F75.00
G01 X11.2580 Y-41.5034 F75.00
G01 X11.2512 Y-41.5165 F75.00
G01 X11.2454 Y-41.5300 F75.00
G01 X11.2406 Y-41.5439 F75.00
G01 X11.2369 Y-41.5582 F75.00
G01 X11.2342 Y-41.5727 F75.00
G01 X11.2325 Y-41.5873 F75.00
G01 X11.2320 Y-41.6020 F75.00
G01 X11.2320 Y-43.7420 F75.00
G01 X11.2325 Y-43.7567 F75.00
G01 X11.2335 Y-43.7665 F75.00
G01 X11.2358 Y-43.7810 F75.00
G01 X11.2380 Y-43.7906 F75.00
G01 X11.2406 Y-43.8001 F75.00
G01 X11.2454 Y-43.8140 F75.00
G01 X11.2512 Y-43.8275 F75.00
G01 X11.2580 Y-43.8406 F75.00
G01 X11.2657 Y-43.8531 F75.00
G01 X11.2714 Y-43.8611 F75.00
G01 X11.2806 Y-43.8726 F75.00
G01 X11.2906 Y-43.8834 F75.00
G01 X11.3014 Y-43.8934 F75.00
G01 X11.3090 Y-43.8997 F75.00
G01 X11.3209 Y-43.9083 F75.00
G01 X11.3292 Y-43.9135 F75.00
G01 X11.3421 Y-43.9206 F75.00
G01 X11.3555 Y-43.9268 F75.00
G01 X11.3693 Y-43.9319 F75.00
G01 X11.3787 Y-43.9348 F75.00
G01 X11.3882 Y-43.9371 F75.00
G01 X11.4027 Y-43.9398 F75.00
G01 X11.4173 Y-43.9415 F75.00
G01 X11.4271 Y-43.9419 F75.00
G01 X11.8017 Y-43.9420 F75.00
G01 X11.4271 Y-43.9421 F75.00
G01 X11.4124 Y-43.9430 F75.00
G01 X11.3978 Y-43.9449 F75.00
G01 X11.3882 Y-43.9469 F75.00
G01 X11.3739 Y-43.9506 F75.00
G01 X11.3600 Y-43.9554 F75.00
G01 X11.3465 Y-43.9612 F75.00
G01 X11.3334 Y-43.9680 F75.00
G01 X11.3209 Y-43.9757 F75.00
G01 X11.3090 Y-43.9843 F75.00
G01 X11.2977 Y-43.9938 F75.00
G01 X11.2872 Y-44.0041 F75.00
G01 X11.2774 Y-44.0151 F75.00
G01 X11.2685 Y-44.0268 F75.00
G01 X11.2605 Y-44.0392 F75.00
G01 X11.2534 Y-44.0521 F75.00
G01 X11.2472 Y-44.0655 F75.00
G01 X11.2421 Y-44.0793 F75.00
G01 X11.2380 Y-44.0934 F75.00
G01 X11.2358 Y-44.1030 F75.00
G01 X11.2335 Y-44.1175 F75.00
G01 X11.2325 Y-44.1273 F75.00
G01 X11.2320 Y-44.1420 F75.00
G01 X11.2320 Y-46.2820 F75.00
G01 X11.2325 Y-46.2967 F75.00
G01 X11.2335 Y-46.3065 F75.00
G01 X11.2358 Y-46.3210 F75.00
G01 X11.2380 Y-46.3306 F75.00
G01 X11.2406 Y-46.3401 F75.00
G01 X11.2454 Y-46.3540 F75.00
G01 X11.2512 Y-46.3675 F75.00
G01 X11.2580 Y-46.3806 F75.00
G01 X11.2657 Y-46.3931 F75.00
G01 X11.2714 Y-46.4011 F75.00
G01 X11.2806 Y-46.4126 F75.00
G01 X11.2906 Y-46.4234 F75.00
G01 X11.3014 Y-46.4334 F75.00
G01 X11.3090 Y-46.4397 F75.00
G01 X11.3168 Y-46.4455 F75.00
G01 X11.3292 Y-46.4535 F75.00
G01 X11.3421 Y-46.4606 F75.00
G01 X11.3555 Y-46.4668 F75.00
G01 X11.3693 Y-46.4719 F75.00
G01 X11.3787 Y-46.4748 F75.00
G01 X11.3882 Y-46.4771 F75.00
G01 X11.4027 Y-46.4798 F75.00
G01 X11.4173 Y-46.4815 F75.00
G01 X11.4271 Y-46.4819 F75.00
G01 X11.8017 Y-46.4820 F75.00
G01 X11.4271 Y-46.4821 F75.00
G01 X11.4124 Y-46.4830 F75.00
G01 X11.4027 Y-46.4842 F75.00
G01 X11.3882 Y-46.4869 F75.00
G01 X11.3787 Y-46.4892 F75.00
G01 X11.3646 Y-46.4937 F75.00
G01 X11.3510 Y-46.4992 F75.00
G01 X11.3421 Y-46.5034 F75.00
G01 X11.3292 Y-46.5105 F75.00
G01 X11.3168 Y-46.5185 F75.00
G01 X11.3051 Y-46.5274 F75.00
G01 X11.2977 Y-46.5338 F75.00
G01 X11.2872 Y-46.5441 F75.00
G01 X11.2774 Y-46.5551 F75.00
G01 X11.2714 Y-46.5629 F75.00
G01 X11.2630 Y-46.5750 F75.00
G01 X11.2580 Y-46.5834 F75.00
G01 X11.2512 Y-46.5965 F75.00
G01 X11.2454 Y-46.6100 F75.00
G01 X11.2406 Y-46.6239 F75.00
G01 X11.2380 Y-46.6334 F75.00
G01 X11.2358 Y-46.6430 F75.00
G01 X11.2335 Y-46.6575 F75.00
G01 X11.2325 Y-46.6673 F75.00
G01 X11.2320 Y-46.6820 F75.00
G01 X11.2320 Y-48.8220 F75.00
G01 X11.2322 Y-48.8318 F75.00
G01 X11.2335 Y-48.8465 F75.00
G01 X11.2369 Y-48.8658 F75.00
G01 X11.2406 Y-48.8801 F75.00
G01 X11.2472 Y-48.8985 F75.00
G01 X11.2534 Y-48.9119 F75.00
G01 X11.2630 Y-48.9290 F75.00
G01 X11.2714 Y-48.9411 F75.00
G01 X11.2806 Y-48.9526 F75.00
G01 X11.2941 Y-48.9668 F75.00
G01 X11.3090 Y-48.9797 F75.00
G01 X11.3209 Y-48.9883 F75.00
G01 X11.3377 Y-48.9984 F75.00
G01 X11.3510 Y-49.0048 F75.00
G01 X11.3646 Y-49.0103 F75.00
G01 X11.3834 Y-49.0160 F75.00
G01 X11.3978 Y-49.0191 F75.00
G01 X11.4173 Y-49.0215 F75.00
G01 X11.4320 Y-49.0220 F75.00
G01 X13.5720 Y-49.0220 F75.00
G01 X13.5818 Y-49.0218 F75.00
G01 X13.5965 Y-49.0205 F75.00
G01 X13.6110 Y-49.0182 F75.00
G01 X13.6301 Y-49.0134 F75.00
G01 X13.6440 Y-49.0086 F75.00
G01 X13.6619 Y-49.0006 F75.00
G01 X13.6748 Y-48.9935 F75.00
G01 X13.6911 Y-48.9826 F75.00
G01 X13.7063 Y-48.9702 F75.00
G01 X13.7168 Y-48.9599 F75.00
G01 X13.7297 Y-48.9450 F75.00
G01 X13.7383 Y-48.9331 F75.00
G01 X13.7484 Y-48.9163 F75.00
G01 X13.7548 Y-48.9030 F75.00
G01 X13.7619 Y-48.8847 F75.00
G01 X13.7660 Y-48.8706 F75.00
G01 X13.7691 Y-48.8562 F75.00
G01 X13.7715 Y-48.8367 F75.00
G01 X13.7720 Y-48.8220 F75.00
G01 X13.7720 Y-46.6820 F75.00
G01 X13.7715 Y-46.6673 F75.00
G01 X13.7698 Y-46.6527 F75.00
G01 X13.7671 Y-46.6382 F75.00
G01 X13.7634 Y-46.6239 F75.00
G01 X13.7586 Y-46.6100 F75.00
G01 X13.7548 Y-46.6010 F75.00
G01 X13.7484 Y-46.5877 F75.00
G01 X13.7410 Y-46.5750 F75.00
G01 X13.7326 Y-46.5629 F75.00
G01 X13.7234 Y-46.5514 F75.00
G01 X13.7134 Y-46.5406 F75.00
G01 X13.7026 Y-46.5306 F75.00
G01 X13.6911 Y-46.5214 F75.00
G01 X13.6790 Y-46.5130 F75.00
G01 X13.6663 Y-46.5056 F75.00
G01 X13.6530 Y-46.4992 F75.00
G01 X13.6394 Y-46.4937 F75.00
G01 X13.6301 Y-46.4906 F75.00
G01 X13.6206 Y-46.4880 F75.00
G01 X13.6062 Y-46.4849 F75.00
G01 X13.5916 Y-46.4830 F75.00
G01 X13.5769 Y-46.4821 F75.00
G01 X13.2023 Y-46.4820 F75.00
G01 X13.5769 Y-46.4819 F75.00
G01 X13.5916 Y-46.4810 F75.00
G01 X13.6062 Y-46.4791 F75.00
G01 X13.6206 Y-46.4760 F75.00
G01 X13.6394 Y-46.4703 F75.00
G01 X13.6530 Y-46.4648 F75.00
G01 X13.6663 Y-46.4584 F75.00
G01 X13.6790 Y-46.4510 F75.00
G01 X13.6911 Y-46.4426 F75.00
G01 X13.7026 Y-46.4334 F75.00
G01 X13.7168 Y-46.4199 F75.00
G01 X13.7266 Y-46.4089 F75.00
G01 X13.7355 Y-46.3972 F75.00
G01 X13.7435 Y-46.3848 F75.00
G01 X13.7506 Y-46.3719 F75.00
G01 X13.7568 Y-46.3585 F75.00
G01 X13.7619 Y-46.3447 F75.00
G01 X13.7671 Y-46.3258 F75.00
G01 X13.7698 Y-46.3113 F75.00
G01 X13.7715 Y-46.2967 F75.00
G01 X13.7720 Y-46.2820 F75.00
G01 X13.7720 Y-44.1420 F75.00
G01 X13.7715 Y-44.1273 F75.00
G01 X13.7705 Y-44.1175 F75.00
G01 X13.7682 Y-44.1030 F75.00
G01 X13.7660 Y-44.0934 F75.00
G01 X13.7634 Y-44.0839 F75.00
G01 X13.7586 Y-44.0700 F75.00
G01 X13.7528 Y-44.0565 F75.00
G01 X13.7460 Y-44.0434 F75.00
G01 X13.7383 Y-44.0309 F75.00
G01 X13.7326 Y-44.0229 F75.00
G01 X13.7234 Y-44.0114 F75.00
G01 X13.7134 Y-44.0006 F75.00
G01 X13.7026 Y-43.9906 F75.00
G01 X13.6950 Y-43.9843 F75.00
G01 X13.6872 Y-43.9785 F75.00
G01 X13.6748 Y-43.9705 F75.00
G01 X13.6619 Y-43.9634 F75.00
G01 X13.6485 Y-43.9572 F75.00
G01 X13.6347 Y-43.9521 F75.00
G01 X13.6253 Y-43.9492 F75.00
G01 X13.6158 Y-43.9469 F75.00
G01 X13.6013 Y-43.9442 F75.00
G01 X13.5867 Y-43.9425 F75.00
G01 X13.5769 Y-43.9421 F75.00
G01 X13.2023 Y-43.9420 F75.00
G01 X13.5769 Y-43.9419 F75.00
G01 X13.5916 Y-43.9410 F75.00
G01 X13.6062 Y-43.9391 F75.00
G01 X13.6206 Y-43.9360 F75.00
G01 X13.6394 Y-43.9303 F75.00
G01 X13.6530 Y-43.9248 F75.00
G01 X13.6663 Y-43.9184 F75.00
G01 X13.6790 Y-43.9110 F75.00
G01 X13.6911 Y-43.9026 F75.00
G01 X13.7026 Y-43.8934 F75.00
G01 X13.7168 Y-43.8799 F75.00
G01 X13.7266 Y-43.8689 F75.00
G01 X13.7355 Y-43.8572 F75.00
G01 X13.7435 Y-43.8448 F75.00
G01 X13.7506 Y-43.8319 F75.00
G01 X13.7568 Y-43.8185 F75.00
G01 X13.7619 Y-43.8047 F75.00
G01 X13.7671 Y-43.7858 F75.00
G01 X13.7698 Y-43.7713 F75.00
G01 X13.7715 Y-43.7567 F75.00
G01 X13.7720 Y-43.7420 F75.00
G01 X13.7720 Y-41.6020 F75.00
G01 X13.7715 Y-41.5873 F75.00
G01 X13.7705 Y-41.5775 F75.00
G01 X13.7682 Y-41.5630 F75.00
G01 X13.7660 Y-41.5534 F75.00
G01 X13.7634 Y-41.5439 F75.00
G01 X13.7586 Y-41.5300 F75.00
G01 X13.7528 Y-41.5165 F75.00
G01 X13.7460 Y-41.5034 F75.00
G01 X13.7383 Y-41.4909 F75.00
G01 X13.7326 Y-41.4829 F75.00
G01 X13.7234 Y-41.4714 F75.00
G01 X13.7134 Y-41.4606 F75.00
G01 X13.7026 Y-41.4506 F75.00
G01 X13.6950 Y-41.4443 F75.00
G01 X13.6831 Y-41.4357 F75.00
G01 X13.6748 Y-41.4305 F75.00
G01 X13.6619 Y-41.4234 F75.00
G01 X13.6485 Y-41.4172 F75.00
G01 X13.6347 Y-41.4121 F75.00
G01 X13.6253 Y-41.4092 F75.00
G01 X13.6158 Y-41.4069 F75.00
G01 X13.6013 Y-41.4042 F75.00
G01 X13.5867 Y-41.4025 F75.00
G01 X13.5769 Y-41.4021 F75.00
G01 X13.2023 Y-41.4020 F75.00
G01 X13.5769 Y-41.4019 F75.00
G01 X13.5916 Y-41.4010 F75.00
G01 X13.6062 Y-41.3991 F75.00
G01 X13.6206 Y-41.3960 F75.00
G01 X13.6394 Y-41.3903 F75.00
G01 X13.6530 Y-41.3848 F75.00
G01 X13.6663 Y-41.3784 F75.00
G01 X13.6790 Y-41.3710 F75.00
G01 X13.6911 Y-41.3626 F75.00
G01 X13.7026 Y-41.3534 F75.00
G01 X13.7168 Y-41.3399 F75.00
G01 X13.7266 Y-41.3289 F75.00
G01 X13.7355 Y-41.3172 F75.00
G01 X13.7435 Y-41.3048 F75.00
G01 X13.7506 Y-41.2919 F75.00
G01 X13.7568 Y-41.2785 F75.00
G01 X13.7619 Y-41.2647 F75.00
G01 X13.7671 Y-41.2458 F75.00
G01 X13.7698 Y-41.2313 F75.00
G01 X13.7715 Y-41.2167 F75.00
G01 X13.7720 Y-41.2020 F75.00
G01 X13.7720 Y-39.0620 F75.00
G01 X13.7715 Y-39.0473 F75.00
G01 X13.7705 Y-39.0375 F75.00
G01 X13.7682 Y-39.0230 F75.00
G01 X13.7660 Y-39.0134 F75.00
G01 X13.7634 Y-39.0039 F75.00
G01 X13.7586 Y-38.9900 F75.00
G01 X13.7528 Y-38.9765 F75.00
G01 X13.7460 Y-38.9634 F75.00
G01 X13.7383 Y-38.9509 F75.00
G01 X13.7326 Y-38.9429 F75.00
G01 X13.7234 Y-38.9314 F75.00
G01 X13.7134 Y-38.9206 F75.00
G01 X13.7026 Y-38.9106 F75.00
G01 X13.6950 Y-38.9043 F75.00
G01 X13.6872 Y-38.8985 F75.00
G01 X13.6748 Y-38.8905 F75.00
G01 X13.6619 Y-38.8834 F75.00
G01 X13.6485 Y-38.8772 F75.00
G01 X13.6347 Y-38.8721 F75.00
G01 X13.6253 Y-38.8692 F75.00
G01 X13.6158 Y-38.8669 F75.00
G01 X13.6013 Y-38.8642 F75.00
G01 X13.5867 Y-38.8625 F75.00
G01 X13.5769 Y-38.8621 F75.00
G01 X13.2023 Y-38.8620 F75.00
G01 X13.5769 Y-38.8619 F75.00
G01 X13.5916 Y-38.8610 F75.00
G01 X13.6062 Y-38.8591 F75.00
G01 X13.6206 Y-38.8560 F75.00
G01 X13.6394 Y-38.8503 F75.00
G01 X13.6530 Y-38.8448 F75.00
G01 X13.6663 Y-38.8384 F75.00
G01 X13.6790 Y-38.8310 F75.00
G01 X13.6911 Y-38.8226 F75.00
G01 X13.7026 Y-38.8134 F75.00
G01 X13.7168 Y-38.7999 F75.00
G01 X13.7266 Y-38.7889 F75.00
G01 X13.7355 Y-38.7772 F75.00
G01 X13.7435 Y-38.7648 F75.00
G01 X13.7506 Y-38.7519 F75.00
G01 X13.7568 Y-38.7385 F75.00
G01 X13.7619 Y-38.7247 F75.00
G01 X13.7671 Y-38.7058 F75.00
G01 X13.7698 Y-38.6913 F75.00
G01 X13.7715 Y-38.6767 F75.00
G01 X13.7720 Y-38.6620 F75.00
G01 X13.7720 Y-36.5220 F75.00
G01 X13.7715 Y-36.5073 F75.00
G01 X13.7705 Y-36.4975 F75.00
G01 X13.7682 Y-36.4830 F75.00
G01 X13.7660 Y-36.4734 F75.00
G01 X13.7634 Y-36.4639 F75.00
G01 X13.7586 Y-36.4500 F75.00
G01 X13.7528 Y-36.4365 F75.00
G01 X13.7460 Y-36.4234 F75.00
G01 X13.7383 Y-36.4109 F75.00
G01 X13.7326 Y-36.4029 F75.00
G01 X13.7234 Y-36.3914 F75.00
G01 X13.7134 Y-36.3806 F75.00
G01 X13.7026 Y-36.3706 F75.00
G01 X13.6950 Y-36.3643 F75.00
G01 X13.6831 Y-36.3557 F75.00
G01 X13.6748 Y-36.3505 F75.00
G01 X13.6619 Y-36.3434 F75.00
G01 X13.6485 Y-36.3372 F75.00
G01 X13.6347 Y-36.3321 F75.00
G01 X13.6253 Y-36.3292 F75.00
G01 X13.6158 Y-36.3269 F75.00
G01 X13.6013 Y-36.3242 F75.00
G01 X13.5867 Y-36.3225 F75.00
G01 X13.5769 Y-36.3221 F75.00
G01 X13.2023 Y-36.3220 F75.00
G01 X13.5769 Y-36.3219 F75.00
G01 X13.5916 Y-36.3210 F75.00
G01 X13.6062 Y-36.3191 F75.00
G01 X13.6206 Y-36.3160 F75.00
G01 X13.6394 Y-36.3103 F75.00
G01 X13.6530 Y-36.3048 F75.00
G01 X13.6663 Y-36.2984 F75.00
G01 X13.6790 Y-36.2910 F75.00
G01 X13.6911 Y-36.2826 F75.00
G01 X13.7026 Y-36.2734 F75.00
G01 X13.7168 Y-36.2599 F75.00
G01 X13.7266 Y-36.2489 F75.00
G01 X13.7355 Y-36.2372 F75.00
G01 X13.7435 Y-36.2248 F75.00
G01 X13.7506 Y-36.2119 F75.00
G01 X13.7568 Y-36.1985 F75.00
G01 X13.7619 Y-36.1847 F75.00
G01 X13.7671 Y-36.1658 F75.00
G01 X13.7698 Y-36.1513 F75.00
G01 X13.7715 Y-36.1367 F75.00
G01 X13.7720 Y-36.1220 F75.00
G01 X13.7720 Y-33.9820 F75.00
G01 X13.7715 Y-33.9673 F75.00
G01 X13.7705 Y-33.9575 F75.00
G01 X13.7682 Y-33.9430 F75.00
G01 X13.7660 Y-33.9334 F75.00
G01 X13.7634 Y-33.9239 F75.00
G01 X13.7586 Y-33.9100 F75.00
G01 X13.7528 Y-33.8965 F75.00
G01 X13.7460 Y-33.8834 F75.00
G01 X13.7383 Y-33.8709 F75.00
G01 X13.7326 Y-33.8629 F75.00
G01 X13.7234 Y-33.8514 F75.00
G01 X13.7134 Y-33.8406 F75.00
G01 X13.7026 Y-33.8306 F75.00
G01 X13.6950 Y-33.8243 F75.00
G01 X13.6872 Y-33.8185 F75.00
G01 X13.6748 Y-33.8105 F75.00
G01 X13.6619 Y-33.8034 F75.00
G01 X13.6485 Y-33.7972 F75.00
G01 X13.6347 Y-33.7921 F75.00
G01 X13.6253 Y-33.7892 F75.00
G01 X13.6158 Y-33.7869 F75.00
G01 X13.6013 Y-33.7842 F75.00
G01 X13.5867 Y-33.7825 F75.00
G01 X13.5769 Y-33.7821 F75.00
G01 X13.2023 Y-33.7820 F75.00
G01 X13.5769 Y-33.7819 F75.00
G01 X13.5916 Y-33.7810 F75.00
G01 X13.6062 Y-33.7791 F75.00
G01 X13.6206 Y-33.7760 F75.00
G01 X13.6394 Y-33.7703 F75.00
G01 X13.6530 Y-33.7648 F75.00
G01 X13.6663 Y-33.7584 F75.00
G01 X13.6831 Y-33.7483 F75.00
G01 X13.6950 Y-33.7397 F75.00
G01 X13.7063 Y-33.7302 F75.00
G01 X13.7168 Y-33.7199 F75.00
G01 X13.7266 Y-33.7089 F75.00
G01 X13.7355 Y-33.6972 F75.00
G01 X13.7435 Y-33.6848 F75.00
G01 X13.7506 Y-33.6719 F75.00
G01 X13.7568 Y-33.6585 F75.00
G01 X13.7619 Y-33.6447 F75.00
G01 X13.7660 Y-33.6306 F75.00
G01 X13.7691 Y-33.6162 F75.00
G01 X13.7715 Y-33.5967 F75.00
G01 X13.7720 Y-33.5820 F75.00
G01 X13.7720 Y-31.4420 F75.00
G01 X13.7715 Y-31.4273 F75.00
G01 X13.7705 Y-31.4175 F75.00
G01 X13.7691 Y-31.4078 F75.00
G01 X13.7660 Y-31.3934 F75.00
G01 X13.7619 Y-31.3793 F75.00
G01 X13.7586 Y-31.3700 F75.00
G01 X13.7528 Y-31.3565 F75.00
G01 X13.7484 Y-31.3477 F75.00
G01 X13.7410 Y-31.3350 F75.00
G01 X13.7355 Y-31.3268 F75.00
G01 X13.7266 Y-31.3151 F75.00
G01 X13.7168 Y-31.3041 F75.00
G01 X13.7063 Y-31.2938 F75.00
G01 X13.6989 Y-31.2874 F75.00
G01 X13.6872 Y-31.2785 F75.00
G01 X13.6748 Y-31.2705 F75.00
G01 X13.6619 Y-31.2634 F75.00
G01 X13.6485 Y-31.2572 F75.00
G01 X13.6347 Y-31.2521 F75.00
G01 X13.6253 Y-31.2492 F75.00
G01 X13.6158 Y-31.2469 F75.00
G01 X13.6013 Y-31.2442 F75.00
G01 X13.5867 Y-31.2425 F75.00
G01 X13.5769 Y-31.2421 F75.00
G01 X13.2023 Y-31.2420 F75.00
G01 X13.5769 Y-31.2419 F75.00
G01 X13.5916 Y-31.2410 F75.00
G01 X13.6062 Y-31.2391 F75.00
G01 X13.6206 Y-31.2360 F75.00
G01 X13.6347 Y-31.2319 F75.00
G01 X13.6485 Y-31.2268 F75.00
G01 X13.6619 Y-31.2206 F75.00
G01 X13.6748 Y-31.2135 F75.00
G01 X13.6872 Y-31.2055 F75.00
G01 X13.6989 Y-31.1966 F75.00
G01 X13.7134 Y-31.1834 F75.00
G01 X13.7234 Y-31.1726 F75.00
G01 X13.7326 Y-31.1611 F75.00
G01 X13.7410 Y-31.1490 F75.00
G01 X13.7484 Y-31.1363 F75.00
G01 X13.7548 Y-31.1230 F75.00
G01 X13.7603 Y-31.1094 F75.00
G01 X13.7648 Y-31.0953 F75.00
G01 X13.7682 Y-31.0810 F75.00
G01 X13.7710 Y-31.0616 F75.00
G01 X13.7719 Y-31.0469 F75.00
G01 X13.7720 Y-28.9020 F75.00
G01 X13.7715 Y-28.8873 F75.00
G01 X13.7705 Y-28.8775 F75.00
G01 X13.7691 Y-28.8678 F75.00
G01 X13.7660 Y-28.8534 F75.00
G01 X13.7619 Y-28.8393 F75.00
G01 X13.7586 Y-28.8300 F75.00
G01 X13.7528 Y-28.8165 F75.00
G01 X13.7484 Y-28.8077 F75.00
G01 X13.7410 Y-28.7950 F75.00
G01 X13.7355 Y-28.7868 F75.00
G01 X13.7266 Y-28.7751 F75.00
G01 X13.7168 Y-28.7641 F75.00
G01 X13.7063 Y-28.7538 F75.00
G01 X13.6989 Y-28.7474 F75.00
G01 X13.6872 Y-28.7385 F75.00
G01 X13.6748 Y-28.7305 F75.00
G01 X13.6619 Y-28.7234 F75.00
G01 X13.6485 Y-28.7172 F75.00
G01 X13.6347 Y-28.7121 F75.00
G01 X13.6253 Y-28.7092 F75.00
G01 X13.6158 Y-28.7069 F75.00
G01 X13.6013 Y-28.7042 F75.00
G01 X13.5867 Y-28.7025 F75.00
G01 X13.5769 Y-28.7021 F75.00
G01 X13.2023 Y-28.7020 F75.00
G01 X13.5769 Y-28.7019 F75.00
G01 X13.5916 Y-28.7010 F75.00
G01 X13.6062 Y-28.6991 F75.00
G01 X13.6206 Y-28.6960 F75.00
G01 X13.6347 Y-28.6919 F75.00
G01 X13.6485 Y-28.6868 F75.00
G01 X13.6619 Y-28.6806 F75.00
G01 X13.6748 Y-28.6735 F75.00
G01 X13.6872 Y-28.6655 F75.00
G01 X13.6989 Y-28.6566 F75.00
G01 X13.7134 Y-28.6434 F75.00
G01 X13.7234 Y-28.6326 F75.00
G01 X13.7326 Y-28.6211 F75.00
G01 X13.7410 Y-28.6090 F75.00
G01 X13.7484 Y-28.5963 F75.00
G01 X13.7548 Y-28.5830 F75.00
G01 X13.7603 Y-28.5694 F75.00
G01 X13.7648 Y-28.5553 F75.00
G01 X13.7682 Y-28.5410 F75.00
G01 X13.7710 Y-28.5216 F75.00
G01 X13.7719 Y-28.5069 F75.00
G01 X13.7720 Y-26.3620 F75.00
G01 X13.7715 Y-26.3473 F75.00
G01 X13.7705 Y-26.3375 F75.00
G01 X13.7691 Y-26.3278 F75.00
G01 X13.7660 Y-26.3134 F75.00
G01 X13.7619 Y-26.2993 F75.00
G01 X13.7586 Y-26.2900 F75.00
G01 X13.7528 Y-26.2765 F75.00
G01 X13.7484 Y-26.2677 F75.00
G01 X13.7410 Y-26.2550 F75.00
G01 X13.7355 Y-26.2468 F75.00
G01 X13.7266 Y-26.2351 F75.00
G01 X13.7168 Y-26.2241 F75.00
G01 X13.7063 Y-26.2138 F75.00
G01 X13.6989 Y-26.2074 F75.00
G01 X13.6872 Y-26.1985 F75.00
G01 X13.6748 Y-26.1905 F75.00
G01 X13.6619 Y-26.1834 F75.00
G01 X13.6485 Y-26.1772 F75.00
G01 X13.6347 Y-26.1721 F75.00
G01 X13.6253 Y-26.1692 F75.00
G01 X13.6158 Y-26.1669 F75.00
G01 X13.6013 Y-26.1642 F75.00
G01 X13.5867 Y-26.1625 F75.00
G01 X13.5769 Y-26.1621 F75.00
G01 X13.2023 Y-26.1620 F75.00
G01 X13.5769 Y-26.1619 F75.00
G01 X13.5916 Y-26.1610 F75.00
G01 X13.6062 Y-26.1591 F75.00
G01 X13.6206 Y-26.1560 F75.00
G01 X13.6347 Y-26.1519 F75.00
G01 X13.6485 Y-26.1468 F75.00
G01 X13.6619 Y-26.1406 F75.00
G01 X13.6748 Y-26.1335 F75.00
G01 X13.6872 Y-26.1255 F75.00
G01 X13.6989 Y-26.1166 F75.00
G01 X13.7134 Y-26.1034 F75.00
G01 X13.7234 Y-26.0926 F75.00
G01 X13.7326 Y-26.0811 F75.00
G01 X13.7410 Y-26.0690 F75.00
G01 X13.7484 Y-26.0563 F75.00
G01 X13.7548 Y-26.0430 F75.00
G01 X13.7603 Y-26.0294 F75.00
G01 X13.7648 Y-26.0153 F75.00
G01 X13.7682 Y-26.0010 F75.00
G01 X13.7710 Y-25.9816 F75.00
G01 X13.7719 Y-25.9669 F75.00
G01 X13.7720 Y-23.8220 F75.00
G01 X13.7715 Y-23.8073 F75.00
G01 X13.7705 Y-23.7975 F75.00
G01 X13.7691 Y-23.7878 F75.00
G01 X13.7660 Y-23.7734 F75.00
G01 X13.7619 Y-23.7593 F75.00
G01 X13.7586 Y-23.7500 F75.00
G01 X13.7528 Y-23.7365 F75.00
G01 X13.7484 Y-23.7277 F75.00
G01 X13.7410 Y-23.7150 F75.00
G01 X13.7355 Y-23.7068 F75.00
G01 X13.7266 Y-23.6951 F75.00
G01 X13.7168 Y-23.6841 F75.00
G01 X13.7063 Y-23.6738 F75.00
G01 X13.6989 Y-23.6674 F75.00
G01 X13.6872 Y-23.6585 F75.00
G01 X13.6748 Y-23.6505 F75.00
G01 X13.6619 Y-23.6434 F75.00
G01 X13.6485 Y-23.6372 F75.00
G01 X13.6347 Y-23.6321 F75.00
G01 X13.6253 Y-23.6292 F75.00
G01 X13.6158 Y-23.6269 F75.00
G01 X13.6013 Y-23.6242 F75.00
G01 X13.5867 Y-23.6225 F75.00
G01 X13.5769 Y-23.6221 F75.00
G01 X13.2023 Y-23.6220 F75.00
G01 X13.5769 Y-23.6219 F75.00
G01 X13.5916 Y-23.6210 F75.00
G01 X13.6062 Y-23.6191 F75.00
G01 X13.6206 Y-23.6160 F75.00
G01 X13.6347 Y-23.6119 F75.00
G01 X13.6485 Y-23.6068 F75.00
G01 X13.6619 Y-23.6006 F75.00
G01 X13.6748 Y-23.5935 F75.00
G01 X13.6872 Y-23.5855 F75.00
G01 X13.6989 Y-23.5766 F75.00
G01 X13.7134 Y-23.5634 F75.00
G01 X13.7234 Y-23.5526 F75.00
G01 X13.7326 Y-23.5411 F75.00
G01 X13.7410 Y-23.5290 F75.00
G01 X13.7484 Y-23.5163 F75.00
G01 X13.7548 Y-23.5030 F75.00
G01 X13.7603 Y-23.4894 F75.00
G01 X13.7648 Y-23.4753 F75.00
G01 X13.7682 Y-23.4610 F75.00
G01 X13.7710 Y-23.4416 F75.00
G01 X13.7719 Y-23.4269 F75.00
G01 X13.7720 Y-21.2820 F75.00
G01 X13.7715 Y-21.2673 F75.00
G01 X13.7705 Y-21.2575 F75.00
G01 X13.7691 Y-21.2478 F75.00
G01 X13.7660 Y-21.2334 F75.00
G01 X13.7619 Y-21.2193 F75.00
G01 X13.7586 Y-21.2100 F75.00
G01 X13.7528 Y-21.1965 F75.00
G01 X13.7484 Y-21.1877 F75.00
G01 X13.7410 Y-21.1750 F75.00
G01 X13.7355 Y-21.1668 F75.00
G01 X13.7266 Y-21.1551 F75.00
G01 X13.7168 Y-21.1441 F75.00
G01 X13.7063 Y-21.1338 F75.00
G01 X13.6989 Y-21.1274 F75.00
G01 X13.6872 Y-21.1185 F75.00
G01 X13.6748 Y-21.1105 F75.00
G01 X13.6619 Y-21.1034 F75.00
G01 X13.6485 Y-21.0972 F75.00
G01 X13.6347 Y-21.0921 F75.00
G01 X13.6253 Y-21.0892 F75.00
G01 X13.6158 Y-21.0869 F75.00
G01 X13.6013 Y-21.0842 F75.00
G01 X13.5867 Y-21.0825 F75.00
G01 X13.5769 Y-21.0821 F75.00
G01 X13.2023 Y-21.0820 F75.00
G01 X13.5769 Y-21.0819 F75.00
G01 X13.5916 Y-21.0810 F75.00
G01 X13.6062 Y-21.0791 F75.00
G01 X13.6206 Y-21.0760 F75.00
G01 X13.6347 Y-21.0719 F75.00
G01 X13.6485 Y-21.0668 F75.00
G01 X13.6619 Y-21.0606 F75.00
G01 X13.6748 Y-21.0535 F75.00
G01 X13.6872 Y-21.0455 F75.00
G01 X13.6989 Y-21.0366 F75.00
G01 X13.7134 Y-21.0234 F75.00
G01 X13.7234 Y-21.0126 F75.00
G01 X13.7326 Y-21.0011 F75.00
G01 X13.7410 Y-20.9890 F75.00
G01 X13.7484 Y-20.9763 F75.00
G01 X13.7548 Y-20.9630 F75.00
G01 X13.7603 Y-20.9494 F75.00
G01 X13.7648 Y-20.9353 F75.00
G01 X13.7682 Y-20.9210 F75.00
G01 X13.7710 Y-20.9016 F75.00
G01 X13.7719 Y-20.8869 F75.00
G01 X13.7720 Y-18.7420 F75.00
G01 X13.7715 Y-18.7273 F75.00
G01 X13.7705 Y-18.7175 F75.00
G01 X13.7691 Y-18.7078 F75.00
G01 X13.7660 Y-18.6934 F75.00
G01 X13.7619 Y-18.6793 F75.00
G01 X13.7586 Y-18.6700 F75.00
G01 X13.7528 Y-18.6565 F75.00
G01 X13.7484 Y-18.6477 F75.00
G01 X13.7410 Y-18.6350 F75.00
G01 X13.7355 Y-18.6268 F75.00
G01 X13.7266 Y-18.6151 F75.00
G01 X13.7168 Y-18.6041 F75.00
G01 X13.7063 Y-18.5938 F75.00
G01 X13.6989 Y-18.5874 F75.00
G01 X13.6872 Y-18.5785 F75.00
G01 X13.6748 Y-18.5705 F75.00
G01 X13.6619 Y-18.5634 F75.00
G01 X13.6485 Y-18.5572 F75.00
G01 X13.6347 Y-18.5521 F75.00
G01 X13.6253 Y-18.5492 F75.00
G01 X13.6158 Y-18.5469 F75.00
G01 X13.6013 Y-18.5442 F75.00
G01 X13.5867 Y-18.5425 F75.00
G01 X13.5769 Y-18.5421 F75.00
G01 X13.2023 Y-18.5420 F75.00
G01 X13.5769 Y-18.5419 F75.00
G01 X13.5916 Y-18.5410 F75.00
G01 X13.6062 Y-18.5391 F75.00
G01 X13.6206 Y-18.5360 F75.00
G01 X13.6347 Y-18.5319 F75.00
G01 X13.6485 Y-18.5268 F75.00
G01 X13.6619 Y-18.5206 F75.00
G01 X13.6748 Y-18.5135 F75.00
G01 X13.6872 Y-18.5055 F75.00
G01 X13.6989 Y-18.4966 F75.00
G01 X13.7134 Y-18.4834 F75.00
G01 X13.7234 Y-18.4726 F75.00
G01 X13.7326 Y-18.4611 F75.00
G01 X13.7410 Y-18.4490 F75.00
G01 X13.7484 Y-18.4363 F75.00
G01 X13.7548 Y-18.4230 F75.00
G01 X13.7603 Y-18.4094 F75.00
G01 X13.7648 Y-18.3953 F75.00
G01 X13.7682 Y-18.3810 F75.00
G01 X13.7710 Y-18.3616 F75.00
G01 X13.7719 Y-18.3469 F75.00
G01 X13.7720 Y-16.2020 F75.00
G01 X13.7715 Y-16.1873 F75.00
G01 X13.7705 Y-16.1775 F75.00
G01 X13.7691 Y-16.1678 F75.00
G01 X13.7660 Y-16.1534 F75.00
G01 X13.7619 Y-16.1393 F75.00
G01 X13.7586 Y-16.1300 F75.00
G01 X13.7528 Y-16.1165 F75.00
G01 X13.7484 Y-16.1077 F75.00
G01 X13.7410 Y-16.0950 F75.00
G01 X13.7355 Y-16.0868 F75.00
G01 X13.7266 Y-16.0751 F75.00
G01 X13.7168 Y-16.0641 F75.00
G01 X13.7063 Y-16.0538 F75.00
G01 X13.6989 Y-16.0474 F75.00
G01 X13.6872 Y-16.0385 F75.00
G01 X13.6748 Y-16.0305 F75.00
G01 X13.6619 Y-16.0234 F75.00
G01 X13.6485 Y-16.0172 F75.00
G01 X13.6347 Y-16.0121 F75.00
G01 X13.6253 Y-16.0092 F75.00
G01 X13.6158 Y-16.0069 F75.00
G01 X13.6013 Y-16.0042 F75.00
G01 X13.5867 Y-16.0025 F75.00
G01 X13.5769 Y-16.0021 F75.00
G01 X13.2023 Y-16.0020 F75.00
G01 X13.5769 Y-16.0019 F75.00
G01 X13.5916 Y-16.0010 F75.00
G01 X13.6062 Y-15.9991 F75.00
G01 X13.6206 Y-15.9960 F75.00
G01 X13.6347 Y-15.9919 F75.00
G01 X13.6485 Y-15.9868 F75.00
G01 X13.6619 Y-15.9806 F75.00
G01 X13.6748 Y-15.9735 F75.00
G01 X13.6872 Y-15.9655 F75.00
G01 X13.6989 Y-15.9566 F75.00
G01 X13.7134 Y-15.9434 F75.00
G01 X13.7234 Y-15.9326 F75.00
G01 X13.7326 Y-15.9211 F75.00
G01 X13.7410 Y-15.9090 F75.00
G01 X13.7484 Y-15.8963 F75.00
G01 X13.7548 Y-15.8830 F75.00
G01 X13.7603 Y-15.8694 F75.00
G01 X13.7660 Y-15.8506 F75.00
G01 X13.7691 Y-15.8362 F75.00
G01 X13.7710 Y-15.8216 F75.00
G01 X13.7719 Y-15.8069 F75.00
G01 X13.7720 Y-13.6620 F75.00
G01 X13.7715 Y-13.6473 F75.00
G01 X13.7705 Y-13.6375 F75.00
G01 X13.7691 Y-13.6278 F75.00
G01 X13.7660 Y-13.6134 F75.00
G01 X13.7619 Y-13.5993 F75.00
G01 X13.7586 Y-13.5900 F75.00
G01 X13.7528 Y-13.5765 F75.00
G01 X13.7484 Y-13.5677 F75.00
G01 X13.7410 Y-13.5550 F75.00
G01 X13.7355 Y-13.5468 F75.00
G01 X13.7266 Y-13.5351 F75.00
G01 X13.7168 Y-13.5241 F75.00
G01 X13.7063 Y-13.5138 F75.00
G01 X13.6989 Y-13.5074 F75.00
G01 X13.6872 Y-13.4985 F75.00
G01 X13.6748 Y-13.4905 F75.00
G01 X13.6663 Y-13.4856 F75.00
G01 X13.6530 Y-13.4792 F75.00
G01 X13.6394 Y-13.4737 F75.00
G01 X13.6253 Y-13.4692 F75.00
G01 X13.6110 Y-13.4658 F75.00
G01 X13.6013 Y-13.4642 F75.00
G01 X13.5867 Y-13.4625 F75.00
G01 X13.5769 Y-13.4621 F75.00
G01 X13.2023 Y-13.4620 F75.00
G01 X13.5769 Y-13.4619 F75.00
G01 X13.5916 Y-13.4610 F75.00
G01 X13.6062 Y-13.4591 F75.00
G01 X13.6206 Y-13.4560 F75.00
G01 X13.6347 Y-13.4519 F75.00
G01 X13.6485 Y-13.4468 F75.00
G01 X13.6619 Y-13.4406 F75.00
G01 X13.6748 Y-13.4335 F75.00
G01 X13.6872 Y-13.4255 F75.00
G01 X13.6989 Y-13.4166 F75.00
G01 X13.7134 Y-13.4034 F75.00
G01 X13.7234 Y-13.3926 F75.00
G01 X13.7326 Y-13.3811 F75.00
G01 X13.7410 Y-13.3690 F75.00
G01 X13.7484 Y-13.3563 F75.00
G01 X13.7548 Y-13.3430 F75.00
G01 X13.7603 Y-13.3294 F75.00
G01 X13.7660 Y-13.3106 F75.00
G01 X13.7691 Y-13.2962 F75.00
G01 X13.7710 Y-13.2816 F75.00
G01 X13.7719 Y-13.2669 F75.00
G01 X13.7720 Y-11.1220 F75.00
G01 X13.7715 Y-11.1073 F75.00
G01 X13.7705 Y-11.0975 F75.00
G01 X13.7691 Y-11.0878 F75.00
G01 X13.7660 Y-11.0734 F75.00
G01 X13.7619 Y-11.0593 F75.00
G01 X13.7586 Y-11.0500 F75.00
G01 X13.7528 Y-11.0365 F75.00
G01 X13.7484 Y-11.0277 F75.00
G01 X13.7410 Y-11.0150 F75.00
G01 X13.7355 Y-11.0068 F75.00
G01 X13.7266 Y-10.9951 F75.00
G01 X13.7168 Y-10.9841 F75.00
G01 X13.7063 Y-10.9738 F75.00
G01 X13.6989 Y-10.9674 F75.00
G01 X13.6872 Y-10.9585 F75.00
G01 X13.6748 Y-10.9505 F75.00
G01 X13.6663 Y-10.9456 F75.00
G01 X13.6530 Y-10.9392 F75.00
G01 X13.6394 Y-10.9337 F75.00
G01 X13.6253 Y-10.9292 F75.00
G01 X13.6110 Y-10.9258 F75.00
G01 X13.6013 Y-10.9242 F75.00
G01 X13.5867 Y-10.9225 F75.00
G01 X13.5769 Y-10.9221 F75.00
G01 X13.2023 Y-10.9220 F75.00
G01 X13.5769 Y-10.9219 F75.00
G01 X13.5916 Y-10.9210 F75.00
G01 X13.6062 Y-10.9191 F75.00
G01 X13.6206 Y-10.9160 F75.00
G01 X13.6347 Y-10.9119 F75.00
G01 X13.6485 Y-10.9068 F75.00
G01 X13.6619 Y-10.9006 F75.00
G01 X13.6748 Y-10.8935 F75.00
G01 X13.6872 Y-10.8855 F75.00
G01 X13.6989 Y-10.8766 F75.00
G01 X13.7099 Y-10.8668 F75.00
G01 X13.7202 Y-10.8563 F75.00
G01 X13.7297 Y-10.8450 F75.00
G01 X13.7410 Y-10.8290 F75.00
G01 X13.7484 Y-10.8163 F75.00
G01 X13.7548 Y-10.8030 F75.00
G01 X13.7603 Y-10.7894 F75.00
G01 X13.7648 Y-10.7753 F75.00
G01 X13.7682 Y-10.7610 F75.00
G01 X13.7705 Y-10.7465 F75.00
G01 X13.7718 Y-10.7318 F75.00
G01 X13.7720 Y-8.5820 F75.00
G01 X13.7715 Y-8.5673 F75.00
G01 X13.7705 Y-8.5575 F75.00
G01 X13.7691 Y-8.5478 F75.00
G01 X13.7660 Y-8.5334 F75.00
G01 X13.7619 Y-8.5193 F75.00
G01 X13.7586 Y-8.5100 F75.00
G01 X13.7528 Y-8.4965 F75.00
G01 X13.7484 Y-8.4877 F75.00
G01 X13.7410 Y-8.4750 F75.00
G01 X13.7355 Y-8.4668 F75.00
G01 X13.7266 Y-8.4551 F75.00
G01 X13.7168 Y-8.4441 F75.00
G01 X13.7063 Y-8.4338 F75.00
G01 X13.6989 Y-8.4274 F75.00
G01 X13.6872 Y-8.4185 F75.00
G01 X13.6748 Y-8.4105 F75.00
G01 X13.6663 Y-8.4056 F75.00
G01 X13.6530 Y-8.3992 F75.00
G01 X13.6394 Y-8.3937 F75.00
G01 X13.6253 Y-8.3892 F75.00
G01 X13.6110 Y-8.3858 F75.00
G01 X13.6013 Y-8.3842 F75.00
G01 X13.5867 Y-8.3825 F75.00
G01 X13.5769 Y-8.3821 F75.00
G01 X13.2023 Y-8.3820 F75.00
G01 X13.2023 Y-4.0640 F75.00
G01 X13.5769 Y-4.0639 F75.00
G01 X13.5916 Y-4.0630 F75.00
G01 X13.6062 Y-4.0611 F75.00
G01 X13.6206 Y-4.0580 F75.00
G01 X13.6347 Y-4.0539 F75.00
G01 X13.6485 Y-4.0488 F75.00
G01 X13.6619 Y-4.0426 F75.00
G01 X13.6748 Y-4.0355 F75.00
G01 X13.6872 Y-4.0275 F75.00
G01 X13.6989 Y-4.0186 F75.00
G01 X13.7099 Y-4.0088 F75.00
G01 X13.7202 Y-3.9983 F75.00
G01 X13.7326 Y-3.9831 F75.00
G01 X13.7410 Y-3.9710 F75.00
G01 X13.7484 Y-3.9583 F75.00
G01 X13.7548 Y-3.9450 F75.00
G01 X13.7603 Y-3.9314 F75.00
G01 X13.7648 Y-3.9173 F75.00
G01 X13.7682 Y-3.9030 F75.00
G01 X13.7705 Y-3.8885 F75.00
G01 X13.7718 Y-3.8738 F75.00
G01 X13.7720 Y-1.7240 F75.00
G01 X13.7715 Y-1.7093 F75.00
G01 X13.7691 Y-1.6898 F75.00
G01 X13.7660 Y-1.6754 F75.00
G01 X13.7603 Y-1.6566 F75.00
G01 X13.7548 Y-1.6430 F75.00
G01 X13.7460 Y-1.6254 F75.00
G01 X13.7355 Y-1.6088 F75.00
G01 X13.7234 Y-1.5934 F75.00
G01 X13.7134 Y-1.5826 F75.00
G01 X13.7026 Y-1.5726 F75.00
G01 X13.6872 Y-1.5605 F75.00
G01 X13.6748 Y-1.5525 F75.00
G01 X13.6575 Y-1.5432 F75.00
G01 X13.6440 Y-1.5374 F75.00
G01 X13.6253 Y-1.5312 F75.00
G01 X13.6062 Y-1.5269 F75.00
G01 X13.5867 Y-1.5245 F75.00
G01 X13.5720 Y-1.5240 F75.00
G01 X11.4320 Y-1.5240 F75.00
G01 X11.4173 Y-1.5245 F75.00
G01 X11.4027 Y-1.5262 F75.00
G01 X11.3834 Y-1.5300 F75.00
G01 X11.3646 Y-1.5357 F75.00
G01 X11.3510 Y-1.5412 F75.00
G01 X11.3334 Y-1.5500 F75.00
G01 X11.3168 Y-1.5605 F75.00
G01 X11.3014 Y-1.5726 F75.00
G01 X11.2906 Y-1.5826 F75.00
G01 X11.2774 Y-1.5971 F75.00
G01 X11.2657 Y-1.6129 F75.00
G01 X11.2556 Y-1.6297 F75.00
G01 X11.2492 Y-1.6430 F75.00
G01 X11.2421 Y-1.6613 F75.00
G01 X11.2380 Y-1.6754 F75.00
G01 X11.2349 Y-1.6898 F75.00
G01 X11.2325 Y-1.7093 F75.00
G01 X11.2320 Y-1.7240 F75.00
G01 X11.2320 Y-3.8640 F75.00
G01 X11.2325 Y-3.8787 F75.00
G01 X11.2335 Y-3.8885 F75.00
G01 X11.2349 Y-3.8982 F75.00
G01 X11.2380 Y-3.9126 F75.00
G01 X11.2421 Y-3.9267 F75.00
G01 X11.2472 Y-3.9405 F75.00
G01 X11.2534 Y-3.9539 F75.00
G01 X11.2580 Y-3.9626 F75.00
G01 X11.2630 Y-3.9710 F75.00
G01 X11.2714 Y-3.9831 F75.00
G01 X11.2806 Y-3.9946 F75.00
G01 X11.2906 Y-4.0054 F75.00
G01 X11.3014 Y-4.0154 F75.00
G01 X11.3090 Y-4.0217 F75.00
G01 X11.3209 Y-4.0303 F75.00
G01 X11.3334 Y-4.0380 F75.00
G01 X11.3465 Y-4.0448 F75.00
G01 X11.3555 Y-4.0488 F75.00
G01 X11.3693 Y-4.0539 F75.00
G01 X11.3787 Y-4.0568 F75.00
G01 X11.3930 Y-4.0602 F75.00
G01 X11.4027 Y-4.0618 F75.00
G01 X11.4173 Y-4.0635 F75.00
G01 X11.4271 Y-4.0639 F75.00
G01 X11.8017 Y-4.0640 F75.00
G01 X11.8017 Y-8.3820 F75.00
G01 X11.4271 Y-8.3821 F75.00
G01 X11.4124 Y-8.3830 F75.00
G01 X11.4027 Y-8.3842 F75.00
G01 X11.3882 Y-8.3869 F75.00
G01 X11.3787 Y-8.3892 F75.00
G01 X11.3646 Y-8.3937 F75.00
G01 X11.3510 Y-8.3992 F75.00
G01 X11.3377 Y-8.4056 F75.00
G01 X11.3292 Y-8.4105 F75.00
G01 X11.3168 Y-8.4185 F75.00
G01 X11.3090 Y-8.4243 F75.00
G01 X11.2977 Y-8.4338 F75.00
G01 X11.2872 Y-8.4441 F75.00
G01 X11.2774 Y-8.4551 F75.00
G01 X11.2714 Y-8.4629 F75.00
G01 X11.2630 Y-8.4750 F75.00
G01 X11.2556 Y-8.4877 F75.00
G01 X11.2512 Y-8.4965 F75.00
G01 X11.2454 Y-8.5100 F75.00
G01 X11.2421 Y-8.5193 F75.00
G01 X11.2380 Y-8.5334 F75.00
G01 X11.2358 Y-8.5430 F75.00
G01 X11.2335 Y-8.5575 F75.00
G01 X11.2322 Y-8.5722 F75.00
G01 X11.2320 Y-8.5820 F75.00
G01 X11.2320 Y-10.7220 F75.00
G01 X11.2325 Y-10.7367 F75.00
G01 X11.2342 Y-10.7513 F75.00
G01 X11.2369 Y-10.7658 F75.00
G01 X11.2406 Y-10.7801 F75.00
G01 X11.2454 Y-10.7940 F75.00
G01 X11.2512 Y-10.8075 F75.00
G01 X11.2580 Y-10.8206 F75.00
G01 X11.2657 Y-10.8331 F75.00
G01 X11.2743 Y-10.8450 F75.00
G01 X11.2838 Y-10.8563 F75.00
G01 X11.2941 Y-10.8668 F75.00
G01 X11.3051 Y-10.8766 F75.00
G01 X11.3168 Y-10.8855 F75.00
G01 X11.3292 Y-10.8935 F75.00
G01 X11.3421 Y-10.9006 F75.00
G01 X11.3555 Y-10.9068 F75.00
G01 X11.3693 Y-10.9119 F75.00
G01 X11.3834 Y-10.9160 F75.00
G01 X11.3978 Y-10.9191 F75.00
G01 X11.4124 Y-10.9210 F75.00
G01 X11.4271 Y-10.9219 F75.00
G01 X11.8017 Y-10.9220 F75.00
G01 X11.4271 Y-10.9221 F75.00
G01 X11.4124 Y-10.9230 F75.00
G01 X11.4027 Y-10.9242 F75.00
G01 X11.3882 Y-10.9269 F75.00
G01 X11.3787 Y-10.9292 F75.00
G01 X11.3646 Y-10.9337 F75.00
G01 X11.3510 Y-10.9392 F75.00
G01 X11.3377 Y-10.9456 F75.00
G01 X11.3292 Y-10.9505 F75.00
G01 X11.3168 Y-10.9585 F75.00
G01 X11.3090 Y-10.9643 F75.00
G01 X11.2977 Y-10.9738 F75.00
G01 X11.2872 Y-10.9841 F75.00
G01 X11.2774 Y-10.9951 F75.00
G01 X11.2714 Y-11.0029 F75.00
G01 X11.2630 Y-11.0150 F75.00
G01 X11.2556 Y-11.0277 F75.00
G01 X11.2512 Y-11.0365 F75.00
G01 X11.2454 Y-11.0500 F75.00
G01 X11.2421 Y-11.0593 F75.00
G01 X11.2380 Y-11.0734 F75.00
G01 X11.2358 Y-11.0830 F75.00
G01 X11.2335 Y-11.0975 F75.00
G01 X11.2322 Y-11.1122 F75.00
G01 X11.2320 Y-11.1220 F75.00
G01 X11.2322 Y-13.2718 F75.00
G01 X11.2335 Y-13.2865 F75.00
G01 X11.2358 Y-13.3010 F75.00
G01 X11.2392 Y-13.3153 F75.00
G01 X11.2437 Y-13.3294 F75.00
G01 X11.2492 Y-13.3430 F75.00
G01 X11.2556 Y-13.3563 F75.00
G01 X11.2630 Y-13.3690 F75.00
G01 X11.2714 Y-13.3811 F75.00
G01 X11.2806 Y-13.3926 F75.00
G01 X11.2941 Y-13.4068 F75.00
G01 X11.3051 Y-13.4166 F75.00
G01 X11.3168 Y-13.4255 F75.00
G01 X11.3292 Y-13.4335 F75.00
G01 X11.3421 Y-13.4406 F75.00
G01 X11.3555 Y-13.4468 F75.00
G01 X11.3693 Y-13.4519 F75.00
G01 X11.3834 Y-13.4560 F75.00
G01 X11.3978 Y-13.4591 F75.00
G01 X11.4124 Y-13.4610 F75.00
G01 X11.4271 Y-13.4619 F75.00
G01 X11.8017 Y-13.4620 F75.00
G01 X11.4271 Y-13.4621 F75.00
G01 X11.4124 Y-13.4630 F75.00
G01 X11.4027 Y-13.4642 F75.00
G01 X11.3882 Y-13.4669 F75.00
G01 X11.3787 Y-13.4692 F75.00
G01 X11.3646 Y-13.4737 F75.00
G01 X11.3510 Y-13.4792 F75.00
G01 X11.3377 Y-13.4856 F75.00
G01 X11.3292 Y-13.4905 F75.00
G01 X11.3168 Y-13.4985 F75.00
G01 X11.3090 Y-13.5043 F75.00
G01 X11.2977 Y-13.5138 F75.00
G01 X11.2872 Y-13.5241 F75.00
G01 X11.2774 Y-13.5351 F75.00
G01 X11.2714 Y-13.5429 F75.00
G01 X11.2630 Y-13.5550 F75.00
G01 X11.2556 Y-13.5677 F75.00
G01 X11.2512 Y-13.5765 F75.00
G01 X11.2454 Y-13.5900 F75.00
G01 X11.2421 Y-13.5993 F75.00
G01 X11.2380 Y-13.6134 F75.00
G01 X11.2358 Y-13.6230 F75.00
G01 X11.2335 Y-13.6375 F75.00
G01 X11.2322 Y-13.6522 F75.00
G01 X11.2320 Y-13.6620 F75.00
G01 X11.2322 Y-15.8118 F75.00
G01 X11.2335 Y-15.8265 F75.00
G01 X11.2358 Y-15.8410 F75.00
G01 X11.2392 Y-15.8553 F75.00
G01 X11.2437 Y-15.8694 F75.00
G01 X11.2492 Y-15.8830 F75.00
G01 X11.2556 Y-15.8963 F75.00
G01 X11.2630 Y-15.9090 F75.00
G01 X11.2714 Y-15.9211 F75.00
G01 X11.2806 Y-15.9326 F75.00
G01 X11.2941 Y-15.9468 F75.00
G01 X11.3051 Y-15.9566 F75.00
G01 X11.3168 Y-15.9655 F75.00
G01 X11.3292 Y-15.9735 F75.00
G01 X11.3421 Y-15.9806 F75.00
G01 X11.3555 Y-15.9868 F75.00
G01 X11.3693 Y-15.9919 F75.00
G01 X11.3834 Y-15.9960 F75.00
G01 X11.3978 Y-15.9991 F75.00
G01 X11.4124 Y-16.0010 F75.00
G01 X11.4271 Y-16.0019 F75.00
G01 X11.8017 Y-16.0020 F75.00
G01 X11.4271 Y-16.0021 F75.00
G01 X11.4173 Y-16.0025 F75.00
G01 X11.4027 Y-16.0042 F75.00
G01 X11.3882 Y-16.0069 F75.00
G01 X11.3787 Y-16.0092 F75.00
G01 X11.3646 Y-16.0137 F75.00
G01 X11.3510 Y-16.0192 F75.00
G01 X11.3421 Y-16.0234 F75.00
G01 X11.3292 Y-16.0305 F75.00
G01 X11.3168 Y-16.0385 F75.00
G01 X11.3090 Y-16.0443 F75.00
G01 X11.2977 Y-16.0538 F75.00
G01 X11.2872 Y-16.0641 F75.00
G01 X11.2774 Y-16.0751 F75.00
G01 X11.2714 Y-16.0829 F75.00
G01 X11.2630 Y-16.0950 F75.00
G01 X11.2556 Y-16.1077 F75.00
G01 X11.2512 Y-16.1165 F75.00
G01 X11.2454 Y-16.1300 F75.00
G01 X11.2406 Y-16.1439 F75.00
G01 X11.2380 Y-16.1534 F75.00
G01 X11.2358 Y-16.1630 F75.00
G01 X11.2335 Y-16.1775 F75.00
G01 X11.2322 Y-16.1922 F75.00
G01 X11.2320 Y-16.2020 F75.00
G01 X11.2321 Y-18.3469 F75.00
G01 X11.2330 Y-18.3616 F75.00
G01 X11.2349 Y-18.3762 F75.00
G01 X11.2380 Y-18.3906 F75.00
G01 X11.2421 Y-18.4047 F75.00
G01 X11.2472 Y-18.4185 F75.00
G01 X11.2556 Y-18.4363 F75.00
G01 X11.2630 Y-18.4490 F75.00
G01 X11.2714 Y-18.4611 F75.00
G01 X11.2806 Y-18.4726 F75.00
G01 X11.2906 Y-18.4834 F75.00
G01 X11.3014 Y-18.4934 F75.00
G01 X11.3129 Y-18.5026 F75.00
G01 X11.3250 Y-18.5110 F75.00
G01 X11.3377 Y-18.5184 F75.00
G01 X11.3555 Y-18.5268 F75.00
G01 X11.3693 Y-18.5319 F75.00
G01 X11.3834 Y-18.5360 F75.00
G01 X11.3978 Y-18.5391 F75.00
G01 X11.4124 Y-18.5410 F75.00
G01 X11.4271 Y-18.5419 F75.00
G01 X11.8017 Y-18.5420 F75.00
G01 X11.4271 Y-18.5421 F75.00
G01 X11.4173 Y-18.5425 F75.00
G01 X11.4027 Y-18.5442 F75.00
G01 X11.3882 Y-18.5469 F75.00
G01 X11.3787 Y-18.5492 F75.00
G01 X11.3646 Y-18.5537 F75.00
G01 X11.3510 Y-18.5592 F75.00
G01 X11.3421 Y-18.5634 F75.00
G01 X11.3292 Y-18.5705 F75.00
G01 X11.3168 Y-18.5785 F75.00
G01 X11.3090 Y-18.5843 F75.00
G01 X11.2977 Y-18.5938 F75.00
G01 X11.2872 Y-18.6041 F75.00
G01 X11.2774 Y-18.6151 F75.00
G01 X11.2714 Y-18.6229 F75.00
G01 X11.2630 Y-18.6350 F75.00
G01 X11.2556 Y-18.6477 F75.00
G01 X11.2512 Y-18.6565 F75.00
G01 X11.2454 Y-18.6700 F75.00
G01 X11.2406 Y-18.6839 F75.00
G01 X11.2380 Y-18.6934 F75.00
G01 X11.2358 Y-18.7030 F75.00
G01 X11.2335 Y-18.7175 F75.00
G01 X11.2322 Y-18.7322 F75.00
G01 X11.2320 Y-18.7420 F75.00
G01 X11.2321 Y-20.8869 F75.00
G01 X11.2330 Y-20.9016 F75.00
G01 X11.2349 Y-20.9162 F75.00
G01 X11.2380 Y-20.9306 F75.00
G01 X11.2421 Y-20.9447 F75.00
G01 X11.2472 Y-20.9585 F75.00
G01 X11.2556 Y-20.9763 F75.00
G01 X11.2630 Y-20.9890 F75.00
G01 X11.2714 Y-21.0011 F75.00
G01 X11.2806 Y-21.0126 F75.00
G01 X11.2906 Y-21.0234 F75.00
G01 X11.3014 Y-21.0334 F75.00
G01 X11.3129 Y-21.0426 F75.00
G01 X11.3250 Y-21.0510 F75.00
G01 X11.3377 Y-21.0584 F75.00
G01 X11.3555 Y-21.0668 F75.00
G01 X11.3693 Y-21.0719 F75.00
G01 X11.3834 Y-21.0760 F75.00
G01 X11.3978 Y-21.0791 F75.00
G01 X11.4124 Y-21.0810 F75.00
G01 X11.4271 Y-21.0819 F75.00
G01 X11.8017 Y-21.0820 F75.00
G01 X11.4271 Y-21.0821 F75.00
G01 X11.4173 Y-21.0825 F75.00
G01 X11.4027 Y-21.0842 F75.00
G01 X11.3882 Y-21.0869 F75.00
G01 X11.3787 Y-21.0892 F75.00
G01 X11.3646 Y-21.0937 F75.00
G01 X11.3510 Y-21.0992 F75.00
G01 X11.3421 Y-21.1034 F75.00
G01 X11.3292 Y-21.1105 F75.00
G01 X11.3168 Y-21.1185 F75.00
G01 X11.3090 Y-21.1243 F75.00
G01 X11.2977 Y-21.1338 F75.00
G01 X11.2872 Y-21.1441 F75.00
G01 X11.2774 Y-21.1551 F75.00
G01 X11.2714 Y-21.1629 F75.00
G01 X11.2630 Y-21.1750 F75.00
G01 X11.2556 Y-21.1877 F75.00
G01 X11.2512 Y-21.1965 F75.00
G01 X11.2454 Y-21.2100 F75.00
G01 X11.2406 Y-21.2239 F75.00
G01 X11.2380 Y-21.2334 F75.00
G01 X11.2358 Y-21.2430 F75.00
G01 X11.2335 Y-21.2575 F75.00
G01 X11.2322 Y-21.2722 F75.00
G01 X11.2320 Y-21.2820 F75.00
G01 X11.2321 Y-23.4269 F75.00
G01 X11.2330 Y-23.4416 F75.00
G01 X11.2349 Y-23.4562 F75.00
G01 X11.2380 Y-23.4706 F75.00
G01 X11.2421 Y-23.4847 F75.00
G01 X11.2472 Y-23.4985 F75.00
G01 X11.2556 Y-23.5163 F75.00
G01 X11.2630 Y-23.5290 F75.00
G01 X11.2714 Y-23.5411 F75.00
G01 X11.2806 Y-23.5526 F75.00
G01 X11.2906 Y-23.5634 F75.00
G01 X11.3014 Y-23.5734 F75.00
G01 X11.3129 Y-23.5826 F75.00
G01 X11.3250 Y-23.5910 F75.00
G01 X11.3377 Y-23.5984 F75.00
G01 X11.3555 Y-23.6068 F75.00
G01 X11.3693 Y-23.6119 F75.00
G01 X11.3834 Y-23.6160 F75.00
G01 X11.3978 Y-23.6191 F75.00
G01 X11.4124 Y-23.6210 F75.00
G01 X11.4271 Y-23.6219 F75.00
G01 X11.8017 Y-23.6220 F75.00
G01 X11.4271 Y-23.6221 F75.00
G01 X11.4173 Y-23.6225 F75.00
G01 X11.4027 Y-23.6242 F75.00
G01 X11.3882 Y-23.6269 F75.00
G01 X11.3787 Y-23.6292 F75.00
G01 X11.3646 Y-23.6337 F75.00
G01 X11.3510 Y-23.6392 F75.00
G01 X11.3421 Y-23.6434 F75.00
G01 X11.3292 Y-23.6505 F75.00
G01 X11.3168 Y-23.6585 F75.00
G01 X11.3090 Y-23.6643 F75.00
G01 X11.2977 Y-23.6738 F75.00
G01 X11.2872 Y-23.6841 F75.00
G01 X11.2774 Y-23.6951 F75.00
G01 X11.2714 Y-23.7029 F75.00
G01 X11.2630 Y-23.7150 F75.00
G01 X11.2556 Y-23.7277 F75.00
G01 X11.2512 Y-23.7365 F75.00
G01 X11.2454 Y-23.7500 F75.00
G01 X11.2406 Y-23.7639 F75.00
G01 X11.2380 Y-23.7734 F75.00
G01 X11.2358 Y-23.7830 F75.00
G01 X11.2335 Y-23.7975 F75.00
G01 X11.2322 Y-23.8122 F75.00
G01 X11.2320 Y-23.8220 F75.00
G01 X11.2321 Y-25.9669 F75.00
G01 X11.2330 Y-25.9816 F75.00
G01 X11.2349 Y-25.9962 F75.00
G01 X11.2380 Y-26.0106 F75.00
G01 X11.2421 Y-26.0247 F75.00
G01 X11.2472 Y-26.0385 F75.00
G01 X11.2556 Y-26.0563 F75.00
G01 X11.2630 Y-26.0690 F75.00
G01 X11.2714 Y-26.0811 F75.00
G01 X11.2806 Y-26.0926 F75.00
G01 X11.2906 Y-26.1034 F75.00
G01 X11.3014 Y-26.1134 F75.00
G01 X11.3129 Y-26.1226 F75.00
G01 X11.3250 Y-26.1310 F75.00
G01 X11.3377 Y-26.1384 F75.00
G01 X11.3555 Y-26.1468 F75.00
G01 X11.3693 Y-26.1519 F75.00
G01 X11.3834 Y-26.1560 F75.00
G01 X11.3978 Y-26.1591 F75.00
G01 X11.4124 Y-26.1610 F75.00
G01 X11.4271 Y-26.1619 F75.00
G01 X11.8017 Y-26.1620 F75.00
G01 X11.4271 Y-26.1621 F75.00
G01 X11.4173 Y-26.1625 F75.00
G01 X11.4027 Y-26.1642 F75.00
G01 X11.3882 Y-26.1669 F75.00
G01 X11.3787 Y-26.1692 F75.00
G01 X11.3646 Y-26.1737 F75.00
G01 X11.3510 Y-26.1792 F75.00
G01 X11.3421 Y-26.1834 F75.00
G01 X11.3292 Y-26.1905 F75.00
G01 X11.3168 Y-26.1985 F75.00
G01 X11.3090 Y-26.2043 F75.00
G01 X11.2977 Y-26.2138 F75.00
G01 X11.2872 Y-26.2241 F75.00
G01 X11.2774 Y-26.2351 F75.00
G01 X11.2714 Y-26.2429 F75.00
G01 X11.2630 Y-26.2550 F75.00
G01 X11.2556 Y-26.2677 F75.00
G01 X11.2512 Y-26.2765 F75.00
G01 X11.2454 Y-26.2900 F75.00
G01 X11.2406 Y-26.3039 F75.00
G01 X11.2380 Y-26.3134 F75.00
G01 X11.2358 Y-26.3230 F75.00
G01 X11.2335 Y-26.3375 F75.00
G01 X11.2322 Y-26.3522 F75.00
G01 X11.2320 Y-26.3620 F75.00
G01 X11.2321 Y-28.5069 F75.00
G01 X11.2330 Y-28.5216 F75.00
G01 X11.2349 Y-28.5362 F75.00
G01 X11.2380 Y-28.5506 F75.00
G01 X11.2421 Y-28.5647 F75.00
G01 X11.2472 Y-28.5785 F75.00
G01 X11.2556 Y-28.5963 F75.00
G01 X11.2630 Y-28.6090 F75.00
G01 X11.2714 Y-28.6211 F75.00
G01 X11.2806 Y-28.6326 F75.00
G01 X11.2906 Y-28.6434 F75.00
G01 X11.3014 Y-28.6534 F75.00
G01 X11.3129 Y-28.6626 F75.00
G01 X11.3250 Y-28.6710 F75.00
G01 X11.3377 Y-28.6784 F75.00
G01 X11.3555 Y-28.6868 F75.00
G01 X11.3693 Y-28.6919 F75.00
G01 X11.3834 Y-28.6960 F75.00
G01 X11.3978 Y-28.6991 F75.00
G01 X11.4124 Y-28.7010 F75.00
G01 X11.4271 Y-28.7019 F75.00
G01 X11.8017 Y-28.7020 F75.00
G01 X11.4271 Y-28.7021 F75.00
G01 X11.4173 Y-28.7025 F75.00
G01 X11.4027 Y-28.7042 F75.00
G01 X11.3882 Y-28.7069 F75.00
G01 X11.3787 Y-28.7092 F75.00
G01 X11.3646 Y-28.7137 F75.00
G01 X11.3510 Y-28.7192 F75.00
G01 X11.3421 Y-28.7234 F75.00
G01 X11.3292 Y-28.7305 F75.00
G01 X11.3168 Y-28.7385 F75.00
G01 X11.3090 Y-28.7443 F75.00
G01 X11.2977 Y-28.7538 F75.00
G01 X11.2872 Y-28.7641 F75.00
G01 X11.2774 Y-28.7751 F75.00
G01 X11.2714 Y-28.7829 F75.00
G01 X11.2630 Y-28.7950 F75.00
G01 X11.2556 Y-28.8077 F75.00
G01 X11.2512 Y-28.8165 F75.00
G01 X11.2454 Y-28.8300 F75.00
G01 X11.2406 Y-28.8439 F75.00
G01 X11.2380 Y-28.8534 F75.00
G01 X11.2358 Y-28.8630 F75.00
G01 X11.2335 Y-28.8775 F75.00
G01 X11.2322 Y-28.8922 F75.00
G01 X11.2320 Y-28.9020 F75.00
G01 X11.2321 Y-31.0469 F75.00
G01 X11.2330 Y-31.0616 F75.00
G01 X11.2349 Y-31.0762 F75.00
G01 X11.2380 Y-31.0906 F75.00
G01 X11.2421 Y-31.1047 F75.00
G01 X11.2472 Y-31.1185 F75.00
G01 X11.2556 Y-31.1363 F75.00
G01 X11.2630 Y-31.1490 F75.00
G01 X11.2714 Y-31.1611 F75.00
G01 X11.2806 Y-31.1726 F75.00
G01 X11.2906 Y-31.1834 F75.00
G01 X11.3014 Y-31.1934 F75.00
G01 X11.3129 Y-31.2026 F75.00
G01 X11.3250 Y-31.2110 F75.00
G01 X11.3377 Y-31.2184 F75.00
G01 X11.3555 Y-31.2268 F75.00
G01 X11.3693 Y-31.2319 F75.00
G01 X11.3834 Y-31.2360 F75.00
G01 X11.3978 Y-31.2391 F75.00
G01 X11.4124 Y-31.2410 F75.00
G01 X11.4271 Y-31.2419 F75.00
G01 X11.8017 Y-31.2420 F75.00
G01 X11.4271 Y-31.2421 F75.00
G01 X11.4124 Y-31.2430 F75.00
G01 X11.3978 Y-31.2449 F75.00
G01 X11.3834 Y-31.2480 F75.00
G01 X11.3646 Y-31.2537 F75.00
G01 X11.3510 Y-31.2592 F75.00
G01 X11.3377 Y-31.2656 F75.00
G01 X11.3209 Y-31.2757 F75.00
G01 X11.3090 Y-31.2843 F75.00
G01 X11.2977 Y-31.2938 F75.00
G01 X11.2872 Y-31.3041 F75.00
G01 X11.2774 Y-31.3151 F75.00
G01 X11.2685 Y-31.3268 F75.00
G01 X11.2605 Y-31.3392 F75.00
G01 X11.2534 Y-31.3521 F75.00
G01 X11.2472 Y-31.3655 F75.00
G01 X11.2406 Y-31.3839 F75.00
G01 X11.2369 Y-31.3982 F75.00
G01 X11.2342 Y-31.4127 F75.00
G01 X11.2325 Y-31.4273 F75.00
G01 X11.2320 Y-31.4420 F75.00
G00 Z2.0000
G00 X6.8320 Y-49.0220
G01 F45.00
G01 Z-0.0850
G01 F75.00
G01 X8.9720 Y-49.0220 F75.00
G01 X8.9867 Y-49.0215 F75.00
G01 X9.0062 Y-49.0191 F75.00
G01 X9.0253 Y-49.0148 F75.00
G01 X9.0394 Y-49.0103 F75.00
G01 X9.0575 Y-49.0028 F75.00
G01 X9.0748 Y-48.9935 F75.00
G01 X9.0911 Y-48.9826 F75.00
G01 X9.1063 Y-48.9702 F75.00
G01 X9.1168 Y-48.9599 F75.00
G01 X9.1297 Y-48.9450 F75.00
G01 X9.1383 Y-48.9331 F75.00
G01 X9.1484 Y-48.9163 F75.00
G01 X9.1568 Y-48.8985 F75.00
G01 X9.1634 Y-48.8801 F75.00
G01 X9.1671 Y-48.8658 F75.00
G01 X9.1705 Y-48.8465 F75.00
G01 X9.1718 Y-48.8318 F75.00
G01 X9.1720 Y-46.6820 F75.00
G01 X9.1715 Y-46.6673 F75.00
G01 X9.1705 Y-46.6575 F75.00
G01 X9.1682 Y-46.6430 F75.00
G01 X9.1660 Y-46.6334 F75.00
G01 X9.1634 Y-46.6239 F75.00
G01 X9.1586 Y-46.6100 F75.00
G01 X9.1528 Y-46.5965 F75.00
G01 X9.1460 Y-46.5834 F75.00
G01 X9.1383 Y-46.5709 F75.00
G01 X9.1326 Y-46.5629 F75.00
G01 X9.1234 Y-46.5514 F75.00
G01 X9.1134 Y-46.5406 F75.00
G01 X9.1026 Y-46.5306 F75.00
G01 X9.0950 Y-46.5243 F75.00
G01 X9.0831 Y-46.5157 F75.00
G01 X9.0748 Y-46.5105 F75.00
G01 X9.0619 Y-46.5034 F75.00
G01 X9.0485 Y-46.4972 F75.00
G01 X9.0347 Y-46.4921 F75.00
G01 X9.0253 Y-46.4892 F75.00
G01 X9.0158 Y-46.4869 F75.00
G01 X9.0013 Y-46.4842 F75.00
G01 X8.9867 Y-46.4825 F75.00
G01 X8.9769 Y-46.4821 F75.00
G01 X8.6023 Y-46.4820 F75.00
G01 X8.9769 Y-46.4819 F75.00
G01 X8.9916 Y-46.4810 F75.00
G01 X9.0062 Y-46.4791 F75.00
G01 X9.0206 Y-46.4760 F75.00
G01 X9.0394 Y-46.4703 F75.00
G01 X9.0530 Y-46.4648 F75.00
G01 X9.0663 Y-46.4584 F75.00
G01 X9.0790 Y-46.4510 F75.00
G01 X9.0911 Y-46.4426 F75.00
G01 X9.1026 Y-46.4334 F75.00
G01 X9.1168 Y-46.4199 F75.00
G01 X9.1266 Y-46.4089 F75.00
G01 X9.1355 Y-46.3972 F75.00
G01 X9.1435 Y-46.3848 F75.00
G01 X9.1506 Y-46.3719 F75.00
G01 X9.1568 Y-46.3585 F75.00
G01 X9.1619 Y-46.3447 F75.00
G01 X9.1671 Y-46.3258 F75.00
G01 X9.1698 Y-46.3113 F75.00
G01 X9.1715 Y-46.2967 F75.00
G01 X9.1720 Y-46.2820 F75.00
G01 X9.1720 Y-44.1420 F75.00
G01 X9.1715 Y-44.1273 F75.00
G01 X9.1705 Y-44.1175 F75.00
G01 X9.1682 Y-44.1030 F75.00
G01 X9.1660 Y-44.0934 F75.00
G01 X9.1634 Y-44.0839 F75.00
G01 X9.1586 Y-44.0700 F75.00
G01 X9.1528 Y-44.0565 F75.00
G01 X9.1460 Y-44.0434 F75.00
G01 X9.1383 Y-44.0309 F75.00
G01 X9.1326 Y-44.0229 F75.00
G01 X9.1234 Y-44.0114 F75.00
G01 X9.1134 Y-44.0006 F75.00
G01 X9.1026 Y-43.9906 F75.00
G01 X9.0950 Y-43.9843 F75.00
G01 X9.0872 Y-43.9785 F75.00
G01 X9.0748 Y-43.9705 F75.00
G01 X9.0619 Y-43.9634 F75.00
G01 X9.0485 Y-43.9572 F75.00
G01 X9.0347 Y-43.9521 F75.00
G01 X9.0253 Y-43.9492 F75.00
G01 X9.0158 Y-43.9469 F75.00
G01 X9.0013 Y-43.9442 F75.00
G01 X8.9867 Y-43.9425 F75.00
G01 X8.9769 Y-43.9421 F75.00
G01 X8.6023 Y-43.9420 F75.00
G01 X8.9769 Y-43.9419 F75.00
G01 X8.9916 Y-43.9410 F75.00
G01 X9.0062 Y-43.9391 F75.00
G01 X9.0206 Y-43.9360 F75.00
G01 X9.0394 Y-43.9303 F75.00
G01 X9.0530 Y-43.9248 F75.00
G01 X9.0663 Y-43.9184 F75.00
G01 X9.0790 Y-43.9110 F75.00
G01 X9.0911 Y-43.9026 F75.00
G01 X9.1026 Y-43.8934 F75.00
G01 X9.1168 Y-43.8799 F75.00
G01 X9.1266 Y-43.8689 F75.00
G01 X9.1355 Y-43.8572 F75.00
G01 X9.1435 Y-43.8448 F75.00
G01 X9.1506 Y-43.8319 F75.00
G01 X9.1568 Y-43.8185 F75.00
G01 X9.1619 Y-43.8047 F75.00
G01 X9.1671 Y-43.7858 F75.00
G01 X9.1698 Y-43.7713 F75.00
G01 X9.1715 Y-43.7567 F75.00
G01 X9.1720 Y-43.7420 F75.00
G01 X9.1720 Y-41.6020 F75.00
G01 X9.1715 Y-41.5873 F75.00
G01 X9.1705 Y-41.5775 F75.00
G01 X9.1682 Y-41.5630 F75.00
G01 X9.1660 Y-41.5534 F75.00
G01 X9.1634 Y-41.5439 F75.00
G01 X9.1586 Y-41.5300 F75.00
G01 X9.1528 Y-41.5165 F75.00
G01 X9.1460 Y-41.5034 F75.00
G01 X9.1383 Y-41.4909 F75.00
G01 X9.1326 Y-41.4829 F75.00
G01 X9.1234 Y-41.4714 F75.00
G01 X9.1134 Y-41.4606 F75.00
G01 X9.1026 Y-41.4506 F75.00
G01 X9.0950 Y-41.4443 F75.00
G01 X9.0831 Y-41.4357 F75.00
G01 X9.0748 Y-41.4305 F75.00
G01 X9.0619 Y-41.4234 F75.00
G01 X9.0485 Y-41.4172 F75.00
G01 X9.0347 Y-41.4121 F75.00
G01 X9.0253 Y-41.4092 F75.00
G01 X9.0158 Y-41.4069 F75.00
G01 X9.0013 Y-41.4042 F75.00
G01 X8.9867 Y-41.4025 F75.00
G01 X8.9769 Y-41.4021 F75.00
G01 X8.6023 Y-41.4020 F75.00
G01 X8.9769 Y-41.4019 F75.00
G01 X8.9916 Y-41.4010 F75.00
G01 X9.0062 Y-41.3991 F75.00
G01 X9.0206 Y-41.3960 F75.00
G01 X9.0394 Y-41.3903 F75.00
G01 X9.0530 Y-41.3848 F75.00
G01 X9.0663 Y-41.3784 F75.00
G01 X9.0790 Y-41.3710 F75.00
G01 X9.0911 Y-41.3626 F75.00
G01 X9.1026 Y-41.3534 F75.00
G01 X9.1168 Y-41.3399 F75.00
G01 X9.1266 Y-41.3289 F75.00
G01 X9.1355 Y-41.3172 F75.00
G01 X9.1435 Y-41.3048 F75.00
G01 X9.1506 Y-41.2919 F75.00
G01 X9.1568 Y-41.2785 F75.00
G01 X9.1619 Y-41.2647 F75.00
G01 X9.1671 Y-41.2458 F75.00
G01 X9.1698 Y-41.2313 F75.00
G01 X9.1715 Y-41.2167 F75.00
G01 X9.1720 Y-41.2020 F75.00
G01 X9.1720 Y-39.0620 F75.00
G01 X9.1715 Y-39.0473 F75.00
G01 X9.1705 Y-39.0375 F75.00
G01 X9.1682 Y-39.0230 F75.00
G01 X9.1660 Y-39.0134 F75.00
G01 X9.1634 Y-39.0039 F75.00
G01 X9.1586 Y-38.9900 F75.00
G01 X9.1528 Y-38.9765 F75.00
G01 X9.1460 Y-38.9634 F75.00
G01 X9.1383 Y-38.9509 F75.00
G01 X9.1326 Y-38.9429 F75.00
G01 X9.1234 Y-38.9314 F75.00
G01 X9.1134 Y-38.9206 F75.00
G01 X9.1026 Y-38.9106 F75.00
G01 X9.0950 Y-38.9043 F75.00
G01 X9.0872 Y-38.8985 F75.00
G01 X9.0748 Y-38.8905 F75.00
G01 X9.0619 Y-38.8834 F75.00
G01 X9.0485 Y-38.8772 F75.00
G01 X9.0347 Y-38.8721 F75.00
G01 X9.0253 Y-38.8692 F75.00
G01 X9.0158 Y-38.8669 F75.00
G01 X9.0013 Y-38.8642 F75.00
G01 X8.9867 Y-38.8625 F75.00
G01 X8.9769 Y-38.8621 F75.00
G01 X8.6023 Y-38.8620 F75.00
G01 X8.9769 Y-38.8619 F75.00
G01 X8.9916 Y-38.8610 F75.00
G01 X9.0062 Y-38.8591 F75.00
G01 X9.0206 Y-38.8560 F75.00
G01 X9.0394 Y-38.8503 F75.00
G01 X9.0530 Y-38.8448 F75.00
G01 X9.0663 Y-38.8384 F75.00
G01 X9.0790 Y-38.8310 F75.00
G01 X9.0911 Y-38.8226 F75.00
G01 X9.1026 Y-38.8134 F75.00
G01 X9.1168 Y-38.7999 F75.00
G01 X9.1266 Y-38.7889 F75.00
G01 X9.1355 Y-38.7772 F75.00
G01 X9.1435 Y-38.7648 F75.00
G01 X9.1506 Y-38.7519 F75.00
G01 X9.1568 Y-38.7385 F75.00
G01 X9.1619 Y-38.7247 F75.00
G01 X9.1671 Y-38.7058 F75.00
G01 X9.1698 Y-38.6913 F75.00
G01 X9.1715 Y-38.6767 F75.00
G01 X9.1720 Y-38.6620 F75.00
G01 X9.1720 Y-36.5220 F75.00
G01 X9.1715 Y-36.5073 F75.00
G01 X9.1705 Y-36.4975 F75.00
G01 X9.1682 Y-36.4830 F75.00
G01 X9.1660 Y-36.4734 F75.00
G01 X9.1634 Y-36.4639 F75.00
G01 X9.1586 Y-36.4500 F75.00
G01 X9.1528 Y-36.4365 F75.00
G01 X9.1460 Y-36.4234 F75.00
G01 X9.1383 Y-36.4109 F75.00
G01 X9.1326 Y-36.4029 F75.00
G01 X9.1234 Y-36.3914 F75.00
G01 X9.1134 Y-36.3806 F75.00
G01 X9.1026 Y-36.3706 F75.00
G01 X9.0950 Y-36.3643 F75.00
G01 X9.0831 Y-36.3557 F75.00
G01 X9.0748 Y-36.3505 F75.00
G01 X9.0619 Y-36.3434 F75.00
G01 X9.0485 Y-36.3372 F75.00
G01 X9.0347 Y-36.3321 F75.00
G01 X9.0253 Y-36.3292 F75.00
G01 X9.0158 Y-36.3269 F75.00
G01 X9.0013 Y-36.3242 F75.00
G01 X8.9867 Y-36.3225 F75.00
G01 X8.9769 Y-36.3221 F75.00
G01 X8.6023 Y-36.3220 F75.00
G01 X8.9769 Y-36.3219 F75.00
G01 X8.9916 Y-36.3210 F75.00
G01 X9.0062 Y-36.3191 F75.00
G01 X9.0206 Y-36.3160 F75.00
G01 X9.0394 Y-36.3103 F75.00
G01 X9.0530 Y-36.3048 F75.00
G01 X9.0663 Y-36.2984 F75.00
G01 X9.0790 Y-36.2910 F75.00
G01 X9.0911 Y-36.2826 F75.00
G01 X9.1026 Y-36.2734 F75.00
G01 X9.1168 Y-36.2599 F75.00
G01 X9.1266 Y-36.2489 F75.00
G01 X9.1355 Y-36.2372 F75.00
G01 X9.1435 Y-36.2248 F75.00
G01 X9.1506 Y-36.2119 F75.00
G01 X9.1568 Y-36.1985 F75.00
G01 X9.1619 Y-36.1847 F75.00
G01 X9.1671 Y-36.1658 F75.00
G01 X9.1698 Y-36.1513 F75.00
G01 X9.1715 Y-36.1367 F75.00
G01 X9.1720 Y-36.1220 F75.00
G01 X9.1720 Y-33.9820 F75.00
G01 X9.1715 Y-33.9673 F75.00
G01 X9.1705 Y-33.9575 F75.00
G01 X9.1682 Y-33.9430 F75.00
G01 X9.1660 Y-33.9334 F75.00
G01 X9.1634 Y-33.9239 F75.00
G01 X9.1586 Y-33.9100 F75.00
G01 X9.1528 Y-33.8965 F75.00
G01 X9.1460 Y-33.8834 F75.00
G01 X9.1383 Y-33.8709 F75.00
G01 X9.1326 Y-33.8629 F75.00
G01 X9.1234 Y-33.8514 F75.00
G01 X9.1134 Y-33.8406 F75.00
G01 X9.1026 Y-33.8306 F75.00
G01 X9.0950 Y-33.8243 F75.00
G01 X9.0872 Y-33.8185 F75.00
G01 X9.0748 Y-33.8105 F75.00
G01 X9.0619 Y-33.8034 F75.00
G01 X9.0485 Y-33.7972 F75.00
G01 X9.0347 Y-33.7921 F75.00
G01 X9.0253 Y-33.7892 F75.00
G01 X9.0158 Y-33.7869 F75.00
G01 X9.0013 Y-33.7842 F75.00
G01 X8.9867 Y-33.7825 F75.00
G01 X8.9769 Y-33.7821 F75.00
G01 X8.6023 Y-33.7820 F75.00
G01 X8.9769 Y-33.7819 F75.00
G01 X8.9916 Y-33.7810 F75.00
G01 X9.0062 Y-33.7791 F75.00
G01 X9.0206 Y-33.7760 F75.00
G01 X9.0394 Y-33.7703 F75.00
G01 X9.0530 Y-33.7648 F75.00
G01 X9.0663 Y-33.7584 F75.00
G01 X9.0831 Y-33.7483 F75.00
G01 X9.0950 Y-33.7397 F75.00
G01 X9.1063 Y-33.7302 F75.00
G01 X9.1168 Y-33.7199 F75.00
G01 X9.1266 Y-33.7089 F75.00
G01 X9.1355 Y-33.6972 F75.00
G01 X9.1435 Y-33.6848 F75.00
G01 X9.1506 Y-33.6719 F75.00
G01 X9.1568 Y-33.6585 F75.00
G01 X9.1619 Y-33.6447 F75.00
G01 X9.1660 Y-33.6306 F75.00
G01 X9.1691 Y-33.6162 F75.00
G01 X9.1715 Y-33.5967 F75.00
G01 X9.1720 Y-33.5820 F75.00
G01 X9.1720 Y-31.4420 F75.00
G01 X9.1715 Y-31.4273 F75.00
G01 X9.1705 Y-31.4175 F75.00
G01 X9.1691 Y-31.4078 F75.00
G01 X9.1660 Y-31.3934 F75.00
G01 X9.1619 Y-31.3793 F75.00
G01 X9.1586 Y-31.3700 F75.00
G01 X9.1528 Y-31.3565 F75.00
G01 X9.1484 Y-31.3477 F75.00
G01 X9.1410 Y-31.3350 F75.00
G01 X9.1355 Y-31.3268 F75.00
G01 X9.1266 Y-31.3151 F75.00
G01 X9.1168 Y-31.3041 F75.00
G01 X9.1063 Y-31.2938 F75.00
G01 X9.0989 Y-31.2874 F75.00
G01 X9.0872 Y-31.2785 F75.00
G01 X9.0748 Y-31.2705 F75.00
G01 X9.0619 Y-31.2634 F75.00
G01 X9.0485 Y-31.2572 F75.00
G01 X9.0347 Y-31.2521 F75.00
G01 X9.0253 Y-31.2492 F75.00
G01 X9.0158 Y-31.2469 F75.00
G01 X9.0013 Y-31.2442 F75.00
G01 X8.9867 Y-31.2425 F75.00
G01 X8.9769 Y-31.2421 F75.00
G01 X8.6023 Y-31.2420 F75.00
G01 X8.9769 Y-31.2419 F75.00
G01 X8.9916 Y-31.2410 F75.00
G01 X9.0062 Y-31.2391 F75.00
G01 X9.0206 Y-31.2360 F75.00
G01 X9.0347 Y-31.2319 F75.00
G01 X9.0485 Y-31.2268 F75.00
G01 X9.0619 Y-31.2206 F75.00
G01 X9.0748 Y-31.2135 F75.00
G01 X9.0872 Y-31.2055 F75.00
G01 X9.0989 Y-31.1966 F75.00
G01 X9.1134 Y-31.1834 F75.00
G01 X9.1234 Y-31.1726 F75.00
G01 X9.1326 Y-31.1611 F75.00
G01 X9.1410 Y-31.1490 F75.00
G01 X9.1484 Y-31.1363 F75.00
G01 X9.1548 Y-31.1230 F75.00
G01 X9.1603 Y-31.1094 F75.00
G01 X9.1648 Y-31.0953 F75.00
G01 X9.1682 Y-31.0810 F75.00
G01 X9.1710 Y-31.0616 F75.00
G01 X9.1719 Y-31.0469 F75.00
G01 X9.1720 Y-28.9020 F75.00
G01 X9.1715 Y-28.8873 F75.00
G01 X9.1705 Y-28.8775 F75.00
G01 X9.1691 Y-28.8678 F75.00
G01 X9.1660 Y-28.8534 F75.00
G01 X9.1619 Y-28.8393 F75.00
G01 X9.1586 Y-28.8300 F75.00
G01 X9.1528 Y-28.8165 F75.00
G01 X9.1484 Y-28.8077 F75.00
G01 X9.1410 Y-28.7950 F75.00
G01 X9.1355 Y-28.7868 F75.00
G01 X9.1266 Y-28.7751 F75.00
G01 X9.1168 Y-28.7641 F75.00
G01 X9.1063 Y-28.7538 F75.00
G01 X9.0989 Y-28.7474 F75.00
G01 X9.0872 Y-28.7385 F75.00
G01 X9.0748 Y-28.7305 F75.00
G01 X9.0619 Y-28.7234 F75.00
G01 X9.0485 Y-28.7172 F75.00
G01 X9.0347 Y-28.7121 F75.00
G01 X9.0253 Y-28.7092 F75.00
G01 X9.0158 Y-28.7069 F75.00
G01 X9.0013 Y-28.7042 F75.00
G01 X8.9867 Y-28.7025 F75.00
G01 X8.9769 Y-28.7021 F75.00
G01 X8.6023 Y-28.7020 F75.00
G01 X8.9769 Y-28.7019 F75.00
G01 X8.9916 Y-28.7010 F75.00
G01 X9.0062 Y-28.6991 F75.00
G01 X9.0206 Y-28.6960 F75.00
G01 X9.0347 Y-28.6919 F75.00
G01 X9.0485 Y-28.6868 F75.00
G01 X9.0619 Y-28.6806 F75.00
G01 X9.0748 Y-28.6735 F75.00
G01 X9.0872 Y-28.6655 F75.00
G01 X9.0989 Y-28.6566 F75.00
G01 X9.1134 Y-28.6434 F75.00
G01 X9.1234 Y-28.6326 F75.00
G01 X9.1326 Y-28.6211 F75.00
G01 X9.1410 Y-28.6090 F75.00
G01 X9.1484 Y-28.5963 F75.00
G01 X9.1548 Y-28.5830 F75.00
G01 X9.1603 Y-28.5694 F75.00
G01 X9.1648 Y-28.5553 F75.00
G01 X9.1682 Y-28.5410 F75.00
G01 X9.1710 Y-28.5216 F75.00
G01 X9.1719 Y-28.5069 F75.00
G01 X9.1720 Y-26.3620 F75.00
G01 X9.1715 Y-26.3473 F75.00
G01 X9.1705 Y-26.3375 F75.00
G01 X9.1691 Y-26.3278 F75.00
G01 X9.1660 Y-26.3134 F75.00
G01 X9.1619 Y-26.2993 F75.00
G01 X9.1586 Y-26.2900 F75.00
G01 X9.1528 Y-26.2765 F75.00
G01 X9.1484 Y-26.2677 F75.00
G01 X9.1410 Y-26.2550 F75.00
G01 X9.1355 Y-26.2468 F75.00
G01 X9.1266 Y-26.2351 F75.00
G01 X9.1168 Y-26.2241 F75.00
G01 X9.1063 Y-26.2138 F75.00
G01 X9.0989 Y-26.2074 F75.00
G01 X9.0872 Y-26.1985 F75.00
G01 X9.0748 Y-26.1905 F75.00
G01 X9.0619 Y-26.1834 F75.00
G01 X9.0485 Y-26.1772 F75.00
G01 X9.0347 Y-26.1721 F75.00
G01 X9.0253 Y-26.1692 F75.00
G01 X9.0158 Y-26.1669 F75.00
G01 X9.0013 Y-26.1642 F75.00
G01 X8.9867 Y-26.1625 F75.00
G01 X8.9769 Y-26.1621 F75.00
G01 X8.6023 Y-26.1620 F75.00
G01 X8.9769 Y-26.1619 F75.00
G01 X8.9916 Y-26.1610 F75.00
G01 X9.0062 Y-26.1591 F75.00
G01 X9.0206 Y-26.1560 F75.00
G01 X9.0347 Y-26.1519 F75.00
G01 X9.0485 Y-26.1468 F75.00
G01 X9.0619 Y-26.1406 F75.00
G01 X9.0748 Y-26.1335 F75.00
G01 X9.0872 Y-26.1255 F75.00
G01 X9.0989 Y-26.1166 F75.00
G01 X9.1134 Y-26.1034 F75.00
G01 X9.1234 Y-26.0926 F75.00
G01 X9.1326 Y-26.0811 F75.00
G01 X9.1410 Y-26.0690 F75.00
G01 X9.1484 Y-26.0563 F75.00
G01 X9.1548 Y-26.0430 F75.00
G01 X9.1603 Y-26.0294 F75.00
G01 X9.1648 Y-26.0153 F75.00
G01 X9.1682 Y-26.0010 F75.00
G01 X9.1710 Y-25.9816 F75.00
G01 X9.1719 Y-25.9669 F75.00
G01 X9.1720 Y-23.8220 F75.00
G01 X9.1715 Y-23.8073 F75.00
G01 X9.1705 Y-23.7975 F75.00
G01 X9.1691 Y-23.7878 F75.00
G01 X9.1660 Y-23.7734 F75.00
G01 X9.1619 Y-23.7593 F75.00
G01 X9.1586 Y-23.7500 F75.00
G01 X9.1528 Y-23.7365 F75.00
G01 X9.1484 Y-23.7277 F75.00
G01 X9.1410 Y-23.7150 F75.00
G01 X9.1355 Y-23.7068 F75.00
G01 X9.1266 Y-23.6951 F75.00
G01 X9.1168 Y-23.6841 F75.00
G01 X9.1063 Y-23.6738 F75.00
G01 X9.0989 Y-23.6674 F75.00
G01 X9.0872 Y-23.6585 F75.00
G01 X9.0748 Y-23.6505 F75.00
G01 X9.0619 Y-23.6434 F75.00
G01 X9.0485 Y-23.6372 F75.00
G01 X9.0347 Y-23.6321 F75.00
G01 X9.0253 Y-23.6292 F75.00
G01 X9.0158 Y-23.6269 F75.00
G01 X9.0013 Y-23.6242 F75.00
G01 X8.9867 Y-23.6225 F75.00
G01 X8.9769 Y-23.6221 F75.00
G01 X8.6023 Y-23.6220 F75.00
G01 X8.9769 Y-23.6219 F75.00
G01 X8.9916 Y-23.6210 F75.00
G01 X9.0062 Y-23.6191 F75.00
G01 X9.0206 Y-23.6160 F75.00
G01 X9.0347 Y-23.6119 F75.00
G01 X9.0485 Y-23.6068 F75.00
G01 X9.0619 Y-23.6006 F75.00
G01 X9.0748 Y-23.5935 F75.00
G01 X9.0872 Y-23.5855 F75.00
G01 X9.0989 Y-23.5766 F75.00
G01 X9.1134 Y-23.5634 F75.00
G01 X9.1234 Y-23.5526 F75.00
G01 X9.1326 Y-23.5411 F75.00
G01 X9.1410 Y-23.5290 F75.00
G01 X9.1484 Y-23.5163 F75.00
G01 X9.1548 Y-23.5030 F75.00
G01 X9.1603 Y-23.4894 F75.00
G01 X9.1648 Y-23.4753 F75.00
G01 X9.1682 Y-23.4610 F75.00
G01 X9.1710 Y-23.4416 F75.00
G01 X9.1719 Y-23.4269 F75.00
G01 X9.1720 Y-21.2820 F75.00
G01 X9.1715 Y-21.2673 F75.00
G01 X9.1705 Y-21.2575 F75.00
G01 X9.1691 Y-21.2478 F75.00
G01 X9.1660 Y-21.2334 F75.00
G01 X9.1619 Y-21.2193 F75.00
G01 X9.1586 Y-21.2100 F75.00
G01 X9.1528 Y-21.1965 F75.00
G01 X9.1484 Y-21.1877 F75.00
G01 X9.1410 Y-21.1750 F75.00
G01 X9.1355 Y-21.1668 F75.00
G01 X9.1266 Y-21.1551 F75.00
G01 X9.1168 Y-21.1441 F75.00
G01 X9.1063 Y-21.1338 F75.00
G01 X9.0989 Y-21.1274 F75.00
G01 X9.0872 Y-21.1185 F75.00
G01 X9.0748 Y-21.1105 F75.00
G01 X9.0619 Y-21.1034 F75.00
G01 X9.0485 Y-21.0972 F75.00
G01 X9.0347 Y-21.0921 F75.00
G01 X9.0253 Y-21.0892 F75.00
G01 X9.0158 Y-21.0869 F75.00
G01 X9.0013 Y-21.0842 F75.00
G01 X8.9867 Y-21.0825 F75.00
G01 X8.9769 Y-21.0821 F75.00
G01 X8.6023 Y-21.0820 F75.00
G01 X8.9769 Y-21.0819 F75.00
G01 X8.9916 Y-21.0810 F75.00
G01 X9.0062 Y-21.0791 F75.00
G01 X9.0206 Y-21.0760 F75.00
G01 X9.0347 Y-21.0719 F75.00
G01 X9.0485 Y-21.0668 F75.00
G01 X9.0619 Y-21.0606 F75.00
G01 X9.0748 Y-21.0535 F75.00
G01 X9.0872 Y-21.0455 F75.00
G01 X9.0989 Y-21.0366 F75.00
G01 X9.1134 Y-21.0234 F75.00
G01 X9.1234 Y-21.0126 F75.00
G01 X9.1326 Y-21.0011 F75.00
G01 X9.1410 Y-20.9890 F75.00
G01 X9.1484 Y-20.9763 F75.00
G01 X9.1548 Y-20.9630 F75.00
G01 X9.1603 Y-20.9494 F75.00
G01 X9.1648 Y-20.9353 F75.00
G01 X9.1682 Y-20.9210 F75.00
G01 X9.1710 Y-20.9016 F75.00
G01 X9.1719 Y-20.8869 F75.00
G01 X9.1720 Y-18.7420 F75.00
G01 X9.1715 Y-18.7273 F75.00
G01 X9.1705 Y-18.7175 F75.00
G01 X9.1691 Y-18.7078 F75.00
G01 X9.1660 Y-18.6934 F75.00
G01 X9.1619 Y-18.6793 F75.00
G01 X9.1586 Y-18.6700 F75.00
G01 X9.1528 Y-18.6565 F75.00
G01 X9.1484 Y-18.6477 F75.00
G01 X9.1410 Y-18.6350 F75.00
G01 X9.1355 Y-18.6268 F75.00
G01 X9.1266 Y-18.6151 F75.00
G01 X9.1168 Y-18.6041 F75.00
G01 X9.1063 Y-18.5938 F75.00
G01 X9.0989 Y-18.5874 F75.00
G01 X9.0872 Y-18.5785 F75.00
G01 X9.0748 Y-18.5705 F75.00
G01 X9.0619 Y-18.5634 F75.00
G01 X9.0485 Y-18.5572 F75.00
G01 X9.0347 Y-18.5521 F75.00
G01 X9.0253 Y-18.5492 F75.00
G01 X9.0158 Y-18.5469 F75.00
G01 X9.0013 Y-18.5442 F75.00
G01 X8.9867 Y-18.5425 F75.00
G01 X8.9769 Y-18.5421 F75.00
G01 X8.6023 Y-18.5420 F75.00
G01 X8.9769 Y-18.5419 F75.00
G01 X8.9916 Y-18.5410 F75.00
G01 X9.0062 Y-18.5391 F75.00
G01 X9.0206 Y-18.5360 F75.00
G01 X9.0347 Y-18.5319 F75.00
G01 X9.0485 Y-18.5268 F75.00
G01 X9.0619 Y-18.5206 F75.00
G01 X9.0748 Y-18.5135 F75.00
G01 X9.0872 Y-18.5055 F75.00
G01 X9.0989 Y-18.4966 F75.00
G01 X9.1134 Y-18.4834 F75.00
G01 X9.1234 Y-18.4726 F75.00
G01 X9.1326 Y-18.4611 F75.00
G01 X9.1410 Y-18.4490 F75.00
G01 X9.1484 Y-18.4363 F75.00
G01 X9.1548 Y-18.4230 F75.00
G01 X9.1603 Y-18.4094 F75.00
G01 X9.1648 Y-18.3953 F75.00
G01 X9.1682 Y-18.3810 F75.00
G01 X9.1710 Y-18.3616 F75.00
G01 X9.1719 Y-18.3469 F75.00
G01 X9.1720 Y-16.2020 F75.00
G01 X9.1715 Y-16.1873 F75.00
G01 X9.1705 Y-16.1775 F75.00
G01 X9.1691 Y-16.1678 F75.00
G01 X9.1660 Y-16.1534 F75.00
G01 X9.1619 Y-16.1393 F75.00
G01 X9.1586 Y-16.1300 F75.00
G01 X9.1528 Y-16.1165 F75.00
G01 X9.1484 Y-16.1077 F75.00
G01 X9.1410 Y-16.0950 F75.00
G01 X9.1355 Y-16.0868 F75.00
G01 X9.1266 Y-16.0751 F75.00
G01 X9.1168 Y-16.0641 F75.00
G01 X9.1063 Y-16.0538 F75.00
G01 X9.0989 Y-16.0474 F75.00
G01 X9.0872 Y-16.0385 F75.00
G01 X9.0748 Y-16.0305 F75.00
G01 X9.0619 Y-16.0234 F75.00
G01 X9.0485 Y-16.0172 F75.00
G01 X9.0347 Y-16.0121 F75.00
G01 X9.0253 Y-16.0092 F75.00
G01 X9.0158 Y-16.0069 F75.00
G01 X9.0013 Y-16.0042 F75.00
G01 X8.9867 Y-16.0025 F75.00
G01 X8.9769 Y-16.0021 F75.00
G01 X8.6023 Y-16.0020 F75.00
G01 X8.9769 Y-16.0019 F75.00
G01 X8.9916 Y-16.0010 F75.00
G01 X9.0062 Y-15.9991 F75.00
G01 X9.0206 Y-15.9960 F75.00
G01 X9.0347 Y-15.9919 F75.00
G01 X9.0485 Y-15.9868 F75.00
G01 X9.0619 Y-15.9806 F75.00
G01 X9.0748 Y-15.9735 F75.00
G01 X9.0872 Y-15.9655 F75.00
G01 X9.0989 Y-15.9566 F75.00
G01 X9.1134 Y-15.9434 F75.00
G01 X9.1234 Y-15.9326 F75.00
G01 X9.1326 Y-15.9211 F75.00
G01 X9.1410 Y-15.9090 F75.00
G01 X9.1484 Y-15.8963 F75.00
G01 X9.1548 Y-15.8830 F75.00
G01 X9.1603 Y-15.8694 F75.00
G01 X9.1660 Y-15.8506 F75.00
G01 X9.1691 Y-15.8362 F75.00
G01 X9.1710 Y-15.8216 F75.00
G01 X9.1719 Y-15.8069 F75.00
G01 X9.1720 Y-13.6620 F75.00
G01 X9.1715 Y-13.6473 F75.00
G01 X9.1705 Y-13.6375 F75.00
G01 X9.1691 Y-13.6278 F75.00
G01 X9.1660 Y-13.6134 F75.00
G01 X9.1619 Y-13.5993 F75.00
G01 X9.1586 Y-13.5900 F75.00
G01 X9.1528 Y-13.5765 F75.00
G01 X9.1484 Y-13.5677 F75.00
G01 X9.1410 Y-13.5550 F75.00
G01 X9.1355 Y-13.5468 F75.00
G01 X9.1266 Y-13.5351 F75.00
G01 X9.1168 Y-13.5241 F75.00
G01 X9.1063 Y-13.5138 F75.00
G01 X9.0989 Y-13.5074 F75.00
G01 X9.0872 Y-13.4985 F75.00
G01 X9.0748 Y-13.4905 F75.00
G01 X9.0663 Y-13.4856 F75.00
G01 X9.0530 Y-13.4792 F75.00
G01 X9.0394 Y-13.4737 F75.00
G01 X9.0253 Y-13.4692 F75.00
G01 X9.0110 Y-13.4658 F75.00
G01 X9.0013 Y-13.4642 F75.00
G01 X8.9867 Y-13.4625 F75.00
G01 X8.9769 Y-13.4621 F75.00
G01 X8.6023 Y-13.4620 F75.00
G01 X8.9769 Y-13.4619 F75.00
G01 X8.9916 Y-13.4610 F75.00
G01 X9.0062 Y-13.4591 F75.00
G01 X9.0206 Y-13.4560 F75.00
G01 X9.0347 Y-13.4519 F75.00
G01 X9.0485 Y-13.4468 F75.00
G01 X9.0619 Y-13.4406 F75.00
G01 X9.0748 Y-13.4335 F75.00
G01 X9.0872 Y-13.4255 F75.00
G01 X9.0989 Y-13.4166 F75.00
G01 X9.1134 Y-13.4034 F75.00
G01 X9.1234 Y-13.3926 F75.00
G01 X9.1326 Y-13.3811 F75.00
G01 X9.1410 Y-13.3690 F75.00
G01 X9.1484 Y-13.3563 F75.00
G01 X9.1548 Y-13.3430 F75.00
G01 X9.1603 Y-13.3294 F75.00
G01 X9.1660 Y-13.3106 F75.00
G01 X9.1691 Y-13.2962 F75.00
G01 X9.1710 Y-13.2816 F75.00
G01 X9.1719 Y-13.2669 F75.00
G01 X9.1720 Y-11.1220 F75.00
G01 X9.1715 Y-11.1073 F75.00
G01 X9.1705 Y-11.0975 F75.00
G01 X9.1691 Y-11.0878 F75.00
G01 X9.1660 Y-11.0734 F75.00
G01 X9.1619 Y-11.0593 F75.00
G01 X9.1586 Y-11.0500 F75.00
G01 X9.1528 Y-11.0365 F75.00
G01 X9.1484 Y-11.0277 F75.00
G01 X9.1410 Y-11.0150 F75.00
G01 X9.1355 Y-11.0068 F75.00
G01 X9.1266 Y-10.9951 F75.00
G01 X9.1168 Y-10.9841 F75.00
G01 X9.1063 Y-10.9738 F75.00
G01 X9.0989 Y-10.9674 F75.00
G01 X9.0872 Y-10.9585 F75.00
G01 X9.0748 Y-10.9505 F75.00
G01 X9.0663 Y-10.9456 F75.00
G01 X9.0530 Y-10.9392 F75.00
G01 X9.0394 Y-10.9337 F75.00
G01 X9.0253 Y-10.9292 F75.00
G01 X9.0110 Y-10.9258 F75.00
G01 X9.0013 Y-10.9242 F75.00
G01 X8.9867 Y-10.9225 F75.00
G01 X8.9769 Y-10.9221 F75.00
G01 X8.6023 Y-10.9220 F75.00
G01 X8.9769 Y-10.9219 F75.00
G01 X8.9916 Y-10.9210 F75.00
G01 X9.0062 Y-10.9191 F75.00
G01 X9.0206 Y-10.9160 F75.00
G01 X9.0347 Y-10.9119 F75.00
G01 X9.0485 Y-10.9068 F75.00
G01 X9.0619 Y-10.9006 F75.00
G01 X9.0748 Y-10.8935 F75.00
G01 X9.0872 Y-10.8855 F75.00
G01 X9.0989 Y-10.8766 F75.00
G01 X9.1099 Y-10.8668 F75.00
G01 X9.1202 Y-10.8563 F75.00
G01 X9.1297 Y-10.8450 F75.00
G01 X9.1410 Y-10.8290 F75.00
G01 X9.1484 Y-10.8163 F75.00
G01 X9.1548 Y-10.8030 F75.00
G01 X9.1603 Y-10.7894 F75.00
G01 X9.1648 Y-10.7753 F75.00
G01 X9.1682 Y-10.7610 F75.00
G01 X9.1705 Y-10.7465 F75.00
G01 X9.1718 Y-10.7318 F75.00
G01 X9.1720 Y-8.5820 F75.00
G01 X9.1715 Y-8.5673 F75.00
G01 X9.1705 Y-8.5575 F75.00
G01 X9.1691 Y-8.5478 F75.00
G01 X9.1660 Y-8.5334 F75.00
G01 X9.1619 Y-8.5193 F75.00
G01 X9.1586 Y-8.5100 F75.00
G01 X9.1528 Y-8.4965 F75.00
G01 X9.1484 Y-8.4877 F75.00
G01 X9.1410 Y-8.4750 F75.00
G01 X9.1355 Y-8.4668 F75.00
G01 X9.1266 Y-8.4551 F75.00
G01 X9.1168 Y-8.4441 F75.00
G01 X9.1063 Y-8.4338 F75.00
G01 X9.0989 Y-8.4274 F75.00
G01 X9.0872 Y-8.4185 F75.00
G01 X9.0748 Y-8.4105 F75.00
G01 X9.0663 Y-8.4056 F75.00
G01 X9.0530 Y-8.3992 F75.00
G01 X9.0394 Y-8.3937 F75.00
G01 X9.0253 Y-8.3892 F75.00
G01 X9.0110 Y-8.3858 F75.00
G01 X9.0013 Y-8.3842 F75.00
G01 X8.9867 Y-8.3825 F75.00
G01 X8.9769 Y-8.3821 F75.00
G01 X8.6023 Y-8.3820 F75.00
G01 X8.6023 Y-4.0640 F75.00
G01 X8.9769 Y-4.0639 F75.00
G01 X8.9916 Y-4.0630 F75.00
G01 X9.0062 Y-4.0611 F75.00
G01 X9.0206 Y-4.0580 F75.00
G01 X9.0347 Y-4.0539 F75.00
G01 X9.0485 Y-4.0488 F75.00
G01 X9.0619 Y-4.0426 F75.00
G01 X9.0748 Y-4.0355 F75.00
G01 X9.0872 Y-4.0275 F75.00
G01 X9.0989 Y-4.0186 F75.00
G01 X9.1099 Y-4.0088 F75.00
G01 X9.1202 Y-3.9983 F75.00
G01 X9.1326 Y-3.9831 F75.00
G01 X9.1410 Y-3.9710 F75.00
G01 X9.1484 Y-3.9583 F75.00
G01 X9.1548 Y-3.9450 F75.00
G01 X9.1603 Y-3.9314 F75.00
G01 X9.1648 Y-3.9173 F75.00
G01 X9.1682 Y-3.9030 F75.00
G01 X9.1705 Y-3.8885 F75.00
G01 X9.1718 Y-3.8738 F75.00
G01 X9.1720 Y-1.7240 F75.00
G01 X9.1715 Y-1.7093 F75.00
G01 X9.1691 Y-1.6898 F75.00
G01 X9.1660 Y-1.6754 F75.00
G01 X9.1603 Y-1.6566 F75.00
G01 X9.1548 Y-1.6430 F75.00
G01 X9.1460 Y-1.6254 F75.00
G01 X9.1383 Y-1.6129 F75.00
G01 X9.1266 Y-1.5971 F75.00
G01 X9.1134 Y-1.5826 F75.00
G01 X9.0989 Y-1.5694 F75.00
G01 X9.0831 Y-1.5577 F75.00
G01 X9.0706 Y-1.5500 F75.00
G01 X9.0530 Y-1.5412 F75.00
G01 X9.0347 Y-1.5341 F75.00
G01 X9.0158 Y-1.5289 F75.00
G01 X9.0013 Y-1.5262 F75.00
G01 X8.9818 Y-1.5242 F75.00
G01 X6.8320 Y-1.5240 F75.00
G01 X6.8173 Y-1.5245 F75.00
G01 X6.8027 Y-1.5262 F75.00
G01 X6.7834 Y-1.5300 F75.00
G01 X6.7646 Y-1.5357 F75.00
G01 X6.7465 Y-1.5432 F75.00
G01 X6.7292 Y-1.5525 F75.00
G01 X6.7129 Y-1.5634 F75.00
G01 X6.7014 Y-1.5726 F75.00
G01 X6.6872 Y-1.5861 F75.00
G01 X6.6743 Y-1.6010 F75.00
G01 X6.6657 Y-1.6129 F75.00
G01 X6.6580 Y-1.6254 F75.00
G01 X6.6492 Y-1.6430 F75.00
G01 X6.6421 Y-1.6613 F75.00
G01 X6.6380 Y-1.6754 F75.00
G01 X6.6342 Y-1.6947 F75.00
G01 X6.6322 Y-1.7142 F75.00
G01 X6.6320 Y-3.8640 F75.00
G01 X6.6325 Y-3.8787 F75.00
G01 X6.6335 Y-3.8885 F75.00
G01 X6.6349 Y-3.8982 F75.00
G01 X6.6380 Y-3.9126 F75.00
G01 X6.6421 Y-3.9267 F75.00
G01 X6.6454 Y-3.9360 F75.00
G01 X6.6492 Y-3.9450 F75.00
G01 X6.6556 Y-3.9583 F75.00
G01 X6.6605 Y-3.9668 F75.00
G01 X6.6685 Y-3.9792 F75.00
G01 X6.6774 Y-3.9909 F75.00
G01 X6.6872 Y-4.0019 F75.00
G01 X6.6977 Y-4.0122 F75.00
G01 X6.7090 Y-4.0217 F75.00
G01 X6.7209 Y-4.0303 F75.00
G01 X6.7292 Y-4.0355 F75.00
G01 X6.7377 Y-4.0404 F75.00
G01 X6.7510 Y-4.0468 F75.00
G01 X6.7646 Y-4.0523 F75.00
G01 X6.7787 Y-4.0568 F75.00
G01 X6.7930 Y-4.0602 F75.00
G01 X6.8027 Y-4.0618 F75.00
G01 X6.8124 Y-4.0630 F75.00
G01 X6.8271 Y-4.0639 F75.00
G01 X7.2017 Y-4.0640 F75.00
G01 X7.2017 Y-8.3820 F75.00
G01 X6.8271 Y-8.3821 F75.00
G01 X6.8075 Y-8.3835 F75.00
G01 X6.7930 Y-8.3858 F75.00
G01 X6.7787 Y-8.3892 F75.00
G01 X6.7646 Y-8.3937 F75.00
G01 X6.7510 Y-8.3992 F75.00
G01 X6.7377 Y-8.4056 F75.00
G01 X6.7250 Y-8.4130 F75.00
G01 X6.7129 Y-8.4214 F75.00
G01 X6.7014 Y-8.4306 F75.00
G01 X6.6906 Y-8.4406 F75.00
G01 X6.6806 Y-8.4514 F75.00
G01 X6.6685 Y-8.4668 F75.00
G01 X6.6605 Y-8.4792 F75.00
G01 X6.6534 Y-8.4921 F75.00
G01 X6.6472 Y-8.5055 F75.00
G01 X6.6421 Y-8.5193 F75.00
G01 X6.6380 Y-8.5334 F75.00
G01 X6.6342 Y-8.5527 F75.00
G01 X6.6325 Y-8.5673 F75.00
G01 X6.6320 Y-8.5820 F75.00
G01 X6.6320 Y-10.7220 F75.00
G01 X6.6322 Y-10.7318 F75.00
G01 X6.6335 Y-10.7465 F75.00
G01 X6.6349 Y-10.7562 F75.00
G01 X6.6380 Y-10.7706 F75.00
G01 X6.6421 Y-10.7847 F75.00
G01 X6.6454 Y-10.7940 F75.00
G01 X6.6492 Y-10.8030 F75.00
G01 X6.6556 Y-10.8163 F75.00
G01 X6.6605 Y-10.8248 F75.00
G01 X6.6685 Y-10.8372 F75.00
G01 X6.6774 Y-10.8489 F75.00
G01 X6.6872 Y-10.8599 F75.00
G01 X6.6977 Y-10.8702 F75.00
G01 X6.7090 Y-10.8797 F75.00
G01 X6.7209 Y-10.8883 F75.00
G01 X6.7292 Y-10.8935 F75.00
G01 X6.7377 Y-10.8984 F75.00
G01 X6.7510 Y-10.9048 F75.00
G01 X6.7646 Y-10.9103 F75.00
G01 X6.7787 Y-10.9148 F75.00
G01 X6.7930 Y-10.9182 F75.00
G01 X6.8027 Y-10.9198 F75.00
G01 X6.8173 Y-10.9215 F75.00
G01 X6.8271 Y-10.9219 F75.00
G01 X7.2017 Y-10.9220 F75.00
G01 X6.8271 Y-10.9221 F75.00
G01 X6.8075 Y-10.9235 F75.00
G01 X6.7930 Y-10.9258 F75.00
G01 X6.7787 Y-10.9292 F75.00
G01 X6.7646 Y-10.9337 F75.00
G01 X6.7465 Y-10.9412 F75.00
G01 X6.7334 Y-10.9480 F75.00
G01 X6.7209 Y-10.9557 F75.00
G01 X6.7090 Y-10.9643 F75.00
G01 X6.6977 Y-10.9738 F75.00
G01 X6.6872 Y-10.9841 F75.00
G01 X6.6774 Y-10.9951 F75.00
G01 X6.6685 Y-11.0068 F75.00
G01 X6.6605 Y-11.0192 F75.00
G01 X6.6534 Y-11.0321 F75.00
G01 X6.6472 Y-11.0455 F75.00
G01 X6.6421 Y-11.0593 F75.00
G01 X6.6380 Y-11.0734 F75.00
G01 X6.6342 Y-11.0927 F75.00
G01 X6.6325 Y-11.1073 F75.00
G01 X6.6320 Y-11.1220 F75.00
G01 X6.6320 Y-13.2620 F75.00
G01 X6.6322 Y-13.2718 F75.00
G01 X6.6335 Y-13.2865 F75.00
G01 X6.6349 Y-13.2962 F75.00
G01 X6.6380 Y-13.3106 F75.00
G01 X6.6421 Y-13.3247 F75.00
G01 X6.6454 Y-13.3340 F75.00
G01 X6.6492 Y-13.3430 F75.00
G01 X6.6556 Y-13.3563 F75.00
G01 X6.6605 Y-13.3648 F75.00
G01 X6.6685 Y-13.3772 F75.00
G01 X6.6774 Y-13.3889 F75.00
G01 X6.6872 Y-13.3999 F75.00
G01 X6.6977 Y-13.4102 F75.00
G01 X6.7090 Y-13.4197 F75.00
G01 X6.7209 Y-13.4283 F75.00
G01 X6.7292 Y-13.4335 F75.00
G01 X6.7377 Y-13.4384 F75.00
G01 X6.7510 Y-13.4448 F75.00
G01 X6.7646 Y-13.4503 F75.00
G01 X6.7787 Y-13.4548 F75.00
G01 X6.7930 Y-13.4582 F75.00
G01 X6.8027 Y-13.4598 F75.00
G01 X6.8173 Y-13.4615 F75.00
G01 X6.8271 Y-13.4619 F75.00
G01 X7.2017 Y-13.4620 F75.00
G01 X6.8271 Y-13.4621 F75.00
G01 X6.8075 Y-13.4635 F75.00
G01 X6.7930 Y-13.4658 F75.00
G01 X6.7787 Y-13.4692 F75.00
G01 X6.7646 Y-13.4737 F75.00
G01 X6.7465 Y-13.4812 F75.00
G01 X6.7334 Y-13.4880 F75.00
G01 X6.7209 Y-13.4957 F75.00
G01 X6.7090 Y-13.5043 F75.00
G01 X6.6977 Y-13.5138 F75.00
G01 X6.6872 Y-13.5241 F75.00
G01 X6.6774 Y-13.5351 F75.00
G01 X6.6685 Y-13.5468 F75.00
G01 X6.6605 Y-13.5592 F75.00
G01 X6.6534 Y-13.5721 F75.00
G01 X6.6472 Y-13.5855 F75.00
G01 X6.6421 Y-13.5993 F75.00
G01 X6.6380 Y-13.6134 F75.00
G01 X6.6342 Y-13.6327 F75.00
G01 X6.6325 Y-13.6473 F75.00
G01 X6.6320 Y-13.6620 F75.00
G01 X6.6320 Y-15.8020 F75.00
G01 X6.6322 Y-15.8118 F75.00
G01 X6.6335 Y-15.8265 F75.00
G01 X6.6349 Y-15.8362 F75.00
G01 X6.6380 Y-15.8506 F75.00
G01 X6.6421 Y-15.8647 F75.00
G01 X6.6454 Y-15.8740 F75.00
G01 X6.6492 Y-15.8830 F75.00
G01 X6.6556 Y-15.8963 F75.00
G01 X6.6605 Y-15.9048 F75.00
G01 X6.6685 Y-15.9172 F75.00
G01 X6.6774 Y-15.9289 F75.00
G01 X6.6872 Y-15.9399 F75.00
G01 X6.6977 Y-15.9502 F75.00
G01 X6.7090 Y-15.9597 F75.00
G01 X6.7209 Y-15.9683 F75.00
G01 X6.7292 Y-15.9735 F75.00
G01 X6.7377 Y-15.9784 F75.00
G01 X6.7510 Y-15.9848 F75.00
G01 X6.7646 Y-15.9903 F75.00
G01 X6.7787 Y-15.9948 F75.00
G01 X6.7930 Y-15.9982 F75.00
G01 X6.8027 Y-15.9998 F75.00
G01 X6.8124 Y-16.0010 F75.00
G01 X6.8271 Y-16.0019 F75.00
G01 X7.2017 Y-16.0020 F75.00
G01 X6.8271 Y-16.0021 F75.00
G01 X6.8124 Y-16.0030 F75.00
G01 X6.7978 Y-16.0049 F75.00
G01 X6.7834 Y-16.0080 F75.00
G01 X6.7646 Y-16.0137 F75.00
G01 X6.7510 Y-16.0192 F75.00
G01 X6.7377 Y-16.0256 F75.00
G01 X6.7209 Y-16.0357 F75.00
G01 X6.7090 Y-16.0443 F75.00
G01 X6.6977 Y-16.0538 F75.00
G01 X6.6872 Y-16.0641 F75.00
G01 X6.6774 Y-16.0751 F75.00
G01 X6.6685 Y-16.0868 F75.00
G01 X6.6605 Y-16.0992 F75.00
G01 X6.6534 Y-16.1121 F75.00
G01 X6.6472 Y-16.1255 F75.00
G01 X6.6421 Y-16.1393 F75.00
G01 X6.6380 Y-16.1534 F75.00
G01 X6.6349 Y-16.1678 F75.00
G01 X6.6325 Y-16.1873 F75.00
G01 X6.6320 Y-16.2020 F75.00
G01 X6.6320 Y-18.3420 F75.00
G01 X6.6322 Y-18.3518 F75.00
G01 X6.6335 Y-18.3665 F75.00
G01 X6.6349 Y-18.3762 F75.00
G01 X6.6380 Y-18.3906 F75.00
G01 X6.6421 Y-18.4047 F75.00
G01 X6.6454 Y-18.4140 F75.00
G01 X6.6512 Y-18.4275 F75.00
G01 X6.6556 Y-18.4363 F75.00
G01 X6.6630 Y-18.4490 F75.00
G01 X6.6685 Y-18.4572 F75.00
G01 X6.6774 Y-18.4689 F75.00
G01 X6.6872 Y-18.4799 F75.00
G01 X6.6941 Y-18.4868 F75.00
G01 X6.7051 Y-18.4966 F75.00
G01 X6.7168 Y-18.5055 F75.00
G01 X6.7292 Y-18.5135 F75.00
G01 X6.7421 Y-18.5206 F75.00
G01 X6.7555 Y-18.5268 F75.00
G01 X6.7693 Y-18.5319 F75.00
G01 X6.7787 Y-18.5348 F75.00
G01 X6.7882 Y-18.5371 F75.00
G01 X6.8027 Y-18.5398 F75.00
G01 X6.8173 Y-18.5415 F75.00
G01 X6.8271 Y-18.5419 F75.00
G01 X7.2017 Y-18.5420 F75.00
G01 X6.8271 Y-18.5421 F75.00
G01 X6.8124 Y-18.5430 F75.00
G01 X6.7978 Y-18.5449 F75.00
G01 X6.7834 Y-18.5480 F75.00
G01 X6.7646 Y-18.5537 F75.00
G01 X6.7510 Y-18.5592 F75.00
G01 X6.7377 Y-18.5656 F75.00
G01 X6.7209 Y-18.5757 F75.00
G01 X6.7090 Y-18.5843 F75.00
G01 X6.6977 Y-18.5938 F75.00
G01 X6.6872 Y-18.6041 F75.00
G01 X6.6774 Y-18.6151 F75.00
G01 X6.6685 Y-18.6268 F75.00
G01 X6.6605 Y-18.6392 F75.00
G01 X6.6534 Y-18.6521 F75.00
G01 X6.6472 Y-18.6655 F75.00
G01 X6.6421 Y-18.6793 F75.00
G01 X6.6380 Y-18.6934 F75.00
G01 X6.6349 Y-18.7078 F75.00
G01 X6.6325 Y-18.7273 F75.00
G01 X6.6320 Y-18.7420 F75.00
G01 X6.6320 Y-20.8820 F75.00
G01 X6.6322 Y-20.8918 F75.00
G01 X6.6335 Y-20.9065 F75.00
G01 X6.6349 Y-20.9162 F75.00
G01 X6.6380 Y-20.9306 F75.00
G01 X6.6421 Y-20.9447 F75.00
G01 X6.6454 Y-20.9540 F75.00
G01 X6.6512 Y-20.9675 F75.00
G01 X6.6556 Y-20.9763 F75.00
G01 X6.6630 Y-20.9890 F75.00
G01 X6.6685 Y-20.9972 F75.00
G01 X6.6774 Y-21.0089 F75.00
G01 X6.6872 Y-21.0199 F75.00
G01 X6.6941 Y-21.0268 F75.00
G01 X6.7051 Y-21.0366 F75.00
G01 X6.7168 Y-21.0455 F75.00
G01 X6.7292 Y-21.0535 F75.00
G01 X6.7421 Y-21.0606 F75.00
G01 X6.7555 Y-21.0668 F75.00
G01 X6.7693 Y-21.0719 F75.00
G01 X6.7787 Y-21.0748 F75.00
G01 X6.7882 Y-21.0771 F75.00
G01 X6.8027 Y-21.0798 F75.00
G01 X6.8173 Y-21.0815 F75.00
G01 X6.8271 Y-21.0819 F75.00
G01 X7.2017 Y-21.0820 F75.00
G01 X6.8271 Y-21.0821 F75.00
G01 X6.8124 Y-21.0830 F75.00
G01 X6.7978 Y-21.0849 F75.00
G01 X6.7834 Y-21.0880 F75.00
G01 X6.7693 Y-21.0921 F75.00
G01 X6.7510 Y-21.0992 F75.00
G01 X6.7377 Y-21.1056 F75.00
G01 X6.7250 Y-21.1130 F75.00
G01 X6.7129 Y-21.1214 F75.00
G01 X6.7014 Y-21.1306 F75.00
G01 X6.6906 Y-21.1406 F75.00
G01 X6.6806 Y-21.1514 F75.00
G01 X6.6714 Y-21.1629 F75.00
G01 X6.6630 Y-21.1750 F75.00
G01 X6.6556 Y-21.1877 F75.00
G01 X6.6492 Y-21.2010 F75.00
G01 X6.6437 Y-21.2146 F75.00
G01 X6.6392 Y-21.2287 F75.00
G01 X6.6358 Y-21.2430 F75.00
G01 X6.6330 Y-21.2624 F75.00
G01 X6.6321 Y-21.2771 F75.00
G01 X6.6320 Y-23.4220 F75.00
G01 X6.6322 Y-23.4318 F75.00
G01 X6.6335 Y-23.4465 F75.00
G01 X6.6349 Y-23.4562 F75.00
G01 X6.6380 Y-23.4706 F75.00
G01 X6.6421 Y-23.4847 F75.00
G01 X6.6454 Y-23.4940 F75.00
G01 X6.6512 Y-23.5075 F75.00
G01 X6.6556 Y-23.5163 F75.00
G01 X6.6630 Y-23.5290 F75.00
G01 X6.6685 Y-23.5372 F75.00
G01 X6.6774 Y-23.5489 F75.00
G01 X6.6872 Y-23.5599 F75.00
G01 X6.6941 Y-23.5668 F75.00
G01 X6.7051 Y-23.5766 F75.00
G01 X6.7168 Y-23.5855 F75.00
G01 X6.7292 Y-23.5935 F75.00
G01 X6.7421 Y-23.6006 F75.00
G01 X6.7555 Y-23.6068 F75.00
G01 X6.7693 Y-23.6119 F75.00
G01 X6.7787 Y-23.6148 F75.00
G01 X6.7882 Y-23.6171 F75.00
G01 X6.8027 Y-23.6198 F75.00
G01 X6.8173 Y-23.6215 F75.00
G01 X6.8271 Y-23.6219 F75.00
G01 X7.2017 Y-23.6220 F75.00
G01 X6.8271 Y-23.6221 F75.00
G01 X6.8124 Y-23.6230 F75.00
G01 X6.7978 Y-23.6249 F75.00
G01 X6.7834 Y-23.6280 F75.00
G01 X6.7693 Y-23.6321 F75.00
G01 X6.7510 Y-23.6392 F75.00
G01 X6.7377 Y-23.6456 F75.00
G01 X6.7250 Y-23.6530 F75.00
G01 X6.7129 Y-23.6614 F75.00
G01 X6.7014 Y-23.6706 F75.00
G01 X6.6906 Y-23.6806 F75.00
G01 X6.6806 Y-23.6914 F75.00
G01 X6.6714 Y-23.7029 F75.00
G01 X6.6630 Y-23.7150 F75.00
G01 X6.6556 Y-23.7277 F75.00
G01 X6.6492 Y-23.7410 F75.00
G01 X6.6437 Y-23.7546 F75.00
G01 X6.6392 Y-23.7687 F75.00
G01 X6.6358 Y-23.7830 F75.00
G01 X6.6330 Y-23.8024 F75.00
G01 X6.6321 Y-23.8171 F75.00
G01 X6.6320 Y-25.9620 F75.00
G01 X6.6322 Y-25.9718 F75.00
G01 X6.6335 Y-25.9865 F75.00
G01 X6.6349 Y-25.9962 F75.00
G01 X6.6380 Y-26.0106 F75.00
G01 X6.6421 Y-26.0247 F75.00
G01 X6.6454 Y-26.0340 F75.00
G01 X6.6512 Y-26.0475 F75.00
G01 X6.6556 Y-26.0563 F75.00
G01 X6.6630 Y-26.0690 F75.00
G01 X6.6685 Y-26.0772 F75.00
G01 X6.6774 Y-26.0889 F75.00
G01 X6.6872 Y-26.0999 F75.00
G01 X6.6941 Y-26.1068 F75.00
G01 X6.7051 Y-26.1166 F75.00
G01 X6.7168 Y-26.1255 F75.00
G01 X6.7292 Y-26.1335 F75.00
G01 X6.7421 Y-26.1406 F75.00
G01 X6.7555 Y-26.1468 F75.00
G01 X6.7693 Y-26.1519 F75.00
G01 X6.7787 Y-26.1548 F75.00
G01 X6.7882 Y-26.1571 F75.00
G01 X6.8027 Y-26.1598 F75.00
G01 X6.8173 Y-26.1615 F75.00
G01 X6.8271 Y-26.1619 F75.00
G01 X7.2017 Y-26.1620 F75.00
G01 X6.8271 Y-26.1621 F75.00
G01 X6.8124 Y-26.1630 F75.00
G01 X6.7978 Y-26.1649 F75.00
G01 X6.7834 Y-26.1680 F75.00
G01 X6.7693 Y-26.1721 F75.00
G01 X6.7510 Y-26.1792 F75.00
G01 X6.7377 Y-26.1856 F75.00
G01 X6.7250 Y-26.1930 F75.00
G01 X6.7129 Y-26.2014 F75.00
G01 X6.7014 Y-26.2106 F75.00
G01 X6.6906 Y-26.2206 F75.00
G01 X6.6806 Y-26.2314 F75.00
G01 X6.6714 Y-26.2429 F75.00
G01 X6.6630 Y-26.2550 F75.00
G01 X6.6556 Y-26.2677 F75.00
G01 X6.6492 Y-26.2810 F75.00
G01 X6.6437 Y-26.2946 F75.00
G01 X6.6392 Y-26.3087 F75.00
G01 X6.6358 Y-26.3230 F75.00
G01 X6.6330 Y-26.3424 F75.00
G01 X6.6321 Y-26.3571 F75.00
G01 X6.6320 Y-28.5020 F75.00
G01 X6.6322 Y-28.5118 F75.00
G01 X6.6335 Y-28.5265 F75.00
G01 X6.6349 Y-28.5362 F75.00
G01 X6.6380 Y-28.5506 F75.00
G01 X6.6421 Y-28.5647 F75.00
G01 X6.6454 Y-28.5740 F75.00
G01 X6.6512 Y-28.5875 F75.00
G01 X6.6556 Y-28.5963 F75.00
G01 X6.6630 Y-28.6090 F75.00
G01 X6.6685 Y-28.6172 F75.00
G01 X6.6774 Y-28.6289 F75.00
G01 X6.6872 Y-28.6399 F75.00
G01 X6.6941 Y-28.6468 F75.00
G01 X6.7051 Y-28.6566 F75.00
G01 X6.7168 Y-28.6655 F75.00
G01 X6.7292 Y-28.6735 F75.00
G01 X6.7421 Y-28.6806 F75.00
G01 X6.7555 Y-28.6868 F75.00
G01 X6.7693 Y-28.6919 F75.00
G01 X6.7787 Y-28.6948 F75.00
G01 X6.7882 Y-28.6971 F75.00
G01 X6.8027 Y-28.6998 F75.00
G01 X6.8173 Y-28.7015 F75.00
G01 X6.8271 Y-28.7019 F75.00
G01 X7.2017 Y-28.7020 F75.00
G01 X6.8271 Y-28.7021 F75.00
G01 X6.8124 Y-28.7030 F75.00
G01 X6.7978 Y-28.7049 F75.00
G01 X6.7834 Y-28.7080 F75.00
G01 X6.7693 Y-28.7121 F75.00
G01 X6.7510 Y-28.7192 F75.00
G01 X6.7377 Y-28.7256 F75.00
G01 X6.7250 Y-28.7330 F75.00
G01 X6.7129 Y-28.7414 F75.00
G01 X6.7014 Y-28.7506 F75.00
G01 X6.6906 Y-28.7606 F75.00
G01 X6.6806 Y-28.7714 F75.00
G01 X6.6714 Y-28.7829 F75.00
G01 X6.6630 Y-28.7950 F75.00
G01 X6.6556 Y-28.8077 F75.00
G01 X6.6492 Y-28.8210 F75.00
G01 X6.6437 Y-28.8346 F75.00
G01 X6.6392 Y-28.8487 F75.00
G01 X6.6358 Y-28.8630 F75.00
G01 X6.6330 Y-28.8824 F75.00
G01 X6.6321 Y-28.8971 F75.00
G01 X6.6320 Y-31.0420 F75.00
G01 X6.6322 Y-31.0518 F75.00
G01 X6.6335 Y-31.0665 F75.00
G01 X6.6349 Y-31.0762 F75.00
G01 X6.6380 Y-31.0906 F75.00
G01 X6.6421 Y-31.1047 F75.00
G01 X6.6454 Y-31.1140 F75.00
G01 X6.6512 Y-31.1275 F75.00
G01 X6.6556 Y-31.1363 F75.00
G01 X6.6630 Y-31.1490 F75.00
G01 X6.6685 Y-31.1572 F75.00
G01 X6.6774 Y-31.1689 F75.00
G01 X6.6872 Y-31.1799 F75.00
G01 X6.6941 Y-31.1868 F75.00
G01 X6.7051 Y-31.1966 F75.00
G01 X6.7168 Y-31.2055 F75.00
G01 X6.7292 Y-31.2135 F75.00
G01 X6.7421 Y-31.2206 F75.00
G01 X6.7555 Y-31.2268 F75.00
G01 X6.7693 Y-31.2319 F75.00
G01 X6.7787 Y-31.2348 F75.00
G01 X6.7882 Y-31.2371 F75.00
G01 X6.8027 Y-31.2398 F75.00
G01 X6.8173 Y-31.2415 F75.00
G01 X6.8271 Y-31.2419 F75.00
G01 X7.2017 Y-31.2420 F75.00
G01 X6.8271 Y-31.2421 F75.00
G01 X6.8124 Y-31.2430 F75.00
G01 X6.7978 Y-31.2449 F75.00
G01 X6.7834 Y-31.2480 F75.00
G01 X6.7693 Y-31.2521 F75.00
G01 X6.7555 Y-31.2572 F75.00
G01 X6.7421 Y-31.2634 F75.00
G01 X6.7292 Y-31.2705 F75.00
G01 X6.7168 Y-31.2785 F75.00
G01 X6.7051 Y-31.2874 F75.00
G01 X6.6941 Y-31.2972 F75.00
G01 X6.6806 Y-31.3114 F75.00
G01 X6.6714 Y-31.3229 F75.00
G01 X6.6630 Y-31.3350 F75.00
G01 X6.6556 Y-31.3477 F75.00
G01 X6.6472 Y-31.3655 F75.00
G01 X6.6421 Y-31.3793 F75.00
G01 X6.6380 Y-31.3934 F75.00
G01 X6.6349 Y-31.4078 F75.00
G01 X6.6330 Y-31.4224 F75.00
G01 X6.6321 Y-31.4371 F75.00
G01 X6.6320 Y-33.5820 F75.00
G01 X6.6325 Y-33.5967 F75.00
G01 X6.6335 Y-33.6065 F75.00
G01 X6.6358 Y-33.6210 F75.00
G01 X6.6380 Y-33.6306 F75.00
G01 X6.6421 Y-33.6447 F75.00
G01 X6.6454 Y-33.6540 F75.00
G01 X6.6512 Y-33.6675 F75.00
G01 X6.6580 Y-33.6806 F75.00
G01 X6.6657 Y-33.6931 F75.00
G01 X6.6743 Y-33.7050 F75.00
G01 X6.6838 Y-33.7163 F75.00
G01 X6.6906 Y-33.7234 F75.00
G01 X6.7014 Y-33.7334 F75.00
G01 X6.7090 Y-33.7397 F75.00
G01 X6.7168 Y-33.7455 F75.00
G01 X6.7292 Y-33.7535 F75.00
G01 X6.7421 Y-33.7606 F75.00
G01 X6.7510 Y-33.7648 F75.00
G01 X6.7646 Y-33.7703 F75.00
G01 X6.7787 Y-33.7748 F75.00
G01 X6.7882 Y-33.7771 F75.00
G01 X6.8027 Y-33.7798 F75.00
G01 X6.8173 Y-33.7815 F75.00
G01 X6.8271 Y-33.7819 F75.00
G01 X7.2017 Y-33.7820 F75.00
G01 X6.8271 Y-33.7821 F75.00
G01 X6.8124 Y-33.7830 F75.00
G01 X6.7978 Y-33.7849 F75.00
G01 X6.7834 Y-33.7880 F75.00
G01 X6.7693 Y-33.7921 F75.00
G01 X6.7555 Y-33.7972 F75.00
G01 X6.7421 Y-33.8034 F75.00
G01 X6.7292 Y-33.8105 F75.00
G01 X6.7168 Y-33.8185 F75.00
G01 X6.7051 Y-33.8274 F75.00
G01 X6.6906 Y-33.8406 F75.00
G01 X6.6806 Y-33.8514 F75.00
G01 X6.6714 Y-33.8629 F75.00
G01 X6.6630 Y-33.8750 F75.00
G01 X6.6556 Y-33.8877 F75.00
G01 X6.6492 Y-33.9010 F75.00
G01 X6.6421 Y-33.9193 F75.00
G01 X6.6380 Y-33.9334 F75.00
G01 X6.6349 Y-33.9478 F75.00
G01 X6.6330 Y-33.9624 F75.00
G01 X6.6321 Y-33.9771 F75.00
G01 X6.6320 Y-36.1220 F75.00
G01 X6.6325 Y-36.1367 F75.00
G01 X6.6335 Y-36.1465 F75.00
G01 X6.6358 Y-36.1610 F75.00
G01 X6.6380 Y-36.1706 F75.00
G01 X6.6421 Y-36.1847 F75.00
G01 X6.6454 Y-36.1940 F75.00
G01 X6.6512 Y-36.2075 F75.00
G01 X6.6580 Y-36.2206 F75.00
G01 X6.6657 Y-36.2331 F75.00
G01 X6.6743 Y-36.2450 F75.00
G01 X6.6838 Y-36.2563 F75.00
G01 X6.6906 Y-36.2634 F75.00
G01 X6.7014 Y-36.2734 F75.00
G01 X6.7090 Y-36.2797 F75.00
G01 X6.7168 Y-36.2855 F75.00
G01 X6.7292 Y-36.2935 F75.00
G01 X6.7421 Y-36.3006 F75.00
G01 X6.7510 Y-36.3048 F75.00
G01 X6.7646 Y-36.3103 F75.00
G01 X6.7787 Y-36.3148 F75.00
G01 X6.7882 Y-36.3171 F75.00
G01 X6.8027 Y-36.3198 F75.00
G01 X6.8173 Y-36.3215 F75.00
G01 X6.8271 Y-36.3219 F75.00
G01 X7.2017 Y-36.3220 F75.00
G01 X6.8271 Y-36.3221 F75.00
G01 X6.8124 Y-36.3230 F75.00
G01 X6.7978 Y-36.3249 F75.00
G01 X6.7834 Y-36.3280 F75.00
G01 X6.7693 Y-36.3321 F75.00
G01 X6.7555 Y-36.3372 F75.00
G01 X6.7421 Y-36.3434 F75.00
G01 X6.7292 Y-36.3505 F75.00
G01 X6.7168 Y-36.3585 F75.00
G01 X6.7051 Y-36.3674 F75.00
G01 X6.6906 Y-36.3806 F75.00
G01 X6.6806 Y-36.3914 F75.00
G01 X6.6714 Y-36.4029 F75.00
G01 X6.6630 Y-36.4150 F75.00
G01 X6.6556 Y-36.4277 F75.00
G01 X6.6492 Y-36.4410 F75.00
G01 X6.6421 Y-36.4593 F75.00
G01 X6.6380 Y-36.4734 F75.00
G01 X6.6349 Y-36.4878 F75.00
G01 X6.6330 Y-36.5024 F75.00
G01 X6.6321 Y-36.5171 F75.00
G01 X6.6320 Y-38.6620 F75.00
G01 X6.6325 Y-38.6767 F75.00
G01 X6.6335 Y-38.6865 F75.00
G01 X6.6358 Y-38.7010 F75.00
G01 X6.6380 Y-38.7106 F75.00
G01 X6.6421 Y-38.7247 F75.00
G01 X6.6454 Y-38.7340 F75.00
G01 X6.6512 Y-38.7475 F75.00
G01 X6.6580 Y-38.7606 F75.00
G01 X6.6657 Y-38.7731 F75.00
G01 X6.6743 Y-38.7850 F75.00
G01 X6.6838 Y-38.7963 F75.00
G01 X6.6906 Y-38.8034 F75.00
G01 X6.7014 Y-38.8134 F75.00
G01 X6.7090 Y-38.8197 F75.00
G01 X6.7168 Y-38.8255 F75.00
G01 X6.7292 Y-38.8335 F75.00
G01 X6.7421 Y-38.8406 F75.00
G01 X6.7510 Y-38.8448 F75.00
G01 X6.7646 Y-38.8503 F75.00
G01 X6.7787 Y-38.8548 F75.00
G01 X6.7882 Y-38.8571 F75.00
G01 X6.8027 Y-38.8598 F75.00
G01 X6.8173 Y-38.8615 F75.00
G01 X6.8271 Y-38.8619 F75.00
G01 X7.2017 Y-38.8620 F75.00
G01 X6.8271 Y-38.8621 F75.00
G01 X6.8124 Y-38.8630 F75.00
G01 X6.7978 Y-38.8649 F75.00
G01 X6.7834 Y-38.8680 F75.00
G01 X6.7693 Y-38.8721 F75.00
G01 X6.7555 Y-38.8772 F75.00
G01 X6.7421 Y-38.8834 F75.00
G01 X6.7292 Y-38.8905 F75.00
G01 X6.7168 Y-38.8985 F75.00
G01 X6.7051 Y-38.9074 F75.00
G01 X6.6906 Y-38.9206 F75.00
G01 X6.6806 Y-38.9314 F75.00
G01 X6.6714 Y-38.9429 F75.00
G01 X6.6630 Y-38.9550 F75.00
G01 X6.6556 Y-38.9677 F75.00
G01 X6.6492 Y-38.9810 F75.00
G01 X6.6421 Y-38.9993 F75.00
G01 X6.6380 Y-39.0134 F75.00
G01 X6.6349 Y-39.0278 F75.00
G01 X6.6330 Y-39.0424 F75.00
G01 X6.6321 Y-39.0571 F75.00
G01 X6.6320 Y-41.2020 F75.00
G01 X6.6325 Y-41.2167 F75.00
G01 X6.6335 Y-41.2265 F75.00
G01 X6.6358 Y-41.2410 F75.00
G01 X6.6380 Y-41.2506 F75.00
G01 X6.6421 Y-41.2647 F75.00
G01 X6.6454 Y-41.2740 F75.00
G01 X6.6512 Y-41.2875 F75.00
G01 X6.6580 Y-41.3006 F75.00
G01 X6.6657 Y-41.3131 F75.00
G01 X6.6743 Y-41.3250 F75.00
G01 X6.6838 Y-41.3363 F75.00
G01 X6.6906 Y-41.3434 F75.00
G01 X6.7014 Y-41.3534 F75.00
G01 X6.7090 Y-41.3597 F75.00
G01 X6.7168 Y-41.3655 F75.00
G01 X6.7292 Y-41.3735 F75.00
G01 X6.7421 Y-41.3806 F75.00
G01 X6.7510 Y-41.3848 F75.00
G01 X6.7646 Y-41.3903 F75.00
G01 X6.7787 Y-41.3948 F75.00
G01 X6.7882 Y-41.3971 F75.00
G01 X6.8027 Y-41.3998 F75.00
G01 X6.8173 Y-41.4015 F75.00
G01 X6.8271 Y-41.4019 F75.00
G01 X7.2017 Y-41.4020 F75.00
G01 X6.8271 Y-41.4021 F75.00
G01 X6.8124 Y-41.4030 F75.00
G01 X6.7978 Y-41.4049 F75.00
G01 X6.7834 Y-41.4080 F75.00
G01 X6.7693 Y-41.4121 F75.00
G01 X6.7555 Y-41.4172 F75.00
G01 X6.7421 Y-41.4234 F75.00
G01 X6.7292 Y-41.4305 F75.00
G01 X6.7168 Y-41.4385 F75.00
G01 X6.7051 Y-41.4474 F75.00
G01 X6.6941 Y-41.4572 F75.00
G01 X6.6838 Y-41.4677 F75.00
G01 X6.6743 Y-41.4790 F75.00
G01 X6.6657 Y-41.4909 F75.00
G01 X6.6556 Y-41.5077 F75.00
G01 X6.6492 Y-41.5210 F75.00
G01 X6.6437 Y-41.5346 F75.00
G01 X6.6392 Y-41.5487 F75.00
G01 X6.6358 Y-41.5630 F75.00
G01 X6.6335 Y-41.5775 F75.00
G01 X6.6322 Y-41.5922 F75.00
G01 X6.6320 Y-43.7420 F75.00
G01 X6.6325 Y-43.7567 F75.00
G01 X6.6335 Y-43.7665 F75.00
G01 X6.6358 Y-43.7810 F75.00
G01 X6.6380 Y-43.7906 F75.00
G01 X6.6421 Y-43.8047 F75.00
G01 X6.6454 Y-43.8140 F75.00
G01 X6.6512 Y-43.8275 F75.00
G01 X6.6580 Y-43.8406 F75.00
G01 X6.6657 Y-43.8531 F75.00
G01 X6.6743 Y-43.8650 F75.00
G01 X6.6838 Y-43.8763 F75.00
G01 X6.6906 Y-43.8834 F75.00
G01 X6.7014 Y-43.8934 F75.00
G01 X6.7090 Y-43.8997 F75.00
G01 X6.7168 Y-43.9055 F75.00
G01 X6.7292 Y-43.9135 F75.00
G01 X6.7421 Y-43.9206 F75.00
G01 X6.7510 Y-43.9248 F75.00
G01 X6.7646 Y-43.9303 F75.00
G01 X6.7787 Y-43.9348 F75.00
G01 X6.7882 Y-43.9371 F75.00
G01 X6.8027 Y-43.9398 F75.00
G01 X6.8173 Y-43.9415 F75.00
G01 X6.8271 Y-43.9419 F75.00
G01 X7.2017 Y-43.9420 F75.00
G01 X6.8271 Y-43.9421 F75.00
G01 X6.8124 Y-43.9430 F75.00
G01 X6.7978 Y-43.9449 F75.00
G01 X6.7834 Y-43.9480 F75.00
G01 X6.7693 Y-43.9521 F75.00
G01 X6.7555 Y-43.9572 F75.00
G01 X6.7421 Y-43.9634 F75.00
G01 X6.7292 Y-43.9705 F75.00
G01 X6.7168 Y-43.9785 F75.00
G01 X6.7051 Y-43.9874 F75.00
G01 X6.6941 Y-43.9972 F75.00
G01 X6.6838 Y-44.0077 F75.00
G01 X6.6743 Y-44.0190 F75.00
G01 X6.6657 Y-44.0309 F75.00
G01 X6.6580 Y-44.0434 F75.00
G01 X6.6512 Y-44.0565 F75.00
G01 X6.6454 Y-44.0700 F75.00
G01 X6.6406 Y-44.0839 F75.00
G01 X6.6369 Y-44.0982 F75.00
G01 X6.6342 Y-44.1127 F75.00
G01 X6.6325 Y-44.1273 F75.00
G01 X6.6320 Y-44.1420 F75.00
G01 X6.6320 Y-46.2820 F75.00
G01 X6.6325 Y-46.2967 F75.00
G01 X6.6335 Y-46.3065 F75.00
G01 X6.6358 Y-46.3210 F75.00
G01 X6.6380 Y-46.3306 F75.00
G01 X6.6421 Y-46.3447 F75.00
G01 X6.6454 Y-46.3540 F75.00
G01 X6.6512 Y-46.3675 F75.00
G01 X6.6580 Y-46.3806 F75.00
G01 X6.6657 Y-46.3931 F75.00
G01 X6.6743 Y-46.4050 F75.00
G01 X6.6838 Y-46.4163 F75.00
G01 X6.6906 Y-46.4234 F75.00
G01 X6.7014 Y-46.4334 F75.00
G01 X6.7090 Y-46.4397 F75.00
G01 X6.7168 Y-46.4455 F75.00
G01 X6.7292 Y-46.4535 F75.00
G01 X6.7421 Y-46.4606 F75.00
G01 X6.7510 Y-46.4648 F75.00
G01 X6.7646 Y-46.4703 F75.00
G01 X6.7787 Y-46.4748 F75.00
G01 X6.7882 Y-46.4771 F75.00
G01 X6.8027 Y-46.4798 F75.00
G01 X6.8173 Y-46.4815 F75.00
G01 X6.8271 Y-46.4819 F75.00
G01 X7.2017 Y-46.4820 F75.00
G01 X6.8271 Y-46.4821 F75.00
G01 X6.8173 Y-46.4825 F75.00
G01 X6.8027 Y-46.4842 F75.00
G01 X6.7882 Y-46.4869 F75.00
G01 X6.7739 Y-46.4906 F75.00
G01 X6.7600 Y-46.4954 F75.00
G01 X6.7510 Y-46.4992 F75.00
G01 X6.7377 Y-46.5056 F75.00
G01 X6.7250 Y-46.5130 F75.00
G01 X6.7129 Y-46.5214 F75.00
G01 X6.7014 Y-46.5306 F75.00
G01 X6.6906 Y-46.5406 F75.00
G01 X6.6806 Y-46.5514 F75.00
G01 X6.6714 Y-46.5629 F75.00
G01 X6.6630 Y-46.5750 F75.00
G01 X6.6556 Y-46.5877 F75.00
G01 X6.6492 Y-46.6010 F75.00
G01 X6.6454 Y-46.6100 F75.00
G01 X6.6406 Y-46.6239 F75.00
G01 X6.6369 Y-46.6382 F75.00
G01 X6.6342 Y-46.6527 F75.00
G01 X6.6325 Y-46.6673 F75.00
G01 X6.6320 Y-46.6820 F75.00
G01 X6.6320 Y-48.8220 F75.00
G01 X6.6325 Y-48.8367 F75.00
G01 X6.6349 Y-48.8562 F75.00
G01 X6.6392 Y-48.8753 F75.00
G01 X6.6437 Y-48.8894 F75.00
G01 X6.6512 Y-48.9075 F75.00
G01 X6.6605 Y-48.9248 F75.00
G01 X6.6714 Y-48.9411 F75.00
G01 X6.6838 Y-48.9563 F75.00
G01 X6.6977 Y-48.9702 F75.00
G01 X6.7129 Y-48.9826 F75.00
G01 X6.7292 Y-48.9935 F75.00
G01 X6.7465 Y-49.0028 F75.00
G01 X6.7600 Y-49.0086 F75.00
G01 X6.7739 Y-49.0134 F75.00
G01 X6.7930 Y-49.0182 F75.00
G01 X6.8124 Y-49.0210 F75.00
G01 X6.8320 Y-49.0220 F75.00
G00 Z2.0000
G00 X2.2320 Y-49.0220
G01 F45.00
G01 Z-0.0850
G01 F75.00
G01 X4.3720 Y-49.0220 F75.00
G01 X4.3867 Y-49.0215 F75.00
G01 X4.4062 Y-49.0191 F75.00
G01 X4.4253 Y-49.0148 F75.00
G01 X4.4394 Y-49.0103 F75.00
G01 X4.4575 Y-49.0028 F75.00
G01 X4.4706 Y-48.9960 F75.00
G01 X4.4872 Y-48.9855 F75.00
G01 X4.5026 Y-48.9734 F75.00
G01 X4.5134 Y-48.9634 F75.00
G01 X4.5266 Y-48.9489 F75.00
G01 X4.5383 Y-48.9331 F75.00
G01 X4.5484 Y-48.9163 F75.00
G01 X4.5548 Y-48.9030 F75.00
G01 X4.5619 Y-48.8847 F75.00
G01 X4.5671 Y-48.8658 F75.00
G01 X4.5698 Y-48.8513 F75.00
G01 X4.5718 Y-48.8318 F75.00
G01 X4.5720 Y-46.6820 F75.00
G01 X4.5715 Y-46.6673 F75.00
G01 X4.5705 Y-46.6575 F75.00
G01 X4.5682 Y-46.6430 F75.00
G01 X4.5660 Y-46.6334 F75.00
G01 X4.5619 Y-46.6193 F75.00
G01 X4.5586 Y-46.6100 F75.00
G01 X4.5528 Y-46.5965 F75.00
G01 X4.5460 Y-46.5834 F75.00
G01 X4.5383 Y-46.5709 F75.00
G01 X4.5297 Y-46.5590 F75.00
G01 X4.5202 Y-46.5477 F75.00
G01 X4.5134 Y-46.5406 F75.00
G01 X4.5026 Y-46.5306 F75.00
G01 X4.4950 Y-46.5243 F75.00
G01 X4.4872 Y-46.5185 F75.00
G01 X4.4748 Y-46.5105 F75.00
G01 X4.4619 Y-46.5034 F75.00
G01 X4.4530 Y-46.4992 F75.00
G01 X4.4394 Y-46.4937 F75.00
G01 X4.4253 Y-46.4892 F75.00
G01 X4.4158 Y-46.4869 F75.00
G01 X4.4013 Y-46.4842 F75.00
G01 X4.3867 Y-46.4825 F75.00
G01 X4.3769 Y-46.4821 F75.00
G01 X4.0023 Y-46.4820 F75.00
G01 X4.3769 Y-46.4819 F75.00
G01 X4.3916 Y-46.4810 F75.00
G01 X4.4062 Y-46.4791 F75.00
G01 X4.4206 Y-46.4760 F75.00
G01 X4.4394 Y-46.4703 F75.00
G01 X4.4530 Y-46.4648 F75.00
G01 X4.4663 Y-46.4584 F75.00
G01 X4.4790 Y-46.4510 F75.00
G01 X4.4911 Y-46.4426 F75.00
G01 X4.5063 Y-46.4302 F75.00
G01 X4.5168 Y-46.4199 F75.00
G01 X4.5266 Y-46.4089 F75.00
G01 X4.5355 Y-46.3972 F75.00
G01 X4.5435 Y-46.3848 F75.00
G01 X4.5506 Y-46.3719 F75.00
G01 X4.5568 Y-46.3585 F75.00
G01 X4.5619 Y-46.3447 F75.00
G01 X4.5671 Y-46.3258 F75.00
G01 X4.5698 Y-46.3113 F75.00
G01 X4.5715 Y-46.2967 F75.00
G01 X4.5720 Y-46.2820 F75.00
G01 X4.5720 Y-44.1420 F75.00
G01 X4.5715 Y-44.1273 F75.00
G01 X4.5705 Y-44.1175 F75.00
G01 X4.5682 Y-44.1030 F75.00
G01 X4.5660 Y-44.0934 F75.00
G01 X4.5619 Y-44.0793 F75.00
G01 X4.5586 Y-44.0700 F75.00
G01 X4.5528 Y-44.0565 F75.00
G01 X4.5460 Y-44.0434 F75.00
G01 X4.5383 Y-44.0309 F75.00
G01 X4.5297 Y-44.0190 F75.00
G01 X4.5202 Y-44.0077 F75.00
G01 X4.5134 Y-44.0006 F75.00
G01 X4.5026 Y-43.9906 F75.00
G01 X4.4950 Y-43.9843 F75.00
G01 X4.4872 Y-43.9785 F75.00
G01 X4.4748 Y-43.9705 F75.00
G01 X4.4619 Y-43.9634 F75.00
G01 X4.4530 Y-43.9592 F75.00
G01 X4.4394 Y-43.9537 F75.00
G01 X4.4253 Y-43.9492 F75.00
G01 X4.4158 Y-43.9469 F75.00
G01 X4.4013 Y-43.9442 F75.00
G01 X4.3867 Y-43.9425 F75.00
G01 X4.3769 Y-43.9421 F75.00
G01 X4.0023 Y-43.9420 F75.00
G01 X4.3769 Y-43.9419 F75.00
G01 X4.3916 Y-43.9410 F75.00
G01 X4.4062 Y-43.9391 F75.00
G01 X4.4206 Y-43.9360 F75.00
G01 X4.4394 Y-43.9303 F75.00
G01 X4.4530 Y-43.9248 F75.00
G01 X4.4663 Y-43.9184 F75.00
G01 X4.4790 Y-43.9110 F75.00
G01 X4.4911 Y-43.9026 F75.00
G01 X4.5063 Y-43.8902 F75.00
G01 X4.5168 Y-43.8799 F75.00
G01 X4.5266 Y-43.8689 F75.00
G01 X4.5355 Y-43.8572 F75.00
G01 X4.5435 Y-43.8448 F75.00
G01 X4.5506 Y-43.8319 F75.00
G01 X4.5568 Y-43.8185 F75.00
G01 X4.5619 Y-43.8047 F75.00
G01 X4.5671 Y-43.7858 F75.00
G01 X4.5698 Y-43.7713 F75.00
G01 X4.5715 Y-43.7567 F75.00
G01 X4.5720 Y-43.7420 F75.00
G01 X4.5720 Y-41.6020 F75.00
G01 X4.5715 Y-41.5873 F75.00
G01 X4.5705 Y-41.5775 F75.00
G01 X4.5682 Y-41.5630 F75.00
G01 X4.5660 Y-41.5534 F75.00
G01 X4.5619 Y-41.5393 F75.00
G01 X4.5586 Y-41.5300 F75.00
G01 X4.5528 Y-41.5165 F75.00
G01 X4.5460 Y-41.5034 F75.00
G01 X4.5383 Y-41.4909 F75.00
G01 X4.5297 Y-41.4790 F75.00
G01 X4.5202 Y-41.4677 F75.00
G01 X4.5134 Y-41.4606 F75.00
G01 X4.5026 Y-41.4506 F75.00
G01 X4.4950 Y-41.4443 F75.00
G01 X4.4872 Y-41.4385 F75.00
G01 X4.4748 Y-41.4305 F75.00
G01 X4.4619 Y-41.4234 F75.00
G01 X4.4530 Y-41.4192 F75.00
G01 X4.4394 Y-41.4137 F75.00
G01 X4.4253 Y-41.4092 F75.00
G01 X4.4158 Y-41.4069 F75.00
G01 X4.4013 Y-41.4042 F75.00
G01 X4.3867 Y-41.4025 F75.00
G01 X4.3769 Y-41.4021 F75.00
G01 X4.0023 Y-41.4020 F75.00
G01 X4.3769 Y-41.4019 F75.00
G01 X4.3916 Y-41.4010 F75.00
G01 X4.4062 Y-41.3991 F75.00
G01 X4.4206 Y-41.3960 F75.00
G01 X4.4394 Y-41.3903 F75.00
G01 X4.4530 Y-41.3848 F75.00
G01 X4.4663 Y-41.3784 F75.00
G01 X4.4790 Y-41.3710 F75.00
G01 X4.4911 Y-41.3626 F75.00
G01 X4.5063 Y-41.3502 F75.00
G01 X4.5168 Y-41.3399 F75.00
G01 X4.5266 Y-41.3289 F75.00
G01 X4.5355 Y-41.3172 F75.00
G01 X4.5435 Y-41.3048 F75.00
G01 X4.5506 Y-41.2919 F75.00
G01 X4.5568 Y-41.2785 F75.00
G01 X4.5619 Y-41.2647 F75.00
G01 X4.5671 Y-41.2458 F75.00
G01 X4.5698 Y-41.2313 F75.00
G01 X4.5715 Y-41.2167 F75.00
G01 X4.5720 Y-41.2020 F75.00
G01 X4.5720 Y-39.0620 F75.00
G01 X4.5715 Y-39.0473 F75.00
G01 X4.5705 Y-39.0375 F75.00
G01 X4.5682 Y-39.0230 F75.00
G01 X4.5660 Y-39.0134 F75.00
G01 X4.5619 Y-38.9993 F75.00
G01 X4.5586 Y-38.9900 F75.00
G01 X4.5528 Y-38.9765 F75.00
G01 X4.5460 Y-38.9634 F75.00
G01 X4.5383 Y-38.9509 F75.00
G01 X4.5297 Y-38.9390 F75.00
G01 X4.5202 Y-38.9277 F75.00
G01 X4.5134 Y-38.9206 F75.00
G01 X4.5026 Y-38.9106 F75.00
G01 X4.4950 Y-38.9043 F75.00
G01 X4.4872 Y-38.8985 F75.00
G01 X4.4748 Y-38.8905 F75.00
G01 X4.4619 Y-38.8834 F75.00
G01 X4.4530 Y-38.8792 F75.00
G01 X4.4394 Y-38.8737 F75.00
G01 X4.4253 Y-38.8692 F75.00
G01 X4.4158 Y-38.8669 F75.00
G01 X4.4013 Y-38.8642 F75.00
G01 X4.3867 Y-38.8625 F75.00
G01 X4.3769 Y-38.8621 F75.00
G01 X4.0023 Y-38.8620 F75.00
G01 X4.3769 Y-38.8619 F75.00
G01 X4.3916 Y-38.8610 F75.00
G01 X4.4062 Y-38.8591 F75.00
G01 X4.4206 Y-38.8560 F75.00
G01 X4.4394 Y-38.8503 F75.00
G01 X4.4530 Y-38.8448 F75.00
G01 X4.4663 Y-38.8384 F75.00
