(G-code generated by FlatCAM Evo vUnstable - Version Date: 2023/6/31)

(Name: Power_Breakout.drl_exc_cnc_cnc)
(Type: G-code from Geometry)
(Units: MM)

(Created on Monday, 18 March 2024 at 19:31)

(This preprocessor is used with a motion controller loaded with GRBL firmware.)
(It is configured to be compatible with almost any version of GRBL firmware. No M6 command.)

(TOOL DIAMETER: 0.5 mm)
(Feedrate_XY: 60.0 mm/min)
(Feedrate_Z: 60.0 mm/min)
(Feedrate rapids 1500.0 mm/min)

(Z_Cut: -2.0 mm)
(DepthPerCut: 0.5 mm <=>4 passes)
(Z_Move: 2.0 mm)
(Z Start: None mm)
(Z End: 15.0 mm)
(X,Y End: 0.0000, 0.0000 mm)
(Steps per circle: 16)
(Steps per circle: 16)
(Preprocessor Geometry: GRBL_11_no_M6)

(X range:    2.8020 ...   13.0020  mm)
(Y range:  -48.2520 ...   -2.2940  mm)

(Spindle Speed: 0.0 RPM)
G21
G90
G17
G94


G01 F60.00

M5             
G00 Z15.0000
G00 X0.0000 Y0.0000                
T1
(MSG, Change to Tool Dia = 0.5000)
M0
G00 Z15.0000
        
M03
G01 F60.00
G00 X3.5517 Y-2.7940
G01 F60.00
G01 Z-0.5000
G01 F60.00
G01 X3.5327 Y-2.8896 F60.00
G01 X3.4786 Y-2.9706 F60.00
G01 X3.3976 Y-3.0247 F60.00
G01 X3.3020 Y-3.0437 F60.00
G01 X3.2064 Y-3.0247 F60.00
G01 X3.1254 Y-2.9706 F60.00
G01 X3.0713 Y-2.8896 F60.00
G01 X3.0523 Y-2.7940 F60.00
G01 X3.0713 Y-2.6984 F60.00
G01 X3.1254 Y-2.6174 F60.00
G01 X3.2064 Y-2.5633 F60.00
G01 X3.3020 Y-2.5443 F60.00
G01 X3.3976 Y-2.5633 F60.00
G01 X3.4786 Y-2.6174 F60.00
G01 X3.5327 Y-2.6984 F60.00
G01 X3.5517 Y-2.7940 F60.00
G00 X3.5517 Y-2.7940
G01 F60.00
G01 Z-1.0000
G01 F60.00
G01 X3.5327 Y-2.6984 F60.00
G01 X3.4786 Y-2.6174 F60.00
G01 X3.3976 Y-2.5633 F60.00
G01 X3.3020 Y-2.5443 F60.00
G01 X3.2064 Y-2.5633 F60.00
G01 X3.1254 Y-2.6174 F60.00
G01 X3.0713 Y-2.6984 F60.00
G01 X3.0523 Y-2.7940 F60.00
G01 X3.0713 Y-2.8896 F60.00
G01 X3.1254 Y-2.9706 F60.00
G01 X3.2064 Y-3.0247 F60.00
G01 X3.3020 Y-3.0437 F60.00
G01 X3.3976 Y-3.0247 F60.00
G01 X3.4786 Y-2.9706 F60.00
G01 X3.5327 Y-2.8896 F60.00
G01 X3.5517 Y-2.7940 F60.00
G00 X3.5517 Y-2.7940
G01 F60.00
G01 Z-1.5000
G01 F60.00
G01 X3.5327 Y-2.8896 F60.00
G01 X3.4786 Y-2.9706 F60.00
G01 X3.3976 Y-3.0247 F60.00
G01 X3.3020 Y-3.0437 F60.00
G01 X3.2064 Y-3.0247 F60.00
G01 X3.1254 Y-2.9706 F60.00
G01 X3.0713 Y-2.8896 F60.00
G01 X3.0523 Y-2.7940 F60.00
G01 X3.0713 Y-2.6984 F60.00
G01 X3.1254 Y-2.6174 F60.00
G01 X3.2064 Y-2.5633 F60.00
G01 X3.3020 Y-2.5443 F60.00
G01 X3.3976 Y-2.5633 F60.00
G01 X3.4786 Y-2.6174 F60.00
G01 X3.5327 Y-2.6984 F60.00
G01 X3.5517 Y-2.7940 F60.00
G00 X3.5517 Y-2.7940
G01 F60.00
G01 Z-2.0000
G01 F60.00
G01 X3.5327 Y-2.6984 F60.00
G01 X3.4786 Y-2.6174 F60.00
G01 X3.3976 Y-2.5633 F60.00
G01 X3.3020 Y-2.5443 F60.00
G01 X3.2064 Y-2.5633 F60.00
G01 X3.1254 Y-2.6174 F60.00
G01 X3.0713 Y-2.6984 F60.00
G01 X3.0523 Y-2.7940 F60.00
G01 X3.0713 Y-2.8896 F60.00
G01 X3.1254 Y-2.9706 F60.00
G01 X3.2064 Y-3.0247 F60.00
G01 X3.3020 Y-3.0437 F60.00
G01 X3.3976 Y-3.0247 F60.00
G01 X3.4786 Y-2.9706 F60.00
G01 X3.5327 Y-2.8896 F60.00
G01 X3.5517 Y-2.7940 F60.00
G00 Z2.0000
G00 X8.1517 Y-2.7940
G01 F60.00
G01 Z-0.5000
G01 F60.00
G01 X8.1327 Y-2.8896 F60.00
G01 X8.0786 Y-2.9706 F60.00
G01 X7.9976 Y-3.0247 F60.00
G01 X7.9020 Y-3.0437 F60.00
G01 X7.8064 Y-3.0247 F60.00
G01 X7.7254 Y-2.9706 F60.00
G01 X7.6713 Y-2.8896 F60.00
G01 X7.6523 Y-2.7940 F60.00
G01 X7.6713 Y-2.6984 F60.00
G01 X7.7254 Y-2.6174 F60.00
G01 X7.8064 Y-2.5633 F60.00
G01 X7.9020 Y-2.5443 F60.00
G01 X7.9976 Y-2.5633 F60.00
G01 X8.0786 Y-2.6174 F60.00
G01 X8.1327 Y-2.6984 F60.00
G01 X8.1517 Y-2.7940 F60.00
G00 X8.1517 Y-2.7940
G01 F60.00
G01 Z-1.0000
G01 F60.00
G01 X8.1327 Y-2.6984 F60.00
G01 X8.0786 Y-2.6174 F60.00
G01 X7.9976 Y-2.5633 F60.00
G01 X7.9020 Y-2.5443 F60.00
G01 X7.8064 Y-2.5633 F60.00
G01 X7.7254 Y-2.6174 F60.00
G01 X7.6713 Y-2.6984 F60.00
G01 X7.6523 Y-2.7940 F60.00
G01 X7.6713 Y-2.8896 F60.00
G01 X7.7254 Y-2.9706 F60.00
G01 X7.8064 Y-3.0247 F60.00
G01 X7.9020 Y-3.0437 F60.00
G01 X7.9976 Y-3.0247 F60.00
G01 X8.0786 Y-2.9706 F60.00
G01 X8.1327 Y-2.8896 F60.00
G01 X8.1517 Y-2.7940 F60.00
G00 X8.1517 Y-2.7940
G01 F60.00
G01 Z-1.5000
G01 F60.00
G01 X8.1327 Y-2.8896 F60.00
G01 X8.0786 Y-2.9706 F60.00
G01 X7.9976 Y-3.0247 F60.00
G01 X7.9020 Y-3.0437 F60.00
G01 X7.8064 Y-3.0247 F60.00
G01 X7.7254 Y-2.9706 F60.00
G01 X7.6713 Y-2.8896 F60.00
G01 X7.6523 Y-2.7940 F60.00
G01 X7.6713 Y-2.6984 F60.00
G01 X7.7254 Y-2.6174 F60.00
G01 X7.8064 Y-2.5633 F60.00
G01 X7.9020 Y-2.5443 F60.00
G01 X7.9976 Y-2.5633 F60.00
G01 X8.0786 Y-2.6174 F60.00
G01 X8.1327 Y-2.6984 F60.00
G01 X8.1517 Y-2.7940 F60.00
G00 X8.1517 Y-2.7940
G01 F60.00
G01 Z-2.0000
G01 F60.00
G01 X8.1327 Y-2.6984 F60.00
G01 X8.0786 Y-2.6174 F60.00
G01 X7.9976 Y-2.5633 F60.00
G01 X7.9020 Y-2.5443 F60.00
G01 X7.8064 Y-2.5633 F60.00
G01 X7.7254 Y-2.6174 F60.00
G01 X7.6713 Y-2.6984 F60.00
G01 X7.6523 Y-2.7940 F60.00
G01 X7.6713 Y-2.8896 F60.00
G01 X7.7254 Y-2.9706 F60.00
G01 X7.8064 Y-3.0247 F60.00
G01 X7.9020 Y-3.0437 F60.00
G01 X7.9976 Y-3.0247 F60.00
G01 X8.0786 Y-2.9706 F60.00
G01 X8.1327 Y-2.8896 F60.00
G01 X8.1517 Y-2.7940 F60.00
G00 Z2.0000
G00 X12.7517 Y-2.7940
G01 F60.00
G01 Z-0.5000
G01 F60.00
G01 X12.7327 Y-2.8896 F60.00
G01 X12.6786 Y-2.9706 F60.00
G01 X12.5976 Y-3.0247 F60.00
G01 X12.5020 Y-3.0437 F60.00
G01 X12.4064 Y-3.0247 F60.00
G01 X12.3254 Y-2.9706 F60.00
G01 X12.2713 Y-2.8896 F60.00
G01 X12.2523 Y-2.7940 F60.00
G01 X12.2713 Y-2.6984 F60.00
G01 X12.3254 Y-2.6174 F60.00
G01 X12.4064 Y-2.5633 F60.00
G01 X12.5020 Y-2.5443 F60.00
G01 X12.5976 Y-2.5633 F60.00
G01 X12.6786 Y-2.6174 F60.00
G01 X12.7327 Y-2.6984 F60.00
G01 X12.7517 Y-2.7940 F60.00
G00 X12.7517 Y-2.7940
G01 F60.00
G01 Z-1.0000
G01 F60.00
G01 X12.7327 Y-2.6984 F60.00
G01 X12.6786 Y-2.6174 F60.00
G01 X12.5976 Y-2.5633 F60.00
G01 X12.5020 Y-2.5443 F60.00
G01 X12.4064 Y-2.5633 F60.00
G01 X12.3254 Y-2.6174 F60.00
G01 X12.2713 Y-2.6984 F60.00
G01 X12.2523 Y-2.7940 F60.00
G01 X12.2713 Y-2.8896 F60.00
G01 X12.3254 Y-2.9706 F60.00
G01 X12.4064 Y-3.0247 F60.00
G01 X12.5020 Y-3.0437 F60.00
G01 X12.5976 Y-3.0247 F60.00
G01 X12.6786 Y-2.9706 F60.00
G01 X12.7327 Y-2.8896 F60.00
G01 X12.7517 Y-2.7940 F60.00
G00 X12.7517 Y-2.7940
G01 F60.00
G01 Z-1.5000
G01 F60.00
G01 X12.7327 Y-2.8896 F60.00
G01 X12.6786 Y-2.9706 F60.00
G01 X12.5976 Y-3.0247 F60.00
G01 X12.5020 Y-3.0437 F60.00
G01 X12.4064 Y-3.0247 F60.00
G01 X12.3254 Y-2.9706 F60.00
G01 X12.2713 Y-2.8896 F60.00
G01 X12.2523 Y-2.7940 F60.00
G01 X12.2713 Y-2.6984 F60.00
G01 X12.3254 Y-2.6174 F60.00
G01 X12.4064 Y-2.5633 F60.00
G01 X12.5020 Y-2.5443 F60.00
G01 X12.5976 Y-2.5633 F60.00
G01 X12.6786 Y-2.6174 F60.00
G01 X12.7327 Y-2.6984 F60.00
G01 X12.7517 Y-2.7940 F60.00
G00 X12.7517 Y-2.7940
G01 F60.00
G01 Z-2.0000
G01 F60.00
G01 X12.7327 Y-2.6984 F60.00
G01 X12.6786 Y-2.6174 F60.00
G01 X12.5976 Y-2.5633 F60.00
G01 X12.5020 Y-2.5443 F60.00
G01 X12.4064 Y-2.5633 F60.00
G01 X12.3254 Y-2.6174 F60.00
G01 X12.2713 Y-2.6984 F60.00
G01 X12.2523 Y-2.7940 F60.00
G01 X12.2713 Y-2.8896 F60.00
G01 X12.3254 Y-2.9706 F60.00
G01 X12.4064 Y-3.0247 F60.00
G01 X12.5020 Y-3.0437 F60.00
G01 X12.5976 Y-3.0247 F60.00
G01 X12.6786 Y-2.9706 F60.00
G01 X12.7327 Y-2.8896 F60.00
G01 X12.7517 Y-2.7940 F60.00
G00 Z2.0000
G00 X12.7517 Y-9.6520
G01 F60.00
G01 Z-0.5000
G01 F60.00
G01 X12.7327 Y-9.7476 F60.00
G01 X12.6786 Y-9.8286 F60.00
G01 X12.5976 Y-9.8827 F60.00
G01 X12.5020 Y-9.9017 F60.00
G01 X12.4064 Y-9.8827 F60.00
G01 X12.3254 Y-9.8286 F60.00
G01 X12.2713 Y-9.7476 F60.00
G01 X12.2523 Y-9.6520 F60.00
G01 X12.2713 Y-9.5564 F60.00
G01 X12.3254 Y-9.4754 F60.00
G01 X12.4064 Y-9.4213 F60.00
G01 X12.5020 Y-9.4023 F60.00
G01 X12.5976 Y-9.4213 F60.00
G01 X12.6786 Y-9.4754 F60.00
G01 X12.7327 Y-9.5564 F60.00
G01 X12.7517 Y-9.6520 F60.00
G00 X12.7517 Y-9.6520
G01 F60.00
G01 Z-1.0000
G01 F60.00
G01 X12.7327 Y-9.5564 F60.00
G01 X12.6786 Y-9.4754 F60.00
G01 X12.5976 Y-9.4213 F60.00
G01 X12.5020 Y-9.4023 F60.00
G01 X12.4064 Y-9.4213 F60.00
G01 X12.3254 Y-9.4754 F60.00
G01 X12.2713 Y-9.5564 F60.00
G01 X12.2523 Y-9.6520 F60.00
G01 X12.2713 Y-9.7476 F60.00
G01 X12.3254 Y-9.8286 F60.00
G01 X12.4064 Y-9.8827 F60.00
G01 X12.5020 Y-9.9017 F60.00
G01 X12.5976 Y-9.8827 F60.00
G01 X12.6786 Y-9.8286 F60.00
G01 X12.7327 Y-9.7476 F60.00
G01 X12.7517 Y-9.6520 F60.00
G00 X12.7517 Y-9.6520
G01 F60.00
G01 Z-1.5000
G01 F60.00
G01 X12.7327 Y-9.7476 F60.00
G01 X12.6786 Y-9.8286 F60.00
G01 X12.5976 Y-9.8827 F60.00
G01 X12.5020 Y-9.9017 F60.00
G01 X12.4064 Y-9.8827 F60.00
G01 X12.3254 Y-9.8286 F60.00
G01 X12.2713 Y-9.7476 F60.00
G01 X12.2523 Y-9.6520 F60.00
G01 X12.2713 Y-9.5564 F60.00
G01 X12.3254 Y-9.4754 F60.00
G01 X12.4064 Y-9.4213 F60.00
G01 X12.5020 Y-9.4023 F60.00
G01 X12.5976 Y-9.4213 F60.00
G01 X12.6786 Y-9.4754 F60.00
G01 X12.7327 Y-9.5564 F60.00
G01 X12.7517 Y-9.6520 F60.00
G00 X12.7517 Y-9.6520
G01 F60.00
G01 Z-2.0000
G01 F60.00
G01 X12.7327 Y-9.5564 F60.00
G01 X12.6786 Y-9.4754 F60.00
G01 X12.5976 Y-9.4213 F60.00
G01 X12.5020 Y-9.4023 F60.00
G01 X12.4064 Y-9.4213 F60.00
G01 X12.3254 Y-9.4754 F60.00
G01 X12.2713 Y-9.5564 F60.00
G01 X12.2523 Y-9.6520 F60.00
G01 X12.2713 Y-9.7476 F60.00
G01 X12.3254 Y-9.8286 F60.00
G01 X12.4064 Y-9.8827 F60.00
G01 X12.5020 Y-9.9017 F60.00
G01 X12.5976 Y-9.8827 F60.00
G01 X12.6786 Y-9.8286 F60.00
G01 X12.7327 Y-9.7476 F60.00
G01 X12.7517 Y-9.6520 F60.00
G00 Z2.0000
G00 X12.7517 Y-12.1920
G01 F60.00
G01 Z-0.5000
G01 F60.00
G01 X12.7327 Y-12.2876 F60.00
G01 X12.6786 Y-12.3686 F60.00
G01 X12.5976 Y-12.4227 F60.00
G01 X12.5020 Y-12.4417 F60.00
G01 X12.4064 Y-12.4227 F60.00
G01 X12.3254 Y-12.3686 F60.00
G01 X12.2713 Y-12.2876 F60.00
G01 X12.2523 Y-12.1920 F60.00
G01 X12.2713 Y-12.0964 F60.00
G01 X12.3254 Y-12.0154 F60.00
G01 X12.4064 Y-11.9613 F60.00
G01 X12.5020 Y-11.9423 F60.00
G01 X12.5976 Y-11.9613 F60.00
G01 X12.6786 Y-12.0154 F60.00
G01 X12.7327 Y-12.0964 F60.00
G01 X12.7517 Y-12.1920 F60.00
G00 X12.7517 Y-12.1920
G01 F60.00
G01 Z-1.0000
G01 F60.00
G01 X12.7327 Y-12.0964 F60.00
G01 X12.6786 Y-12.0154 F60.00
G01 X12.5976 Y-11.9613 F60.00
G01 X12.5020 Y-11.9423 F60.00
G01 X12.4064 Y-11.9613 F60.00
G01 X12.3254 Y-12.0154 F60.00
G01 X12.2713 Y-12.0964 F60.00
G01 X12.2523 Y-12.1920 F60.00
G01 X12.2713 Y-12.2876 F60.00
G01 X12.3254 Y-12.3686 F60.00
G01 X12.4064 Y-12.4227 F60.00
G01 X12.5020 Y-12.4417 F60.00
G01 X12.5976 Y-12.4227 F60.00
G01 X12.6786 Y-12.3686 F60.00
G01 X12.7327 Y-12.2876 F60.00
G01 X12.7517 Y-12.1920 F60.00
G00 X12.7517 Y-12.1920
G01 F60.00
G01 Z-1.5000
G01 F60.00
G01 X12.7327 Y-12.2876 F60.00
G01 X12.6786 Y-12.3686 F60.00
G01 X12.5976 Y-12.4227 F60.00
G01 X12.5020 Y-12.4417 F60.00
G01 X12.4064 Y-12.4227 F60.00
G01 X12.3254 Y-12.3686 F60.00
G01 X12.2713 Y-12.2876 F60.00
G01 X12.2523 Y-12.1920 F60.00
G01 X12.2713 Y-12.0964 F60.00
G01 X12.3254 Y-12.0154 F60.00
G01 X12.4064 Y-11.9613 F60.00
G01 X12.5020 Y-11.9423 F60.00
G01 X12.5976 Y-11.9613 F60.00
G01 X12.6786 Y-12.0154 F60.00
G01 X12.7327 Y-12.0964 F60.00
G01 X12.7517 Y-12.1920 F60.00
G00 X12.7517 Y-12.1920
G01 F60.00
G01 Z-2.0000
G01 F60.00
G01 X12.7327 Y-12.0964 F60.00
G01 X12.6786 Y-12.0154 F60.00
G01 X12.5976 Y-11.9613 F60.00
G01 X12.5020 Y-11.9423 F60.00
G01 X12.4064 Y-11.9613 F60.00
G01 X12.3254 Y-12.0154 F60.00
G01 X12.2713 Y-12.0964 F60.00
G01 X12.2523 Y-12.1920 F60.00
G01 X12.2713 Y-12.2876 F60.00
G01 X12.3254 Y-12.3686 F60.00
G01 X12.4064 Y-12.4227 F60.00
G01 X12.5020 Y-12.4417 F60.00
G01 X12.5976 Y-12.4227 F60.00
G01 X12.6786 Y-12.3686 F60.00
G01 X12.7327 Y-12.2876 F60.00
G01 X12.7517 Y-12.1920 F60.00
G00 Z2.0000
G00 X12.7517 Y-14.7320
G01 F60.00
G01 Z-0.5000
G01 F60.00
G01 X12.7327 Y-14.8276 F60.00
G01 X12.6786 Y-14.9086 F60.00
G01 X12.5976 Y-14.9627 F60.00
G01 X12.5020 Y-14.9817 F60.00
G01 X12.4064 Y-14.9627 F60.00
G01 X12.3254 Y-14.9086 F60.00
G01 X12.2713 Y-14.8276 F60.00
G01 X12.2523 Y-14.7320 F60.00
G01 X12.2713 Y-14.6364 F60.00
G01 X12.3254 Y-14.5554 F60.00
G01 X12.4064 Y-14.5013 F60.00
G01 X12.5020 Y-14.4823 F60.00
G01 X12.5976 Y-14.5013 F60.00
G01 X12.6786 Y-14.5554 F60.00
G01 X12.7327 Y-14.6364 F60.00
G01 X12.7517 Y-14.7320 F60.00
G00 X12.7517 Y-14.7320
G01 F60.00
G01 Z-1.0000
G01 F60.00
G01 X12.7327 Y-14.6364 F60.00
G01 X12.6786 Y-14.5554 F60.00
G01 X12.5976 Y-14.5013 F60.00
G01 X12.5020 Y-14.4823 F60.00
G01 X12.4064 Y-14.5013 F60.00
G01 X12.3254 Y-14.5554 F60.00
G01 X12.2713 Y-14.6364 F60.00
G01 X12.2523 Y-14.7320 F60.00
G01 X12.2713 Y-14.8276 F60.00
G01 X12.3254 Y-14.9086 F60.00
G01 X12.4064 Y-14.9627 F60.00
G01 X12.5020 Y-14.9817 F60.00
G01 X12.5976 Y-14.9627 F60.00
G01 X12.6786 Y-14.9086 F60.00
G01 X12.7327 Y-14.8276 F60.00
G01 X12.7517 Y-14.7320 F60.00
G00 X12.7517 Y-14.7320
G01 F60.00
G01 Z-1.5000
G01 F60.00
G01 X12.7327 Y-14.8276 F60.00
G01 X12.6786 Y-14.9086 F60.00
G01 X12.5976 Y-14.9627 F60.00
G01 X12.5020 Y-14.9817 F60.00
G01 X12.4064 Y-14.9627 F60.00
G01 X12.3254 Y-14.9086 F60.00
G01 X12.2713 Y-14.8276 F60.00
G01 X12.2523 Y-14.7320 F60.00
G01 X12.2713 Y-14.6364 F60.00
G01 X12.3254 Y-14.5554 F60.00
G01 X12.4064 Y-14.5013 F60.00
G01 X12.5020 Y-14.4823 F60.00
G01 X12.5976 Y-14.5013 F60.00
G01 X12.6786 Y-14.5554 F60.00
G01 X12.7327 Y-14.6364 F60.00
G01 X12.7517 Y-14.7320 F60.00
G00 X12.7517 Y-14.7320
G01 F60.00
G01 Z-2.0000
G01 F60.00
G01 X12.7327 Y-14.6364 F60.00
G01 X12.6786 Y-14.5554 F60.00
G01 X12.5976 Y-14.5013 F60.00
G01 X12.5020 Y-14.4823 F60.00
G01 X12.4064 Y-14.5013 F60.00
G01 X12.3254 Y-14.5554 F60.00
G01 X12.2713 Y-14.6364 F60.00
G01 X12.2523 Y-14.7320 F60.00
G01 X12.2713 Y-14.8276 F60.00
G01 X12.3254 Y-14.9086 F60.00
G01 X12.4064 Y-14.9627 F60.00
G01 X12.5020 Y-14.9817 F60.00
G01 X12.5976 Y-14.9627 F60.00
G01 X12.6786 Y-14.9086 F60.00
G01 X12.7327 Y-14.8276 F60.00
G01 X12.7517 Y-14.7320 F60.00
G00 Z2.0000
G00 X12.7517 Y-17.2720
G01 F60.00
G01 Z-0.5000
G01 F60.00
G01 X12.7327 Y-17.3676 F60.00
G01 X12.6786 Y-17.4486 F60.00
G01 X12.5976 Y-17.5027 F60.00
G01 X12.5020 Y-17.5217 F60.00
G01 X12.4064 Y-17.5027 F60.00
G01 X12.3254 Y-17.4486 F60.00
G01 X12.2713 Y-17.3676 F60.00
G01 X12.2523 Y-17.2720 F60.00
G01 X12.2713 Y-17.1764 F60.00
G01 X12.3254 Y-17.0954 F60.00
G01 X12.4064 Y-17.0413 F60.00
G01 X12.5020 Y-17.0223 F60.00
G01 X12.5976 Y-17.0413 F60.00
G01 X12.6786 Y-17.0954 F60.00
G01 X12.7327 Y-17.1764 F60.00
G01 X12.7517 Y-17.2720 F60.00
G00 X12.7517 Y-17.2720
G01 F60.00
G01 Z-1.0000
G01 F60.00
G01 X12.7327 Y-17.1764 F60.00
G01 X12.6786 Y-17.0954 F60.00
G01 X12.5976 Y-17.0413 F60.00
G01 X12.5020 Y-17.0223 F60.00
G01 X12.4064 Y-17.0413 F60.00
G01 X12.3254 Y-17.0954 F60.00
G01 X12.2713 Y-17.1764 F60.00
G01 X12.2523 Y-17.2720 F60.00
G01 X12.2713 Y-17.3676 F60.00
G01 X12.3254 Y-17.4486 F60.00
G01 X12.4064 Y-17.5027 F60.00
G01 X12.5020 Y-17.5217 F60.00
G01 X12.5976 Y-17.5027 F60.00
G01 X12.6786 Y-17.4486 F60.00
G01 X12.7327 Y-17.3676 F60.00
G01 X12.7517 Y-17.2720 F60.00
G00 X12.7517 Y-17.2720
G01 F60.00
G01 Z-1.5000
G01 F60.00
G01 X12.7327 Y-17.3676 F60.00
G01 X12.6786 Y-17.4486 F60.00
G01 X12.5976 Y-17.5027 F60.00
G01 X12.5020 Y-17.5217 F60.00
G01 X12.4064 Y-17.5027 F60.00
G01 X12.3254 Y-17.4486 F60.00
G01 X12.2713 Y-17.3676 F60.00
G01 X12.2523 Y-17.2720 F60.00
G01 X12.2713 Y-17.1764 F60.00
G01 X12.3254 Y-17.0954 F60.00
G01 X12.4064 Y-17.0413 F60.00
G01 X12.5020 Y-17.0223 F60.00
G01 X12.5976 Y-17.0413 F60.00
G01 X12.6786 Y-17.0954 F60.00
G01 X12.7327 Y-17.1764 F60.00
G01 X12.7517 Y-17.2720 F60.00
G00 X12.7517 Y-17.2720
G01 F60.00
G01 Z-2.0000
G01 F60.00
G01 X12.7327 Y-17.1764 F60.00
G01 X12.6786 Y-17.0954 F60.00
G01 X12.5976 Y-17.0413 F60.00
G01 X12.5020 Y-17.0223 F60.00
G01 X12.4064 Y-17.0413 F60.00
G01 X12.3254 Y-17.0954 F60.00
G01 X12.2713 Y-17.1764 F60.00
G01 X12.2523 Y-17.2720 F60.00
G01 X12.2713 Y-17.3676 F60.00
G01 X12.3254 Y-17.4486 F60.00
G01 X12.4064 Y-17.5027 F60.00
G01 X12.5020 Y-17.5217 F60.00
G01 X12.5976 Y-17.5027 F60.00
G01 X12.6786 Y-17.4486 F60.00
G01 X12.7327 Y-17.3676 F60.00
G01 X12.7517 Y-17.2720 F60.00
G00 Z2.0000
G00 X12.7517 Y-19.8120
G01 F60.00
G01 Z-0.5000
G01 F60.00
G01 X12.7327 Y-19.9076 F60.00
G01 X12.6786 Y-19.9886 F60.00
G01 X12.5976 Y-20.0427 F60.00
G01 X12.5020 Y-20.0617 F60.00
G01 X12.4064 Y-20.0427 F60.00
G01 X12.3254 Y-19.9886 F60.00
G01 X12.2713 Y-19.9076 F60.00
G01 X12.2523 Y-19.8120 F60.00
G01 X12.2713 Y-19.7164 F60.00
G01 X12.3254 Y-19.6354 F60.00
G01 X12.4064 Y-19.5813 F60.00
G01 X12.5020 Y-19.5623 F60.00
G01 X12.5976 Y-19.5813 F60.00
G01 X12.6786 Y-19.6354 F60.00
G01 X12.7327 Y-19.7164 F60.00
G01 X12.7517 Y-19.8120 F60.00
G00 X12.7517 Y-19.8120
G01 F60.00
G01 Z-1.0000
G01 F60.00
G01 X12.7327 Y-19.7164 F60.00
G01 X12.6786 Y-19.6354 F60.00
G01 X12.5976 Y-19.5813 F60.00
G01 X12.5020 Y-19.5623 F60.00
G01 X12.4064 Y-19.5813 F60.00
G01 X12.3254 Y-19.6354 F60.00
G01 X12.2713 Y-19.7164 F60.00
G01 X12.2523 Y-19.8120 F60.00
G01 X12.2713 Y-19.9076 F60.00
G01 X12.3254 Y-19.9886 F60.00
G01 X12.4064 Y-20.0427 F60.00
G01 X12.5020 Y-20.0617 F60.00
G01 X12.5976 Y-20.0427 F60.00
G01 X12.6786 Y-19.9886 F60.00
G01 X12.7327 Y-19.9076 F60.00
G01 X12.7517 Y-19.8120 F60.00
G00 X12.7517 Y-19.8120
G01 F60.00
G01 Z-1.5000
G01 F60.00
G01 X12.7327 Y-19.9076 F60.00
G01 X12.6786 Y-19.9886 F60.00
G01 X12.5976 Y-20.0427 F60.00
G01 X12.5020 Y-20.0617 F60.00
G01 X12.4064 Y-20.0427 F60.00
G01 X12.3254 Y-19.9886 F60.00
G01 X12.2713 Y-19.9076 F60.00
G01 X12.2523 Y-19.8120 F60.00
G01 X12.2713 Y-19.7164 F60.00
G01 X12.3254 Y-19.6354 F60.00
G01 X12.4064 Y-19.5813 F60.00
G01 X12.5020 Y-19.5623 F60.00
G01 X12.5976 Y-19.5813 F60.00
G01 X12.6786 Y-19.6354 F60.00
G01 X12.7327 Y-19.7164 F60.00
G01 X12.7517 Y-19.8120 F60.00
G00 X12.7517 Y-19.8120
G01 F60.00
G01 Z-2.0000
G01 F60.00
G01 X12.7327 Y-19.7164 F60.00
G01 X12.6786 Y-19.6354 F60.00
G01 X12.5976 Y-19.5813 F60.00
G01 X12.5020 Y-19.5623 F60.00
G01 X12.4064 Y-19.5813 F60.00
G01 X12.3254 Y-19.6354 F60.00
G01 X12.2713 Y-19.7164 F60.00
G01 X12.2523 Y-19.8120 F60.00
G01 X12.2713 Y-19.9076 F60.00
G01 X12.3254 Y-19.9886 F60.00
G01 X12.4064 Y-20.0427 F60.00
G01 X12.5020 Y-20.0617 F60.00
G01 X12.5976 Y-20.0427 F60.00
G01 X12.6786 Y-19.9886 F60.00
G01 X12.7327 Y-19.9076 F60.00
G01 X12.7517 Y-19.8120 F60.00
G00 Z2.0000
G00 X12.7517 Y-22.3520
G01 F60.00
G01 Z-0.5000
G01 F60.00
G01 X12.7327 Y-22.4476 F60.00
G01 X12.6786 Y-22.5286 F60.00
G01 X12.5976 Y-22.5827 F60.00
G01 X12.5020 Y-22.6017 F60.00
G01 X12.4064 Y-22.5827 F60.00
G01 X12.3254 Y-22.5286 F60.00
G01 X12.2713 Y-22.4476 F60.00
G01 X12.2523 Y-22.3520 F60.00
G01 X12.2713 Y-22.2564 F60.00
G01 X12.3254 Y-22.1754 F60.00
G01 X12.4064 Y-22.1213 F60.00
G01 X12.5020 Y-22.1023 F60.00
G01 X12.5976 Y-22.1213 F60.00
G01 X12.6786 Y-22.1754 F60.00
G01 X12.7327 Y-22.2564 F60.00
G01 X12.7517 Y-22.3520 F60.00
G00 X12.7517 Y-22.3520
G01 F60.00
G01 Z-1.0000
G01 F60.00
G01 X12.7327 Y-22.2564 F60.00
G01 X12.6786 Y-22.1754 F60.00
G01 X12.5976 Y-22.1213 F60.00
G01 X12.5020 Y-22.1023 F60.00
G01 X12.4064 Y-22.1213 F60.00
G01 X12.3254 Y-22.1754 F60.00
G01 X12.2713 Y-22.2564 F60.00
G01 X12.2523 Y-22.3520 F60.00
G01 X12.2713 Y-22.4476 F60.00
G01 X12.3254 Y-22.5286 F60.00
G01 X12.4064 Y-22.5827 F60.00
G01 X12.5020 Y-22.6017 F60.00
G01 X12.5976 Y-22.5827 F60.00
G01 X12.6786 Y-22.5286 F60.00
G01 X12.7327 Y-22.4476 F60.00
G01 X12.7517 Y-22.3520 F60.00
G00 X12.7517 Y-22.3520
G01 F60.00
G01 Z-1.5000
G01 F60.00
G01 X12.7327 Y-22.4476 F60.00
G01 X12.6786 Y-22.5286 F60.00
G01 X12.5976 Y-22.5827 F60.00
G01 X12.5020 Y-22.6017 F60.00
G01 X12.4064 Y-22.5827 F60.00
G01 X12.3254 Y-22.5286 F60.00
G01 X12.2713 Y-22.4476 F60.00
G01 X12.2523 Y-22.3520 F60.00
G01 X12.2713 Y-22.2564 F60.00
G01 X12.3254 Y-22.1754 F60.00
G01 X12.4064 Y-22.1213 F60.00
G01 X12.5020 Y-22.1023 F60.00
G01 X12.5976 Y-22.1213 F60.00
G01 X12.6786 Y-22.1754 F60.00
G01 X12.7327 Y-22.2564 F60.00
G01 X12.7517 Y-22.3520 F60.00
G00 X12.7517 Y-22.3520
G01 F60.00
G01 Z-2.0000
G01 F60.00
G01 X12.7327 Y-22.2564 F60.00
G01 X12.6786 Y-22.1754 F60.00
G01 X12.5976 Y-22.1213 F60.00
G01 X12.5020 Y-22.1023 F60.00
G01 X12.4064 Y-22.1213 F60.00
G01 X12.3254 Y-22.1754 F60.00
G01 X12.2713 Y-22.2564 F60.00
G01 X12.2523 Y-22.3520 F60.00
G01 X12.2713 Y-22.4476 F60.00
G01 X12.3254 Y-22.5286 F60.00
G01 X12.4064 Y-22.5827 F60.00
G01 X12.5020 Y-22.6017 F60.00
G01 X12.5976 Y-22.5827 F60.00
G01 X12.6786 Y-22.5286 F60.00
G01 X12.7327 Y-22.4476 F60.00
G01 X12.7517 Y-22.3520 F60.00
G00 Z2.0000
G00 X12.7517 Y-24.8920
G01 F60.00
G01 Z-0.5000
G01 F60.00
G01 X12.7327 Y-24.9876 F60.00
G01 X12.6786 Y-25.0686 F60.00
G01 X12.5976 Y-25.1227 F60.00
G01 X12.5020 Y-25.1417 F60.00
G01 X12.4064 Y-25.1227 F60.00
G01 X12.3254 Y-25.0686 F60.00
G01 X12.2713 Y-24.9876 F60.00
G01 X12.2523 Y-24.8920 F60.00
G01 X12.2713 Y-24.7964 F60.00
G01 X12.3254 Y-24.7154 F60.00
G01 X12.4064 Y-24.6613 F60.00
G01 X12.5020 Y-24.6423 F60.00
G01 X12.5976 Y-24.6613 F60.00
G01 X12.6786 Y-24.7154 F60.00
G01 X12.7327 Y-24.7964 F60.00
G01 X12.7517 Y-24.8920 F60.00
G00 X12.7517 Y-24.8920
G01 F60.00
G01 Z-1.0000
G01 F60.00
G01 X12.7327 Y-24.7964 F60.00
G01 X12.6786 Y-24.7154 F60.00
G01 X12.5976 Y-24.6613 F60.00
G01 X12.5020 Y-24.6423 F60.00
G01 X12.4064 Y-24.6613 F60.00
G01 X12.3254 Y-24.7154 F60.00
G01 X12.2713 Y-24.7964 F60.00
G01 X12.2523 Y-24.8920 F60.00
G01 X12.2713 Y-24.9876 F60.00
G01 X12.3254 Y-25.0686 F60.00
G01 X12.4064 Y-25.1227 F60.00
G01 X12.5020 Y-25.1417 F60.00
G01 X12.5976 Y-25.1227 F60.00
G01 X12.6786 Y-25.0686 F60.00
G01 X12.7327 Y-24.9876 F60.00
G01 X12.7517 Y-24.8920 F60.00
G00 X12.7517 Y-24.8920
G01 F60.00
G01 Z-1.5000
G01 F60.00
G01 X12.7327 Y-24.9876 F60.00
G01 X12.6786 Y-25.0686 F60.00
G01 X12.5976 Y-25.1227 F60.00
G01 X12.5020 Y-25.1417 F60.00
G01 X12.4064 Y-25.1227 F60.00
G01 X12.3254 Y-25.0686 F60.00
G01 X12.2713 Y-24.9876 F60.00
G01 X12.2523 Y-24.8920 F60.00
G01 X12.2713 Y-24.7964 F60.00
G01 X12.3254 Y-24.7154 F60.00
G01 X12.4064 Y-24.6613 F60.00
G01 X12.5020 Y-24.6423 F60.00
G01 X12.5976 Y-24.6613 F60.00
G01 X12.6786 Y-24.7154 F60.00
G01 X12.7327 Y-24.7964 F60.00
G01 X12.7517 Y-24.8920 F60.00
G00 X12.7517 Y-24.8920
G01 F60.00
G01 Z-2.0000
G01 F60.00
G01 X12.7327 Y-24.7964 F60.00
G01 X12.6786 Y-24.7154 F60.00
G01 X12.5976 Y-24.6613 F60.00
G01 X12.5020 Y-24.6423 F60.00
G01 X12.4064 Y-24.6613 F60.00
G01 X12.3254 Y-24.7154 F60.00
G01 X12.2713 Y-24.7964 F60.00
G01 X12.2523 Y-24.8920 F60.00
G01 X12.2713 Y-24.9876 F60.00
G01 X12.3254 Y-25.0686 F60.00
G01 X12.4064 Y-25.1227 F60.00
G01 X12.5020 Y-25.1417 F60.00
G01 X12.5976 Y-25.1227 F60.00
G01 X12.6786 Y-25.0686 F60.00
G01 X12.7327 Y-24.9876 F60.00
G01 X12.7517 Y-24.8920 F60.00
G00 Z2.0000
G00 X12.7517 Y-27.4320
G01 F60.00
G01 Z-0.5000
G01 F60.00
G01 X12.7327 Y-27.5276 F60.00
G01 X12.6786 Y-27.6086 F60.00
G01 X12.5976 Y-27.6627 F60.00
G01 X12.5020 Y-27.6817 F60.00
G01 X12.4064 Y-27.6627 F60.00
G01 X12.3254 Y-27.6086 F60.00
G01 X12.2713 Y-27.5276 F60.00
G01 X12.2523 Y-27.4320 F60.00
G01 X12.2713 Y-27.3364 F60.00
G01 X12.3254 Y-27.2554 F60.00
G01 X12.4064 Y-27.2013 F60.00
G01 X12.5020 Y-27.1823 F60.00
G01 X12.5976 Y-27.2013 F60.00
G01 X12.6786 Y-27.2554 F60.00
G01 X12.7327 Y-27.3364 F60.00
G01 X12.7517 Y-27.4320 F60.00
G00 X12.7517 Y-27.4320
G01 F60.00
G01 Z-1.0000
G01 F60.00
G01 X12.7327 Y-27.3364 F60.00
G01 X12.6786 Y-27.2554 F60.00
G01 X12.5976 Y-27.2013 F60.00
G01 X12.5020 Y-27.1823 F60.00
G01 X12.4064 Y-27.2013 F60.00
G01 X12.3254 Y-27.2554 F60.00
G01 X12.2713 Y-27.3364 F60.00
G01 X12.2523 Y-27.4320 F60.00
G01 X12.2713 Y-27.5276 F60.00
G01 X12.3254 Y-27.6086 F60.00
G01 X12.4064 Y-27.6627 F60.00
G01 X12.5020 Y-27.6817 F60.00
G01 X12.5976 Y-27.6627 F60.00
G01 X12.6786 Y-27.6086 F60.00
G01 X12.7327 Y-27.5276 F60.00
G01 X12.7517 Y-27.4320 F60.00
G00 X12.7517 Y-27.4320
G01 F60.00
G01 Z-1.5000
G01 F60.00
G01 X12.7327 Y-27.5276 F60.00
G01 X12.6786 Y-27.6086 F60.00
G01 X12.5976 Y-27.6627 F60.00
G01 X12.5020 Y-27.6817 F60.00
G01 X12.4064 Y-27.6627 F60.00
G01 X12.3254 Y-27.6086 F60.00
G01 X12.2713 Y-27.5276 F60.00
G01 X12.2523 Y-27.4320 F60.00
G01 X12.2713 Y-27.3364 F60.00
G01 X12.3254 Y-27.2554 F60.00
G01 X12.4064 Y-27.2013 F60.00
G01 X12.5020 Y-27.1823 F60.00
G01 X12.5976 Y-27.2013 F60.00
G01 X12.6786 Y-27.2554 F60.00
G01 X12.7327 Y-27.3364 F60.00
G01 X12.7517 Y-27.4320 F60.00
G00 X12.7517 Y-27.4320
G01 F60.00
G01 Z-2.0000
G01 F60.00
G01 X12.7327 Y-27.3364 F60.00
G01 X12.6786 Y-27.2554 F60.00
G01 X12.5976 Y-27.2013 F60.00
G01 X12.5020 Y-27.1823 F60.00
G01 X12.4064 Y-27.2013 F60.00
G01 X12.3254 Y-27.2554 F60.00
G01 X12.2713 Y-27.3364 F60.00
G01 X12.2523 Y-27.4320 F60.00
G01 X12.2713 Y-27.5276 F60.00
G01 X12.3254 Y-27.6086 F60.00
G01 X12.4064 Y-27.6627 F60.00
G01 X12.5020 Y-27.6817 F60.00
G01 X12.5976 Y-27.6627 F60.00
G01 X12.6786 Y-27.6086 F60.00
G01 X12.7327 Y-27.5276 F60.00
G01 X12.7517 Y-27.4320 F60.00
G00 Z2.0000
G00 X12.7517 Y-29.9720
G01 F60.00
G01 Z-0.5000
G01 F60.00
G01 X12.7327 Y-30.0676 F60.00
G01 X12.6786 Y-30.1486 F60.00
G01 X12.5976 Y-30.2027 F60.00
G01 X12.5020 Y-30.2217 F60.00
G01 X12.4064 Y-30.2027 F60.00
G01 X12.3254 Y-30.1486 F60.00
G01 X12.2713 Y-30.0676 F60.00
G01 X12.2523 Y-29.9720 F60.00
G01 X12.2713 Y-29.8764 F60.00
G01 X12.3254 Y-29.7954 F60.00
G01 X12.4064 Y-29.7413 F60.00
G01 X12.5020 Y-29.7223 F60.00
G01 X12.5976 Y-29.7413 F60.00
G01 X12.6786 Y-29.7954 F60.00
G01 X12.7327 Y-29.8764 F60.00
G01 X12.7517 Y-29.9720 F60.00
G00 X12.7517 Y-29.9720
G01 F60.00
G01 Z-1.0000
G01 F60.00
G01 X12.7327 Y-29.8764 F60.00
G01 X12.6786 Y-29.7954 F60.00
G01 X12.5976 Y-29.7413 F60.00
G01 X12.5020 Y-29.7223 F60.00
G01 X12.4064 Y-29.7413 F60.00
G01 X12.3254 Y-29.7954 F60.00
G01 X12.2713 Y-29.8764 F60.00
G01 X12.2523 Y-29.9720 F60.00
G01 X12.2713 Y-30.0676 F60.00
G01 X12.3254 Y-30.1486 F60.00
G01 X12.4064 Y-30.2027 F60.00
G01 X12.5020 Y-30.2217 F60.00
G01 X12.5976 Y-30.2027 F60.00
G01 X12.6786 Y-30.1486 F60.00
G01 X12.7327 Y-30.0676 F60.00
G01 X12.7517 Y-29.9720 F60.00
G00 X12.7517 Y-29.9720
G01 F60.00
G01 Z-1.5000
G01 F60.00
G01 X12.7327 Y-30.0676 F60.00
G01 X12.6786 Y-30.1486 F60.00
G01 X12.5976 Y-30.2027 F60.00
G01 X12.5020 Y-30.2217 F60.00
G01 X12.4064 Y-30.2027 F60.00
G01 X12.3254 Y-30.1486 F60.00
G01 X12.2713 Y-30.0676 F60.00
G01 X12.2523 Y-29.9720 F60.00
G01 X12.2713 Y-29.8764 F60.00
G01 X12.3254 Y-29.7954 F60.00
G01 X12.4064 Y-29.7413 F60.00
G01 X12.5020 Y-29.7223 F60.00
G01 X12.5976 Y-29.7413 F60.00
G01 X12.6786 Y-29.7954 F60.00
G01 X12.7327 Y-29.8764 F60.00
G01 X12.7517 Y-29.9720 F60.00
G00 X12.7517 Y-29.9720
G01 F60.00
G01 Z-2.0000
G01 F60.00
G01 X12.7327 Y-29.8764 F60.00
G01 X12.6786 Y-29.7954 F60.00
G01 X12.5976 Y-29.7413 F60.00
G01 X12.5020 Y-29.7223 F60.00
G01 X12.4064 Y-29.7413 F60.00
G01 X12.3254 Y-29.7954 F60.00
G01 X12.2713 Y-29.8764 F60.00
G01 X12.2523 Y-29.9720 F60.00
G01 X12.2713 Y-30.0676 F60.00
G01 X12.3254 Y-30.1486 F60.00
G01 X12.4064 Y-30.2027 F60.00
G01 X12.5020 Y-30.2217 F60.00
G01 X12.5976 Y-30.2027 F60.00
G01 X12.6786 Y-30.1486 F60.00
G01 X12.7327 Y-30.0676 F60.00
G01 X12.7517 Y-29.9720 F60.00
G00 Z2.0000
G00 X12.7517 Y-32.5120
G01 F60.00
G01 Z-0.5000
G01 F60.00
G01 X12.7327 Y-32.6076 F60.00
G01 X12.6786 Y-32.6886 F60.00
G01 X12.5976 Y-32.7427 F60.00
G01 X12.5020 Y-32.7617 F60.00
G01 X12.4064 Y-32.7427 F60.00
G01 X12.3254 Y-32.6886 F60.00
G01 X12.2713 Y-32.6076 F60.00
G01 X12.2523 Y-32.5120 F60.00
G01 X12.2713 Y-32.4164 F60.00
G01 X12.3254 Y-32.3354 F60.00
G01 X12.4064 Y-32.2813 F60.00
G01 X12.5020 Y-32.2623 F60.00
G01 X12.5976 Y-32.2813 F60.00
G01 X12.6786 Y-32.3354 F60.00
G01 X12.7327 Y-32.4164 F60.00
G01 X12.7517 Y-32.5120 F60.00
G00 X12.7517 Y-32.5120
G01 F60.00
G01 Z-1.0000
G01 F60.00
G01 X12.7327 Y-32.4164 F60.00
G01 X12.6786 Y-32.3354 F60.00
G01 X12.5976 Y-32.2813 F60.00
G01 X12.5020 Y-32.2623 F60.00
G01 X12.4064 Y-32.2813 F60.00
G01 X12.3254 Y-32.3354 F60.00
G01 X12.2713 Y-32.4164 F60.00
G01 X12.2523 Y-32.5120 F60.00
G01 X12.2713 Y-32.6076 F60.00
G01 X12.3254 Y-32.6886 F60.00
G01 X12.4064 Y-32.7427 F60.00
G01 X12.5020 Y-32.7617 F60.00
G01 X12.5976 Y-32.7427 F60.00
G01 X12.6786 Y-32.6886 F60.00
G01 X12.7327 Y-32.6076 F60.00
G01 X12.7517 Y-32.5120 F60.00
G00 X12.7517 Y-32.5120
G01 F60.00
G01 Z-1.5000
G01 F60.00
G01 X12.7327 Y-32.6076 F60.00
G01 X12.6786 Y-32.6886 F60.00
G01 X12.5976 Y-32.7427 F60.00
G01 X12.5020 Y-32.7617 F60.00
G01 X12.4064 Y-32.7427 F60.00
G01 X12.3254 Y-32.6886 F60.00
G01 X12.2713 Y-32.6076 F60.00
G01 X12.2523 Y-32.5120 F60.00
G01 X12.2713 Y-32.4164 F60.00
G01 X12.3254 Y-32.3354 F60.00
G01 X12.4064 Y-32.2813 F60.00
G01 X12.5020 Y-32.2623 F60.00
G01 X12.5976 Y-32.2813 F60.00
G01 X12.6786 Y-32.3354 F60.00
G01 X12.7327 Y-32.4164 F60.00
G01 X12.7517 Y-32.5120 F60.00
G00 X12.7517 Y-32.5120
G01 F60.00
G01 Z-2.0000
G01 F60.00
G01 X12.7327 Y-32.4164 F60.00
G01 X12.6786 Y-32.3354 F60.00
G01 X12.5976 Y-32.2813 F60.00
G01 X12.5020 Y-32.2623 F60.00
G01 X12.4064 Y-32.2813 F60.00
G01 X12.3254 Y-32.3354 F60.00
G01 X12.2713 Y-32.4164 F60.00
G01 X12.2523 Y-32.5120 F60.00
G01 X12.2713 Y-32.6076 F60.00
G01 X12.3254 Y-32.6886 F60.00
G01 X12.4064 Y-32.7427 F60.00
G01 X12.5020 Y-32.7617 F60.00
G01 X12.5976 Y-32.7427 F60.00
G01 X12.6786 Y-32.6886 F60.00
G01 X12.7327 Y-32.6076 F60.00
G01 X12.7517 Y-32.5120 F60.00
G00 Z2.0000
G00 X12.7517 Y-35.0520
G01 F60.00
G01 Z-0.5000
G01 F60.00
G01 X12.7327 Y-35.1476 F60.00
G01 X12.6786 Y-35.2286 F60.00
G01 X12.5976 Y-35.2827 F60.00
G01 X12.5020 Y-35.3017 F60.00
G01 X12.4064 Y-35.2827 F60.00
G01 X12.3254 Y-35.2286 F60.00
G01 X12.2713 Y-35.1476 F60.00
G01 X12.2523 Y-35.0520 F60.00
G01 X12.2713 Y-34.9564 F60.00
G01 X12.3254 Y-34.8754 F60.00
G01 X12.4064 Y-34.8213 F60.00
G01 X12.5020 Y-34.8023 F60.00
G01 X12.5976 Y-34.8213 F60.00
G01 X12.6786 Y-34.8754 F60.00
G01 X12.7327 Y-34.9564 F60.00
G01 X12.7517 Y-35.0520 F60.00
G00 X12.7517 Y-35.0520
G01 F60.00
G01 Z-1.0000
G01 F60.00
G01 X12.7327 Y-34.9564 F60.00
G01 X12.6786 Y-34.8754 F60.00
G01 X12.5976 Y-34.8213 F60.00
G01 X12.5020 Y-34.8023 F60.00
G01 X12.4064 Y-34.8213 F60.00
G01 X12.3254 Y-34.8754 F60.00
G01 X12.2713 Y-34.9564 F60.00
G01 X12.2523 Y-35.0520 F60.00
G01 X12.2713 Y-35.1476 F60.00
G01 X12.3254 Y-35.2286 F60.00
G01 X12.4064 Y-35.2827 F60.00
G01 X12.5020 Y-35.3017 F60.00
G01 X12.5976 Y-35.2827 F60.00
G01 X12.6786 Y-35.2286 F60.00
G01 X12.7327 Y-35.1476 F60.00
G01 X12.7517 Y-35.0520 F60.00
G00 X12.7517 Y-35.0520
G01 F60.00
G01 Z-1.5000
G01 F60.00
G01 X12.7327 Y-35.1476 F60.00
G01 X12.6786 Y-35.2286 F60.00
G01 X12.5976 Y-35.2827 F60.00
G01 X12.5020 Y-35.3017 F60.00
G01 X12.4064 Y-35.2827 F60.00
G01 X12.3254 Y-35.2286 F60.00
G01 X12.2713 Y-35.1476 F60.00
G01 X12.2523 Y-35.0520 F60.00
G01 X12.2713 Y-34.9564 F60.00
G01 X12.3254 Y-34.8754 F60.00
G01 X12.4064 Y-34.8213 F60.00
G01 X12.5020 Y-34.8023 F60.00
G01 X12.5976 Y-34.8213 F60.00
G01 X12.6786 Y-34.8754 F60.00
G01 X12.7327 Y-34.9564 F60.00
G01 X12.7517 Y-35.0520 F60.00
G00 X12.7517 Y-35.0520
G01 F60.00
G01 Z-2.0000
G01 F60.00
G01 X12.7327 Y-34.9564 F60.00
G01 X12.6786 Y-34.8754 F60.00
G01 X12.5976 Y-34.8213 F60.00
G01 X12.5020 Y-34.8023 F60.00
G01 X12.4064 Y-34.8213 F60.00
G01 X12.3254 Y-34.8754 F60.00
G01 X12.2713 Y-34.9564 F60.00
G01 X12.2523 Y-35.0520 F60.00
G01 X12.2713 Y-35.1476 F60.00
G01 X12.3254 Y-35.2286 F60.00
G01 X12.4064 Y-35.2827 F60.00
G01 X12.5020 Y-35.3017 F60.00
G01 X12.5976 Y-35.2827 F60.00
G01 X12.6786 Y-35.2286 F60.00
G01 X12.7327 Y-35.1476 F60.00
G01 X12.7517 Y-35.0520 F60.00
G00 Z2.0000
G00 X12.7517 Y-37.5920
G01 F60.00
G01 Z-0.5000
G01 F60.00
G01 X12.7327 Y-37.6876 F60.00
G01 X12.6786 Y-37.7686 F60.00
G01 X12.5976 Y-37.8227 F60.00
G01 X12.5020 Y-37.8417 F60.00
G01 X12.4064 Y-37.8227 F60.00
G01 X12.3254 Y-37.7686 F60.00
G01 X12.2713 Y-37.6876 F60.00
G01 X12.2523 Y-37.5920 F60.00
G01 X12.2713 Y-37.4964 F60.00
G01 X12.3254 Y-37.4154 F60.00
G01 X12.4064 Y-37.3613 F60.00
G01 X12.5020 Y-37.3423 F60.00
G01 X12.5976 Y-37.3613 F60.00
G01 X12.6786 Y-37.4154 F60.00
G01 X12.7327 Y-37.4964 F60.00
G01 X12.7517 Y-37.5920 F60.00
G00 X12.7517 Y-37.5920
G01 F60.00
G01 Z-1.0000
G01 F60.00
G01 X12.7327 Y-37.4964 F60.00
G01 X12.6786 Y-37.4154 F60.00
G01 X12.5976 Y-37.3613 F60.00
G01 X12.5020 Y-37.3423 F60.00
G01 X12.4064 Y-37.3613 F60.00
G01 X12.3254 Y-37.4154 F60.00
G01 X12.2713 Y-37.4964 F60.00
G01 X12.2523 Y-37.5920 F60.00
G01 X12.2713 Y-37.6876 F60.00
G01 X12.3254 Y-37.7686 F60.00
G01 X12.4064 Y-37.8227 F60.00
G01 X12.5020 Y-37.8417 F60.00
G01 X12.5976 Y-37.8227 F60.00
G01 X12.6786 Y-37.7686 F60.00
G01 X12.7327 Y-37.6876 F60.00
G01 X12.7517 Y-37.5920 F60.00
G00 X12.7517 Y-37.5920
G01 F60.00
G01 Z-1.5000
G01 F60.00
G01 X12.7327 Y-37.6876 F60.00
G01 X12.6786 Y-37.7686 F60.00
G01 X12.5976 Y-37.8227 F60.00
G01 X12.5020 Y-37.8417 F60.00
G01 X12.4064 Y-37.8227 F60.00
G01 X12.3254 Y-37.7686 F60.00
G01 X12.2713 Y-37.6876 F60.00
G01 X12.2523 Y-37.5920 F60.00
G01 X12.2713 Y-37.4964 F60.00
G01 X12.3254 Y-37.4154 F60.00
G01 X12.4064 Y-37.3613 F60.00
G01 X12.5020 Y-37.3423 F60.00
G01 X12.5976 Y-37.3613 F60.00
G01 X12.6786 Y-37.4154 F60.00
G01 X12.7327 Y-37.4964 F60.00
G01 X12.7517 Y-37.5920 F60.00
G00 X12.7517 Y-37.5920
G01 F60.00
G01 Z-2.0000
G01 F60.00
G01 X12.7327 Y-37.4964 F60.00
G01 X12.6786 Y-37.4154 F60.00
G01 X12.5976 Y-37.3613 F60.00
G01 X12.5020 Y-37.3423 F60.00
G01 X12.4064 Y-37.3613 F60.00
G01 X12.3254 Y-37.4154 F60.00
G01 X12.2713 Y-37.4964 F60.00
G01 X12.2523 Y-37.5920 F60.00
G01 X12.2713 Y-37.6876 F60.00
G01 X12.3254 Y-37.7686 F60.00
G01 X12.4064 Y-37.8227 F60.00
G01 X12.5020 Y-37.8417 F60.00
G01 X12.5976 Y-37.8227 F60.00
G01 X12.6786 Y-37.7686 F60.00
G01 X12.7327 Y-37.6876 F60.00
G01 X12.7517 Y-37.5920 F60.00
G00 Z2.0000
G00 X12.7517 Y-40.1320
G01 F60.00
G01 Z-0.5000
G01 F60.00
G01 X12.7327 Y-40.2276 F60.00
G01 X12.6786 Y-40.3086 F60.00
G01 X12.5976 Y-40.3627 F60.00
G01 X12.5020 Y-40.3817 F60.00
G01 X12.4064 Y-40.3627 F60.00
G01 X12.3254 Y-40.3086 F60.00
G01 X12.2713 Y-40.2276 F60.00
G01 X12.2523 Y-40.1320 F60.00
G01 X12.2713 Y-40.0364 F60.00
G01 X12.3254 Y-39.9554 F60.00
G01 X12.4064 Y-39.9013 F60.00
G01 X12.5020 Y-39.8823 F60.00
G01 X12.5976 Y-39.9013 F60.00
G01 X12.6786 Y-39.9554 F60.00
G01 X12.7327 Y-40.0364 F60.00
G01 X12.7517 Y-40.1320 F60.00
G00 X12.7517 Y-40.1320
G01 F60.00
G01 Z-1.0000
G01 F60.00
G01 X12.7327 Y-40.0364 F60.00
G01 X12.6786 Y-39.9554 F60.00
G01 X12.5976 Y-39.9013 F60.00
G01 X12.5020 Y-39.8823 F60.00
G01 X12.4064 Y-39.9013 F60.00
G01 X12.3254 Y-39.9554 F60.00
G01 X12.2713 Y-40.0364 F60.00
G01 X12.2523 Y-40.1320 F60.00
G01 X12.2713 Y-40.2276 F60.00
G01 X12.3254 Y-40.3086 F60.00
G01 X12.4064 Y-40.3627 F60.00
G01 X12.5020 Y-40.3817 F60.00
G01 X12.5976 Y-40.3627 F60.00
G01 X12.6786 Y-40.3086 F60.00
G01 X12.7327 Y-40.2276 F60.00
G01 X12.7517 Y-40.1320 F60.00
G00 X12.7517 Y-40.1320
G01 F60.00
G01 Z-1.5000
G01 F60.00
G01 X12.7327 Y-40.2276 F60.00
G01 X12.6786 Y-40.3086 F60.00
G01 X12.5976 Y-40.3627 F60.00
G01 X12.5020 Y-40.3817 F60.00
G01 X12.4064 Y-40.3627 F60.00
G01 X12.3254 Y-40.3086 F60.00
G01 X12.2713 Y-40.2276 F60.00
G01 X12.2523 Y-40.1320 F60.00
G01 X12.2713 Y-40.0364 F60.00
G01 X12.3254 Y-39.9554 F60.00
G01 X12.4064 Y-39.9013 F60.00
G01 X12.5020 Y-39.8823 F60.00
G01 X12.5976 Y-39.9013 F60.00
G01 X12.6786 Y-39.9554 F60.00
G01 X12.7327 Y-40.0364 F60.00
G01 X12.7517 Y-40.1320 F60.00
G00 X12.7517 Y-40.1320
G01 F60.00
G01 Z-2.0000
G01 F60.00
G01 X12.7327 Y-40.0364 F60.00
G01 X12.6786 Y-39.9554 F60.00
G01 X12.5976 Y-39.9013 F60.00
G01 X12.5020 Y-39.8823 F60.00
G01 X12.4064 Y-39.9013 F60.00
G01 X12.3254 Y-39.9554 F60.00
G01 X12.2713 Y-40.0364 F60.00
G01 X12.2523 Y-40.1320 F60.00
G01 X12.2713 Y-40.2276 F60.00
G01 X12.3254 Y-40.3086 F60.00
G01 X12.4064 Y-40.3627 F60.00
G01 X12.5020 Y-40.3817 F60.00
G01 X12.5976 Y-40.3627 F60.00
G01 X12.6786 Y-40.3086 F60.00
G01 X12.7327 Y-40.2276 F60.00
G01 X12.7517 Y-40.1320 F60.00
G00 Z2.0000
G00 X12.7517 Y-42.6720
G01 F60.00
G01 Z-0.5000
G01 F60.00
G01 X12.7327 Y-42.7676 F60.00
G01 X12.6786 Y-42.8486 F60.00
G01 X12.5976 Y-42.9027 F60.00
G01 X12.5020 Y-42.9217 F60.00
G01 X12.4064 Y-42.9027 F60.00
G01 X12.3254 Y-42.8486 F60.00
G01 X12.2713 Y-42.7676 F60.00
G01 X12.2523 Y-42.6720 F60.00
G01 X12.2713 Y-42.5764 F60.00
G01 X12.3254 Y-42.4954 F60.00
G01 X12.4064 Y-42.4413 F60.00
G01 X12.5020 Y-42.4223 F60.00
G01 X12.5976 Y-42.4413 F60.00
G01 X12.6786 Y-42.4954 F60.00
G01 X12.7327 Y-42.5764 F60.00
G01 X12.7517 Y-42.6720 F60.00
G00 X12.7517 Y-42.6720
G01 F60.00
G01 Z-1.0000
G01 F60.00
G01 X12.7327 Y-42.5764 F60.00
G01 X12.6786 Y-42.4954 F60.00
G01 X12.5976 Y-42.4413 F60.00
G01 X12.5020 Y-42.4223 F60.00
G01 X12.4064 Y-42.4413 F60.00
G01 X12.3254 Y-42.4954 F60.00
G01 X12.2713 Y-42.5764 F60.00
G01 X12.2523 Y-42.6720 F60.00
G01 X12.2713 Y-42.7676 F60.00
G01 X12.3254 Y-42.8486 F60.00
G01 X12.4064 Y-42.9027 F60.00
G01 X12.5020 Y-42.9217 F60.00
G01 X12.5976 Y-42.9027 F60.00
G01 X12.6786 Y-42.8486 F60.00
G01 X12.7327 Y-42.7676 F60.00
G01 X12.7517 Y-42.6720 F60.00
G00 X12.7517 Y-42.6720
G01 F60.00
G01 Z-1.5000
G01 F60.00
G01 X12.7327 Y-42.7676 F60.00
G01 X12.6786 Y-42.8486 F60.00
G01 X12.5976 Y-42.9027 F60.00
G01 X12.5020 Y-42.9217 F60.00
G01 X12.4064 Y-42.9027 F60.00
G01 X12.3254 Y-42.8486 F60.00
G01 X12.2713 Y-42.7676 F60.00
G01 X12.2523 Y-42.6720 F60.00
G01 X12.2713 Y-42.5764 F60.00
G01 X12.3254 Y-42.4954 F60.00
G01 X12.4064 Y-42.4413 F60.00
G01 X12.5020 Y-42.4223 F60.00
G01 X12.5976 Y-42.4413 F60.00
G01 X12.6786 Y-42.4954 F60.00
G01 X12.7327 Y-42.5764 F60.00
G01 X12.7517 Y-42.6720 F60.00
G00 X12.7517 Y-42.6720
G01 F60.00
G01 Z-2.0000
G01 F60.00
G01 X12.7327 Y-42.5764 F60.00
G01 X12.6786 Y-42.4954 F60.00
G01 X12.5976 Y-42.4413 F60.00
G01 X12.5020 Y-42.4223 F60.00
G01 X12.4064 Y-42.4413 F60.00
G01 X12.3254 Y-42.4954 F60.00
G01 X12.2713 Y-42.5764 F60.00
G01 X12.2523 Y-42.6720 F60.00
G01 X12.2713 Y-42.7676 F60.00
G01 X12.3254 Y-42.8486 F60.00
G01 X12.4064 Y-42.9027 F60.00
G01 X12.5020 Y-42.9217 F60.00
G01 X12.5976 Y-42.9027 F60.00
G01 X12.6786 Y-42.8486 F60.00
G01 X12.7327 Y-42.7676 F60.00
G01 X12.7517 Y-42.6720 F60.00
G00 Z2.0000
G00 X12.7517 Y-45.2120
G01 F60.00
G01 Z-0.5000
G01 F60.00
G01 X12.7327 Y-45.3076 F60.00
G01 X12.6786 Y-45.3886 F60.00
G01 X12.5976 Y-45.4427 F60.00
G01 X12.5020 Y-45.4617 F60.00
G01 X12.4064 Y-45.4427 F60.00
G01 X12.3254 Y-45.3886 F60.00
G01 X12.2713 Y-45.3076 F60.00
G01 X12.2523 Y-45.2120 F60.00
G01 X12.2713 Y-45.1164 F60.00
G01 X12.3254 Y-45.0354 F60.00
G01 X12.4064 Y-44.9813 F60.00
G01 X12.5020 Y-44.9623 F60.00
G01 X12.5976 Y-44.9813 F60.00
G01 X12.6786 Y-45.0354 F60.00
G01 X12.7327 Y-45.1164 F60.00
G01 X12.7517 Y-45.2120 F60.00
G00 X12.7517 Y-45.2120
G01 F60.00
G01 Z-1.0000
G01 F60.00
G01 X12.7327 Y-45.1164 F60.00
G01 X12.6786 Y-45.0354 F60.00
G01 X12.5976 Y-44.9813 F60.00
G01 X12.5020 Y-44.9623 F60.00
G01 X12.4064 Y-44.9813 F60.00
G01 X12.3254 Y-45.0354 F60.00
G01 X12.2713 Y-45.1164 F60.00
G01 X12.2523 Y-45.2120 F60.00
G01 X12.2713 Y-45.3076 F60.00
G01 X12.3254 Y-45.3886 F60.00
G01 X12.4064 Y-45.4427 F60.00
G01 X12.5020 Y-45.4617 F60.00
G01 X12.5976 Y-45.4427 F60.00
G01 X12.6786 Y-45.3886 F60.00
G01 X12.7327 Y-45.3076 F60.00
G01 X12.7517 Y-45.2120 F60.00
G00 X12.7517 Y-45.2120
G01 F60.00
G01 Z-1.5000
G01 F60.00
G01 X12.7327 Y-45.3076 F60.00
G01 X12.6786 Y-45.3886 F60.00
G01 X12.5976 Y-45.4427 F60.00
G01 X12.5020 Y-45.4617 F60.00
G01 X12.4064 Y-45.4427 F60.00
G01 X12.3254 Y-45.3886 F60.00
G01 X12.2713 Y-45.3076 F60.00
G01 X12.2523 Y-45.2120 F60.00
G01 X12.2713 Y-45.1164 F60.00
G01 X12.3254 Y-45.0354 F60.00
G01 X12.4064 Y-44.9813 F60.00
G01 X12.5020 Y-44.9623 F60.00
G01 X12.5976 Y-44.9813 F60.00
G01 X12.6786 Y-45.0354 F60.00
G01 X12.7327 Y-45.1164 F60.00
G01 X12.7517 Y-45.2120 F60.00
G00 X12.7517 Y-45.2120
G01 F60.00
G01 Z-2.0000
G01 F60.00
G01 X12.7327 Y-45.1164 F60.00
G01 X12.6786 Y-45.0354 F60.00
G01 X12.5976 Y-44.9813 F60.00
G01 X12.5020 Y-44.9623 F60.00
G01 X12.4064 Y-44.9813 F60.00
G01 X12.3254 Y-45.0354 F60.00
G01 X12.2713 Y-45.1164 F60.00
G01 X12.2523 Y-45.2120 F60.00
G01 X12.2713 Y-45.3076 F60.00
G01 X12.3254 Y-45.3886 F60.00
G01 X12.4064 Y-45.4427 F60.00
G01 X12.5020 Y-45.4617 F60.00
G01 X12.5976 Y-45.4427 F60.00
G01 X12.6786 Y-45.3886 F60.00
G01 X12.7327 Y-45.3076 F60.00
G01 X12.7517 Y-45.2120 F60.00
G00 Z2.0000
G00 X12.7517 Y-47.7520
G01 F60.00
G01 Z-0.5000
G01 F60.00
G01 X12.7327 Y-47.8476 F60.00
G01 X12.6786 Y-47.9286 F60.00
G01 X12.5976 Y-47.9827 F60.00
G01 X12.5020 Y-48.0017 F60.00
G01 X12.4064 Y-47.9827 F60.00
G01 X12.3254 Y-47.9286 F60.00
G01 X12.2713 Y-47.8476 F60.00
G01 X12.2523 Y-47.7520 F60.00
G01 X12.2713 Y-47.6564 F60.00
G01 X12.3254 Y-47.5754 F60.00
G01 X12.4064 Y-47.5213 F60.00
G01 X12.5020 Y-47.5023 F60.00
G01 X12.5976 Y-47.5213 F60.00
G01 X12.6786 Y-47.5754 F60.00
G01 X12.7327 Y-47.6564 F60.00
G01 X12.7517 Y-47.7520 F60.00
G00 X12.7517 Y-47.7520
G01 F60.00
G01 Z-1.0000
G01 F60.00
G01 X12.7327 Y-47.6564 F60.00
G01 X12.6786 Y-47.5754 F60.00
G01 X12.5976 Y-47.5213 F60.00
G01 X12.5020 Y-47.5023 F60.00
G01 X12.4064 Y-47.5213 F60.00
G01 X12.3254 Y-47.5754 F60.00
G01 X12.2713 Y-47.6564 F60.00
G01 X12.2523 Y-47.7520 F60.00
G01 X12.2713 Y-47.8476 F60.00
G01 X12.3254 Y-47.9286 F60.00
G01 X12.4064 Y-47.9827 F60.00
G01 X12.5020 Y-48.0017 F60.00
G01 X12.5976 Y-47.9827 F60.00
G01 X12.6786 Y-47.9286 F60.00
G01 X12.7327 Y-47.8476 F60.00
G01 X12.7517 Y-47.7520 F60.00
G00 X12.7517 Y-47.7520
G01 F60.00
G01 Z-1.5000
G01 F60.00
G01 X12.7327 Y-47.8476 F60.00
G01 X12.6786 Y-47.9286 F60.00
G01 X12.5976 Y-47.9827 F60.00
G01 X12.5020 Y-48.0017 F60.00
G01 X12.4064 Y-47.9827 F60.00
G01 X12.3254 Y-47.9286 F60.00
G01 X12.2713 Y-47.8476 F60.00
G01 X12.2523 Y-47.7520 F60.00
G01 X12.2713 Y-47.6564 F60.00
G01 X12.3254 Y-47.5754 F60.00
G01 X12.4064 Y-47.5213 F60.00
G01 X12.5020 Y-47.5023 F60.00
G01 X12.5976 Y-47.5213 F60.00
G01 X12.6786 Y-47.5754 F60.00
G01 X12.7327 Y-47.6564 F60.00
G01 X12.7517 Y-47.7520 F60.00
G00 X12.7517 Y-47.7520
G01 F60.00
G01 Z-2.0000
G01 F60.00
G01 X12.7327 Y-47.6564 F60.00
G01 X12.6786 Y-47.5754 F60.00
G01 X12.5976 Y-47.5213 F60.00
G01 X12.5020 Y-47.5023 F60.00
G01 X12.4064 Y-47.5213 F60.00
G01 X12.3254 Y-47.5754 F60.00
G01 X12.2713 Y-47.6564 F60.00
G01 X12.2523 Y-47.7520 F60.00
G01 X12.2713 Y-47.8476 F60.00
G01 X12.3254 Y-47.9286 F60.00
G01 X12.4064 Y-47.9827 F60.00
G01 X12.5020 Y-48.0017 F60.00
G01 X12.5976 Y-47.9827 F60.00
G01 X12.6786 Y-47.9286 F60.00
G01 X12.7327 Y-47.8476 F60.00
G01 X12.7517 Y-47.7520 F60.00
G00 Z2.0000
G00 X8.1517 Y-47.7520
G01 F60.00
G01 Z-0.5000
G01 F60.00
G01 X8.1327 Y-47.8476 F60.00
G01 X8.0786 Y-47.9286 F60.00
G01 X7.9976 Y-47.9827 F60.00
G01 X7.9020 Y-48.0017 F60.00
G01 X7.8064 Y-47.9827 F60.00
G01 X7.7254 Y-47.9286 F60.00
G01 X7.6713 Y-47.8476 F60.00
G01 X7.6523 Y-47.7520 F60.00
G01 X7.6713 Y-47.6564 F60.00
G01 X7.7254 Y-47.5754 F60.00
G01 X7.8064 Y-47.5213 F60.00
G01 X7.9020 Y-47.5023 F60.00
G01 X7.9976 Y-47.5213 F60.00
G01 X8.0786 Y-47.5754 F60.00
G01 X8.1327 Y-47.6564 F60.00
G01 X8.1517 Y-47.7520 F60.00
G00 X8.1517 Y-47.7520
G01 F60.00
G01 Z-1.0000
G01 F60.00
G01 X8.1327 Y-47.6564 F60.00
G01 X8.0786 Y-47.5754 F60.00
G01 X7.9976 Y-47.5213 F60.00
G01 X7.9020 Y-47.5023 F60.00
G01 X7.8064 Y-47.5213 F60.00
G01 X7.7254 Y-47.5754 F60.00
G01 X7.6713 Y-47.6564 F60.00
G01 X7.6523 Y-47.7520 F60.00
G01 X7.6713 Y-47.8476 F60.00
G01 X7.7254 Y-47.9286 F60.00
G01 X7.8064 Y-47.9827 F60.00
G01 X7.9020 Y-48.0017 F60.00
G01 X7.9976 Y-47.9827 F60.00
G01 X8.0786 Y-47.9286 F60.00
G01 X8.1327 Y-47.8476 F60.00
G01 X8.1517 Y-47.7520 F60.00
G00 X8.1517 Y-47.7520
G01 F60.00
G01 Z-1.5000
G01 F60.00
G01 X8.1327 Y-47.8476 F60.00
G01 X8.0786 Y-47.9286 F60.00
G01 X7.9976 Y-47.9827 F60.00
G01 X7.9020 Y-48.0017 F60.00
G01 X7.8064 Y-47.9827 F60.00
G01 X7.7254 Y-47.9286 F60.00
G01 X7.6713 Y-47.8476 F60.00
G01 X7.6523 Y-47.7520 F60.00
G01 X7.6713 Y-47.6564 F60.00
G01 X7.7254 Y-47.5754 F60.00
G01 X7.8064 Y-47.5213 F60.00
G01 X7.9020 Y-47.5023 F60.00
G01 X7.9976 Y-47.5213 F60.00
G01 X8.0786 Y-47.5754 F60.00
G01 X8.1327 Y-47.6564 F60.00
G01 X8.1517 Y-47.7520 F60.00
G00 X8.1517 Y-47.7520
G01 F60.00
G01 Z-2.0000
G01 F60.00
G01 X8.1327 Y-47.6564 F60.00
G01 X8.0786 Y-47.5754 F60.00
G01 X7.9976 Y-47.5213 F60.00
G01 X7.9020 Y-47.5023 F60.00
G01 X7.8064 Y-47.5213 F60.00
G01 X7.7254 Y-47.5754 F60.00
G01 X7.6713 Y-47.6564 F60.00
G01 X7.6523 Y-47.7520 F60.00
G01 X7.6713 Y-47.8476 F60.00
G01 X7.7254 Y-47.9286 F60.00
G01 X7.8064 Y-47.9827 F60.00
G01 X7.9020 Y-48.0017 F60.00
G01 X7.9976 Y-47.9827 F60.00
G01 X8.0786 Y-47.9286 F60.00
G01 X8.1327 Y-47.8476 F60.00
G01 X8.1517 Y-47.7520 F60.00
G00 Z2.0000
G00 X8.1517 Y-45.2120
G01 F60.00
G01 Z-0.5000
G01 F60.00
G01 X8.1327 Y-45.3076 F60.00
G01 X8.0786 Y-45.3886 F60.00
G01 X7.9976 Y-45.4427 F60.00
G01 X7.9020 Y-45.4617 F60.00
G01 X7.8064 Y-45.4427 F60.00
G01 X7.7254 Y-45.3886 F60.00
G01 X7.6713 Y-45.3076 F60.00
G01 X7.6523 Y-45.2120 F60.00
G01 X7.6713 Y-45.1164 F60.00
G01 X7.7254 Y-45.0354 F60.00
G01 X7.8064 Y-44.9813 F60.00
G01 X7.9020 Y-44.9623 F60.00
G01 X7.9976 Y-44.9813 F60.00
G01 X8.0786 Y-45.0354 F60.00
G01 X8.1327 Y-45.1164 F60.00
G01 X8.1517 Y-45.2120 F60.00
G00 X8.1517 Y-45.2120
G01 F60.00
G01 Z-1.0000
G01 F60.00
G01 X8.1327 Y-45.1164 F60.00
G01 X8.0786 Y-45.0354 F60.00
G01 X7.9976 Y-44.9813 F60.00
G01 X7.9020 Y-44.9623 F60.00
G01 X7.8064 Y-44.9813 F60.00
G01 X7.7254 Y-45.0354 F60.00
G01 X7.6713 Y-45.1164 F60.00
G01 X7.6523 Y-45.2120 F60.00
G01 X7.6713 Y-45.3076 F60.00
G01 X7.7254 Y-45.3886 F60.00
G01 X7.8064 Y-45.4427 F60.00
G01 X7.9020 Y-45.4617 F60.00
G01 X7.9976 Y-45.4427 F60.00
G01 X8.0786 Y-45.3886 F60.00
G01 X8.1327 Y-45.3076 F60.00
G01 X8.1517 Y-45.2120 F60.00
G00 X8.1517 Y-45.2120
G01 F60.00
G01 Z-1.5000
G01 F60.00
G01 X8.1327 Y-45.3076 F60.00
G01 X8.0786 Y-45.3886 F60.00
G01 X7.9976 Y-45.4427 F60.00
G01 X7.9020 Y-45.4617 F60.00
G01 X7.8064 Y-45.4427 F60.00
G01 X7.7254 Y-45.3886 F60.00
G01 X7.6713 Y-45.3076 F60.00
G01 X7.6523 Y-45.2120 F60.00
G01 X7.6713 Y-45.1164 F60.00
G01 X7.7254 Y-45.0354 F60.00
G01 X7.8064 Y-44.9813 F60.00
G01 X7.9020 Y-44.9623 F60.00
G01 X7.9976 Y-44.9813 F60.00
G01 X8.0786 Y-45.0354 F60.00
G01 X8.1327 Y-45.1164 F60.00
G01 X8.1517 Y-45.2120 F60.00
G00 X8.1517 Y-45.2120
G01 F60.00
G01 Z-2.0000
G01 F60.00
G01 X8.1327 Y-45.1164 F60.00
G01 X8.0786 Y-45.0354 F60.00
G01 X7.9976 Y-44.9813 F60.00
G01 X7.9020 Y-44.9623 F60.00
G01 X7.8064 Y-44.9813 F60.00
G01 X7.7254 Y-45.0354 F60.00
G01 X7.6713 Y-45.1164 F60.00
G01 X7.6523 Y-45.2120 F60.00
G01 X7.6713 Y-45.3076 F60.00
G01 X7.7254 Y-45.3886 F60.00
G01 X7.8064 Y-45.4427 F60.00
G01 X7.9020 Y-45.4617 F60.00
G01 X7.9976 Y-45.4427 F60.00
G01 X8.0786 Y-45.3886 F60.00
G01 X8.1327 Y-45.3076 F60.00
G01 X8.1517 Y-45.2120 F60.00
G00 Z2.0000
G00 X8.1517 Y-42.6720
G01 F60.00
G01 Z-0.5000
G01 F60.00
G01 X8.1327 Y-42.7676 F60.00
G01 X8.0786 Y-42.8486 F60.00
G01 X7.9976 Y-42.9027 F60.00
G01 X7.9020 Y-42.9217 F60.00
G01 X7.8064 Y-42.9027 F60.00
G01 X7.7254 Y-42.8486 F60.00
G01 X7.6713 Y-42.7676 F60.00
G01 X7.6523 Y-42.6720 F60.00
G01 X7.6713 Y-42.5764 F60.00
G01 X7.7254 Y-42.4954 F60.00
G01 X7.8064 Y-42.4413 F60.00
G01 X7.9020 Y-42.4223 F60.00
G01 X7.9976 Y-42.4413 F60.00
G01 X8.0786 Y-42.4954 F60.00
G01 X8.1327 Y-42.5764 F60.00
G01 X8.1517 Y-42.6720 F60.00
G00 X8.1517 Y-42.6720
G01 F60.00
G01 Z-1.0000
G01 F60.00
G01 X8.1327 Y-42.5764 F60.00
G01 X8.0786 Y-42.4954 F60.00
G01 X7.9976 Y-42.4413 F60.00
G01 X7.9020 Y-42.4223 F60.00
G01 X7.8064 Y-42.4413 F60.00
G01 X7.7254 Y-42.4954 F60.00
G01 X7.6713 Y-42.5764 F60.00
G01 X7.6523 Y-42.6720 F60.00
G01 X7.6713 Y-42.7676 F60.00
G01 X7.7254 Y-42.8486 F60.00
G01 X7.8064 Y-42.9027 F60.00
G01 X7.9020 Y-42.9217 F60.00
G01 X7.9976 Y-42.9027 F60.00
G01 X8.0786 Y-42.8486 F60.00
G01 X8.1327 Y-42.7676 F60.00
G01 X8.1517 Y-42.6720 F60.00
G00 X8.1517 Y-42.6720
G01 F60.00
G01 Z-1.5000
G01 F60.00
G01 X8.1327 Y-42.7676 F60.00
G01 X8.0786 Y-42.8486 F60.00
G01 X7.9976 Y-42.9027 F60.00
G01 X7.9020 Y-42.9217 F60.00
G01 X7.8064 Y-42.9027 F60.00
G01 X7.7254 Y-42.8486 F60.00
G01 X7.6713 Y-42.7676 F60.00
G01 X7.6523 Y-42.6720 F60.00
G01 X7.6713 Y-42.5764 F60.00
G01 X7.7254 Y-42.4954 F60.00
G01 X7.8064 Y-42.4413 F60.00
G01 X7.9020 Y-42.4223 F60.00
G01 X7.9976 Y-42.4413 F60.00
G01 X8.0786 Y-42.4954 F60.00
G01 X8.1327 Y-42.5764 F60.00
G01 X8.1517 Y-42.6720 F60.00
G00 X8.1517 Y-42.6720
G01 F60.00
G01 Z-2.0000
G01 F60.00
G01 X8.1327 Y-42.5764 F60.00
G01 X8.0786 Y-42.4954 F60.00
G01 X7.9976 Y-42.4413 F60.00
G01 X7.9020 Y-42.4223 F60.00
G01 X7.8064 Y-42.4413 F60.00
G01 X7.7254 Y-42.4954 F60.00
G01 X7.6713 Y-42.5764 F60.00
G01 X7.6523 Y-42.6720 F60.00
G01 X7.6713 Y-42.7676 F60.00
G01 X7.7254 Y-42.8486 F60.00
G01 X7.8064 Y-42.9027 F60.00
G01 X7.9020 Y-42.9217 F60.00
G01 X7.9976 Y-42.9027 F60.00
G01 X8.0786 Y-42.8486 F60.00
G01 X8.1327 Y-42.7676 F60.00
G01 X8.1517 Y-42.6720 F60.00
G00 Z2.0000
G00 X8.1517 Y-40.1320
G01 F60.00
G01 Z-0.5000
G01 F60.00
G01 X8.1327 Y-40.2276 F60.00
G01 X8.0786 Y-40.3086 F60.00
G01 X7.9976 Y-40.3627 F60.00
G01 X7.9020 Y-40.3817 F60.00
G01 X7.8064 Y-40.3627 F60.00
G01 X7.7254 Y-40.3086 F60.00
G01 X7.6713 Y-40.2276 F60.00
G01 X7.6523 Y-40.1320 F60.00
G01 X7.6713 Y-40.0364 F60.00
G01 X7.7254 Y-39.9554 F60.00
G01 X7.8064 Y-39.9013 F60.00
G01 X7.9020 Y-39.8823 F60.00
G01 X7.9976 Y-39.9013 F60.00
G01 X8.0786 Y-39.9554 F60.00
G01 X8.1327 Y-40.0364 F60.00
G01 X8.1517 Y-40.1320 F60.00
G00 X8.1517 Y-40.1320
G01 F60.00
G01 Z-1.0000
G01 F60.00
G01 X8.1327 Y-40.0364 F60.00
G01 X8.0786 Y-39.9554 F60.00
G01 X7.9976 Y-39.9013 F60.00
G01 X7.9020 Y-39.8823 F60.00
G01 X7.8064 Y-39.9013 F60.00
G01 X7.7254 Y-39.9554 F60.00
G01 X7.6713 Y-40.0364 F60.00
G01 X7.6523 Y-40.1320 F60.00
G01 X7.6713 Y-40.2276 F60.00
G01 X7.7254 Y-40.3086 F60.00
G01 X7.8064 Y-40.3627 F60.00
G01 X7.9020 Y-40.3817 F60.00
G01 X7.9976 Y-40.3627 F60.00
G01 X8.0786 Y-40.3086 F60.00
G01 X8.1327 Y-40.2276 F60.00
G01 X8.1517 Y-40.1320 F60.00
G00 X8.1517 Y-40.1320
G01 F60.00
G01 Z-1.5000
G01 F60.00
G01 X8.1327 Y-40.2276 F60.00
G01 X8.0786 Y-40.3086 F60.00
G01 X7.9976 Y-40.3627 F60.00
G01 X7.9020 Y-40.3817 F60.00
G01 X7.8064 Y-40.3627 F60.00
G01 X7.7254 Y-40.3086 F60.00
G01 X7.6713 Y-40.2276 F60.00
G01 X7.6523 Y-40.1320 F60.00
G01 X7.6713 Y-40.0364 F60.00
G01 X7.7254 Y-39.9554 F60.00
G01 X7.8064 Y-39.9013 F60.00
G01 X7.9020 Y-39.8823 F60.00
G01 X7.9976 Y-39.9013 F60.00
G01 X8.0786 Y-39.9554 F60.00
G01 X8.1327 Y-40.0364 F60.00
G01 X8.1517 Y-40.1320 F60.00
G00 X8.1517 Y-40.1320
G01 F60.00
G01 Z-2.0000
G01 F60.00
G01 X8.1327 Y-40.0364 F60.00
G01 X8.0786 Y-39.9554 F60.00
G01 X7.9976 Y-39.9013 F60.00
G01 X7.9020 Y-39.8823 F60.00
G01 X7.8064 Y-39.9013 F60.00
G01 X7.7254 Y-39.9554 F60.00
G01 X7.6713 Y-40.0364 F60.00
G01 X7.6523 Y-40.1320 F60.00
G01 X7.6713 Y-40.2276 F60.00
G01 X7.7254 Y-40.3086 F60.00
G01 X7.8064 Y-40.3627 F60.00
G01 X7.9020 Y-40.3817 F60.00
G01 X7.9976 Y-40.3627 F60.00
G01 X8.0786 Y-40.3086 F60.00
G01 X8.1327 Y-40.2276 F60.00
G01 X8.1517 Y-40.1320 F60.00
G00 Z2.0000
G00 X8.1517 Y-37.5920
G01 F60.00
G01 Z-0.5000
G01 F60.00
G01 X8.1327 Y-37.6876 F60.00
G01 X8.0786 Y-37.7686 F60.00
G01 X7.9976 Y-37.8227 F60.00
G01 X7.9020 Y-37.8417 F60.00
G01 X7.8064 Y-37.8227 F60.00
G01 X7.7254 Y-37.7686 F60.00
G01 X7.6713 Y-37.6876 F60.00
G01 X7.6523 Y-37.5920 F60.00
G01 X7.6713 Y-37.4964 F60.00
G01 X7.7254 Y-37.4154 F60.00
G01 X7.8064 Y-37.3613 F60.00
G01 X7.9020 Y-37.3423 F60.00
G01 X7.9976 Y-37.3613 F60.00
G01 X8.0786 Y-37.4154 F60.00
G01 X8.1327 Y-37.4964 F60.00
G01 X8.1517 Y-37.5920 F60.00
G00 X8.1517 Y-37.5920
G01 F60.00
G01 Z-1.0000
G01 F60.00
G01 X8.1327 Y-37.4964 F60.00
G01 X8.0786 Y-37.4154 F60.00
G01 X7.9976 Y-37.3613 F60.00
G01 X7.9020 Y-37.3423 F60.00
G01 X7.8064 Y-37.3613 F60.00
G01 X7.7254 Y-37.4154 F60.00
G01 X7.6713 Y-37.4964 F60.00
G01 X7.6523 Y-37.5920 F60.00
G01 X7.6713 Y-37.6876 F60.00
G01 X7.7254 Y-37.7686 F60.00
G01 X7.8064 Y-37.8227 F60.00
G01 X7.9020 Y-37.8417 F60.00
G01 X7.9976 Y-37.8227 F60.00
G01 X8.0786 Y-37.7686 F60.00
G01 X8.1327 Y-37.6876 F60.00
G01 X8.1517 Y-37.5920 F60.00
G00 X8.1517 Y-37.5920
G01 F60.00
G01 Z-1.5000
G01 F60.00
G01 X8.1327 Y-37.6876 F60.00
G01 X8.0786 Y-37.7686 F60.00
G01 X7.9976 Y-37.8227 F60.00
G01 X7.9020 Y-37.8417 F60.00
G01 X7.8064 Y-37.8227 F60.00
G01 X7.7254 Y-37.7686 F60.00
G01 X7.6713 Y-37.6876 F60.00
G01 X7.6523 Y-37.5920 F60.00
G01 X7.6713 Y-37.4964 F60.00
G01 X7.7254 Y-37.4154 F60.00
G01 X7.8064 Y-37.3613 F60.00
G01 X7.9020 Y-37.3423 F60.00
G01 X7.9976 Y-37.3613 F60.00
G01 X8.0786 Y-37.4154 F60.00
G01 X8.1327 Y-37.4964 F60.00
G01 X8.1517 Y-37.5920 F60.00
G00 X8.1517 Y-37.5920
G01 F60.00
G01 Z-2.0000
G01 F60.00
G01 X8.1327 Y-37.4964 F60.00
G01 X8.0786 Y-37.4154 F60.00
G01 X7.9976 Y-37.3613 F60.00
G01 X7.9020 Y-37.3423 F60.00
G01 X7.8064 Y-37.3613 F60.00
G01 X7.7254 Y-37.4154 F60.00
G01 X7.6713 Y-37.4964 F60.00
G01 X7.6523 Y-37.5920 F60.00
G01 X7.6713 Y-37.6876 F60.00
G01 X7.7254 Y-37.7686 F60.00
G01 X7.8064 Y-37.8227 F60.00
G01 X7.9020 Y-37.8417 F60.00
G01 X7.9976 Y-37.8227 F60.00
G01 X8.0786 Y-37.7686 F60.00
G01 X8.1327 Y-37.6876 F60.00
G01 X8.1517 Y-37.5920 F60.00
G00 Z2.0000
G00 X8.1517 Y-35.0520
G01 F60.00
G01 Z-0.5000
G01 F60.00
G01 X8.1327 Y-35.1476 F60.00
G01 X8.0786 Y-35.2286 F60.00
G01 X7.9976 Y-35.2827 F60.00
G01 X7.9020 Y-35.3017 F60.00
G01 X7.8064 Y-35.2827 F60.00
G01 X7.7254 Y-35.2286 F60.00
G01 X7.6713 Y-35.1476 F60.00
G01 X7.6523 Y-35.0520 F60.00
G01 X7.6713 Y-34.9564 F60.00
G01 X7.7254 Y-34.8754 F60.00
G01 X7.8064 Y-34.8213 F60.00
G01 X7.9020 Y-34.8023 F60.00
G01 X7.9976 Y-34.8213 F60.00
G01 X8.0786 Y-34.8754 F60.00
G01 X8.1327 Y-34.9564 F60.00
G01 X8.1517 Y-35.0520 F60.00
G00 X8.1517 Y-35.0520
G01 F60.00
G01 Z-1.0000
G01 F60.00
G01 X8.1327 Y-34.9564 F60.00
G01 X8.0786 Y-34.8754 F60.00
G01 X7.9976 Y-34.8213 F60.00
G01 X7.9020 Y-34.8023 F60.00
G01 X7.8064 Y-34.8213 F60.00
G01 X7.7254 Y-34.8754 F60.00
G01 X7.6713 Y-34.9564 F60.00
G01 X7.6523 Y-35.0520 F60.00
G01 X7.6713 Y-35.1476 F60.00
G01 X7.7254 Y-35.2286 F60.00
G01 X7.8064 Y-35.2827 F60.00
G01 X7.9020 Y-35.3017 F60.00
G01 X7.9976 Y-35.2827 F60.00
G01 X8.0786 Y-35.2286 F60.00
G01 X8.1327 Y-35.1476 F60.00
G01 X8.1517 Y-35.0520 F60.00
G00 X8.1517 Y-35.0520
G01 F60.00
G01 Z-1.5000
G01 F60.00
G01 X8.1327 Y-35.1476 F60.00
G01 X8.0786 Y-35.2286 F60.00
G01 X7.9976 Y-35.2827 F60.00
G01 X7.9020 Y-35.3017 F60.00
G01 X7.8064 Y-35.2827 F60.00
G01 X7.7254 Y-35.2286 F60.00
G01 X7.6713 Y-35.1476 F60.00
G01 X7.6523 Y-35.0520 F60.00
G01 X7.6713 Y-34.9564 F60.00
G01 X7.7254 Y-34.8754 F60.00
G01 X7.8064 Y-34.8213 F60.00
G01 X7.9020 Y-34.8023 F60.00
G01 X7.9976 Y-34.8213 F60.00
G01 X8.0786 Y-34.8754 F60.00
G01 X8.1327 Y-34.9564 F60.00
G01 X8.1517 Y-35.0520 F60.00
G00 X8.1517 Y-35.0520
G01 F60.00
G01 Z-2.0000
G01 F60.00
G01 X8.1327 Y-34.9564 F60.00
G01 X8.0786 Y-34.8754 F60.00
G01 X7.9976 Y-34.8213 F60.00
G01 X7.9020 Y-34.8023 F60.00
G01 X7.8064 Y-34.8213 F60.00
G01 X7.7254 Y-34.8754 F60.00
G01 X7.6713 Y-34.9564 F60.00
G01 X7.6523 Y-35.0520 F60.00
G01 X7.6713 Y-35.1476 F60.00
G01 X7.7254 Y-35.2286 F60.00
G01 X7.8064 Y-35.2827 F60.00
G01 X7.9020 Y-35.3017 F60.00
G01 X7.9976 Y-35.2827 F60.00
G01 X8.0786 Y-35.2286 F60.00
G01 X8.1327 Y-35.1476 F60.00
G01 X8.1517 Y-35.0520 F60.00
G00 Z2.0000
G00 X8.1517 Y-32.5120
G01 F60.00
G01 Z-0.5000
G01 F60.00
G01 X8.1327 Y-32.6076 F60.00
G01 X8.0786 Y-32.6886 F60.00
G01 X7.9976 Y-32.7427 F60.00
G01 X7.9020 Y-32.7617 F60.00
G01 X7.8064 Y-32.7427 F60.00
G01 X7.7254 Y-32.6886 F60.00
G01 X7.6713 Y-32.6076 F60.00
G01 X7.6523 Y-32.5120 F60.00
G01 X7.6713 Y-32.4164 F60.00
G01 X7.7254 Y-32.3354 F60.00
G01 X7.8064 Y-32.2813 F60.00
G01 X7.9020 Y-32.2623 F60.00
G01 X7.9976 Y-32.2813 F60.00
G01 X8.0786 Y-32.3354 F60.00
G01 X8.1327 Y-32.4164 F60.00
G01 X8.1517 Y-32.5120 F60.00
G00 X8.1517 Y-32.5120
G01 F60.00
G01 Z-1.0000
G01 F60.00
G01 X8.1327 Y-32.4164 F60.00
G01 X8.0786 Y-32.3354 F60.00
G01 X7.9976 Y-32.2813 F60.00
G01 X7.9020 Y-32.2623 F60.00
G01 X7.8064 Y-32.2813 F60.00
G01 X7.7254 Y-32.3354 F60.00
G01 X7.6713 Y-32.4164 F60.00
G01 X7.6523 Y-32.5120 F60.00
G01 X7.6713 Y-32.6076 F60.00
G01 X7.7254 Y-32.6886 F60.00
G01 X7.8064 Y-32.7427 F60.00
G01 X7.9020 Y-32.7617 F60.00
G01 X7.9976 Y-32.7427 F60.00
G01 X8.0786 Y-32.6886 F60.00
G01 X8.1327 Y-32.6076 F60.00
G01 X8.1517 Y-32.5120 F60.00
G00 X8.1517 Y-32.5120
G01 F60.00
G01 Z-1.5000
G01 F60.00
G01 X8.1327 Y-32.6076 F60.00
G01 X8.0786 Y-32.6886 F60.00
G01 X7.9976 Y-32.7427 F60.00
G01 X7.9020 Y-32.7617 F60.00
G01 X7.8064 Y-32.7427 F60.00
G01 X7.7254 Y-32.6886 F60.00
G01 X7.6713 Y-32.6076 F60.00
G01 X7.6523 Y-32.5120 F60.00
G01 X7.6713 Y-32.4164 F60.00
G01 X7.7254 Y-32.3354 F60.00
G01 X7.8064 Y-32.2813 F60.00
G01 X7.9020 Y-32.2623 F60.00
G01 X7.9976 Y-32.2813 F60.00
G01 X8.0786 Y-32.3354 F60.00
G01 X8.1327 Y-32.4164 F60.00
G01 X8.1517 Y-32.5120 F60.00
G00 X8.1517 Y-32.5120
G01 F60.00
G01 Z-2.0000
G01 F60.00
G01 X8.1327 Y-32.4164 F60.00
G01 X8.0786 Y-32.3354 F60.00
G01 X7.9976 Y-32.2813 F60.00
G01 X7.9020 Y-32.2623 F60.00
G01 X7.8064 Y-32.2813 F60.00
G01 X7.7254 Y-32.3354 F60.00
G01 X7.6713 Y-32.4164 F60.00
G01 X7.6523 Y-32.5120 F60.00
G01 X7.6713 Y-32.6076 F60.00
G01 X7.7254 Y-32.6886 F60.00
G01 X7.8064 Y-32.7427 F60.00
G01 X7.9020 Y-32.7617 F60.00
G01 X7.9976 Y-32.7427 F60.00
G01 X8.0786 Y-32.6886 F60.00
G01 X8.1327 Y-32.6076 F60.00
G01 X8.1517 Y-32.5120 F60.00
G00 Z2.0000
G00 X8.1517 Y-29.9720
G01 F60.00
G01 Z-0.5000
G01 F60.00
G01 X8.1327 Y-30.0676 F60.00
G01 X8.0786 Y-30.1486 F60.00
G01 X7.9976 Y-30.2027 F60.00
G01 X7.9020 Y-30.2217 F60.00
G01 X7.8064 Y-30.2027 F60.00
G01 X7.7254 Y-30.1486 F60.00
G01 X7.6713 Y-30.0676 F60.00
G01 X7.6523 Y-29.9720 F60.00
G01 X7.6713 Y-29.8764 F60.00
G01 X7.7254 Y-29.7954 F60.00
G01 X7.8064 Y-29.7413 F60.00
G01 X7.9020 Y-29.7223 F60.00
G01 X7.9976 Y-29.7413 F60.00
G01 X8.0786 Y-29.7954 F60.00
G01 X8.1327 Y-29.8764 F60.00
G01 X8.1517 Y-29.9720 F60.00
G00 X8.1517 Y-29.9720
G01 F60.00
G01 Z-1.0000
G01 F60.00
G01 X8.1327 Y-29.8764 F60.00
G01 X8.0786 Y-29.7954 F60.00
G01 X7.9976 Y-29.7413 F60.00
G01 X7.9020 Y-29.7223 F60.00
G01 X7.8064 Y-29.7413 F60.00
G01 X7.7254 Y-29.7954 F60.00
G01 X7.6713 Y-29.8764 F60.00
G01 X7.6523 Y-29.9720 F60.00
G01 X7.6713 Y-30.0676 F60.00
G01 X7.7254 Y-30.1486 F60.00
G01 X7.8064 Y-30.2027 F60.00
G01 X7.9020 Y-30.2217 F60.00
G01 X7.9976 Y-30.2027 F60.00
G01 X8.0786 Y-30.1486 F60.00
G01 X8.1327 Y-30.0676 F60.00
G01 X8.1517 Y-29.9720 F60.00
G00 X8.1517 Y-29.9720
G01 F60.00
G01 Z-1.5000
G01 F60.00
G01 X8.1327 Y-30.0676 F60.00
G01 X8.0786 Y-30.1486 F60.00
G01 X7.9976 Y-30.2027 F60.00
G01 X7.9020 Y-30.2217 F60.00
G01 X7.8064 Y-30.2027 F60.00
G01 X7.7254 Y-30.1486 F60.00
G01 X7.6713 Y-30.0676 F60.00
G01 X7.6523 Y-29.9720 F60.00
G01 X7.6713 Y-29.8764 F60.00
G01 X7.7254 Y-29.7954 F60.00
G01 X7.8064 Y-29.7413 F60.00
G01 X7.9020 Y-29.7223 F60.00
G01 X7.9976 Y-29.7413 F60.00
G01 X8.0786 Y-29.7954 F60.00
G01 X8.1327 Y-29.8764 F60.00
G01 X8.1517 Y-29.9720 F60.00
G00 X8.1517 Y-29.9720
G01 F60.00
G01 Z-2.0000
G01 F60.00
G01 X8.1327 Y-29.8764 F60.00
G01 X8.0786 Y-29.7954 F60.00
G01 X7.9976 Y-29.7413 F60.00
G01 X7.9020 Y-29.7223 F60.00
G01 X7.8064 Y-29.7413 F60.00
G01 X7.7254 Y-29.7954 F60.00
G01 X7.6713 Y-29.8764 F60.00
G01 X7.6523 Y-29.9720 F60.00
G01 X7.6713 Y-30.0676 F60.00
G01 X7.7254 Y-30.1486 F60.00
G01 X7.8064 Y-30.2027 F60.00
G01 X7.9020 Y-30.2217 F60.00
G01 X7.9976 Y-30.2027 F60.00
G01 X8.0786 Y-30.1486 F60.00
G01 X8.1327 Y-30.0676 F60.00
G01 X8.1517 Y-29.9720 F60.00
G00 Z2.0000
G00 X8.1517 Y-27.4320
G01 F60.00
G01 Z-0.5000
G01 F60.00
G01 X8.1327 Y-27.5276 F60.00
G01 X8.0786 Y-27.6086 F60.00
G01 X7.9976 Y-27.6627 F60.00
G01 X7.9020 Y-27.6817 F60.00
G01 X7.8064 Y-27.6627 F60.00
G01 X7.7254 Y-27.6086 F60.00
G01 X7.6713 Y-27.5276 F60.00
G01 X7.6523 Y-27.4320 F60.00
G01 X7.6713 Y-27.3364 F60.00
G01 X7.7254 Y-27.2554 F60.00
G01 X7.8064 Y-27.2013 F60.00
G01 X7.9020 Y-27.1823 F60.00
G01 X7.9976 Y-27.2013 F60.00
G01 X8.0786 Y-27.2554 F60.00
G01 X8.1327 Y-27.3364 F60.00
G01 X8.1517 Y-27.4320 F60.00
G00 X8.1517 Y-27.4320
G01 F60.00
G01 Z-1.0000
G01 F60.00
G01 X8.1327 Y-27.3364 F60.00
G01 X8.0786 Y-27.2554 F60.00
G01 X7.9976 Y-27.2013 F60.00
G01 X7.9020 Y-27.1823 F60.00
G01 X7.8064 Y-27.2013 F60.00
G01 X7.7254 Y-27.2554 F60.00
G01 X7.6713 Y-27.3364 F60.00
G01 X7.6523 Y-27.4320 F60.00
G01 X7.6713 Y-27.5276 F60.00
G01 X7.7254 Y-27.6086 F60.00
G01 X7.8064 Y-27.6627 F60.00
G01 X7.9020 Y-27.6817 F60.00
G01 X7.9976 Y-27.6627 F60.00
G01 X8.0786 Y-27.6086 F60.00
G01 X8.1327 Y-27.5276 F60.00
G01 X8.1517 Y-27.4320 F60.00
G00 X8.1517 Y-27.4320
G01 F60.00
G01 Z-1.5000
G01 F60.00
G01 X8.1327 Y-27.5276 F60.00
G01 X8.0786 Y-27.6086 F60.00
G01 X7.9976 Y-27.6627 F60.00
G01 X7.9020 Y-27.6817 F60.00
G01 X7.8064 Y-27.6627 F60.00
G01 X7.7254 Y-27.6086 F60.00
G01 X7.6713 Y-27.5276 F60.00
G01 X7.6523 Y-27.4320 F60.00
G01 X7.6713 Y-27.3364 F60.00
G01 X7.7254 Y-27.2554 F60.00
G01 X7.8064 Y-27.2013 F60.00
G01 X7.9020 Y-27.1823 F60.00
G01 X7.9976 Y-27.2013 F60.00
G01 X8.0786 Y-27.2554 F60.00
G01 X8.1327 Y-27.3364 F60.00
G01 X8.1517 Y-27.4320 F60.00
G00 X8.1517 Y-27.4320
G01 F60.00
G01 Z-2.0000
G01 F60.00
G01 X8.1327 Y-27.3364 F60.00
G01 X8.0786 Y-27.2554 F60.00
G01 X7.9976 Y-27.2013 F60.00
G01 X7.9020 Y-27.1823 F60.00
G01 X7.8064 Y-27.2013 F60.00
G01 X7.7254 Y-27.2554 F60.00
G01 X7.6713 Y-27.3364 F60.00
G01 X7.6523 Y-27.4320 F60.00
G01 X7.6713 Y-27.5276 F60.00
G01 X7.7254 Y-27.6086 F60.00
G01 X7.8064 Y-27.6627 F60.00
G01 X7.9020 Y-27.6817 F60.00
G01 X7.9976 Y-27.6627 F60.00
G01 X8.0786 Y-27.6086 F60.00
G01 X8.1327 Y-27.5276 F60.00
G01 X8.1517 Y-27.4320 F60.00
G00 Z2.0000
G00 X8.1517 Y-24.8920
G01 F60.00
G01 Z-0.5000
G01 F60.00
G01 X8.1327 Y-24.9876 F60.00
G01 X8.0786 Y-25.0686 F60.00
G01 X7.9976 Y-25.1227 F60.00
G01 X7.9020 Y-25.1417 F60.00
G01 X7.8064 Y-25.1227 F60.00
G01 X7.7254 Y-25.0686 F60.00
G01 X7.6713 Y-24.9876 F60.00
G01 X7.6523 Y-24.8920 F60.00
G01 X7.6713 Y-24.7964 F60.00
G01 X7.7254 Y-24.7154 F60.00
G01 X7.8064 Y-24.6613 F60.00
G01 X7.9020 Y-24.6423 F60.00
G01 X7.9976 Y-24.6613 F60.00
G01 X8.0786 Y-24.7154 F60.00
G01 X8.1327 Y-24.7964 F60.00
G01 X8.1517 Y-24.8920 F60.00
G00 X8.1517 Y-24.8920
G01 F60.00
G01 Z-1.0000
G01 F60.00
G01 X8.1327 Y-24.7964 F60.00
G01 X8.0786 Y-24.7154 F60.00
G01 X7.9976 Y-24.6613 F60.00
G01 X7.9020 Y-24.6423 F60.00
G01 X7.8064 Y-24.6613 F60.00
G01 X7.7254 Y-24.7154 F60.00
G01 X7.6713 Y-24.7964 F60.00
G01 X7.6523 Y-24.8920 F60.00
G01 X7.6713 Y-24.9876 F60.00
G01 X7.7254 Y-25.0686 F60.00
G01 X7.8064 Y-25.1227 F60.00
G01 X7.9020 Y-25.1417 F60.00
G01 X7.9976 Y-25.1227 F60.00
G01 X8.0786 Y-25.0686 F60.00
G01 X8.1327 Y-24.9876 F60.00
G01 X8.1517 Y-24.8920 F60.00
G00 X8.1517 Y-24.8920
G01 F60.00
G01 Z-1.5000
G01 F60.00
G01 X8.1327 Y-24.9876 F60.00
G01 X8.0786 Y-25.0686 F60.00
G01 X7.9976 Y-25.1227 F60.00
G01 X7.9020 Y-25.1417 F60.00
G01 X7.8064 Y-25.1227 F60.00
G01 X7.7254 Y-25.0686 F60.00
G01 X7.6713 Y-24.9876 F60.00
G01 X7.6523 Y-24.8920 F60.00
G01 X7.6713 Y-24.7964 F60.00
G01 X7.7254 Y-24.7154 F60.00
G01 X7.8064 Y-24.6613 F60.00
G01 X7.9020 Y-24.6423 F60.00
G01 X7.9976 Y-24.6613 F60.00
G01 X8.0786 Y-24.7154 F60.00
G01 X8.1327 Y-24.7964 F60.00
G01 X8.1517 Y-24.8920 F60.00
G00 X8.1517 Y-24.8920
G01 F60.00
G01 Z-2.0000
G01 F60.00
G01 X8.1327 Y-24.7964 F60.00
G01 X8.0786 Y-24.7154 F60.00
G01 X7.9976 Y-24.6613 F60.00
G01 X7.9020 Y-24.6423 F60.00
G01 X7.8064 Y-24.6613 F60.00
G01 X7.7254 Y-24.7154 F60.00
G01 X7.6713 Y-24.7964 F60.00
G01 X7.6523 Y-24.8920 F60.00
G01 X7.6713 Y-24.9876 F60.00
G01 X7.7254 Y-25.0686 F60.00
G01 X7.8064 Y-25.1227 F60.00
G01 X7.9020 Y-25.1417 F60.00
G01 X7.9976 Y-25.1227 F60.00
G01 X8.0786 Y-25.0686 F60.00
G01 X8.1327 Y-24.9876 F60.00
G01 X8.1517 Y-24.8920 F60.00
G00 Z2.0000
G00 X8.1517 Y-22.3520
G01 F60.00
G01 Z-0.5000
G01 F60.00
G01 X8.1327 Y-22.4476 F60.00
G01 X8.0786 Y-22.5286 F60.00
G01 X7.9976 Y-22.5827 F60.00
G01 X7.9020 Y-22.6017 F60.00
G01 X7.8064 Y-22.5827 F60.00
G01 X7.7254 Y-22.5286 F60.00
G01 X7.6713 Y-22.4476 F60.00
G01 X7.6523 Y-22.3520 F60.00
G01 X7.6713 Y-22.2564 F60.00
G01 X7.7254 Y-22.1754 F60.00
G01 X7.8064 Y-22.1213 F60.00
G01 X7.9020 Y-22.1023 F60.00
G01 X7.9976 Y-22.1213 F60.00
G01 X8.0786 Y-22.1754 F60.00
G01 X8.1327 Y-22.2564 F60.00
G01 X8.1517 Y-22.3520 F60.00
G00 X8.1517 Y-22.3520
G01 F60.00
G01 Z-1.0000
G01 F60.00
G01 X8.1327 Y-22.2564 F60.00
G01 X8.0786 Y-22.1754 F60.00
G01 X7.9976 Y-22.1213 F60.00
G01 X7.9020 Y-22.1023 F60.00
G01 X7.8064 Y-22.1213 F60.00
G01 X7.7254 Y-22.1754 F60.00
G01 X7.6713 Y-22.2564 F60.00
G01 X7.6523 Y-22.3520 F60.00
G01 X7.6713 Y-22.4476 F60.00
G01 X7.7254 Y-22.5286 F60.00
G01 X7.8064 Y-22.5827 F60.00
G01 X7.9020 Y-22.6017 F60.00
G01 X7.9976 Y-22.5827 F60.00
G01 X8.0786 Y-22.5286 F60.00
G01 X8.1327 Y-22.4476 F60.00
G01 X8.1517 Y-22.3520 F60.00
G00 X8.1517 Y-22.3520
G01 F60.00
G01 Z-1.5000
G01 F60.00
G01 X8.1327 Y-22.4476 F60.00
G01 X8.0786 Y-22.5286 F60.00
G01 X7.9976 Y-22.5827 F60.00
G01 X7.9020 Y-22.6017 F60.00
G01 X7.8064 Y-22.5827 F60.00
G01 X7.7254 Y-22.5286 F60.00
G01 X7.6713 Y-22.4476 F60.00
G01 X7.6523 Y-22.3520 F60.00
G01 X7.6713 Y-22.2564 F60.00
G01 X7.7254 Y-22.1754 F60.00
G01 X7.8064 Y-22.1213 F60.00
G01 X7.9020 Y-22.1023 F60.00
G01 X7.9976 Y-22.1213 F60.00
G01 X8.0786 Y-22.1754 F60.00
G01 X8.1327 Y-22.2564 F60.00
G01 X8.1517 Y-22.3520 F60.00
G00 X8.1517 Y-22.3520
G01 F60.00
G01 Z-2.0000
G01 F60.00
G01 X8.1327 Y-22.2564 F60.00
G01 X8.0786 Y-22.1754 F60.00
G01 X7.9976 Y-22.1213 F60.00
G01 X7.9020 Y-22.1023 F60.00
G01 X7.8064 Y-22.1213 F60.00
G01 X7.7254 Y-22.1754 F60.00
G01 X7.6713 Y-22.2564 F60.00
G01 X7.6523 Y-22.3520 F60.00
G01 X7.6713 Y-22.4476 F60.00
G01 X7.7254 Y-22.5286 F60.00
G01 X7.8064 Y-22.5827 F60.00
G01 X7.9020 Y-22.6017 F60.00
G01 X7.9976 Y-22.5827 F60.00
G01 X8.0786 Y-22.5286 F60.00
G01 X8.1327 Y-22.4476 F60.00
G01 X8.1517 Y-22.3520 F60.00
G00 Z2.0000
G00 X8.1517 Y-19.8120
G01 F60.00
G01 Z-0.5000
G01 F60.00
G01 X8.1327 Y-19.9076 F60.00
G01 X8.0786 Y-19.9886 F60.00
G01 X7.9976 Y-20.0427 F60.00
G01 X7.9020 Y-20.0617 F60.00
G01 X7.8064 Y-20.0427 F60.00
G01 X7.7254 Y-19.9886 F60.00
G01 X7.6713 Y-19.9076 F60.00
G01 X7.6523 Y-19.8120 F60.00
G01 X7.6713 Y-19.7164 F60.00
G01 X7.7254 Y-19.6354 F60.00
G01 X7.8064 Y-19.5813 F60.00
G01 X7.9020 Y-19.5623 F60.00
G01 X7.9976 Y-19.5813 F60.00
G01 X8.0786 Y-19.6354 F60.00
G01 X8.1327 Y-19.7164 F60.00
G01 X8.1517 Y-19.8120 F60.00
G00 X8.1517 Y-19.8120
G01 F60.00
G01 Z-1.0000
G01 F60.00
G01 X8.1327 Y-19.7164 F60.00
G01 X8.0786 Y-19.6354 F60.00
G01 X7.9976 Y-19.5813 F60.00
G01 X7.9020 Y-19.5623 F60.00
G01 X7.8064 Y-19.5813 F60.00
G01 X7.7254 Y-19.6354 F60.00
G01 X7.6713 Y-19.7164 F60.00
G01 X7.6523 Y-19.8120 F60.00
G01 X7.6713 Y-19.9076 F60.00
G01 X7.7254 Y-19.9886 F60.00
G01 X7.8064 Y-20.0427 F60.00
G01 X7.9020 Y-20.0617 F60.00
G01 X7.9976 Y-20.0427 F60.00
G01 X8.0786 Y-19.9886 F60.00
G01 X8.1327 Y-19.9076 F60.00
G01 X8.1517 Y-19.8120 F60.00
G00 X8.1517 Y-19.8120
G01 F60.00
G01 Z-1.5000
G01 F60.00
G01 X8.1327 Y-19.9076 F60.00
G01 X8.0786 Y-19.9886 F60.00
G01 X7.9976 Y-20.0427 F60.00
G01 X7.9020 Y-20.0617 F60.00
G01 X7.8064 Y-20.0427 F60.00
G01 X7.7254 Y-19.9886 F60.00
G01 X7.6713 Y-19.9076 F60.00
G01 X7.6523 Y-19.8120 F60.00
G01 X7.6713 Y-19.7164 F60.00
G01 X7.7254 Y-19.6354 F60.00
G01 X7.8064 Y-19.5813 F60.00
G01 X7.9020 Y-19.5623 F60.00
G01 X7.9976 Y-19.5813 F60.00
G01 X8.0786 Y-19.6354 F60.00
G01 X8.1327 Y-19.7164 F60.00
G01 X8.1517 Y-19.8120 F60.00
G00 X8.1517 Y-19.8120
G01 F60.00
G01 Z-2.0000
G01 F60.00
G01 X8.1327 Y-19.7164 F60.00
G01 X8.0786 Y-19.6354 F60.00
G01 X7.9976 Y-19.5813 F60.00
G01 X7.9020 Y-19.5623 F60.00
G01 X7.8064 Y-19.5813 F60.00
G01 X7.7254 Y-19.6354 F60.00
G01 X7.6713 Y-19.7164 F60.00
G01 X7.6523 Y-19.8120 F60.00
G01 X7.6713 Y-19.9076 F60.00
G01 X7.7254 Y-19.9886 F60.00
G01 X7.8064 Y-20.0427 F60.00
G01 X7.9020 Y-20.0617 F60.00
G01 X7.9976 Y-20.0427 F60.00
G01 X8.0786 Y-19.9886 F60.00
G01 X8.1327 Y-19.9076 F60.00
G01 X8.1517 Y-19.8120 F60.00
G00 Z2.0000
G00 X8.1517 Y-17.2720
G01 F60.00
G01 Z-0.5000
G01 F60.00
G01 X8.1327 Y-17.3676 F60.00
G01 X8.0786 Y-17.4486 F60.00
G01 X7.9976 Y-17.5027 F60.00
G01 X7.9020 Y-17.5217 F60.00
G01 X7.8064 Y-17.5027 F60.00
G01 X7.7254 Y-17.4486 F60.00
G01 X7.6713 Y-17.3676 F60.00
G01 X7.6523 Y-17.2720 F60.00
G01 X7.6713 Y-17.1764 F60.00
G01 X7.7254 Y-17.0954 F60.00
G01 X7.8064 Y-17.0413 F60.00
G01 X7.9020 Y-17.0223 F60.00
G01 X7.9976 Y-17.0413 F60.00
G01 X8.0786 Y-17.0954 F60.00
G01 X8.1327 Y-17.1764 F60.00
G01 X8.1517 Y-17.2720 F60.00
G00 X8.1517 Y-17.2720
G01 F60.00
G01 Z-1.0000
G01 F60.00
G01 X8.1327 Y-17.1764 F60.00
G01 X8.0786 Y-17.0954 F60.00
G01 X7.9976 Y-17.0413 F60.00
G01 X7.9020 Y-17.0223 F60.00
G01 X7.8064 Y-17.0413 F60.00
G01 X7.7254 Y-17.0954 F60.00
G01 X7.6713 Y-17.1764 F60.00
G01 X7.6523 Y-17.2720 F60.00
G01 X7.6713 Y-17.3676 F60.00
G01 X7.7254 Y-17.4486 F60.00
G01 X7.8064 Y-17.5027 F60.00
G01 X7.9020 Y-17.5217 F60.00
G01 X7.9976 Y-17.5027 F60.00
G01 X8.0786 Y-17.4486 F60.00
G01 X8.1327 Y-17.3676 F60.00
G01 X8.1517 Y-17.2720 F60.00
G00 X8.1517 Y-17.2720
G01 F60.00
G01 Z-1.5000
G01 F60.00
G01 X8.1327 Y-17.3676 F60.00
G01 X8.0786 Y-17.4486 F60.00
G01 X7.9976 Y-17.5027 F60.00
G01 X7.9020 Y-17.5217 F60.00
G01 X7.8064 Y-17.5027 F60.00
G01 X7.7254 Y-17.4486 F60.00
G01 X7.6713 Y-17.3676 F60.00
G01 X7.6523 Y-17.2720 F60.00
G01 X7.6713 Y-17.1764 F60.00
G01 X7.7254 Y-17.0954 F60.00
G01 X7.8064 Y-17.0413 F60.00
G01 X7.9020 Y-17.0223 F60.00
G01 X7.9976 Y-17.0413 F60.00
G01 X8.0786 Y-17.0954 F60.00
G01 X8.1327 Y-17.1764 F60.00
G01 X8.1517 Y-17.2720 F60.00
G00 X8.1517 Y-17.2720
G01 F60.00
G01 Z-2.0000
G01 F60.00
G01 X8.1327 Y-17.1764 F60.00
G01 X8.0786 Y-17.0954 F60.00
G01 X7.9976 Y-17.0413 F60.00
G01 X7.9020 Y-17.0223 F60.00
G01 X7.8064 Y-17.0413 F60.00
G01 X7.7254 Y-17.0954 F60.00
G01 X7.6713 Y-17.1764 F60.00
G01 X7.6523 Y-17.2720 F60.00
G01 X7.6713 Y-17.3676 F60.00
G01 X7.7254 Y-17.4486 F60.00
G01 X7.8064 Y-17.5027 F60.00
G01 X7.9020 Y-17.5217 F60.00
G01 X7.9976 Y-17.5027 F60.00
G01 X8.0786 Y-17.4486 F60.00
G01 X8.1327 Y-17.3676 F60.00
G01 X8.1517 Y-17.2720 F60.00
G00 Z2.0000
G00 X8.1517 Y-14.7320
G01 F60.00
G01 Z-0.5000
G01 F60.00
G01 X8.1327 Y-14.8276 F60.00
G01 X8.0786 Y-14.9086 F60.00
G01 X7.9976 Y-14.9627 F60.00
G01 X7.9020 Y-14.9817 F60.00
G01 X7.8064 Y-14.9627 F60.00
G01 X7.7254 Y-14.9086 F60.00
G01 X7.6713 Y-14.8276 F60.00
G01 X7.6523 Y-14.7320 F60.00
G01 X7.6713 Y-14.6364 F60.00
G01 X7.7254 Y-14.5554 F60.00
G01 X7.8064 Y-14.5013 F60.00
G01 X7.9020 Y-14.4823 F60.00
G01 X7.9976 Y-14.5013 F60.00
G01 X8.0786 Y-14.5554 F60.00
G01 X8.1327 Y-14.6364 F60.00
G01 X8.1517 Y-14.7320 F60.00
G00 X8.1517 Y-14.7320
G01 F60.00
G01 Z-1.0000
G01 F60.00
G01 X8.1327 Y-14.6364 F60.00
G01 X8.0786 Y-14.5554 F60.00
G01 X7.9976 Y-14.5013 F60.00
G01 X7.9020 Y-14.4823 F60.00
G01 X7.8064 Y-14.5013 F60.00
G01 X7.7254 Y-14.5554 F60.00
G01 X7.6713 Y-14.6364 F60.00
G01 X7.6523 Y-14.7320 F60.00
G01 X7.6713 Y-14.8276 F60.00
G01 X7.7254 Y-14.9086 F60.00
G01 X7.8064 Y-14.9627 F60.00
G01 X7.9020 Y-14.9817 F60.00
G01 X7.9976 Y-14.9627 F60.00
G01 X8.0786 Y-14.9086 F60.00
G01 X8.1327 Y-14.8276 F60.00
G01 X8.1517 Y-14.7320 F60.00
G00 X8.1517 Y-14.7320
G01 F60.00
G01 Z-1.5000
G01 F60.00
G01 X8.1327 Y-14.8276 F60.00
G01 X8.0786 Y-14.9086 F60.00
G01 X7.9976 Y-14.9627 F60.00
G01 X7.9020 Y-14.9817 F60.00
G01 X7.8064 Y-14.9627 F60.00
G01 X7.7254 Y-14.9086 F60.00
G01 X7.6713 Y-14.8276 F60.00
G01 X7.6523 Y-14.7320 F60.00
G01 X7.6713 Y-14.6364 F60.00
G01 X7.7254 Y-14.5554 F60.00
G01 X7.8064 Y-14.5013 F60.00
G01 X7.9020 Y-14.4823 F60.00
G01 X7.9976 Y-14.5013 F60.00
G01 X8.0786 Y-14.5554 F60.00
G01 X8.1327 Y-14.6364 F60.00
G01 X8.1517 Y-14.7320 F60.00
G00 X8.1517 Y-14.7320
G01 F60.00
G01 Z-2.0000
G01 F60.00
G01 X8.1327 Y-14.6364 F60.00
G01 X8.0786 Y-14.5554 F60.00
G01 X7.9976 Y-14.5013 F60.00
G01 X7.9020 Y-14.4823 F60.00
G01 X7.8064 Y-14.5013 F60.00
G01 X7.7254 Y-14.5554 F60.00
G01 X7.6713 Y-14.6364 F60.00
G01 X7.6523 Y-14.7320 F60.00
G01 X7.6713 Y-14.8276 F60.00
G01 X7.7254 Y-14.9086 F60.00
G01 X7.8064 Y-14.9627 F60.00
G01 X7.9020 Y-14.9817 F60.00
G01 X7.9976 Y-14.9627 F60.00
G01 X8.0786 Y-14.9086 F60.00
G01 X8.1327 Y-14.8276 F60.00
G01 X8.1517 Y-14.7320 F60.00
G00 Z2.0000
G00 X8.1517 Y-12.1920
G01 F60.00
G01 Z-0.5000
G01 F60.00
G01 X8.1327 Y-12.2876 F60.00
G01 X8.0786 Y-12.3686 F60.00
G01 X7.9976 Y-12.4227 F60.00
G01 X7.9020 Y-12.4417 F60.00
G01 X7.8064 Y-12.4227 F60.00
G01 X7.7254 Y-12.3686 F60.00
G01 X7.6713 Y-12.2876 F60.00
G01 X7.6523 Y-12.1920 F60.00
G01 X7.6713 Y-12.0964 F60.00
G01 X7.7254 Y-12.0154 F60.00
G01 X7.8064 Y-11.9613 F60.00
G01 X7.9020 Y-11.9423 F60.00
G01 X7.9976 Y-11.9613 F60.00
G01 X8.0786 Y-12.0154 F60.00
G01 X8.1327 Y-12.0964 F60.00
G01 X8.1517 Y-12.1920 F60.00
G00 X8.1517 Y-12.1920
G01 F60.00
G01 Z-1.0000
G01 F60.00
G01 X8.1327 Y-12.0964 F60.00
G01 X8.0786 Y-12.0154 F60.00
G01 X7.9976 Y-11.9613 F60.00
G01 X7.9020 Y-11.9423 F60.00
G01 X7.8064 Y-11.9613 F60.00
G01 X7.7254 Y-12.0154 F60.00
G01 X7.6713 Y-12.0964 F60.00
G01 X7.6523 Y-12.1920 F60.00
G01 X7.6713 Y-12.2876 F60.00
G01 X7.7254 Y-12.3686 F60.00
G01 X7.8064 Y-12.4227 F60.00
G01 X7.9020 Y-12.4417 F60.00
G01 X7.9976 Y-12.4227 F60.00
G01 X8.0786 Y-12.3686 F60.00
G01 X8.1327 Y-12.2876 F60.00
G01 X8.1517 Y-12.1920 F60.00
G00 X8.1517 Y-12.1920
G01 F60.00
G01 Z-1.5000
G01 F60.00
G01 X8.1327 Y-12.2876 F60.00
G01 X8.0786 Y-12.3686 F60.00
G01 X7.9976 Y-12.4227 F60.00
G01 X7.9020 Y-12.4417 F60.00
G01 X7.8064 Y-12.4227 F60.00
G01 X7.7254 Y-12.3686 F60.00
G01 X7.6713 Y-12.2876 F60.00
G01 X7.6523 Y-12.1920 F60.00
G01 X7.6713 Y-12.0964 F60.00
G01 X7.7254 Y-12.0154 F60.00
G01 X7.8064 Y-11.9613 F60.00
G01 X7.9020 Y-11.9423 F60.00
G01 X7.9976 Y-11.9613 F60.00
G01 X8.0786 Y-12.0154 F60.00
G01 X8.1327 Y-12.0964 F60.00
G01 X8.1517 Y-12.1920 F60.00
G00 X8.1517 Y-12.1920
G01 F60.00
G01 Z-2.0000
G01 F60.00
G01 X8.1327 Y-12.0964 F60.00
G01 X8.0786 Y-12.0154 F60.00
G01 X7.9976 Y-11.9613 F60.00
G01 X7.9020 Y-11.9423 F60.00
G01 X7.8064 Y-11.9613 F60.00
G01 X7.7254 Y-12.0154 F60.00
G01 X7.6713 Y-12.0964 F60.00
G01 X7.6523 Y-12.1920 F60.00
G01 X7.6713 Y-12.2876 F60.00
G01 X7.7254 Y-12.3686 F60.00
G01 X7.8064 Y-12.4227 F60.00
G01 X7.9020 Y-12.4417 F60.00
G01 X7.9976 Y-12.4227 F60.00
G01 X8.0786 Y-12.3686 F60.00
G01 X8.1327 Y-12.2876 F60.00
G01 X8.1517 Y-12.1920 F60.00
G00 Z2.0000
G00 X8.1517 Y-9.6520
G01 F60.00
G01 Z-0.5000
G01 F60.00
G01 X8.1327 Y-9.7476 F60.00
G01 X8.0786 Y-9.8286 F60.00
G01 X7.9976 Y-9.8827 F60.00
G01 X7.9020 Y-9.9017 F60.00
G01 X7.8064 Y-9.8827 F60.00
G01 X7.7254 Y-9.8286 F60.00
G01 X7.6713 Y-9.7476 F60.00
G01 X7.6523 Y-9.6520 F60.00
G01 X7.6713 Y-9.5564 F60.00
G01 X7.7254 Y-9.4754 F60.00
G01 X7.8064 Y-9.4213 F60.00
G01 X7.9020 Y-9.4023 F60.00
G01 X7.9976 Y-9.4213 F60.00
G01 X8.0786 Y-9.4754 F60.00
G01 X8.1327 Y-9.5564 F60.00
G01 X8.1517 Y-9.6520 F60.00
G00 X8.1517 Y-9.6520
G01 F60.00
G01 Z-1.0000
G01 F60.00
G01 X8.1327 Y-9.5564 F60.00
G01 X8.0786 Y-9.4754 F60.00
G01 X7.9976 Y-9.4213 F60.00
G01 X7.9020 Y-9.4023 F60.00
G01 X7.8064 Y-9.4213 F60.00
G01 X7.7254 Y-9.4754 F60.00
G01 X7.6713 Y-9.5564 F60.00
G01 X7.6523 Y-9.6520 F60.00
G01 X7.6713 Y-9.7476 F60.00
G01 X7.7254 Y-9.8286 F60.00
G01 X7.8064 Y-9.8827 F60.00
G01 X7.9020 Y-9.9017 F60.00
G01 X7.9976 Y-9.8827 F60.00
G01 X8.0786 Y-9.8286 F60.00
G01 X8.1327 Y-9.7476 F60.00
G01 X8.1517 Y-9.6520 F60.00
G00 X8.1517 Y-9.6520
G01 F60.00
G01 Z-1.5000
G01 F60.00
G01 X8.1327 Y-9.7476 F60.00
G01 X8.0786 Y-9.8286 F60.00
G01 X7.9976 Y-9.8827 F60.00
G01 X7.9020 Y-9.9017 F60.00
G01 X7.8064 Y-9.8827 F60.00
G01 X7.7254 Y-9.8286 F60.00
G01 X7.6713 Y-9.7476 F60.00
G01 X7.6523 Y-9.6520 F60.00
G01 X7.6713 Y-9.5564 F60.00
G01 X7.7254 Y-9.4754 F60.00
G01 X7.8064 Y-9.4213 F60.00
G01 X7.9020 Y-9.4023 F60.00
G01 X7.9976 Y-9.4213 F60.00
G01 X8.0786 Y-9.4754 F60.00
G01 X8.1327 Y-9.5564 F60.00
G01 X8.1517 Y-9.6520 F60.00
G00 X8.1517 Y-9.6520
G01 F60.00
G01 Z-2.0000
G01 F60.00
G01 X8.1327 Y-9.5564 F60.00
G01 X8.0786 Y-9.4754 F60.00
G01 X7.9976 Y-9.4213 F60.00
G01 X7.9020 Y-9.4023 F60.00
G01 X7.8064 Y-9.4213 F60.00
G01 X7.7254 Y-9.4754 F60.00
G01 X7.6713 Y-9.5564 F60.00
G01 X7.6523 Y-9.6520 F60.00
G01 X7.6713 Y-9.7476 F60.00
G01 X7.7254 Y-9.8286 F60.00
G01 X7.8064 Y-9.8827 F60.00
G01 X7.9020 Y-9.9017 F60.00
G01 X7.9976 Y-9.8827 F60.00
G01 X8.0786 Y-9.8286 F60.00
G01 X8.1327 Y-9.7476 F60.00
G01 X8.1517 Y-9.6520 F60.00
G00 Z2.0000
G00 X3.5517 Y-9.6520
G01 F60.00
G01 Z-0.5000
G01 F60.00
G01 X3.5327 Y-9.7476 F60.00
G01 X3.4786 Y-9.8286 F60.00
G01 X3.3976 Y-9.8827 F60.00
G01 X3.3020 Y-9.9017 F60.00
G01 X3.2064 Y-9.8827 F60.00
G01 X3.1254 Y-9.8286 F60.00
G01 X3.0713 Y-9.7476 F60.00
G01 X3.0523 Y-9.6520 F60.00
G01 X3.0713 Y-9.5564 F60.00
G01 X3.1254 Y-9.4754 F60.00
G01 X3.2064 Y-9.4213 F60.00
G01 X3.3020 Y-9.4023 F60.00
G01 X3.3976 Y-9.4213 F60.00
G01 X3.4786 Y-9.4754 F60.00
G01 X3.5327 Y-9.5564 F60.00
G01 X3.5517 Y-9.6520 F60.00
G00 X3.5517 Y-9.6520
G01 F60.00
G01 Z-1.0000
G01 F60.00
G01 X3.5327 Y-9.5564 F60.00
G01 X3.4786 Y-9.4754 F60.00
G01 X3.3976 Y-9.4213 F60.00
G01 X3.3020 Y-9.4023 F60.00
G01 X3.2064 Y-9.4213 F60.00
G01 X3.1254 Y-9.4754 F60.00
G01 X3.0713 Y-9.5564 F60.00
G01 X3.0523 Y-9.6520 F60.00
G01 X3.0713 Y-9.7476 F60.00
G01 X3.1254 Y-9.8286 F60.00
G01 X3.2064 Y-9.8827 F60.00
G01 X3.3020 Y-9.9017 F60.00
G01 X3.3976 Y-9.8827 F60.00
G01 X3.4786 Y-9.8286 F60.00
G01 X3.5327 Y-9.7476 F60.00
G01 X3.5517 Y-9.6520 F60.00
G00 X3.5517 Y-9.6520
G01 F60.00
G01 Z-1.5000
G01 F60.00
G01 X3.5327 Y-9.7476 F60.00
G01 X3.4786 Y-9.8286 F60.00
G01 X3.3976 Y-9.8827 F60.00
G01 X3.3020 Y-9.9017 F60.00
G01 X3.2064 Y-9.8827 F60.00
G01 X3.1254 Y-9.8286 F60.00
G01 X3.0713 Y-9.7476 F60.00
G01 X3.0523 Y-9.6520 F60.00
G01 X3.0713 Y-9.5564 F60.00
G01 X3.1254 Y-9.4754 F60.00
G01 X3.2064 Y-9.4213 F60.00
G01 X3.3020 Y-9.4023 F60.00
G01 X3.3976 Y-9.4213 F60.00
G01 X3.4786 Y-9.4754 F60.00
G01 X3.5327 Y-9.5564 F60.00
G01 X3.5517 Y-9.6520 F60.00
G00 X3.5517 Y-9.6520
G01 F60.00
G01 Z-2.0000
G01 F60.00
G01 X3.5327 Y-9.5564 F60.00
G01 X3.4786 Y-9.4754 F60.00
G01 X3.3976 Y-9.4213 F60.00
G01 X3.3020 Y-9.4023 F60.00
G01 X3.2064 Y-9.4213 F60.00
G01 X3.1254 Y-9.4754 F60.00
G01 X3.0713 Y-9.5564 F60.00
G01 X3.0523 Y-9.6520 F60.00
G01 X3.0713 Y-9.7476 F60.00
G01 X3.1254 Y-9.8286 F60.00
G01 X3.2064 Y-9.8827 F60.00
G01 X3.3020 Y-9.9017 F60.00
G01 X3.3976 Y-9.8827 F60.00
G01 X3.4786 Y-9.8286 F60.00
G01 X3.5327 Y-9.7476 F60.00
G01 X3.5517 Y-9.6520 F60.00
G00 Z2.0000
G00 X3.5517 Y-12.1920
G01 F60.00
G01 Z-0.5000
G01 F60.00
G01 X3.5327 Y-12.2876 F60.00
G01 X3.4786 Y-12.3686 F60.00
G01 X3.3976 Y-12.4227 F60.00
G01 X3.3020 Y-12.4417 F60.00
G01 X3.2064 Y-12.4227 F60.00
G01 X3.1254 Y-12.3686 F60.00
G01 X3.0713 Y-12.2876 F60.00
G01 X3.0523 Y-12.1920 F60.00
G01 X3.0713 Y-12.0964 F60.00
G01 X3.1254 Y-12.0154 F60.00
G01 X3.2064 Y-11.9613 F60.00
G01 X3.3020 Y-11.9423 F60.00
G01 X3.3976 Y-11.9613 F60.00
G01 X3.4786 Y-12.0154 F60.00
G01 X3.5327 Y-12.0964 F60.00
G01 X3.5517 Y-12.1920 F60.00
G00 X3.5517 Y-12.1920
G01 F60.00
G01 Z-1.0000
G01 F60.00
G01 X3.5327 Y-12.0964 F60.00
G01 X3.4786 Y-12.0154 F60.00
G01 X3.3976 Y-11.9613 F60.00
G01 X3.3020 Y-11.9423 F60.00
G01 X3.2064 Y-11.9613 F60.00
G01 X3.1254 Y-12.0154 F60.00
G01 X3.0713 Y-12.0964 F60.00
G01 X3.0523 Y-12.1920 F60.00
G01 X3.0713 Y-12.2876 F60.00
G01 X3.1254 Y-12.3686 F60.00
G01 X3.2064 Y-12.4227 F60.00
G01 X3.3020 Y-12.4417 F60.00
G01 X3.3976 Y-12.4227 F60.00
G01 X3.4786 Y-12.3686 F60.00
G01 X3.5327 Y-12.2876 F60.00
G01 X3.5517 Y-12.1920 F60.00
G00 X3.5517 Y-12.1920
G01 F60.00
G01 Z-1.5000
G01 F60.00
G01 X3.5327 Y-12.2876 F60.00
G01 X3.4786 Y-12.3686 F60.00
G01 X3.3976 Y-12.4227 F60.00
G01 X3.3020 Y-12.4417 F60.00
G01 X3.2064 Y-12.4227 F60.00
G01 X3.1254 Y-12.3686 F60.00
G01 X3.0713 Y-12.2876 F60.00
G01 X3.0523 Y-12.1920 F60.00
G01 X3.0713 Y-12.0964 F60.00
G01 X3.1254 Y-12.0154 F60.00
G01 X3.2064 Y-11.9613 F60.00
G01 X3.3020 Y-11.9423 F60.00
G01 X3.3976 Y-11.9613 F60.00
G01 X3.4786 Y-12.0154 F60.00
G01 X3.5327 Y-12.0964 F60.00
G01 X3.5517 Y-12.1920 F60.00
G00 X3.5517 Y-12.1920
G01 F60.00
G01 Z-2.0000
G01 F60.00
G01 X3.5327 Y-12.0964 F60.00
G01 X3.4786 Y-12.0154 F60.00
G01 X3.3976 Y-11.9613 F60.00
G01 X3.3020 Y-11.9423 F60.00
G01 X3.2064 Y-11.9613 F60.00
G01 X3.1254 Y-12.0154 F60.00
G01 X3.0713 Y-12.0964 F60.00
G01 X3.0523 Y-12.1920 F60.00
G01 X3.0713 Y-12.2876 F60.00
G01 X3.1254 Y-12.3686 F60.00
G01 X3.2064 Y-12.4227 F60.00
G01 X3.3020 Y-12.4417 F60.00
G01 X3.3976 Y-12.4227 F60.00
G01 X3.4786 Y-12.3686 F60.00
G01 X3.5327 Y-12.2876 F60.00
G01 X3.5517 Y-12.1920 F60.00
G00 Z2.0000
G00 X3.5517 Y-14.7320
G01 F60.00
G01 Z-0.5000
G01 F60.00
G01 X3.5327 Y-14.8276 F60.00
G01 X3.4786 Y-14.9086 F60.00
G01 X3.3976 Y-14.9627 F60.00
G01 X3.3020 Y-14.9817 F60.00
G01 X3.2064 Y-14.9627 F60.00
G01 X3.1254 Y-14.9086 F60.00
G01 X3.0713 Y-14.8276 F60.00
G01 X3.0523 Y-14.7320 F60.00
G01 X3.0713 Y-14.6364 F60.00
G01 X3.1254 Y-14.5554 F60.00
G01 X3.2064 Y-14.5013 F60.00
G01 X3.3020 Y-14.4823 F60.00
G01 X3.3976 Y-14.5013 F60.00
G01 X3.4786 Y-14.5554 F60.00
G01 X3.5327 Y-14.6364 F60.00
G01 X3.5517 Y-14.7320 F60.00
G00 X3.5517 Y-14.7320
G01 F60.00
G01 Z-1.0000
G01 F60.00
G01 X3.5327 Y-14.6364 F60.00
G01 X3.4786 Y-14.5554 F60.00
G01 X3.3976 Y-14.5013 F60.00
G01 X3.3020 Y-14.4823 F60.00
G01 X3.2064 Y-14.5013 F60.00
G01 X3.1254 Y-14.5554 F60.00
G01 X3.0713 Y-14.6364 F60.00
G01 X3.0523 Y-14.7320 F60.00
G01 X3.0713 Y-14.8276 F60.00
G01 X3.1254 Y-14.9086 F60.00
G01 X3.2064 Y-14.9627 F60.00
G01 X3.3020 Y-14.9817 F60.00
G01 X3.3976 Y-14.9627 F60.00
G01 X3.4786 Y-14.9086 F60.00
G01 X3.5327 Y-14.8276 F60.00
G01 X3.5517 Y-14.7320 F60.00
G00 X3.5517 Y-14.7320
G01 F60.00
G01 Z-1.5000
G01 F60.00
G01 X3.5327 Y-14.8276 F60.00
G01 X3.4786 Y-14.9086 F60.00
G01 X3.3976 Y-14.9627 F60.00
G01 X3.3020 Y-14.9817 F60.00
G01 X3.2064 Y-14.9627 F60.00
G01 X3.1254 Y-14.9086 F60.00
G01 X3.0713 Y-14.8276 F60.00
G01 X3.0523 Y-14.7320 F60.00
G01 X3.0713 Y-14.6364 F60.00
G01 X3.1254 Y-14.5554 F60.00
G01 X3.2064 Y-14.5013 F60.00
G01 X3.3020 Y-14.4823 F60.00
G01 X3.3976 Y-14.5013 F60.00
G01 X3.4786 Y-14.5554 F60.00
G01 X3.5327 Y-14.6364 F60.00
G01 X3.5517 Y-14.7320 F60.00
G00 X3.5517 Y-14.7320
G01 F60.00
G01 Z-2.0000
G01 F60.00
G01 X3.5327 Y-14.6364 F60.00
G01 X3.4786 Y-14.5554 F60.00
G01 X3.3976 Y-14.5013 F60.00
G01 X3.3020 Y-14.4823 F60.00
G01 X3.2064 Y-14.5013 F60.00
G01 X3.1254 Y-14.5554 F60.00
G01 X3.0713 Y-14.6364 F60.00
G01 X3.0523 Y-14.7320 F60.00
G01 X3.0713 Y-14.8276 F60.00
G01 X3.1254 Y-14.9086 F60.00
G01 X3.2064 Y-14.9627 F60.00
G01 X3.3020 Y-14.9817 F60.00
G01 X3.3976 Y-14.9627 F60.00
G01 X3.4786 Y-14.9086 F60.00
G01 X3.5327 Y-14.8276 F60.00
G01 X3.5517 Y-14.7320 F60.00
G00 Z2.0000
G00 X3.5517 Y-17.2720
G01 F60.00
G01 Z-0.5000
G01 F60.00
G01 X3.5327 Y-17.3676 F60.00
G01 X3.4786 Y-17.4486 F60.00
G01 X3.3976 Y-17.5027 F60.00
G01 X3.3020 Y-17.5217 F60.00
G01 X3.2064 Y-17.5027 F60.00
G01 X3.1254 Y-17.4486 F60.00
G01 X3.0713 Y-17.3676 F60.00
G01 X3.0523 Y-17.2720 F60.00
G01 X3.0713 Y-17.1764 F60.00
G01 X3.1254 Y-17.0954 F60.00
G01 X3.2064 Y-17.0413 F60.00
G01 X3.3020 Y-17.0223 F60.00
G01 X3.3976 Y-17.0413 F60.00
G01 X3.4786 Y-17.0954 F60.00
G01 X3.5327 Y-17.1764 F60.00
G01 X3.5517 Y-17.2720 F60.00
G00 X3.5517 Y-17.2720
G01 F60.00
G01 Z-1.0000
G01 F60.00
G01 X3.5327 Y-17.1764 F60.00
G01 X3.4786 Y-17.0954 F60.00
G01 X3.3976 Y-17.0413 F60.00
G01 X3.3020 Y-17.0223 F60.00
G01 X3.2064 Y-17.0413 F60.00
G01 X3.1254 Y-17.0954 F60.00
G01 X3.0713 Y-17.1764 F60.00
G01 X3.0523 Y-17.2720 F60.00
G01 X3.0713 Y-17.3676 F60.00
G01 X3.1254 Y-17.4486 F60.00
G01 X3.2064 Y-17.5027 F60.00
G01 X3.3020 Y-17.5217 F60.00
G01 X3.3976 Y-17.5027 F60.00
G01 X3.4786 Y-17.4486 F60.00
G01 X3.5327 Y-17.3676 F60.00
G01 X3.5517 Y-17.2720 F60.00
G00 X3.5517 Y-17.2720
G01 F60.00
G01 Z-1.5000
G01 F60.00
G01 X3.5327 Y-17.3676 F60.00
G01 X3.4786 Y-17.4486 F60.00
G01 X3.3976 Y-17.5027 F60.00
G01 X3.3020 Y-17.5217 F60.00
G01 X3.2064 Y-17.5027 F60.00
G01 X3.1254 Y-17.4486 F60.00
G01 X3.0713 Y-17.3676 F60.00
G01 X3.0523 Y-17.2720 F60.00
G01 X3.0713 Y-17.1764 F60.00
G01 X3.1254 Y-17.0954 F60.00
G01 X3.2064 Y-17.0413 F60.00
G01 X3.3020 Y-17.0223 F60.00
G01 X3.3976 Y-17.0413 F60.00
G01 X3.4786 Y-17.0954 F60.00
G01 X3.5327 Y-17.1764 F60.00
G01 X3.5517 Y-17.2720 F60.00
G00 X3.5517 Y-17.2720
G01 F60.00
G01 Z-2.0000
G01 F60.00
G01 X3.5327 Y-17.1764 F60.00
G01 X3.4786 Y-17.0954 F60.00
G01 X3.3976 Y-17.0413 F60.00
G01 X3.3020 Y-17.0223 F60.00
G01 X3.2064 Y-17.0413 F60.00
G01 X3.1254 Y-17.0954 F60.00
G01 X3.0713 Y-17.1764 F60.00
G01 X3.0523 Y-17.2720 F60.00
G01 X3.0713 Y-17.3676 F60.00
G01 X3.1254 Y-17.4486 F60.00
G01 X3.2064 Y-17.5027 F60.00
G01 X3.3020 Y-17.5217 F60.00
G01 X3.3976 Y-17.5027 F60.00
G01 X3.4786 Y-17.4486 F60.00
G01 X3.5327 Y-17.3676 F60.00
G01 X3.5517 Y-17.2720 F60.00
G00 Z2.0000
G00 X3.5517 Y-19.8120
G01 F60.00
G01 Z-0.5000
G01 F60.00
G01 X3.5327 Y-19.9076 F60.00
G01 X3.4786 Y-19.9886 F60.00
G01 X3.3976 Y-20.0427 F60.00
G01 X3.3020 Y-20.0617 F60.00
G01 X3.2064 Y-20.0427 F60.00
G01 X3.1254 Y-19.9886 F60.00
G01 X3.0713 Y-19.9076 F60.00
G01 X3.0523 Y-19.8120 F60.00
G01 X3.0713 Y-19.7164 F60.00
G01 X3.1254 Y-19.6354 F60.00
G01 X3.2064 Y-19.5813 F60.00
G01 X3.3020 Y-19.5623 F60.00
G01 X3.3976 Y-19.5813 F60.00
G01 X3.4786 Y-19.6354 F60.00
G01 X3.5327 Y-19.7164 F60.00
G01 X3.5517 Y-19.8120 F60.00
G00 X3.5517 Y-19.8120
G01 F60.00
G01 Z-1.0000
G01 F60.00
G01 X3.5327 Y-19.7164 F60.00
G01 X3.4786 Y-19.6354 F60.00
G01 X3.3976 Y-19.5813 F60.00
G01 X3.3020 Y-19.5623 F60.00
G01 X3.2064 Y-19.5813 F60.00
G01 X3.1254 Y-19.6354 F60.00
G01 X3.0713 Y-19.7164 F60.00
G01 X3.0523 Y-19.8120 F60.00
G01 X3.0713 Y-19.9076 F60.00
G01 X3.1254 Y-19.9886 F60.00
G01 X3.2064 Y-20.0427 F60.00
G01 X3.3020 Y-20.0617 F60.00
G01 X3.3976 Y-20.0427 F60.00
G01 X3.4786 Y-19.9886 F60.00
G01 X3.5327 Y-19.9076 F60.00
G01 X3.5517 Y-19.8120 F60.00
G00 X3.5517 Y-19.8120
G01 F60.00
G01 Z-1.5000
G01 F60.00
G01 X3.5327 Y-19.9076 F60.00
G01 X3.4786 Y-19.9886 F60.00
G01 X3.3976 Y-20.0427 F60.00
G01 X3.3020 Y-20.0617 F60.00
G01 X3.2064 Y-20.0427 F60.00
G01 X3.1254 Y-19.9886 F60.00
G01 X3.0713 Y-19.9076 F60.00
G01 X3.0523 Y-19.8120 F60.00
G01 X3.0713 Y-19.7164 F60.00
G01 X3.1254 Y-19.6354 F60.00
G01 X3.2064 Y-19.5813 F60.00
G01 X3.3020 Y-19.5623 F60.00
G01 X3.3976 Y-19.5813 F60.00
G01 X3.4786 Y-19.6354 F60.00
G01 X3.5327 Y-19.7164 F60.00
G01 X3.5517 Y-19.8120 F60.00
G00 X3.5517 Y-19.8120
G01 F60.00
G01 Z-2.0000
G01 F60.00
G01 X3.5327 Y-19.7164 F60.00
G01 X3.4786 Y-19.6354 F60.00
G01 X3.3976 Y-19.5813 F60.00
G01 X3.3020 Y-19.5623 F60.00
G01 X3.2064 Y-19.5813 F60.00
G01 X3.1254 Y-19.6354 F60.00
G01 X3.0713 Y-19.7164 F60.00
G01 X3.0523 Y-19.8120 F60.00
G01 X3.0713 Y-19.9076 F60.00
G01 X3.1254 Y-19.9886 F60.00
G01 X3.2064 Y-20.0427 F60.00
G01 X3.3020 Y-20.0617 F60.00
G01 X3.3976 Y-20.0427 F60.00
G01 X3.4786 Y-19.9886 F60.00
G01 X3.5327 Y-19.9076 F60.00
G01 X3.5517 Y-19.8120 F60.00
G00 Z2.0000
G00 X3.5517 Y-22.3520
G01 F60.00
G01 Z-0.5000
G01 F60.00
G01 X3.5327 Y-22.4476 F60.00
G01 X3.4786 Y-22.5286 F60.00
G01 X3.3976 Y-22.5827 F60.00
G01 X3.3020 Y-22.6017 F60.00
G01 X3.2064 Y-22.5827 F60.00
G01 X3.1254 Y-22.5286 F60.00
G01 X3.0713 Y-22.4476 F60.00
G01 X3.0523 Y-22.3520 F60.00
G01 X3.0713 Y-22.2564 F60.00
G01 X3.1254 Y-22.1754 F60.00
G01 X3.2064 Y-22.1213 F60.00
G01 X3.3020 Y-22.1023 F60.00
G01 X3.3976 Y-22.1213 F60.00
G01 X3.4786 Y-22.1754 F60.00
G01 X3.5327 Y-22.2564 F60.00
G01 X3.5517 Y-22.3520 F60.00
G00 X3.5517 Y-22.3520
G01 F60.00
G01 Z-1.0000
G01 F60.00
G01 X3.5327 Y-22.2564 F60.00
G01 X3.4786 Y-22.1754 F60.00
G01 X3.3976 Y-22.1213 F60.00
G01 X3.3020 Y-22.1023 F60.00
G01 X3.2064 Y-22.1213 F60.00
G01 X3.1254 Y-22.1754 F60.00
G01 X3.0713 Y-22.2564 F60.00
G01 X3.0523 Y-22.3520 F60.00
G01 X3.0713 Y-22.4476 F60.00
G01 X3.1254 Y-22.5286 F60.00
G01 X3.2064 Y-22.5827 F60.00
G01 X3.3020 Y-22.6017 F60.00
G01 X3.3976 Y-22.5827 F60.00
G01 X3.4786 Y-22.5286 F60.00
G01 X3.5327 Y-22.4476 F60.00
G01 X3.5517 Y-22.3520 F60.00
G00 X3.5517 Y-22.3520
G01 F60.00
G01 Z-1.5000
G01 F60.00
G01 X3.5327 Y-22.4476 F60.00
G01 X3.4786 Y-22.5286 F60.00
G01 X3.3976 Y-22.5827 F60.00
G01 X3.3020 Y-22.6017 F60.00
G01 X3.2064 Y-22.5827 F60.00
G01 X3.1254 Y-22.5286 F60.00
G01 X3.0713 Y-22.4476 F60.00
G01 X3.0523 Y-22.3520 F60.00
G01 X3.0713 Y-22.2564 F60.00
G01 X3.1254 Y-22.1754 F60.00
G01 X3.2064 Y-22.1213 F60.00
G01 X3.3020 Y-22.1023 F60.00
G01 X3.3976 Y-22.1213 F60.00
G01 X3.4786 Y-22.1754 F60.00
G01 X3.5327 Y-22.2564 F60.00
G01 X3.5517 Y-22.3520 F60.00
G00 X3.5517 Y-22.3520
G01 F60.00
G01 Z-2.0000
G01 F60.00
G01 X3.5327 Y-22.2564 F60.00
G01 X3.4786 Y-22.1754 F60.00
G01 X3.3976 Y-22.1213 F60.00
G01 X3.3020 Y-22.1023 F60.00
G01 X3.2064 Y-22.1213 F60.00
G01 X3.1254 Y-22.1754 F60.00
G01 X3.0713 Y-22.2564 F60.00
G01 X3.0523 Y-22.3520 F60.00
G01 X3.0713 Y-22.4476 F60.00
G01 X3.1254 Y-22.5286 F60.00
G01 X3.2064 Y-22.5827 F60.00
G01 X3.3020 Y-22.6017 F60.00
G01 X3.3976 Y-22.5827 F60.00
G01 X3.4786 Y-22.5286 F60.00
G01 X3.5327 Y-22.4476 F60.00
G01 X3.5517 Y-22.3520 F60.00
G00 Z2.0000
G00 X3.5517 Y-24.8920
G01 F60.00
G01 Z-0.5000
G01 F60.00
G01 X3.5327 Y-24.9876 F60.00
G01 X3.4786 Y-25.0686 F60.00
G01 X3.3976 Y-25.1227 F60.00
G01 X3.3020 Y-25.1417 F60.00
G01 X3.2064 Y-25.1227 F60.00
G01 X3.1254 Y-25.0686 F60.00
G01 X3.0713 Y-24.9876 F60.00
G01 X3.0523 Y-24.8920 F60.00
G01 X3.0713 Y-24.7964 F60.00
G01 X3.1254 Y-24.7154 F60.00
G01 X3.2064 Y-24.6613 F60.00
G01 X3.3020 Y-24.6423 F60.00
G01 X3.3976 Y-24.6613 F60.00
G01 X3.4786 Y-24.7154 F60.00
G01 X3.5327 Y-24.7964 F60.00
G01 X3.5517 Y-24.8920 F60.00
G00 X3.5517 Y-24.8920
G01 F60.00
G01 Z-1.0000
G01 F60.00
G01 X3.5327 Y-24.7964 F60.00
G01 X3.4786 Y-24.7154 F60.00
G01 X3.3976 Y-24.6613 F60.00
G01 X3.3020 Y-24.6423 F60.00
G01 X3.2064 Y-24.6613 F60.00
G01 X3.1254 Y-24.7154 F60.00
G01 X3.0713 Y-24.7964 F60.00
G01 X3.0523 Y-24.8920 F60.00
G01 X3.0713 Y-24.9876 F60.00
G01 X3.1254 Y-25.0686 F60.00
G01 X3.2064 Y-25.1227 F60.00
G01 X3.3020 Y-25.1417 F60.00
G01 X3.3976 Y-25.1227 F60.00
G01 X3.4786 Y-25.0686 F60.00
G01 X3.5327 Y-24.9876 F60.00
G01 X3.5517 Y-24.8920 F60.00
G00 X3.5517 Y-24.8920
G01 F60.00
G01 Z-1.5000
G01 F60.00
G01 X3.5327 Y-24.9876 F60.00
G01 X3.4786 Y-25.0686 F60.00
G01 X3.3976 Y-25.1227 F60.00
G01 X3.3020 Y-25.1417 F60.00
G01 X3.2064 Y-25.1227 F60.00
G01 X3.1254 Y-25.0686 F60.00
G01 X3.0713 Y-24.9876 F60.00
G01 X3.0523 Y-24.8920 F60.00
G01 X3.0713 Y-24.7964 F60.00
G01 X3.1254 Y-24.7154 F60.00
G01 X3.2064 Y-24.6613 F60.00
G01 X3.3020 Y-24.6423 F60.00
G01 X3.3976 Y-24.6613 F60.00
G01 X3.4786 Y-24.7154 F60.00
G01 X3.5327 Y-24.7964 F60.00
G01 X3.5517 Y-24.8920 F60.00
G00 X3.5517 Y-24.8920
G01 F60.00
G01 Z-2.0000
G01 F60.00
G01 X3.5327 Y-24.7964 F60.00
G01 X3.4786 Y-24.7154 F60.00
G01 X3.3976 Y-24.6613 F60.00
G01 X3.3020 Y-24.6423 F60.00
G01 X3.2064 Y-24.6613 F60.00
G01 X3.1254 Y-24.7154 F60.00
G01 X3.0713 Y-24.7964 F60.00
G01 X3.0523 Y-24.8920 F60.00
G01 X3.0713 Y-24.9876 F60.00
G01 X3.1254 Y-25.0686 F60.00
G01 X3.2064 Y-25.1227 F60.00
G01 X3.3020 Y-25.1417 F60.00
G01 X3.3976 Y-25.1227 F60.00
G01 X3.4786 Y-25.0686 F60.00
G01 X3.5327 Y-24.9876 F60.00
G01 X3.5517 Y-24.8920 F60.00
G00 Z2.0000
G00 X3.5517 Y-27.4320
G01 F60.00
G01 Z-0.5000
G01 F60.00
G01 X3.5327 Y-27.5276 F60.00
G01 X3.4786 Y-27.6086 F60.00
G01 X3.3976 Y-27.6627 F60.00
G01 X3.3020 Y-27.6817 F60.00
G01 X3.2064 Y-27.6627 F60.00
G01 X3.1254 Y-27.6086 F60.00
G01 X3.0713 Y-27.5276 F60.00
G01 X3.0523 Y-27.4320 F60.00
G01 X3.0713 Y-27.3364 F60.00
G01 X3.1254 Y-27.2554 F60.00
G01 X3.2064 Y-27.2013 F60.00
G01 X3.3020 Y-27.1823 F60.00
G01 X3.3976 Y-27.2013 F60.00
G01 X3.4786 Y-27.2554 F60.00
G01 X3.5327 Y-27.3364 F60.00
G01 X3.5517 Y-27.4320 F60.00
G00 X3.5517 Y-27.4320
G01 F60.00
G01 Z-1.0000
G01 F60.00
G01 X3.5327 Y-27.3364 F60.00
G01 X3.4786 Y-27.2554 F60.00
G01 X3.3976 Y-27.2013 F60.00
G01 X3.3020 Y-27.1823 F60.00
G01 X3.2064 Y-27.2013 F60.00
G01 X3.1254 Y-27.2554 F60.00
G01 X3.0713 Y-27.3364 F60.00
G01 X3.0523 Y-27.4320 F60.00
G01 X3.0713 Y-27.5276 F60.00
G01 X3.1254 Y-27.6086 F60.00
G01 X3.2064 Y-27.6627 F60.00
G01 X3.3020 Y-27.6817 F60.00
G01 X3.3976 Y-27.6627 F60.00
G01 X3.4786 Y-27.6086 F60.00
G01 X3.5327 Y-27.5276 F60.00
G01 X3.5517 Y-27.4320 F60.00
G00 X3.5517 Y-27.4320
G01 F60.00
G01 Z-1.5000
G01 F60.00
G01 X3.5327 Y-27.5276 F60.00
G01 X3.4786 Y-27.6086 F60.00
G01 X3.3976 Y-27.6627 F60.00
G01 X3.3020 Y-27.6817 F60.00
G01 X3.2064 Y-27.6627 F60.00
G01 X3.1254 Y-27.6086 F60.00
G01 X3.0713 Y-27.5276 F60.00
G01 X3.0523 Y-27.4320 F60.00
G01 X3.0713 Y-27.3364 F60.00
G01 X3.1254 Y-27.2554 F60.00
G01 X3.2064 Y-27.2013 F60.00
G01 X3.3020 Y-27.1823 F60.00
G01 X3.3976 Y-27.2013 F60.00
G01 X3.4786 Y-27.2554 F60.00
G01 X3.5327 Y-27.3364 F60.00
G01 X3.5517 Y-27.4320 F60.00
G00 X3.5517 Y-27.4320
G01 F60.00
G01 Z-2.0000
G01 F60.00
G01 X3.5327 Y-27.3364 F60.00
G01 X3.4786 Y-27.2554 F60.00
G01 X3.3976 Y-27.2013 F60.00
G01 X3.3020 Y-27.1823 F60.00
G01 X3.2064 Y-27.2013 F60.00
G01 X3.1254 Y-27.2554 F60.00
G01 X3.0713 Y-27.3364 F60.00
G01 X3.0523 Y-27.4320 F60.00
G01 X3.0713 Y-27.5276 F60.00
G01 X3.1254 Y-27.6086 F60.00
G01 X3.2064 Y-27.6627 F60.00
G01 X3.3020 Y-27.6817 F60.00
G01 X3.3976 Y-27.6627 F60.00
G01 X3.4786 Y-27.6086 F60.00
G01 X3.5327 Y-27.5276 F60.00
G01 X3.5517 Y-27.4320 F60.00
G00 Z2.0000
G00 X3.5517 Y-29.9720
G01 F60.00
G01 Z-0.5000
G01 F60.00
G01 X3.5327 Y-30.0676 F60.00
G01 X3.4786 Y-30.1486 F60.00
G01 X3.3976 Y-30.2027 F60.00
G01 X3.3020 Y-30.2217 F60.00
G01 X3.2064 Y-30.2027 F60.00
G01 X3.1254 Y-30.1486 F60.00
G01 X3.0713 Y-30.0676 F60.00
G01 X3.0523 Y-29.9720 F60.00
G01 X3.0713 Y-29.8764 F60.00
G01 X3.1254 Y-29.7954 F60.00
G01 X3.2064 Y-29.7413 F60.00
G01 X3.3020 Y-29.7223 F60.00
G01 X3.3976 Y-29.7413 F60.00
G01 X3.4786 Y-29.7954 F60.00
G01 X3.5327 Y-29.8764 F60.00
G01 X3.5517 Y-29.9720 F60.00
G00 X3.5517 Y-29.9720
G01 F60.00
G01 Z-1.0000
G01 F60.00
G01 X3.5327 Y-29.8764 F60.00
G01 X3.4786 Y-29.7954 F60.00
G01 X3.3976 Y-29.7413 F60.00
G01 X3.3020 Y-29.7223 F60.00
G01 X3.2064 Y-29.7413 F60.00
G01 X3.1254 Y-29.7954 F60.00
G01 X3.0713 Y-29.8764 F60.00
G01 X3.0523 Y-29.9720 F60.00
G01 X3.0713 Y-30.0676 F60.00
G01 X3.1254 Y-30.1486 F60.00
G01 X3.2064 Y-30.2027 F60.00
G01 X3.3020 Y-30.2217 F60.00
G01 X3.3976 Y-30.2027 F60.00
G01 X3.4786 Y-30.1486 F60.00
G01 X3.5327 Y-30.0676 F60.00
G01 X3.5517 Y-29.9720 F60.00
G00 X3.5517 Y-29.9720
G01 F60.00
G01 Z-1.5000
G01 F60.00
G01 X3.5327 Y-30.0676 F60.00
G01 X3.4786 Y-30.1486 F60.00
G01 X3.3976 Y-30.2027 F60.00
G01 X3.3020 Y-30.2217 F60.00
G01 X3.2064 Y-30.2027 F60.00
G01 X3.1254 Y-30.1486 F60.00
G01 X3.0713 Y-30.0676 F60.00
G01 X3.0523 Y-29.9720 F60.00
G01 X3.0713 Y-29.8764 F60.00
G01 X3.1254 Y-29.7954 F60.00
G01 X3.2064 Y-29.7413 F60.00
G01 X3.3020 Y-29.7223 F60.00
G01 X3.3976 Y-29.7413 F60.00
G01 X3.4786 Y-29.7954 F60.00
G01 X3.5327 Y-29.8764 F60.00
G01 X3.5517 Y-29.9720 F60.00
G00 X3.5517 Y-29.9720
G01 F60.00
G01 Z-2.0000
G01 F60.00
G01 X3.5327 Y-29.8764 F60.00
G01 X3.4786 Y-29.7954 F60.00
G01 X3.3976 Y-29.7413 F60.00
G01 X3.3020 Y-29.7223 F60.00
G01 X3.2064 Y-29.7413 F60.00
G01 X3.1254 Y-29.7954 F60.00
G01 X3.0713 Y-29.8764 F60.00
G01 X3.0523 Y-29.9720 F60.00
G01 X3.0713 Y-30.0676 F60.00
G01 X3.1254 Y-30.1486 F60.00
G01 X3.2064 Y-30.2027 F60.00
G01 X3.3020 Y-30.2217 F60.00
G01 X3.3976 Y-30.2027 F60.00
G01 X3.4786 Y-30.1486 F60.00
G01 X3.5327 Y-30.0676 F60.00
G01 X3.5517 Y-29.9720 F60.00
G00 Z2.0000
G00 X3.5517 Y-32.5120
G01 F60.00
G01 Z-0.5000
G01 F60.00
G01 X3.5327 Y-32.6076 F60.00
G01 X3.4786 Y-32.6886 F60.00
G01 X3.3976 Y-32.7427 F60.00
G01 X3.3020 Y-32.7617 F60.00
G01 X3.2064 Y-32.7427 F60.00
G01 X3.1254 Y-32.6886 F60.00
G01 X3.0713 Y-32.6076 F60.00
G01 X3.0523 Y-32.5120 F60.00
G01 X3.0713 Y-32.4164 F60.00
G01 X3.1254 Y-32.3354 F60.00
G01 X3.2064 Y-32.2813 F60.00
G01 X3.3020 Y-32.2623 F60.00
G01 X3.3976 Y-32.2813 F60.00
G01 X3.4786 Y-32.3354 F60.00
G01 X3.5327 Y-32.4164 F60.00
G01 X3.5517 Y-32.5120 F60.00
G00 X3.5517 Y-32.5120
G01 F60.00
G01 Z-1.0000
G01 F60.00
G01 X3.5327 Y-32.4164 F60.00
G01 X3.4786 Y-32.3354 F60.00
G01 X3.3976 Y-32.2813 F60.00
G01 X3.3020 Y-32.2623 F60.00
G01 X3.2064 Y-32.2813 F60.00
G01 X3.1254 Y-32.3354 F60.00
G01 X3.0713 Y-32.4164 F60.00
G01 X3.0523 Y-32.5120 F60.00
G01 X3.0713 Y-32.6076 F60.00
G01 X3.1254 Y-32.6886 F60.00
G01 X3.2064 Y-32.7427 F60.00
G01 X3.3020 Y-32.7617 F60.00
G01 X3.3976 Y-32.7427 F60.00
G01 X3.4786 Y-32.6886 F60.00
G01 X3.5327 Y-32.6076 F60.00
G01 X3.5517 Y-32.5120 F60.00
G00 X3.5517 Y-32.5120
G01 F60.00
G01 Z-1.5000
G01 F60.00
G01 X3.5327 Y-32.6076 F60.00
G01 X3.4786 Y-32.6886 F60.00
G01 X3.3976 Y-32.7427 F60.00
G01 X3.3020 Y-32.7617 F60.00
G01 X3.2064 Y-32.7427 F60.00
G01 X3.1254 Y-32.6886 F60.00
G01 X3.0713 Y-32.6076 F60.00
G01 X3.0523 Y-32.5120 F60.00
G01 X3.0713 Y-32.4164 F60.00
G01 X3.1254 Y-32.3354 F60.00
G01 X3.2064 Y-32.2813 F60.00
G01 X3.3020 Y-32.2623 F60.00
G01 X3.3976 Y-32.2813 F60.00
G01 X3.4786 Y-32.3354 F60.00
G01 X3.5327 Y-32.4164 F60.00
G01 X3.5517 Y-32.5120 F60.00
G00 X3.5517 Y-32.5120
G01 F60.00
G01 Z-2.0000
G01 F60.00
G01 X3.5327 Y-32.4164 F60.00
G01 X3.4786 Y-32.3354 F60.00
G01 X3.3976 Y-32.2813 F60.00
G01 X3.3020 Y-32.2623 F60.00
G01 X3.2064 Y-32.2813 F60.00
G01 X3.1254 Y-32.3354 F60.00
G01 X3.0713 Y-32.4164 F60.00
G01 X3.0523 Y-32.5120 F60.00
G01 X3.0713 Y-32.6076 F60.00
G01 X3.1254 Y-32.6886 F60.00
G01 X3.2064 Y-32.7427 F60.00
G01 X3.3020 Y-32.7617 F60.00
G01 X3.3976 Y-32.7427 F60.00
G01 X3.4786 Y-32.6886 F60.00
G01 X3.5327 Y-32.6076 F60.00
G01 X3.5517 Y-32.5120 F60.00
G00 Z2.0000
G00 X3.5517 Y-35.0520
G01 F60.00
G01 Z-0.5000
G01 F60.00
G01 X3.5327 Y-35.1476 F60.00
G01 X3.4786 Y-35.2286 F60.00
G01 X3.3976 Y-35.2827 F60.00
G01 X3.3020 Y-35.3017 F60.00
G01 X3.2064 Y-35.2827 F60.00
G01 X3.1254 Y-35.2286 F60.00
G01 X3.0713 Y-35.1476 F60.00
G01 X3.0523 Y-35.0520 F60.00
G01 X3.0713 Y-34.9564 F60.00
G01 X3.1254 Y-34.8754 F60.00
G01 X3.2064 Y-34.8213 F60.00
G01 X3.3020 Y-34.8023 F60.00
G01 X3.3976 Y-34.8213 F60.00
G01 X3.4786 Y-34.8754 F60.00
G01 X3.5327 Y-34.9564 F60.00
G01 X3.5517 Y-35.0520 F60.00
G00 X3.5517 Y-35.0520
G01 F60.00
G01 Z-1.0000
G01 F60.00
G01 X3.5327 Y-34.9564 F60.00
G01 X3.4786 Y-34.8754 F60.00
G01 X3.3976 Y-34.8213 F60.00
G01 X3.3020 Y-34.8023 F60.00
G01 X3.2064 Y-34.8213 F60.00
G01 X3.1254 Y-34.8754 F60.00
G01 X3.0713 Y-34.9564 F60.00
G01 X3.0523 Y-35.0520 F60.00
G01 X3.0713 Y-35.1476 F60.00
G01 X3.1254 Y-35.2286 F60.00
G01 X3.2064 Y-35.2827 F60.00
G01 X3.3020 Y-35.3017 F60.00
G01 X3.3976 Y-35.2827 F60.00
G01 X3.4786 Y-35.2286 F60.00
G01 X3.5327 Y-35.1476 F60.00
G01 X3.5517 Y-35.0520 F60.00
G00 X3.5517 Y-35.0520
G01 F60.00
G01 Z-1.5000
G01 F60.00
G01 X3.5327 Y-35.1476 F60.00
G01 X3.4786 Y-35.2286 F60.00
G01 X3.3976 Y-35.2827 F60.00
G01 X3.3020 Y-35.3017 F60.00
G01 X3.2064 Y-35.2827 F60.00
G01 X3.1254 Y-35.2286 F60.00
G01 X3.0713 Y-35.1476 F60.00
G01 X3.0523 Y-35.0520 F60.00
G01 X3.0713 Y-34.9564 F60.00
G01 X3.1254 Y-34.8754 F60.00
G01 X3.2064 Y-34.8213 F60.00
G01 X3.3020 Y-34.8023 F60.00
G01 X3.3976 Y-34.8213 F60.00
G01 X3.4786 Y-34.8754 F60.00
G01 X3.5327 Y-34.9564 F60.00
G01 X3.5517 Y-35.0520 F60.00
G00 X3.5517 Y-35.0520
G01 F60.00
G01 Z-2.0000
G01 F60.00
G01 X3.5327 Y-34.9564 F60.00
G01 X3.4786 Y-34.8754 F60.00
G01 X3.3976 Y-34.8213 F60.00
G01 X3.3020 Y-34.8023 F60.00
G01 X3.2064 Y-34.8213 F60.00
G01 X3.1254 Y-34.8754 F60.00
G01 X3.0713 Y-34.9564 F60.00
G01 X3.0523 Y-35.0520 F60.00
G01 X3.0713 Y-35.1476 F60.00
G01 X3.1254 Y-35.2286 F60.00
G01 X3.2064 Y-35.2827 F60.00
G01 X3.3020 Y-35.3017 F60.00
G01 X3.3976 Y-35.2827 F60.00
G01 X3.4786 Y-35.2286 F60.00
G01 X3.5327 Y-35.1476 F60.00
G01 X3.5517 Y-35.0520 F60.00
G00 Z2.0000
G00 X3.5517 Y-37.5920
G01 F60.00
G01 Z-0.5000
G01 F60.00
G01 X3.5327 Y-37.6876 F60.00
G01 X3.4786 Y-37.7686 F60.00
G01 X3.3976 Y-37.8227 F60.00
G01 X3.3020 Y-37.8417 F60.00
G01 X3.2064 Y-37.8227 F60.00
G01 X3.1254 Y-37.7686 F60.00
G01 X3.0713 Y-37.6876 F60.00
G01 X3.0523 Y-37.5920 F60.00
G01 X3.0713 Y-37.4964 F60.00
G01 X3.1254 Y-37.4154 F60.00
G01 X3.2064 Y-37.3613 F60.00
G01 X3.3020 Y-37.3423 F60.00
G01 X3.3976 Y-37.3613 F60.00
G01 X3.4786 Y-37.4154 F60.00
G01 X3.5327 Y-37.4964 F60.00
G01 X3.5517 Y-37.5920 F60.00
G00 X3.5517 Y-37.5920
G01 F60.00
G01 Z-1.0000
G01 F60.00
G01 X3.5327 Y-37.4964 F60.00
G01 X3.4786 Y-37.4154 F60.00
G01 X3.3976 Y-37.3613 F60.00
G01 X3.3020 Y-37.3423 F60.00
G01 X3.2064 Y-37.3613 F60.00
G01 X3.1254 Y-37.4154 F60.00
G01 X3.0713 Y-37.4964 F60.00
G01 X3.0523 Y-37.5920 F60.00
G01 X3.0713 Y-37.6876 F60.00
G01 X3.1254 Y-37.7686 F60.00
G01 X3.2064 Y-37.8227 F60.00
G01 X3.3020 Y-37.8417 F60.00
G01 X3.3976 Y-37.8227 F60.00
G01 X3.4786 Y-37.7686 F60.00
G01 X3.5327 Y-37.6876 F60.00
G01 X3.5517 Y-37.5920 F60.00
G00 X3.5517 Y-37.5920
G01 F60.00
G01 Z-1.5000
G01 F60.00
G01 X3.5327 Y-37.6876 F60.00
G01 X3.4786 Y-37.7686 F60.00
G01 X3.3976 Y-37.8227 F60.00
G01 X3.3020 Y-37.8417 F60.00
G01 X3.2064 Y-37.8227 F60.00
G01 X3.1254 Y-37.7686 F60.00
G01 X3.0713 Y-37.6876 F60.00
G01 X3.0523 Y-37.5920 F60.00
G01 X3.0713 Y-37.4964 F60.00
G01 X3.1254 Y-37.4154 F60.00
G01 X3.2064 Y-37.3613 F60.00
G01 X3.3020 Y-37.3423 F60.00
G01 X3.3976 Y-37.3613 F60.00
G01 X3.4786 Y-37.4154 F60.00
G01 X3.5327 Y-37.4964 F60.00
G01 X3.5517 Y-37.5920 F60.00
G00 X3.5517 Y-37.5920
G01 F60.00
G01 Z-2.0000
G01 F60.00
G01 X3.5327 Y-37.4964 F60.00
G01 X3.4786 Y-37.4154 F60.00
G01 X3.3976 Y-37.3613 F60.00
G01 X3.3020 Y-37.3423 F60.00
G01 X3.2064 Y-37.3613 F60.00
G01 X3.1254 Y-37.4154 F60.00
G01 X3.0713 Y-37.4964 F60.00
G01 X3.0523 Y-37.5920 F60.00
