(G-CODE GENERATED BY FLATCAM v8.994 - www.flatcam.org - Version Date: 2020/11/7)

(Name: Electrode_Select_Breakout-Edge_Cuts.gbr_cutout_cnc)
(Type: G-code from Geometry)
(Units: MM)

(Created on Sunday, 31 March 2024 at 17:48)

(This preprocessor is used with a motion controller loaded with GRBL firmware.)
(It is configured to be compatible with almost any version of GRBL firmware.)

(TOOL DIAMETER: 0.5 mm)
(Feedrate_XY: 120.0 mm/min)
(Feedrate_Z: 60.0 mm/min)
(Feedrate rapids 1500.0 mm/min)

(Z_Cut: -2.75 mm)
(DepthPerCut: 0.5 mm <=>6 passes)
(Z_Move: 2.0 mm)
(Z Start: None mm)
(Z End: 15.0 mm)
(X,Y End: 0.0000, 0.0000 mm)
(Steps per circle: 64)
(Steps per circle: 64)
(Preprocessor Geometry: GRBL_11_no_M6)

(X range:   -0.4000 ...   36.7220  mm)
(Y range:  -46.6280 ...    0.4000  mm)

(Spindle Speed: 0.0 RPM)
G21
G90
G17
G94


G01 F120.00

M5             
G00 Z15.0000
G00 X0.0000 Y0.0000                
T1
(MSG, Change to Tool Dia = 0.5000)
M0
G00 Z15.0000
        
M03
G01 F120.00
G00 X17.5110 Y0.4000
G01 F60.00
G01 Z-0.5000
G01 F120.00
G01 X0.0000 Y0.4000 F120.00
G01 X-0.0221 Y0.3994 F120.00
G01 X-0.0611 Y0.3953 F120.00
G01 X-0.0996 Y0.3874 F120.00
G01 X-0.1371 Y0.3758 F120.00
G01 X-0.1732 Y0.3605 F120.00
G01 X-0.2077 Y0.3418 F120.00
G01 X-0.2402 Y0.3198 F120.00
G01 X-0.2704 Y0.2947 F120.00
G01 X-0.2980 Y0.2668 F120.00
G01 X-0.3227 Y0.2363 F120.00
G01 X-0.3443 Y0.2035 F120.00
G01 X-0.3626 Y0.1688 F120.00
G01 X-0.3774 Y0.1324 F120.00
G01 X-0.3886 Y0.0948 F120.00
G01 X-0.3960 Y0.0563 F120.00
G01 X-0.3994 Y0.0221 F120.00
G01 X-0.4000 Y-0.0000 F120.00
G01 X-0.4000 Y-46.2280 F120.00
G01 X-0.3994 Y-46.2501 F120.00
G01 X-0.3953 Y-46.2891 F120.00
G01 X-0.3874 Y-46.3276 F120.00
G01 X-0.3758 Y-46.3651 F120.00
G01 X-0.3626 Y-46.3968 F120.00
G01 X-0.3443 Y-46.4315 F120.00
G01 X-0.3198 Y-46.4682 F120.00
G01 X-0.2947 Y-46.4984 F120.00
G01 X-0.2704 Y-46.5227 F120.00
G01 X-0.2363 Y-46.5507 F120.00
G01 X-0.2035 Y-46.5723 F120.00
G01 X-0.1732 Y-46.5885 F120.00
G01 X-0.1324 Y-46.6054 F120.00
G01 X-0.0996 Y-46.6154 F120.00
G01 X-0.0611 Y-46.6233 F120.00
G01 X-0.0221 Y-46.6274 F120.00
G01 X0.0000 Y-46.6280 F120.00
G01 X17.5110 Y-46.6280 F120.00
G00 X17.5110 Y-46.6280
G01 F60.00
G01 Z-1.0000
G01 F120.00
G01 X0.0000 Y-46.6280 F120.00
G01 X-0.0221 Y-46.6274 F120.00
G01 X-0.0611 Y-46.6233 F120.00
G01 X-0.0996 Y-46.6154 F120.00
G01 X-0.1324 Y-46.6054 F120.00
G01 X-0.1732 Y-46.5885 F120.00
G01 X-0.2035 Y-46.5723 F120.00
G01 X-0.2363 Y-46.5507 F120.00
G01 X-0.2704 Y-46.5227 F120.00
G01 X-0.2947 Y-46.4984 F120.00
G01 X-0.3198 Y-46.4682 F120.00
G01 X-0.3443 Y-46.4315 F120.00
G01 X-0.3626 Y-46.3968 F120.00
G01 X-0.3758 Y-46.3651 F120.00
G01 X-0.3874 Y-46.3276 F120.00
G01 X-0.3953 Y-46.2891 F120.00
G01 X-0.3994 Y-46.2501 F120.00
G01 X-0.4000 Y-46.2280 F120.00
G01 X-0.4000 Y-0.0000 F120.00
G01 X-0.3994 Y0.0221 F120.00
G01 X-0.3960 Y0.0563 F120.00
G01 X-0.3886 Y0.0948 F120.00
G01 X-0.3774 Y0.1324 F120.00
G01 X-0.3626 Y0.1688 F120.00
G01 X-0.3443 Y0.2035 F120.00
G01 X-0.3227 Y0.2363 F120.00
G01 X-0.2980 Y0.2668 F120.00
G01 X-0.2704 Y0.2947 F120.00
G01 X-0.2402 Y0.3198 F120.00
G01 X-0.2077 Y0.3418 F120.00
G01 X-0.1732 Y0.3605 F120.00
G01 X-0.1371 Y0.3758 F120.00
G01 X-0.0996 Y0.3874 F120.00
G01 X-0.0611 Y0.3953 F120.00
G01 X-0.0221 Y0.3994 F120.00
G01 X0.0000 Y0.4000 F120.00
G01 X17.5110 Y0.4000 F120.00
G00 X17.5110 Y0.4000
G01 F60.00
G01 Z-1.5000
G01 F120.00
G01 X0.0000 Y0.4000 F120.00
G01 X-0.0221 Y0.3994 F120.00
G01 X-0.0611 Y0.3953 F120.00
G01 X-0.0996 Y0.3874 F120.00
G01 X-0.1371 Y0.3758 F120.00
G01 X-0.1732 Y0.3605 F120.00
G01 X-0.2077 Y0.3418 F120.00
G01 X-0.2402 Y0.3198 F120.00
G01 X-0.2704 Y0.2947 F120.00
G01 X-0.2980 Y0.2668 F120.00
G01 X-0.3227 Y0.2363 F120.00
G01 X-0.3443 Y0.2035 F120.00
G01 X-0.3626 Y0.1688 F120.00
G01 X-0.3774 Y0.1324 F120.00
G01 X-0.3886 Y0.0948 F120.00
G01 X-0.3960 Y0.0563 F120.00
G01 X-0.3994 Y0.0221 F120.00
G01 X-0.4000 Y-0.0000 F120.00
G01 X-0.4000 Y-46.2280 F120.00
G01 X-0.3994 Y-46.2501 F120.00
G01 X-0.3953 Y-46.2891 F120.00
G01 X-0.3874 Y-46.3276 F120.00
G01 X-0.3758 Y-46.3651 F120.00
G01 X-0.3626 Y-46.3968 F120.00
G01 X-0.3443 Y-46.4315 F120.00
G01 X-0.3198 Y-46.4682 F120.00
G01 X-0.2947 Y-46.4984 F120.00
G01 X-0.2704 Y-46.5227 F120.00
G01 X-0.2363 Y-46.5507 F120.00
G01 X-0.2035 Y-46.5723 F120.00
G01 X-0.1732 Y-46.5885 F120.00
G01 X-0.1324 Y-46.6054 F120.00
G01 X-0.0996 Y-46.6154 F120.00
G01 X-0.0611 Y-46.6233 F120.00
G01 X-0.0221 Y-46.6274 F120.00
G01 X0.0000 Y-46.6280 F120.00
G01 X17.5110 Y-46.6280 F120.00
G00 X17.5110 Y-46.6280
G01 F60.00
G01 Z-2.0000
G01 F120.00
G01 X0.0000 Y-46.6280 F120.00
G01 X-0.0221 Y-46.6274 F120.00
G01 X-0.0611 Y-46.6233 F120.00
G01 X-0.0996 Y-46.6154 F120.00
G01 X-0.1324 Y-46.6054 F120.00
G01 X-0.1732 Y-46.5885 F120.00
G01 X-0.2035 Y-46.5723 F120.00
G01 X-0.2363 Y-46.5507 F120.00
G01 X-0.2704 Y-46.5227 F120.00
G01 X-0.2947 Y-46.4984 F120.00
G01 X-0.3198 Y-46.4682 F120.00
G01 X-0.3443 Y-46.4315 F120.00
G01 X-0.3626 Y-46.3968 F120.00
G01 X-0.3758 Y-46.3651 F120.00
G01 X-0.3874 Y-46.3276 F120.00
G01 X-0.3953 Y-46.2891 F120.00
G01 X-0.3994 Y-46.2501 F120.00
G01 X-0.4000 Y-46.2280 F120.00
G01 X-0.4000 Y-0.0000 F120.00
G01 X-0.3994 Y0.0221 F120.00
G01 X-0.3960 Y0.0563 F120.00
G01 X-0.3886 Y0.0948 F120.00
G01 X-0.3774 Y0.1324 F120.00
G01 X-0.3626 Y0.1688 F120.00
G01 X-0.3443 Y0.2035 F120.00
G01 X-0.3227 Y0.2363 F120.00
G01 X-0.2980 Y0.2668 F120.00
G01 X-0.2704 Y0.2947 F120.00
G01 X-0.2402 Y0.3198 F120.00
G01 X-0.2077 Y0.3418 F120.00
G01 X-0.1732 Y0.3605 F120.00
G01 X-0.1371 Y0.3758 F120.00
G01 X-0.0996 Y0.3874 F120.00
G01 X-0.0611 Y0.3953 F120.00
G01 X-0.0221 Y0.3994 F120.00
G01 X0.0000 Y0.4000 F120.00
G01 X17.5110 Y0.4000 F120.00
G00 X17.5110 Y0.4000
G01 F60.00
G01 Z-2.5000
G01 F120.00
G01 X0.0000 Y0.4000 F120.00
G01 X-0.0221 Y0.3994 F120.00
G01 X-0.0611 Y0.3953 F120.00
G01 X-0.0996 Y0.3874 F120.00
G01 X-0.1371 Y0.3758 F120.00
G01 X-0.1732 Y0.3605 F120.00
G01 X-0.2077 Y0.3418 F120.00
G01 X-0.2402 Y0.3198 F120.00
G01 X-0.2704 Y0.2947 F120.00
G01 X-0.2980 Y0.2668 F120.00
G01 X-0.3227 Y0.2363 F120.00
G01 X-0.3443 Y0.2035 F120.00
G01 X-0.3626 Y0.1688 F120.00
G01 X-0.3774 Y0.1324 F120.00
G01 X-0.3886 Y0.0948 F120.00
G01 X-0.3960 Y0.0563 F120.00
G01 X-0.3994 Y0.0221 F120.00
G01 X-0.4000 Y-0.0000 F120.00
G01 X-0.4000 Y-46.2280 F120.00
G01 X-0.3994 Y-46.2501 F120.00
G01 X-0.3953 Y-46.2891 F120.00
G01 X-0.3874 Y-46.3276 F120.00
G01 X-0.3758 Y-46.3651 F120.00
G01 X-0.3626 Y-46.3968 F120.00
G01 X-0.3443 Y-46.4315 F120.00
G01 X-0.3198 Y-46.4682 F120.00
G01 X-0.2947 Y-46.4984 F120.00
G01 X-0.2704 Y-46.5227 F120.00
G01 X-0.2363 Y-46.5507 F120.00
G01 X-0.2035 Y-46.5723 F120.00
G01 X-0.1732 Y-46.5885 F120.00
G01 X-0.1324 Y-46.6054 F120.00
G01 X-0.0996 Y-46.6154 F120.00
G01 X-0.0611 Y-46.6233 F120.00
G01 X-0.0221 Y-46.6274 F120.00
G01 X0.0000 Y-46.6280 F120.00
G01 X17.5110 Y-46.6280 F120.00
G00 X17.5110 Y-46.6280
G01 F60.00
G01 Z-2.7500
G01 F120.00
G01 X0.0000 Y-46.6280 F120.00
G01 X-0.0221 Y-46.6274 F120.00
G01 X-0.0611 Y-46.6233 F120.00
G01 X-0.0996 Y-46.6154 F120.00
G01 X-0.1324 Y-46.6054 F120.00
G01 X-0.1732 Y-46.5885 F120.00
G01 X-0.2035 Y-46.5723 F120.00
G01 X-0.2363 Y-46.5507 F120.00
G01 X-0.2704 Y-46.5227 F120.00
G01 X-0.2947 Y-46.4984 F120.00
G01 X-0.3198 Y-46.4682 F120.00
G01 X-0.3443 Y-46.4315 F120.00
G01 X-0.3626 Y-46.3968 F120.00
G01 X-0.3758 Y-46.3651 F120.00
G01 X-0.3874 Y-46.3276 F120.00
G01 X-0.3953 Y-46.2891 F120.00
G01 X-0.3994 Y-46.2501 F120.00
G01 X-0.4000 Y-46.2280 F120.00
G01 X-0.4000 Y-0.0000 F120.00
G01 X-0.3994 Y0.0221 F120.00
G01 X-0.3960 Y0.0563 F120.00
G01 X-0.3886 Y0.0948 F120.00
G01 X-0.3774 Y0.1324 F120.00
G01 X-0.3626 Y0.1688 F120.00
G01 X-0.3443 Y0.2035 F120.00
G01 X-0.3227 Y0.2363 F120.00
G01 X-0.2980 Y0.2668 F120.00
G01 X-0.2704 Y0.2947 F120.00
G01 X-0.2402 Y0.3198 F120.00
G01 X-0.2077 Y0.3418 F120.00
G01 X-0.1732 Y0.3605 F120.00
G01 X-0.1371 Y0.3758 F120.00
G01 X-0.0996 Y0.3874 F120.00
G01 X-0.0611 Y0.3953 F120.00
G01 X-0.0221 Y0.3994 F120.00
G01 X0.0000 Y0.4000 F120.00
G01 X17.5110 Y0.4000 F120.00
G00 Z2.0000
G00 X19.0110 Y0.4000
G01 F60.00
G01 Z-0.5000
G01 F120.00
G01 X36.3220 Y0.4000 F120.00
G01 X36.3441 Y0.3994 F120.00
G01 X36.3831 Y0.3953 F120.00
G01 X36.4168 Y0.3886 F120.00
G01 X36.4544 Y0.3774 F120.00
G01 X36.4952 Y0.3605 F120.00
G01 X36.5297 Y0.3418 F120.00
G01 X36.5583 Y0.3227 F120.00
G01 X36.5924 Y0.2947 F120.00
G01 X36.6200 Y0.2668 F120.00
G01 X36.6418 Y0.2402 F120.00
G01 X36.6663 Y0.2035 F120.00
G01 X36.6825 Y0.1732 F120.00
G01 X36.6978 Y0.1371 F120.00
G01 X36.7094 Y0.0996 F120.00
G01 X36.7173 Y0.0611 F120.00
G01 X36.7214 Y0.0221 F120.00
G01 X36.7220 Y-0.0000 F120.00
G01 X36.7220 Y-46.2280 F120.00
G01 X36.7214 Y-46.2501 F120.00
G01 X36.7180 Y-46.2843 F120.00
G01 X36.7106 Y-46.3228 F120.00
G01 X36.6994 Y-46.3604 F120.00
G01 X36.6846 Y-46.3968 F120.00
G01 X36.6663 Y-46.4315 F120.00
G01 X36.6447 Y-46.4643 F120.00
G01 X36.6200 Y-46.4948 F120.00
G01 X36.5924 Y-46.5227 F120.00
G01 X36.5622 Y-46.5478 F120.00
G01 X36.5297 Y-46.5698 F120.00
G01 X36.4952 Y-46.5885 F120.00
G01 X36.4591 Y-46.6038 F120.00
G01 X36.4216 Y-46.6154 F120.00
G01 X36.3831 Y-46.6233 F120.00
G01 X36.3441 Y-46.6274 F120.00
G01 X36.3220 Y-46.6280 F120.00
G01 X19.0110 Y-46.6280 F120.00
G00 X19.0110 Y-46.6280
G01 F60.00
G01 Z-1.0000
G01 F120.00
G01 X36.3220 Y-46.6280 F120.00
G01 X36.3441 Y-46.6274 F120.00
G01 X36.3831 Y-46.6233 F120.00
G01 X36.4216 Y-46.6154 F120.00
G01 X36.4591 Y-46.6038 F120.00
G01 X36.4952 Y-46.5885 F120.00
G01 X36.5297 Y-46.5698 F120.00
G01 X36.5622 Y-46.5478 F120.00
G01 X36.5924 Y-46.5227 F120.00
G01 X36.6200 Y-46.4948 F120.00
G01 X36.6447 Y-46.4643 F120.00
G01 X36.6663 Y-46.4315 F120.00
G01 X36.6846 Y-46.3968 F120.00
G01 X36.6994 Y-46.3604 F120.00
G01 X36.7106 Y-46.3228 F120.00
G01 X36.7180 Y-46.2843 F120.00
G01 X36.7214 Y-46.2501 F120.00
G01 X36.7220 Y-46.2280 F120.00
G01 X36.7220 Y-0.0000 F120.00
G01 X36.7214 Y0.0221 F120.00
G01 X36.7173 Y0.0611 F120.00
G01 X36.7094 Y0.0996 F120.00
G01 X36.6978 Y0.1371 F120.00
G01 X36.6825 Y0.1732 F120.00
G01 X36.6663 Y0.2035 F120.00
G01 X36.6418 Y0.2402 F120.00
G01 X36.6200 Y0.2668 F120.00
G01 X36.5924 Y0.2947 F120.00
G01 X36.5583 Y0.3227 F120.00
G01 X36.5297 Y0.3418 F120.00
G01 X36.4952 Y0.3605 F120.00
G01 X36.4544 Y0.3774 F120.00
G01 X36.4168 Y0.3886 F120.00
G01 X36.3831 Y0.3953 F120.00
G01 X36.3441 Y0.3994 F120.00
G01 X36.3220 Y0.4000 F120.00
G01 X19.0110 Y0.4000 F120.00
G00 X19.0110 Y0.4000
G01 F60.00
G01 Z-1.5000
G01 F120.00
G01 X36.3220 Y0.4000 F120.00
G01 X36.3441 Y0.3994 F120.00
G01 X36.3831 Y0.3953 F120.00
G01 X36.4168 Y0.3886 F120.00
G01 X36.4544 Y0.3774 F120.00
G01 X36.4952 Y0.3605 F120.00
G01 X36.5297 Y0.3418 F120.00
G01 X36.5583 Y0.3227 F120.00
G01 X36.5924 Y0.2947 F120.00
G01 X36.6200 Y0.2668 F120.00
G01 X36.6418 Y0.2402 F120.00
G01 X36.6663 Y0.2035 F120.00
G01 X36.6825 Y0.1732 F120.00
G01 X36.6978 Y0.1371 F120.00
G01 X36.7094 Y0.0996 F120.00
G01 X36.7173 Y0.0611 F120.00
G01 X36.7214 Y0.0221 F120.00
G01 X36.7220 Y-0.0000 F120.00
G01 X36.7220 Y-46.2280 F120.00
G01 X36.7214 Y-46.2501 F120.00
G01 X36.7180 Y-46.2843 F120.00
G01 X36.7106 Y-46.3228 F120.00
G01 X36.6994 Y-46.3604 F120.00
G01 X36.6846 Y-46.3968 F120.00
G01 X36.6663 Y-46.4315 F120.00
G01 X36.6447 Y-46.4643 F120.00
G01 X36.6200 Y-46.4948 F120.00
G01 X36.5924 Y-46.5227 F120.00
G01 X36.5622 Y-46.5478 F120.00
G01 X36.5297 Y-46.5698 F120.00
G01 X36.4952 Y-46.5885 F120.00
G01 X36.4591 Y-46.6038 F120.00
G01 X36.4216 Y-46.6154 F120.00
G01 X36.3831 Y-46.6233 F120.00
G01 X36.3441 Y-46.6274 F120.00
G01 X36.3220 Y-46.6280 F120.00
G01 X19.0110 Y-46.6280 F120.00
G00 X19.0110 Y-46.6280
G01 F60.00
G01 Z-2.0000
G01 F120.00
G01 X36.3220 Y-46.6280 F120.00
G01 X36.3441 Y-46.6274 F120.00
G01 X36.3831 Y-46.6233 F120.00
G01 X36.4216 Y-46.6154 F120.00
G01 X36.4591 Y-46.6038 F120.00
G01 X36.4952 Y-46.5885 F120.00
G01 X36.5297 Y-46.5698 F120.00
G01 X36.5622 Y-46.5478 F120.00
G01 X36.5924 Y-46.5227 F120.00
G01 X36.6200 Y-46.4948 F120.00
G01 X36.6447 Y-46.4643 F120.00
G01 X36.6663 Y-46.4315 F120.00
G01 X36.6846 Y-46.3968 F120.00
G01 X36.6994 Y-46.3604 F120.00
G01 X36.7106 Y-46.3228 F120.00
G01 X36.7180 Y-46.2843 F120.00
G01 X36.7214 Y-46.2501 F120.00
G01 X36.7220 Y-46.2280 F120.00
G01 X36.7220 Y-0.0000 F120.00
G01 X36.7214 Y0.0221 F120.00
G01 X36.7173 Y0.0611 F120.00
G01 X36.7094 Y0.0996 F120.00
G01 X36.6978 Y0.1371 F120.00
G01 X36.6825 Y0.1732 F120.00
G01 X36.6663 Y0.2035 F120.00
G01 X36.6418 Y0.2402 F120.00
G01 X36.6200 Y0.2668 F120.00
G01 X36.5924 Y0.2947 F120.00
G01 X36.5583 Y0.3227 F120.00
G01 X36.5297 Y0.3418 F120.00
G01 X36.4952 Y0.3605 F120.00
G01 X36.4544 Y0.3774 F120.00
G01 X36.4168 Y0.3886 F120.00
G01 X36.3831 Y0.3953 F120.00
G01 X36.3441 Y0.3994 F120.00
G01 X36.3220 Y0.4000 F120.00
G01 X19.0110 Y0.4000 F120.00
G00 X19.0110 Y0.4000
G01 F60.00
G01 Z-2.5000
G01 F120.00
G01 X36.3220 Y0.4000 F120.00
G01 X36.3441 Y0.3994 F120.00
G01 X36.3831 Y0.3953 F120.00
G01 X36.4168 Y0.3886 F120.00
G01 X36.4544 Y0.3774 F120.00
G01 X36.4952 Y0.3605 F120.00
G01 X36.5297 Y0.3418 F120.00
G01 X36.5583 Y0.3227 F120.00
G01 X36.5924 Y0.2947 F120.00
G01 X36.6200 Y0.2668 F120.00
G01 X36.6418 Y0.2402 F120.00
G01 X36.6663 Y0.2035 F120.00
G01 X36.6825 Y0.1732 F120.00
G01 X36.6978 Y0.1371 F120.00
G01 X36.7094 Y0.0996 F120.00
G01 X36.7173 Y0.0611 F120.00
G01 X36.7214 Y0.0221 F120.00
G01 X36.7220 Y-0.0000 F120.00
G01 X36.7220 Y-46.2280 F120.00
G01 X36.7214 Y-46.2501 F120.00
G01 X36.7180 Y-46.2843 F120.00
G01 X36.7106 Y-46.3228 F120.00
G01 X36.6994 Y-46.3604 F120.00
G01 X36.6846 Y-46.3968 F120.00
G01 X36.6663 Y-46.4315 F120.00
G01 X36.6447 Y-46.4643 F120.00
G01 X36.6200 Y-46.4948 F120.00
G01 X36.5924 Y-46.5227 F120.00
G01 X36.5622 Y-46.5478 F120.00
G01 X36.5297 Y-46.5698 F120.00
G01 X36.4952 Y-46.5885 F120.00
G01 X36.4591 Y-46.6038 F120.00
G01 X36.4216 Y-46.6154 F120.00
G01 X36.3831 Y-46.6233 F120.00
G01 X36.3441 Y-46.6274 F120.00
G01 X36.3220 Y-46.6280 F120.00
G01 X19.0110 Y-46.6280 F120.00
G00 X19.0110 Y-46.6280
G01 F60.00
G01 Z-2.7500
G01 F120.00
G01 X36.3220 Y-46.6280 F120.00
G01 X36.3441 Y-46.6274 F120.00
G01 X36.3831 Y-46.6233 F120.00
G01 X36.4216 Y-46.6154 F120.00
G01 X36.4591 Y-46.6038 F120.00
G01 X36.4952 Y-46.5885 F120.00
G01 X36.5297 Y-46.5698 F120.00
G01 X36.5622 Y-46.5478 F120.00
G01 X36.5924 Y-46.5227 F120.00
G01 X36.6200 Y-46.4948 F120.00
G01 X36.6447 Y-46.4643 F120.00
G01 X36.6663 Y-46.4315 F120.00
G01 X36.6846 Y-46.3968 F120.00
G01 X36.6994 Y-46.3604 F120.00
G01 X36.7106 Y-46.3228 F120.00
G01 X36.7180 Y-46.2843 F120.00
G01 X36.7214 Y-46.2501 F120.00
G01 X36.7220 Y-46.2280 F120.00
G01 X36.7220 Y-0.0000 F120.00
G01 X36.7214 Y0.0221 F120.00
G01 X36.7173 Y0.0611 F120.00
G01 X36.7094 Y0.0996 F120.00
G01 X36.6978 Y0.1371 F120.00
G01 X36.6825 Y0.1732 F120.00
G01 X36.6663 Y0.2035 F120.00
G01 X36.6418 Y0.2402 F120.00
G01 X36.6200 Y0.2668 F120.00
G01 X36.5924 Y0.2947 F120.00
G01 X36.5583 Y0.3227 F120.00
G01 X36.5297 Y0.3418 F120.00
G01 X36.4952 Y0.3605 F120.00
G01 X36.4544 Y0.3774 F120.00
G01 X36.4168 Y0.3886 F120.00
G01 X36.3831 Y0.3953 F120.00
G01 X36.3441 Y0.3994 F120.00
G01 X36.3220 Y0.4000 F120.00
G01 X19.0110 Y0.4000 F120.00
G00 Z2.0000
G01 F120.00

M5             
G00 Z15.0000
G00 X0.0000 Y0.0000                
T9999
(MSG, Change to Tool Dia = 0.5000)
M0
G00 Z15.0000
        
M03
G01 F120.00
G00 X17.5110 Y0.4000
G01 F60.00
G01 Z-0.5000
G01 F120.00
G01 X19.0110 Y0.4000 F120.00
G00 X19.0110 Y0.4000
G01 F60.00
G01 Z-1.0000
G01 F120.00
G01 X17.5110 Y0.4000 F120.00
G00 X17.5110 Y0.4000
G01 F60.00
G01 Z-1.5000
G01 F120.00
G01 X19.0110 Y0.4000 F120.00
G00 X19.0110 Y0.4000
G01 F60.00
G01 Z-2.0000
G01 F120.00
G01 X17.5110 Y0.4000 F120.00
G00 X17.5110 Y0.4000
G01 F60.00
G01 Z-2.5000
G01 F120.00
G01 X19.0110 Y0.4000 F120.00
G00 X19.0110 Y0.4000
G01 F60.00
G01 Z-2.7500
G01 F120.00
G01 X17.5110 Y0.4000 F120.00
G00 Z2.0000
G00 X19.0110 Y-46.6280
G01 F60.00
G01 Z-0.5000
G01 F120.00
G01 X17.5110 Y-46.6280 F120.00
G00 X17.5110 Y-46.6280
G01 F60.00
G01 Z-1.0000
G01 F120.00
G01 X19.0110 Y-46.6280 F120.00
G00 X19.0110 Y-46.6280
G01 F60.00
G01 Z-1.5000
G01 F120.00
G01 X17.5110 Y-46.6280 F120.00
G00 X17.5110 Y-46.6280
G01 F60.00
G01 Z-2.0000
G01 F120.00
G01 X19.0110 Y-46.6280 F120.00
G00 X19.0110 Y-46.6280
G01 F60.00
G01 Z-2.5000
G01 F120.00
G01 X17.5110 Y-46.6280 F120.00
G00 X17.5110 Y-46.6280
G01 F60.00
G01 Z-2.7500
G01 F120.00
G01 X19.0110 Y-46.6280 F120.00
G00 Z2.0000
M05
G00 Z2.0000
G00 Z15.00
G00 X0.0 Y0.0


