(G-CODE GENERATED BY FLATCAM v8.994 - www.flatcam.org - Version Date: 2020/11/7)

(Name: Electrode_Select_Breakout.drl_mill_cnc)
(Type: G-code from Geometry)
(Units: MM)

(Created on Sunday, 31 March 2024 at 17:46)

(This preprocessor is used with a motion controller loaded with GRBL firmware.)
(It is configured to be compatible with almost any version of GRBL firmware.)

(TOOL DIAMETER: 0.5 mm)
(Feedrate_XY: 60.0 mm/min)
(Feedrate_Z: 60.0 mm/min)
(Feedrate rapids 1500.0 mm/min)

(Z_Cut: -2.5 mm)
(DepthPerCut: 0.5 mm <=>5 passes)
(Z_Move: 2.0 mm)
(Z Start: None mm)
(Z End: 15.0 mm)
(X,Y End: 0.0000, 0.0000 mm)
(Steps per circle: 64)
(Steps per circle: 64)
(Preprocessor Geometry: GRBL_11_no_M6)

(X range:    3.8590 ...   32.2090  mm)
(Y range:  -42.2700 ...   -8.6850  mm)

(Spindle Speed: 0.0 RPM)
G21
G90
G17
G94


G01 F60.00

M5             
G00 Z15.0000
G00 X0.0000 Y0.0000                
T1
(MSG, Change to Tool Dia = 0.5000)
M0
G00 Z15.0000
        
M03
G01 F60.00
G00 X6.8090 Y-10.1600
G01 F60.00
G01 Z-0.5000
G01 F60.00
G01 X6.8019 Y-10.3046 F60.00
G01 X6.7807 Y-10.4478 F60.00
G01 X6.7455 Y-10.5882 F60.00
G01 X6.6967 Y-10.7245 F60.00
G01 X6.6348 Y-10.8553 F60.00
G01 X6.5604 Y-10.9795 F60.00
G01 X6.4742 Y-11.0957 F60.00
G01 X6.3770 Y-11.2030 F60.00
G01 X6.2697 Y-11.3002 F60.00
G01 X6.1535 Y-11.3864 F60.00
G01 X6.0293 Y-11.4608 F60.00
G01 X5.8985 Y-11.5227 F60.00
G01 X5.7622 Y-11.5715 F60.00
G01 X5.6218 Y-11.6067 F60.00
G01 X5.4786 Y-11.6279 F60.00
G01 X5.3340 Y-11.6350 F60.00
G01 X5.1894 Y-11.6279 F60.00
G01 X5.0462 Y-11.6067 F60.00
G01 X4.9058 Y-11.5715 F60.00
G01 X4.7695 Y-11.5227 F60.00
G01 X4.6387 Y-11.4608 F60.00
G01 X4.5145 Y-11.3864 F60.00
G01 X4.3983 Y-11.3002 F60.00
G01 X4.2910 Y-11.2030 F60.00
G01 X4.1938 Y-11.0957 F60.00
G01 X4.1076 Y-10.9795 F60.00
G01 X4.0332 Y-10.8553 F60.00
G01 X3.9713 Y-10.7245 F60.00
G01 X3.9225 Y-10.5882 F60.00
G01 X3.8873 Y-10.4478 F60.00
G01 X3.8661 Y-10.3046 F60.00
G01 X3.8590 Y-10.1600 F60.00
G01 X3.8661 Y-10.0154 F60.00
G01 X3.8873 Y-9.8722 F60.00
G01 X3.9225 Y-9.7318 F60.00
G01 X3.9713 Y-9.5955 F60.00
G01 X4.0332 Y-9.4647 F60.00
G01 X4.1076 Y-9.3405 F60.00
G01 X4.1938 Y-9.2243 F60.00
G01 X4.2910 Y-9.1170 F60.00
G01 X4.3983 Y-9.0198 F60.00
G01 X4.5145 Y-8.9336 F60.00
G01 X4.6387 Y-8.8592 F60.00
G01 X4.7695 Y-8.7973 F60.00
G01 X4.9058 Y-8.7485 F60.00
G01 X5.0462 Y-8.7133 F60.00
G01 X5.1894 Y-8.6921 F60.00
G01 X5.3340 Y-8.6850 F60.00
G01 X5.4786 Y-8.6921 F60.00
G01 X5.6218 Y-8.7133 F60.00
G01 X5.7622 Y-8.7485 F60.00
G01 X5.8985 Y-8.7973 F60.00
G01 X6.0293 Y-8.8592 F60.00
G01 X6.1535 Y-8.9336 F60.00
G01 X6.2697 Y-9.0198 F60.00
G01 X6.3770 Y-9.1170 F60.00
G01 X6.4742 Y-9.2243 F60.00
G01 X6.5604 Y-9.3405 F60.00
G01 X6.6348 Y-9.4647 F60.00
G01 X6.6967 Y-9.5955 F60.00
G01 X6.7455 Y-9.7318 F60.00
G01 X6.7807 Y-9.8722 F60.00
G01 X6.8019 Y-10.0154 F60.00
G01 X6.8090 Y-10.1600 F60.00
G00 X6.8090 Y-10.1600
G01 F60.00
G01 Z-1.0000
G01 F60.00
G01 X6.8019 Y-10.3046 F60.00
G01 X6.7807 Y-10.4478 F60.00
G01 X6.7455 Y-10.5882 F60.00
G01 X6.6967 Y-10.7245 F60.00
G01 X6.6348 Y-10.8553 F60.00
G01 X6.5604 Y-10.9795 F60.00
G01 X6.4742 Y-11.0957 F60.00
G01 X6.3770 Y-11.2030 F60.00
G01 X6.2697 Y-11.3002 F60.00
G01 X6.1535 Y-11.3864 F60.00
G01 X6.0293 Y-11.4608 F60.00
G01 X5.8985 Y-11.5227 F60.00
G01 X5.7622 Y-11.5715 F60.00
G01 X5.6218 Y-11.6067 F60.00
G01 X5.4786 Y-11.6279 F60.00
G01 X5.3340 Y-11.6350 F60.00
G01 X5.1894 Y-11.6279 F60.00
G01 X5.0462 Y-11.6067 F60.00
G01 X4.9058 Y-11.5715 F60.00
G01 X4.7695 Y-11.5227 F60.00
G01 X4.6387 Y-11.4608 F60.00
G01 X4.5145 Y-11.3864 F60.00
G01 X4.3983 Y-11.3002 F60.00
G01 X4.2910 Y-11.2030 F60.00
G01 X4.1938 Y-11.0957 F60.00
G01 X4.1076 Y-10.9795 F60.00
G01 X4.0332 Y-10.8553 F60.00
G01 X3.9713 Y-10.7245 F60.00
G01 X3.9225 Y-10.5882 F60.00
G01 X3.8873 Y-10.4478 F60.00
G01 X3.8661 Y-10.3046 F60.00
G01 X3.8590 Y-10.1600 F60.00
G01 X3.8661 Y-10.0154 F60.00
G01 X3.8873 Y-9.8722 F60.00
G01 X3.9225 Y-9.7318 F60.00
G01 X3.9713 Y-9.5955 F60.00
G01 X4.0332 Y-9.4647 F60.00
G01 X4.1076 Y-9.3405 F60.00
G01 X4.1938 Y-9.2243 F60.00
G01 X4.2910 Y-9.1170 F60.00
G01 X4.3983 Y-9.0198 F60.00
G01 X4.5145 Y-8.9336 F60.00
G01 X4.6387 Y-8.8592 F60.00
G01 X4.7695 Y-8.7973 F60.00
G01 X4.9058 Y-8.7485 F60.00
G01 X5.0462 Y-8.7133 F60.00
G01 X5.1894 Y-8.6921 F60.00
G01 X5.3340 Y-8.6850 F60.00
G01 X5.4786 Y-8.6921 F60.00
G01 X5.6218 Y-8.7133 F60.00
G01 X5.7622 Y-8.7485 F60.00
G01 X5.8985 Y-8.7973 F60.00
G01 X6.0293 Y-8.8592 F60.00
G01 X6.1535 Y-8.9336 F60.00
G01 X6.2697 Y-9.0198 F60.00
G01 X6.3770 Y-9.1170 F60.00
G01 X6.4742 Y-9.2243 F60.00
G01 X6.5604 Y-9.3405 F60.00
G01 X6.6348 Y-9.4647 F60.00
G01 X6.6967 Y-9.5955 F60.00
G01 X6.7455 Y-9.7318 F60.00
G01 X6.7807 Y-9.8722 F60.00
G01 X6.8019 Y-10.0154 F60.00
G01 X6.8090 Y-10.1600 F60.00
G00 X6.8090 Y-10.1600
G01 F60.00
G01 Z-1.5000
G01 F60.00
G01 X6.8019 Y-10.3046 F60.00
G01 X6.7807 Y-10.4478 F60.00
G01 X6.7455 Y-10.5882 F60.00
G01 X6.6967 Y-10.7245 F60.00
G01 X6.6348 Y-10.8553 F60.00
G01 X6.5604 Y-10.9795 F60.00
G01 X6.4742 Y-11.0957 F60.00
G01 X6.3770 Y-11.2030 F60.00
G01 X6.2697 Y-11.3002 F60.00
G01 X6.1535 Y-11.3864 F60.00
G01 X6.0293 Y-11.4608 F60.00
G01 X5.8985 Y-11.5227 F60.00
G01 X5.7622 Y-11.5715 F60.00
G01 X5.6218 Y-11.6067 F60.00
G01 X5.4786 Y-11.6279 F60.00
G01 X5.3340 Y-11.6350 F60.00
G01 X5.1894 Y-11.6279 F60.00
G01 X5.0462 Y-11.6067 F60.00
G01 X4.9058 Y-11.5715 F60.00
G01 X4.7695 Y-11.5227 F60.00
G01 X4.6387 Y-11.4608 F60.00
G01 X4.5145 Y-11.3864 F60.00
G01 X4.3983 Y-11.3002 F60.00
G01 X4.2910 Y-11.2030 F60.00
G01 X4.1938 Y-11.0957 F60.00
G01 X4.1076 Y-10.9795 F60.00
G01 X4.0332 Y-10.8553 F60.00
G01 X3.9713 Y-10.7245 F60.00
G01 X3.9225 Y-10.5882 F60.00
G01 X3.8873 Y-10.4478 F60.00
G01 X3.8661 Y-10.3046 F60.00
G01 X3.8590 Y-10.1600 F60.00
G01 X3.8661 Y-10.0154 F60.00
G01 X3.8873 Y-9.8722 F60.00
G01 X3.9225 Y-9.7318 F60.00
G01 X3.9713 Y-9.5955 F60.00
G01 X4.0332 Y-9.4647 F60.00
G01 X4.1076 Y-9.3405 F60.00
G01 X4.1938 Y-9.2243 F60.00
G01 X4.2910 Y-9.1170 F60.00
G01 X4.3983 Y-9.0198 F60.00
G01 X4.5145 Y-8.9336 F60.00
G01 X4.6387 Y-8.8592 F60.00
G01 X4.7695 Y-8.7973 F60.00
G01 X4.9058 Y-8.7485 F60.00
G01 X5.0462 Y-8.7133 F60.00
G01 X5.1894 Y-8.6921 F60.00
G01 X5.3340 Y-8.6850 F60.00
G01 X5.4786 Y-8.6921 F60.00
G01 X5.6218 Y-8.7133 F60.00
G01 X5.7622 Y-8.7485 F60.00
G01 X5.8985 Y-8.7973 F60.00
G01 X6.0293 Y-8.8592 F60.00
G01 X6.1535 Y-8.9336 F60.00
G01 X6.2697 Y-9.0198 F60.00
G01 X6.3770 Y-9.1170 F60.00
G01 X6.4742 Y-9.2243 F60.00
G01 X6.5604 Y-9.3405 F60.00
G01 X6.6348 Y-9.4647 F60.00
G01 X6.6967 Y-9.5955 F60.00
G01 X6.7455 Y-9.7318 F60.00
G01 X6.7807 Y-9.8722 F60.00
G01 X6.8019 Y-10.0154 F60.00
G01 X6.8090 Y-10.1600 F60.00
G00 X6.8090 Y-10.1600
G01 F60.00
G01 Z-2.0000
G01 F60.00
G01 X6.8019 Y-10.3046 F60.00
G01 X6.7807 Y-10.4478 F60.00
G01 X6.7455 Y-10.5882 F60.00
G01 X6.6967 Y-10.7245 F60.00
G01 X6.6348 Y-10.8553 F60.00
G01 X6.5604 Y-10.9795 F60.00
G01 X6.4742 Y-11.0957 F60.00
G01 X6.3770 Y-11.2030 F60.00
G01 X6.2697 Y-11.3002 F60.00
G01 X6.1535 Y-11.3864 F60.00
G01 X6.0293 Y-11.4608 F60.00
G01 X5.8985 Y-11.5227 F60.00
G01 X5.7622 Y-11.5715 F60.00
G01 X5.6218 Y-11.6067 F60.00
G01 X5.4786 Y-11.6279 F60.00
G01 X5.3340 Y-11.6350 F60.00
G01 X5.1894 Y-11.6279 F60.00
G01 X5.0462 Y-11.6067 F60.00
G01 X4.9058 Y-11.5715 F60.00
G01 X4.7695 Y-11.5227 F60.00
G01 X4.6387 Y-11.4608 F60.00
G01 X4.5145 Y-11.3864 F60.00
G01 X4.3983 Y-11.3002 F60.00
G01 X4.2910 Y-11.2030 F60.00
G01 X4.1938 Y-11.0957 F60.00
G01 X4.1076 Y-10.9795 F60.00
G01 X4.0332 Y-10.8553 F60.00
G01 X3.9713 Y-10.7245 F60.00
G01 X3.9225 Y-10.5882 F60.00
G01 X3.8873 Y-10.4478 F60.00
G01 X3.8661 Y-10.3046 F60.00
G01 X3.8590 Y-10.1600 F60.00
G01 X3.8661 Y-10.0154 F60.00
G01 X3.8873 Y-9.8722 F60.00
G01 X3.9225 Y-9.7318 F60.00
G01 X3.9713 Y-9.5955 F60.00
G01 X4.0332 Y-9.4647 F60.00
G01 X4.1076 Y-9.3405 F60.00
G01 X4.1938 Y-9.2243 F60.00
G01 X4.2910 Y-9.1170 F60.00
G01 X4.3983 Y-9.0198 F60.00
G01 X4.5145 Y-8.9336 F60.00
G01 X4.6387 Y-8.8592 F60.00
G01 X4.7695 Y-8.7973 F60.00
G01 X4.9058 Y-8.7485 F60.00
G01 X5.0462 Y-8.7133 F60.00
G01 X5.1894 Y-8.6921 F60.00
G01 X5.3340 Y-8.6850 F60.00
G01 X5.4786 Y-8.6921 F60.00
G01 X5.6218 Y-8.7133 F60.00
G01 X5.7622 Y-8.7485 F60.00
G01 X5.8985 Y-8.7973 F60.00
G01 X6.0293 Y-8.8592 F60.00
G01 X6.1535 Y-8.9336 F60.00
G01 X6.2697 Y-9.0198 F60.00
G01 X6.3770 Y-9.1170 F60.00
G01 X6.4742 Y-9.2243 F60.00
G01 X6.5604 Y-9.3405 F60.00
G01 X6.6348 Y-9.4647 F60.00
G01 X6.6967 Y-9.5955 F60.00
G01 X6.7455 Y-9.7318 F60.00
G01 X6.7807 Y-9.8722 F60.00
G01 X6.8019 Y-10.0154 F60.00
G01 X6.8090 Y-10.1600 F60.00
G00 X6.8090 Y-10.1600
G01 F60.00
G01 Z-2.5000
G01 F60.00
G01 X6.8019 Y-10.3046 F60.00
G01 X6.7807 Y-10.4478 F60.00
G01 X6.7455 Y-10.5882 F60.00
G01 X6.6967 Y-10.7245 F60.00
G01 X6.6348 Y-10.8553 F60.00
G01 X6.5604 Y-10.9795 F60.00
G01 X6.4742 Y-11.0957 F60.00
G01 X6.3770 Y-11.2030 F60.00
G01 X6.2697 Y-11.3002 F60.00
G01 X6.1535 Y-11.3864 F60.00
G01 X6.0293 Y-11.4608 F60.00
G01 X5.8985 Y-11.5227 F60.00
G01 X5.7622 Y-11.5715 F60.00
G01 X5.6218 Y-11.6067 F60.00
G01 X5.4786 Y-11.6279 F60.00
G01 X5.3340 Y-11.6350 F60.00
G01 X5.1894 Y-11.6279 F60.00
G01 X5.0462 Y-11.6067 F60.00
G01 X4.9058 Y-11.5715 F60.00
G01 X4.7695 Y-11.5227 F60.00
G01 X4.6387 Y-11.4608 F60.00
G01 X4.5145 Y-11.3864 F60.00
G01 X4.3983 Y-11.3002 F60.00
G01 X4.2910 Y-11.2030 F60.00
G01 X4.1938 Y-11.0957 F60.00
G01 X4.1076 Y-10.9795 F60.00
G01 X4.0332 Y-10.8553 F60.00
G01 X3.9713 Y-10.7245 F60.00
G01 X3.9225 Y-10.5882 F60.00
G01 X3.8873 Y-10.4478 F60.00
G01 X3.8661 Y-10.3046 F60.00
G01 X3.8590 Y-10.1600 F60.00
G01 X3.8661 Y-10.0154 F60.00
G01 X3.8873 Y-9.8722 F60.00
G01 X3.9225 Y-9.7318 F60.00
G01 X3.9713 Y-9.5955 F60.00
G01 X4.0332 Y-9.4647 F60.00
G01 X4.1076 Y-9.3405 F60.00
G01 X4.1938 Y-9.2243 F60.00
G01 X4.2910 Y-9.1170 F60.00
G01 X4.3983 Y-9.0198 F60.00
G01 X4.5145 Y-8.9336 F60.00
G01 X4.6387 Y-8.8592 F60.00
G01 X4.7695 Y-8.7973 F60.00
G01 X4.9058 Y-8.7485 F60.00
G01 X5.0462 Y-8.7133 F60.00
G01 X5.1894 Y-8.6921 F60.00
G01 X5.3340 Y-8.6850 F60.00
G01 X5.4786 Y-8.6921 F60.00
G01 X5.6218 Y-8.7133 F60.00
G01 X5.7622 Y-8.7485 F60.00
G01 X5.8985 Y-8.7973 F60.00
G01 X6.0293 Y-8.8592 F60.00
G01 X6.1535 Y-8.9336 F60.00
G01 X6.2697 Y-9.0198 F60.00
G01 X6.3770 Y-9.1170 F60.00
G01 X6.4742 Y-9.2243 F60.00
G01 X6.5604 Y-9.3405 F60.00
G01 X6.6348 Y-9.4647 F60.00
G01 X6.6967 Y-9.5955 F60.00
G01 X6.7455 Y-9.7318 F60.00
G01 X6.7807 Y-9.8722 F60.00
G01 X6.8019 Y-10.0154 F60.00
G01 X6.8090 Y-10.1600 F60.00
G00 Z2.0000
G00 X6.8540 Y-16.5100
G01 F60.00
G01 Z-0.5000
G01 F60.00
G01 X6.8528 Y-16.5345 F60.00
G01 X6.8492 Y-16.5588 F60.00
G01 X6.8432 Y-16.5826 F60.00
G01 X6.8350 Y-16.6057 F60.00
G01 X6.8245 Y-16.6278 F60.00
G01 X6.8119 Y-16.6489 F60.00
G01 X6.7973 Y-16.6686 F60.00
G01 X6.7808 Y-16.6868 F60.00
G01 X6.7626 Y-16.7033 F60.00
G01 X6.7429 Y-16.7179 F60.00
G01 X6.7218 Y-16.7305 F60.00
G01 X6.6997 Y-16.7410 F60.00
G01 X6.6766 Y-16.7492 F60.00
G01 X6.6528 Y-16.7552 F60.00
G01 X6.6285 Y-16.7588 F60.00
G01 X6.6040 Y-16.7600 F60.00
G01 X6.5795 Y-16.7588 F60.00
G01 X6.5552 Y-16.7552 F60.00
G01 X6.5314 Y-16.7492 F60.00
G01 X6.5083 Y-16.7410 F60.00
G01 X6.4862 Y-16.7305 F60.00
G01 X6.4651 Y-16.7179 F60.00
G01 X6.4454 Y-16.7033 F60.00
G01 X6.4272 Y-16.6868 F60.00
G01 X6.4107 Y-16.6686 F60.00
G01 X6.3961 Y-16.6489 F60.00
G01 X6.3835 Y-16.6278 F60.00
G01 X6.3730 Y-16.6057 F60.00
G01 X6.3648 Y-16.5826 F60.00
G01 X6.3588 Y-16.5588 F60.00
G01 X6.3552 Y-16.5345 F60.00
G01 X6.3540 Y-16.5100 F60.00
G01 X6.3552 Y-16.4855 F60.00
G01 X6.3588 Y-16.4612 F60.00
G01 X6.3648 Y-16.4374 F60.00
G01 X6.3730 Y-16.4143 F60.00
G01 X6.3835 Y-16.3922 F60.00
G01 X6.3961 Y-16.3711 F60.00
G01 X6.4107 Y-16.3514 F60.00
G01 X6.4272 Y-16.3332 F60.00
G01 X6.4454 Y-16.3167 F60.00
G01 X6.4651 Y-16.3021 F60.00
G01 X6.4862 Y-16.2895 F60.00
G01 X6.5083 Y-16.2790 F60.00
G01 X6.5314 Y-16.2708 F60.00
G01 X6.5552 Y-16.2648 F60.00
G01 X6.5795 Y-16.2612 F60.00
G01 X6.6040 Y-16.2600 F60.00
G01 X6.6285 Y-16.2612 F60.00
G01 X6.6528 Y-16.2648 F60.00
G01 X6.6766 Y-16.2708 F60.00
G01 X6.6997 Y-16.2790 F60.00
G01 X6.7218 Y-16.2895 F60.00
G01 X6.7429 Y-16.3021 F60.00
G01 X6.7626 Y-16.3167 F60.00
G01 X6.7808 Y-16.3332 F60.00
G01 X6.7973 Y-16.3514 F60.00
G01 X6.8119 Y-16.3711 F60.00
G01 X6.8245 Y-16.3922 F60.00
G01 X6.8350 Y-16.4143 F60.00
G01 X6.8432 Y-16.4374 F60.00
G01 X6.8492 Y-16.4612 F60.00
G01 X6.8528 Y-16.4855 F60.00
G01 X6.8540 Y-16.5100 F60.00
G00 X6.8540 Y-16.5100
G01 F60.00
G01 Z-1.0000
G01 F60.00
G01 X6.8528 Y-16.5345 F60.00
G01 X6.8492 Y-16.5588 F60.00
G01 X6.8432 Y-16.5826 F60.00
G01 X6.8350 Y-16.6057 F60.00
G01 X6.8245 Y-16.6278 F60.00
G01 X6.8119 Y-16.6489 F60.00
G01 X6.7973 Y-16.6686 F60.00
G01 X6.7808 Y-16.6868 F60.00
G01 X6.7626 Y-16.7033 F60.00
G01 X6.7429 Y-16.7179 F60.00
G01 X6.7218 Y-16.7305 F60.00
G01 X6.6997 Y-16.7410 F60.00
G01 X6.6766 Y-16.7492 F60.00
G01 X6.6528 Y-16.7552 F60.00
G01 X6.6285 Y-16.7588 F60.00
G01 X6.6040 Y-16.7600 F60.00
G01 X6.5795 Y-16.7588 F60.00
G01 X6.5552 Y-16.7552 F60.00
G01 X6.5314 Y-16.7492 F60.00
G01 X6.5083 Y-16.7410 F60.00
G01 X6.4862 Y-16.7305 F60.00
G01 X6.4651 Y-16.7179 F60.00
G01 X6.4454 Y-16.7033 F60.00
G01 X6.4272 Y-16.6868 F60.00
G01 X6.4107 Y-16.6686 F60.00
G01 X6.3961 Y-16.6489 F60.00
G01 X6.3835 Y-16.6278 F60.00
G01 X6.3730 Y-16.6057 F60.00
G01 X6.3648 Y-16.5826 F60.00
G01 X6.3588 Y-16.5588 F60.00
G01 X6.3552 Y-16.5345 F60.00
G01 X6.3540 Y-16.5100 F60.00
G01 X6.3552 Y-16.4855 F60.00
G01 X6.3588 Y-16.4612 F60.00
G01 X6.3648 Y-16.4374 F60.00
G01 X6.3730 Y-16.4143 F60.00
G01 X6.3835 Y-16.3922 F60.00
G01 X6.3961 Y-16.3711 F60.00
G01 X6.4107 Y-16.3514 F60.00
G01 X6.4272 Y-16.3332 F60.00
G01 X6.4454 Y-16.3167 F60.00
G01 X6.4651 Y-16.3021 F60.00
G01 X6.4862 Y-16.2895 F60.00
G01 X6.5083 Y-16.2790 F60.00
G01 X6.5314 Y-16.2708 F60.00
G01 X6.5552 Y-16.2648 F60.00
G01 X6.5795 Y-16.2612 F60.00
G01 X6.6040 Y-16.2600 F60.00
G01 X6.6285 Y-16.2612 F60.00
G01 X6.6528 Y-16.2648 F60.00
G01 X6.6766 Y-16.2708 F60.00
G01 X6.6997 Y-16.2790 F60.00
G01 X6.7218 Y-16.2895 F60.00
G01 X6.7429 Y-16.3021 F60.00
G01 X6.7626 Y-16.3167 F60.00
G01 X6.7808 Y-16.3332 F60.00
G01 X6.7973 Y-16.3514 F60.00
G01 X6.8119 Y-16.3711 F60.00
G01 X6.8245 Y-16.3922 F60.00
G01 X6.8350 Y-16.4143 F60.00
G01 X6.8432 Y-16.4374 F60.00
G01 X6.8492 Y-16.4612 F60.00
G01 X6.8528 Y-16.4855 F60.00
G01 X6.8540 Y-16.5100 F60.00
G00 X6.8540 Y-16.5100
G01 F60.00
G01 Z-1.5000
G01 F60.00
G01 X6.8528 Y-16.5345 F60.00
G01 X6.8492 Y-16.5588 F60.00
G01 X6.8432 Y-16.5826 F60.00
G01 X6.8350 Y-16.6057 F60.00
G01 X6.8245 Y-16.6278 F60.00
G01 X6.8119 Y-16.6489 F60.00
G01 X6.7973 Y-16.6686 F60.00
G01 X6.7808 Y-16.6868 F60.00
G01 X6.7626 Y-16.7033 F60.00
G01 X6.7429 Y-16.7179 F60.00
G01 X6.7218 Y-16.7305 F60.00
G01 X6.6997 Y-16.7410 F60.00
G01 X6.6766 Y-16.7492 F60.00
G01 X6.6528 Y-16.7552 F60.00
G01 X6.6285 Y-16.7588 F60.00
G01 X6.6040 Y-16.7600 F60.00
G01 X6.5795 Y-16.7588 F60.00
G01 X6.5552 Y-16.7552 F60.00
G01 X6.5314 Y-16.7492 F60.00
G01 X6.5083 Y-16.7410 F60.00
G01 X6.4862 Y-16.7305 F60.00
G01 X6.4651 Y-16.7179 F60.00
G01 X6.4454 Y-16.7033 F60.00
G01 X6.4272 Y-16.6868 F60.00
G01 X6.4107 Y-16.6686 F60.00
G01 X6.3961 Y-16.6489 F60.00
G01 X6.3835 Y-16.6278 F60.00
G01 X6.3730 Y-16.6057 F60.00
G01 X6.3648 Y-16.5826 F60.00
G01 X6.3588 Y-16.5588 F60.00
G01 X6.3552 Y-16.5345 F60.00
G01 X6.3540 Y-16.5100 F60.00
G01 X6.3552 Y-16.4855 F60.00
G01 X6.3588 Y-16.4612 F60.00
G01 X6.3648 Y-16.4374 F60.00
G01 X6.3730 Y-16.4143 F60.00
G01 X6.3835 Y-16.3922 F60.00
G01 X6.3961 Y-16.3711 F60.00
G01 X6.4107 Y-16.3514 F60.00
G01 X6.4272 Y-16.3332 F60.00
G01 X6.4454 Y-16.3167 F60.00
G01 X6.4651 Y-16.3021 F60.00
G01 X6.4862 Y-16.2895 F60.00
G01 X6.5083 Y-16.2790 F60.00
G01 X6.5314 Y-16.2708 F60.00
G01 X6.5552 Y-16.2648 F60.00
G01 X6.5795 Y-16.2612 F60.00
G01 X6.6040 Y-16.2600 F60.00
G01 X6.6285 Y-16.2612 F60.00
G01 X6.6528 Y-16.2648 F60.00
G01 X6.6766 Y-16.2708 F60.00
G01 X6.6997 Y-16.2790 F60.00
G01 X6.7218 Y-16.2895 F60.00
G01 X6.7429 Y-16.3021 F60.00
G01 X6.7626 Y-16.3167 F60.00
G01 X6.7808 Y-16.3332 F60.00
G01 X6.7973 Y-16.3514 F60.00
G01 X6.8119 Y-16.3711 F60.00
G01 X6.8245 Y-16.3922 F60.00
G01 X6.8350 Y-16.4143 F60.00
G01 X6.8432 Y-16.4374 F60.00
G01 X6.8492 Y-16.4612 F60.00
G01 X6.8528 Y-16.4855 F60.00
G01 X6.8540 Y-16.5100 F60.00
G00 X6.8540 Y-16.5100
G01 F60.00
G01 Z-2.0000
G01 F60.00
G01 X6.8528 Y-16.5345 F60.00
G01 X6.8492 Y-16.5588 F60.00
G01 X6.8432 Y-16.5826 F60.00
G01 X6.8350 Y-16.6057 F60.00
G01 X6.8245 Y-16.6278 F60.00
G01 X6.8119 Y-16.6489 F60.00
G01 X6.7973 Y-16.6686 F60.00
G01 X6.7808 Y-16.6868 F60.00
G01 X6.7626 Y-16.7033 F60.00
G01 X6.7429 Y-16.7179 F60.00
G01 X6.7218 Y-16.7305 F60.00
G01 X6.6997 Y-16.7410 F60.00
G01 X6.6766 Y-16.7492 F60.00
G01 X6.6528 Y-16.7552 F60.00
G01 X6.6285 Y-16.7588 F60.00
G01 X6.6040 Y-16.7600 F60.00
G01 X6.5795 Y-16.7588 F60.00
G01 X6.5552 Y-16.7552 F60.00
G01 X6.5314 Y-16.7492 F60.00
G01 X6.5083 Y-16.7410 F60.00
G01 X6.4862 Y-16.7305 F60.00
G01 X6.4651 Y-16.7179 F60.00
G01 X6.4454 Y-16.7033 F60.00
G01 X6.4272 Y-16.6868 F60.00
G01 X6.4107 Y-16.6686 F60.00
G01 X6.3961 Y-16.6489 F60.00
G01 X6.3835 Y-16.6278 F60.00
G01 X6.3730 Y-16.6057 F60.00
G01 X6.3648 Y-16.5826 F60.00
G01 X6.3588 Y-16.5588 F60.00
G01 X6.3552 Y-16.5345 F60.00
G01 X6.3540 Y-16.5100 F60.00
G01 X6.3552 Y-16.4855 F60.00
G01 X6.3588 Y-16.4612 F60.00
G01 X6.3648 Y-16.4374 F60.00
G01 X6.3730 Y-16.4143 F60.00
G01 X6.3835 Y-16.3922 F60.00
G01 X6.3961 Y-16.3711 F60.00
G01 X6.4107 Y-16.3514 F60.00
G01 X6.4272 Y-16.3332 F60.00
G01 X6.4454 Y-16.3167 F60.00
G01 X6.4651 Y-16.3021 F60.00
G01 X6.4862 Y-16.2895 F60.00
G01 X6.5083 Y-16.2790 F60.00
G01 X6.5314 Y-16.2708 F60.00
G01 X6.5552 Y-16.2648 F60.00
G01 X6.5795 Y-16.2612 F60.00
G01 X6.6040 Y-16.2600 F60.00
G01 X6.6285 Y-16.2612 F60.00
G01 X6.6528 Y-16.2648 F60.00
G01 X6.6766 Y-16.2708 F60.00
G01 X6.6997 Y-16.2790 F60.00
G01 X6.7218 Y-16.2895 F60.00
G01 X6.7429 Y-16.3021 F60.00
G01 X6.7626 Y-16.3167 F60.00
G01 X6.7808 Y-16.3332 F60.00
G01 X6.7973 Y-16.3514 F60.00
G01 X6.8119 Y-16.3711 F60.00
G01 X6.8245 Y-16.3922 F60.00
G01 X6.8350 Y-16.4143 F60.00
G01 X6.8432 Y-16.4374 F60.00
G01 X6.8492 Y-16.4612 F60.00
G01 X6.8528 Y-16.4855 F60.00
G01 X6.8540 Y-16.5100 F60.00
G00 X6.8540 Y-16.5100
G01 F60.00
G01 Z-2.5000
G01 F60.00
G01 X6.8528 Y-16.5345 F60.00
G01 X6.8492 Y-16.5588 F60.00
G01 X6.8432 Y-16.5826 F60.00
G01 X6.8350 Y-16.6057 F60.00
G01 X6.8245 Y-16.6278 F60.00
G01 X6.8119 Y-16.6489 F60.00
G01 X6.7973 Y-16.6686 F60.00
G01 X6.7808 Y-16.6868 F60.00
G01 X6.7626 Y-16.7033 F60.00
G01 X6.7429 Y-16.7179 F60.00
G01 X6.7218 Y-16.7305 F60.00
G01 X6.6997 Y-16.7410 F60.00
G01 X6.6766 Y-16.7492 F60.00
G01 X6.6528 Y-16.7552 F60.00
G01 X6.6285 Y-16.7588 F60.00
G01 X6.6040 Y-16.7600 F60.00
G01 X6.5795 Y-16.7588 F60.00
G01 X6.5552 Y-16.7552 F60.00
G01 X6.5314 Y-16.7492 F60.00
G01 X6.5083 Y-16.7410 F60.00
G01 X6.4862 Y-16.7305 F60.00
G01 X6.4651 Y-16.7179 F60.00
G01 X6.4454 Y-16.7033 F60.00
G01 X6.4272 Y-16.6868 F60.00
G01 X6.4107 Y-16.6686 F60.00
G01 X6.3961 Y-16.6489 F60.00
G01 X6.3835 Y-16.6278 F60.00
G01 X6.3730 Y-16.6057 F60.00
G01 X6.3648 Y-16.5826 F60.00
G01 X6.3588 Y-16.5588 F60.00
G01 X6.3552 Y-16.5345 F60.00
G01 X6.3540 Y-16.5100 F60.00
G01 X6.3552 Y-16.4855 F60.00
G01 X6.3588 Y-16.4612 F60.00
G01 X6.3648 Y-16.4374 F60.00
G01 X6.3730 Y-16.4143 F60.00
G01 X6.3835 Y-16.3922 F60.00
G01 X6.3961 Y-16.3711 F60.00
G01 X6.4107 Y-16.3514 F60.00
G01 X6.4272 Y-16.3332 F60.00
G01 X6.4454 Y-16.3167 F60.00
G01 X6.4651 Y-16.3021 F60.00
G01 X6.4862 Y-16.2895 F60.00
G01 X6.5083 Y-16.2790 F60.00
G01 X6.5314 Y-16.2708 F60.00
G01 X6.5552 Y-16.2648 F60.00
G01 X6.5795 Y-16.2612 F60.00
G01 X6.6040 Y-16.2600 F60.00
G01 X6.6285 Y-16.2612 F60.00
G01 X6.6528 Y-16.2648 F60.00
G01 X6.6766 Y-16.2708 F60.00
G01 X6.6997 Y-16.2790 F60.00
G01 X6.7218 Y-16.2895 F60.00
G01 X6.7429 Y-16.3021 F60.00
G01 X6.7626 Y-16.3167 F60.00
G01 X6.7808 Y-16.3332 F60.00
G01 X6.7973 Y-16.3514 F60.00
G01 X6.8119 Y-16.3711 F60.00
G01 X6.8245 Y-16.3922 F60.00
G01 X6.8350 Y-16.4143 F60.00
G01 X6.8432 Y-16.4374 F60.00
G01 X6.8492 Y-16.4612 F60.00
G01 X6.8528 Y-16.4855 F60.00
G01 X6.8540 Y-16.5100 F60.00
G00 Z2.0000
G00 X9.3940 Y-16.5100
G01 F60.00
G01 Z-0.5000
G01 F60.00
G01 X9.3928 Y-16.5345 F60.00
G01 X9.3892 Y-16.5588 F60.00
G01 X9.3832 Y-16.5826 F60.00
G01 X9.3750 Y-16.6057 F60.00
G01 X9.3645 Y-16.6278 F60.00
G01 X9.3519 Y-16.6489 F60.00
G01 X9.3373 Y-16.6686 F60.00
G01 X9.3208 Y-16.6868 F60.00
G01 X9.3026 Y-16.7033 F60.00
G01 X9.2829 Y-16.7179 F60.00
G01 X9.2618 Y-16.7305 F60.00
G01 X9.2397 Y-16.7410 F60.00
G01 X9.2166 Y-16.7492 F60.00
G01 X9.1928 Y-16.7552 F60.00
G01 X9.1685 Y-16.7588 F60.00
G01 X9.1440 Y-16.7600 F60.00
G01 X9.1195 Y-16.7588 F60.00
G01 X9.0952 Y-16.7552 F60.00
G01 X9.0714 Y-16.7492 F60.00
G01 X9.0483 Y-16.7410 F60.00
G01 X9.0262 Y-16.7305 F60.00
G01 X9.0051 Y-16.7179 F60.00
G01 X8.9854 Y-16.7033 F60.00
G01 X8.9672 Y-16.6868 F60.00
G01 X8.9507 Y-16.6686 F60.00
G01 X8.9361 Y-16.6489 F60.00
G01 X8.9235 Y-16.6278 F60.00
G01 X8.9130 Y-16.6057 F60.00
G01 X8.9048 Y-16.5826 F60.00
G01 X8.8988 Y-16.5588 F60.00
G01 X8.8952 Y-16.5345 F60.00
G01 X8.8940 Y-16.5100 F60.00
G01 X8.8952 Y-16.4855 F60.00
G01 X8.8988 Y-16.4612 F60.00
G01 X8.9048 Y-16.4374 F60.00
G01 X8.9130 Y-16.4143 F60.00
G01 X8.9235 Y-16.3922 F60.00
G01 X8.9361 Y-16.3711 F60.00
G01 X8.9507 Y-16.3514 F60.00
G01 X8.9672 Y-16.3332 F60.00
G01 X8.9854 Y-16.3167 F60.00
G01 X9.0051 Y-16.3021 F60.00
G01 X9.0262 Y-16.2895 F60.00
G01 X9.0483 Y-16.2790 F60.00
G01 X9.0714 Y-16.2708 F60.00
G01 X9.0952 Y-16.2648 F60.00
G01 X9.1195 Y-16.2612 F60.00
G01 X9.1440 Y-16.2600 F60.00
G01 X9.1685 Y-16.2612 F60.00
G01 X9.1928 Y-16.2648 F60.00
G01 X9.2166 Y-16.2708 F60.00
G01 X9.2397 Y-16.2790 F60.00
G01 X9.2618 Y-16.2895 F60.00
G01 X9.2829 Y-16.3021 F60.00
G01 X9.3026 Y-16.3167 F60.00
G01 X9.3208 Y-16.3332 F60.00
G01 X9.3373 Y-16.3514 F60.00
G01 X9.3519 Y-16.3711 F60.00
G01 X9.3645 Y-16.3922 F60.00
G01 X9.3750 Y-16.4143 F60.00
G01 X9.3832 Y-16.4374 F60.00
G01 X9.3892 Y-16.4612 F60.00
G01 X9.3928 Y-16.4855 F60.00
G01 X9.3940 Y-16.5100 F60.00
G00 X9.3940 Y-16.5100
G01 F60.00
G01 Z-1.0000
G01 F60.00
G01 X9.3928 Y-16.5345 F60.00
G01 X9.3892 Y-16.5588 F60.00
G01 X9.3832 Y-16.5826 F60.00
G01 X9.3750 Y-16.6057 F60.00
G01 X9.3645 Y-16.6278 F60.00
G01 X9.3519 Y-16.6489 F60.00
G01 X9.3373 Y-16.6686 F60.00
G01 X9.3208 Y-16.6868 F60.00
G01 X9.3026 Y-16.7033 F60.00
G01 X9.2829 Y-16.7179 F60.00
G01 X9.2618 Y-16.7305 F60.00
G01 X9.2397 Y-16.7410 F60.00
G01 X9.2166 Y-16.7492 F60.00
G01 X9.1928 Y-16.7552 F60.00
G01 X9.1685 Y-16.7588 F60.00
G01 X9.1440 Y-16.7600 F60.00
G01 X9.1195 Y-16.7588 F60.00
G01 X9.0952 Y-16.7552 F60.00
G01 X9.0714 Y-16.7492 F60.00
G01 X9.0483 Y-16.7410 F60.00
G01 X9.0262 Y-16.7305 F60.00
G01 X9.0051 Y-16.7179 F60.00
G01 X8.9854 Y-16.7033 F60.00
G01 X8.9672 Y-16.6868 F60.00
G01 X8.9507 Y-16.6686 F60.00
G01 X8.9361 Y-16.6489 F60.00
G01 X8.9235 Y-16.6278 F60.00
G01 X8.9130 Y-16.6057 F60.00
G01 X8.9048 Y-16.5826 F60.00
G01 X8.8988 Y-16.5588 F60.00
G01 X8.8952 Y-16.5345 F60.00
G01 X8.8940 Y-16.5100 F60.00
G01 X8.8952 Y-16.4855 F60.00
G01 X8.8988 Y-16.4612 F60.00
G01 X8.9048 Y-16.4374 F60.00
G01 X8.9130 Y-16.4143 F60.00
G01 X8.9235 Y-16.3922 F60.00
G01 X8.9361 Y-16.3711 F60.00
G01 X8.9507 Y-16.3514 F60.00
G01 X8.9672 Y-16.3332 F60.00
G01 X8.9854 Y-16.3167 F60.00
G01 X9.0051 Y-16.3021 F60.00
G01 X9.0262 Y-16.2895 F60.00
G01 X9.0483 Y-16.2790 F60.00
G01 X9.0714 Y-16.2708 F60.00
G01 X9.0952 Y-16.2648 F60.00
G01 X9.1195 Y-16.2612 F60.00
G01 X9.1440 Y-16.2600 F60.00
G01 X9.1685 Y-16.2612 F60.00
G01 X9.1928 Y-16.2648 F60.00
G01 X9.2166 Y-16.2708 F60.00
G01 X9.2397 Y-16.2790 F60.00
G01 X9.2618 Y-16.2895 F60.00
G01 X9.2829 Y-16.3021 F60.00
G01 X9.3026 Y-16.3167 F60.00
G01 X9.3208 Y-16.3332 F60.00
G01 X9.3373 Y-16.3514 F60.00
G01 X9.3519 Y-16.3711 F60.00
G01 X9.3645 Y-16.3922 F60.00
G01 X9.3750 Y-16.4143 F60.00
G01 X9.3832 Y-16.4374 F60.00
G01 X9.3892 Y-16.4612 F60.00
G01 X9.3928 Y-16.4855 F60.00
G01 X9.3940 Y-16.5100 F60.00
G00 X9.3940 Y-16.5100
G01 F60.00
G01 Z-1.5000
G01 F60.00
G01 X9.3928 Y-16.5345 F60.00
G01 X9.3892 Y-16.5588 F60.00
G01 X9.3832 Y-16.5826 F60.00
G01 X9.3750 Y-16.6057 F60.00
G01 X9.3645 Y-16.6278 F60.00
G01 X9.3519 Y-16.6489 F60.00
G01 X9.3373 Y-16.6686 F60.00
G01 X9.3208 Y-16.6868 F60.00
G01 X9.3026 Y-16.7033 F60.00
G01 X9.2829 Y-16.7179 F60.00
G01 X9.2618 Y-16.7305 F60.00
G01 X9.2397 Y-16.7410 F60.00
G01 X9.2166 Y-16.7492 F60.00
G01 X9.1928 Y-16.7552 F60.00
G01 X9.1685 Y-16.7588 F60.00
G01 X9.1440 Y-16.7600 F60.00
G01 X9.1195 Y-16.7588 F60.00
G01 X9.0952 Y-16.7552 F60.00
G01 X9.0714 Y-16.7492 F60.00
G01 X9.0483 Y-16.7410 F60.00
G01 X9.0262 Y-16.7305 F60.00
G01 X9.0051 Y-16.7179 F60.00
G01 X8.9854 Y-16.7033 F60.00
G01 X8.9672 Y-16.6868 F60.00
G01 X8.9507 Y-16.6686 F60.00
G01 X8.9361 Y-16.6489 F60.00
G01 X8.9235 Y-16.6278 F60.00
G01 X8.9130 Y-16.6057 F60.00
G01 X8.9048 Y-16.5826 F60.00
G01 X8.8988 Y-16.5588 F60.00
G01 X8.8952 Y-16.5345 F60.00
G01 X8.8940 Y-16.5100 F60.00
G01 X8.8952 Y-16.4855 F60.00
G01 X8.8988 Y-16.4612 F60.00
G01 X8.9048 Y-16.4374 F60.00
G01 X8.9130 Y-16.4143 F60.00
G01 X8.9235 Y-16.3922 F60.00
G01 X8.9361 Y-16.3711 F60.00
G01 X8.9507 Y-16.3514 F60.00
G01 X8.9672 Y-16.3332 F60.00
G01 X8.9854 Y-16.3167 F60.00
G01 X9.0051 Y-16.3021 F60.00
G01 X9.0262 Y-16.2895 F60.00
G01 X9.0483 Y-16.2790 F60.00
G01 X9.0714 Y-16.2708 F60.00
G01 X9.0952 Y-16.2648 F60.00
G01 X9.1195 Y-16.2612 F60.00
G01 X9.1440 Y-16.2600 F60.00
G01 X9.1685 Y-16.2612 F60.00
G01 X9.1928 Y-16.2648 F60.00
G01 X9.2166 Y-16.2708 F60.00
G01 X9.2397 Y-16.2790 F60.00
G01 X9.2618 Y-16.2895 F60.00
G01 X9.2829 Y-16.3021 F60.00
G01 X9.3026 Y-16.3167 F60.00
G01 X9.3208 Y-16.3332 F60.00
G01 X9.3373 Y-16.3514 F60.00
G01 X9.3519 Y-16.3711 F60.00
G01 X9.3645 Y-16.3922 F60.00
G01 X9.3750 Y-16.4143 F60.00
G01 X9.3832 Y-16.4374 F60.00
G01 X9.3892 Y-16.4612 F60.00
G01 X9.3928 Y-16.4855 F60.00
G01 X9.3940 Y-16.5100 F60.00
G00 X9.3940 Y-16.5100
G01 F60.00
G01 Z-2.0000
G01 F60.00
G01 X9.3928 Y-16.5345 F60.00
G01 X9.3892 Y-16.5588 F60.00
G01 X9.3832 Y-16.5826 F60.00
G01 X9.3750 Y-16.6057 F60.00
G01 X9.3645 Y-16.6278 F60.00
G01 X9.3519 Y-16.6489 F60.00
G01 X9.3373 Y-16.6686 F60.00
G01 X9.3208 Y-16.6868 F60.00
G01 X9.3026 Y-16.7033 F60.00
G01 X9.2829 Y-16.7179 F60.00
G01 X9.2618 Y-16.7305 F60.00
G01 X9.2397 Y-16.7410 F60.00
G01 X9.2166 Y-16.7492 F60.00
G01 X9.1928 Y-16.7552 F60.00
G01 X9.1685 Y-16.7588 F60.00
G01 X9.1440 Y-16.7600 F60.00
G01 X9.1195 Y-16.7588 F60.00
G01 X9.0952 Y-16.7552 F60.00
G01 X9.0714 Y-16.7492 F60.00
G01 X9.0483 Y-16.7410 F60.00
G01 X9.0262 Y-16.7305 F60.00
G01 X9.0051 Y-16.7179 F60.00
G01 X8.9854 Y-16.7033 F60.00
G01 X8.9672 Y-16.6868 F60.00
G01 X8.9507 Y-16.6686 F60.00
G01 X8.9361 Y-16.6489 F60.00
G01 X8.9235 Y-16.6278 F60.00
G01 X8.9130 Y-16.6057 F60.00
G01 X8.9048 Y-16.5826 F60.00
G01 X8.8988 Y-16.5588 F60.00
G01 X8.8952 Y-16.5345 F60.00
G01 X8.8940 Y-16.5100 F60.00
G01 X8.8952 Y-16.4855 F60.00
G01 X8.8988 Y-16.4612 F60.00
G01 X8.9048 Y-16.4374 F60.00
G01 X8.9130 Y-16.4143 F60.00
G01 X8.9235 Y-16.3922 F60.00
G01 X8.9361 Y-16.3711 F60.00
G01 X8.9507 Y-16.3514 F60.00
G01 X8.9672 Y-16.3332 F60.00
G01 X8.9854 Y-16.3167 F60.00
G01 X9.0051 Y-16.3021 F60.00
G01 X9.0262 Y-16.2895 F60.00
G01 X9.0483 Y-16.2790 F60.00
G01 X9.0714 Y-16.2708 F60.00
G01 X9.0952 Y-16.2648 F60.00
G01 X9.1195 Y-16.2612 F60.00
G01 X9.1440 Y-16.2600 F60.00
G01 X9.1685 Y-16.2612 F60.00
G01 X9.1928 Y-16.2648 F60.00
G01 X9.2166 Y-16.2708 F60.00
G01 X9.2397 Y-16.2790 F60.00
G01 X9.2618 Y-16.2895 F60.00
G01 X9.2829 Y-16.3021 F60.00
G01 X9.3026 Y-16.3167 F60.00
G01 X9.3208 Y-16.3332 F60.00
G01 X9.3373 Y-16.3514 F60.00
G01 X9.3519 Y-16.3711 F60.00
G01 X9.3645 Y-16.3922 F60.00
G01 X9.3750 Y-16.4143 F60.00
G01 X9.3832 Y-16.4374 F60.00
G01 X9.3892 Y-16.4612 F60.00
G01 X9.3928 Y-16.4855 F60.00
G01 X9.3940 Y-16.5100 F60.00
G00 X9.3940 Y-16.5100
G01 F60.00
G01 Z-2.5000
G01 F60.00
G01 X9.3928 Y-16.5345 F60.00
G01 X9.3892 Y-16.5588 F60.00
G01 X9.3832 Y-16.5826 F60.00
G01 X9.3750 Y-16.6057 F60.00
G01 X9.3645 Y-16.6278 F60.00
G01 X9.3519 Y-16.6489 F60.00
G01 X9.3373 Y-16.6686 F60.00
G01 X9.3208 Y-16.6868 F60.00
G01 X9.3026 Y-16.7033 F60.00
G01 X9.2829 Y-16.7179 F60.00
G01 X9.2618 Y-16.7305 F60.00
G01 X9.2397 Y-16.7410 F60.00
G01 X9.2166 Y-16.7492 F60.00
G01 X9.1928 Y-16.7552 F60.00
G01 X9.1685 Y-16.7588 F60.00
G01 X9.1440 Y-16.7600 F60.00
G01 X9.1195 Y-16.7588 F60.00
G01 X9.0952 Y-16.7552 F60.00
G01 X9.0714 Y-16.7492 F60.00
G01 X9.0483 Y-16.7410 F60.00
G01 X9.0262 Y-16.7305 F60.00
G01 X9.0051 Y-16.7179 F60.00
G01 X8.9854 Y-16.7033 F60.00
G01 X8.9672 Y-16.6868 F60.00
G01 X8.9507 Y-16.6686 F60.00
G01 X8.9361 Y-16.6489 F60.00
G01 X8.9235 Y-16.6278 F60.00
G01 X8.9130 Y-16.6057 F60.00
G01 X8.9048 Y-16.5826 F60.00
G01 X8.8988 Y-16.5588 F60.00
G01 X8.8952 Y-16.5345 F60.00
G01 X8.8940 Y-16.5100 F60.00
G01 X8.8952 Y-16.4855 F60.00
G01 X8.8988 Y-16.4612 F60.00
G01 X8.9048 Y-16.4374 F60.00
G01 X8.9130 Y-16.4143 F60.00
G01 X8.9235 Y-16.3922 F60.00
G01 X8.9361 Y-16.3711 F60.00
G01 X8.9507 Y-16.3514 F60.00
G01 X8.9672 Y-16.3332 F60.00
G01 X8.9854 Y-16.3167 F60.00
G01 X9.0051 Y-16.3021 F60.00
G01 X9.0262 Y-16.2895 F60.00
G01 X9.0483 Y-16.2790 F60.00
G01 X9.0714 Y-16.2708 F60.00
G01 X9.0952 Y-16.2648 F60.00
G01 X9.1195 Y-16.2612 F60.00
G01 X9.1440 Y-16.2600 F60.00
G01 X9.1685 Y-16.2612 F60.00
G01 X9.1928 Y-16.2648 F60.00
G01 X9.2166 Y-16.2708 F60.00
G01 X9.2397 Y-16.2790 F60.00
G01 X9.2618 Y-16.2895 F60.00
G01 X9.2829 Y-16.3021 F60.00
G01 X9.3026 Y-16.3167 F60.00
G01 X9.3208 Y-16.3332 F60.00
G01 X9.3373 Y-16.3514 F60.00
G01 X9.3519 Y-16.3711 F60.00
G01 X9.3645 Y-16.3922 F60.00
G01 X9.3750 Y-16.4143 F60.00
G01 X9.3832 Y-16.4374 F60.00
G01 X9.3892 Y-16.4612 F60.00
G01 X9.3928 Y-16.4855 F60.00
G01 X9.3940 Y-16.5100 F60.00
G00 Z2.0000
G00 X11.9340 Y-16.5100
G01 F60.00
G01 Z-0.5000
G01 F60.00
G01 X11.9328 Y-16.5345 F60.00
G01 X11.9292 Y-16.5588 F60.00
G01 X11.9232 Y-16.5826 F60.00
G01 X11.9150 Y-16.6057 F60.00
G01 X11.9045 Y-16.6278 F60.00
G01 X11.8919 Y-16.6489 F60.00
G01 X11.8773 Y-16.6686 F60.00
G01 X11.8608 Y-16.6868 F60.00
G01 X11.8426 Y-16.7033 F60.00
G01 X11.8229 Y-16.7179 F60.00
G01 X11.8018 Y-16.7305 F60.00
G01 X11.7797 Y-16.7410 F60.00
G01 X11.7566 Y-16.7492 F60.00
G01 X11.7328 Y-16.7552 F60.00
G01 X11.7085 Y-16.7588 F60.00
G01 X11.6840 Y-16.7600 F60.00
G01 X11.6595 Y-16.7588 F60.00
G01 X11.6352 Y-16.7552 F60.00
G01 X11.6114 Y-16.7492 F60.00
G01 X11.5883 Y-16.7410 F60.00
G01 X11.5662 Y-16.7305 F60.00
G01 X11.5451 Y-16.7179 F60.00
G01 X11.5254 Y-16.7033 F60.00
G01 X11.5072 Y-16.6868 F60.00
G01 X11.4907 Y-16.6686 F60.00
G01 X11.4761 Y-16.6489 F60.00
G01 X11.4635 Y-16.6278 F60.00
G01 X11.4530 Y-16.6057 F60.00
G01 X11.4448 Y-16.5826 F60.00
G01 X11.4388 Y-16.5588 F60.00
G01 X11.4352 Y-16.5345 F60.00
G01 X11.4340 Y-16.5100 F60.00
G01 X11.4352 Y-16.4855 F60.00
G01 X11.4388 Y-16.4612 F60.00
G01 X11.4448 Y-16.4374 F60.00
G01 X11.4530 Y-16.4143 F60.00
G01 X11.4635 Y-16.3922 F60.00
G01 X11.4761 Y-16.3711 F60.00
G01 X11.4907 Y-16.3514 F60.00
G01 X11.5072 Y-16.3332 F60.00
G01 X11.5254 Y-16.3167 F60.00
G01 X11.5451 Y-16.3021 F60.00
G01 X11.5662 Y-16.2895 F60.00
G01 X11.5883 Y-16.2790 F60.00
G01 X11.6114 Y-16.2708 F60.00
G01 X11.6352 Y-16.2648 F60.00
G01 X11.6595 Y-16.2612 F60.00
G01 X11.6840 Y-16.2600 F60.00
G01 X11.7085 Y-16.2612 F60.00
G01 X11.7328 Y-16.2648 F60.00
G01 X11.7566 Y-16.2708 F60.00
G01 X11.7797 Y-16.2790 F60.00
G01 X11.8018 Y-16.2895 F60.00
G01 X11.8229 Y-16.3021 F60.00
G01 X11.8426 Y-16.3167 F60.00
G01 X11.8608 Y-16.3332 F60.00
G01 X11.8773 Y-16.3514 F60.00
G01 X11.8919 Y-16.3711 F60.00
G01 X11.9045 Y-16.3922 F60.00
G01 X11.9150 Y-16.4143 F60.00
G01 X11.9232 Y-16.4374 F60.00
G01 X11.9292 Y-16.4612 F60.00
G01 X11.9328 Y-16.4855 F60.00
G01 X11.9340 Y-16.5100 F60.00
G00 X11.9340 Y-16.5100
G01 F60.00
G01 Z-1.0000
G01 F60.00
G01 X11.9328 Y-16.5345 F60.00
G01 X11.9292 Y-16.5588 F60.00
G01 X11.9232 Y-16.5826 F60.00
G01 X11.9150 Y-16.6057 F60.00
G01 X11.9045 Y-16.6278 F60.00
G01 X11.8919 Y-16.6489 F60.00
G01 X11.8773 Y-16.6686 F60.00
G01 X11.8608 Y-16.6868 F60.00
G01 X11.8426 Y-16.7033 F60.00
G01 X11.8229 Y-16.7179 F60.00
G01 X11.8018 Y-16.7305 F60.00
G01 X11.7797 Y-16.7410 F60.00
G01 X11.7566 Y-16.7492 F60.00
G01 X11.7328 Y-16.7552 F60.00
G01 X11.7085 Y-16.7588 F60.00
G01 X11.6840 Y-16.7600 F60.00
G01 X11.6595 Y-16.7588 F60.00
G01 X11.6352 Y-16.7552 F60.00
G01 X11.6114 Y-16.7492 F60.00
G01 X11.5883 Y-16.7410 F60.00
G01 X11.5662 Y-16.7305 F60.00
G01 X11.5451 Y-16.7179 F60.00
G01 X11.5254 Y-16.7033 F60.00
G01 X11.5072 Y-16.6868 F60.00
G01 X11.4907 Y-16.6686 F60.00
G01 X11.4761 Y-16.6489 F60.00
G01 X11.4635 Y-16.6278 F60.00
G01 X11.4530 Y-16.6057 F60.00
G01 X11.4448 Y-16.5826 F60.00
G01 X11.4388 Y-16.5588 F60.00
G01 X11.4352 Y-16.5345 F60.00
G01 X11.4340 Y-16.5100 F60.00
G01 X11.4352 Y-16.4855 F60.00
G01 X11.4388 Y-16.4612 F60.00
G01 X11.4448 Y-16.4374 F60.00
G01 X11.4530 Y-16.4143 F60.00
G01 X11.4635 Y-16.3922 F60.00
G01 X11.4761 Y-16.3711 F60.00
G01 X11.4907 Y-16.3514 F60.00
G01 X11.5072 Y-16.3332 F60.00
G01 X11.5254 Y-16.3167 F60.00
G01 X11.5451 Y-16.3021 F60.00
G01 X11.5662 Y-16.2895 F60.00
G01 X11.5883 Y-16.2790 F60.00
G01 X11.6114 Y-16.2708 F60.00
G01 X11.6352 Y-16.2648 F60.00
G01 X11.6595 Y-16.2612 F60.00
G01 X11.6840 Y-16.2600 F60.00
G01 X11.7085 Y-16.2612 F60.00
G01 X11.7328 Y-16.2648 F60.00
G01 X11.7566 Y-16.2708 F60.00
G01 X11.7797 Y-16.2790 F60.00
G01 X11.8018 Y-16.2895 F60.00
G01 X11.8229 Y-16.3021 F60.00
G01 X11.8426 Y-16.3167 F60.00
G01 X11.8608 Y-16.3332 F60.00
G01 X11.8773 Y-16.3514 F60.00
G01 X11.8919 Y-16.3711 F60.00
G01 X11.9045 Y-16.3922 F60.00
G01 X11.9150 Y-16.4143 F60.00
G01 X11.9232 Y-16.4374 F60.00
G01 X11.9292 Y-16.4612 F60.00
G01 X11.9328 Y-16.4855 F60.00
G01 X11.9340 Y-16.5100 F60.00
G00 X11.9340 Y-16.5100
G01 F60.00
G01 Z-1.5000
G01 F60.00
G01 X11.9328 Y-16.5345 F60.00
G01 X11.9292 Y-16.5588 F60.00
G01 X11.9232 Y-16.5826 F60.00
G01 X11.9150 Y-16.6057 F60.00
G01 X11.9045 Y-16.6278 F60.00
G01 X11.8919 Y-16.6489 F60.00
G01 X11.8773 Y-16.6686 F60.00
G01 X11.8608 Y-16.6868 F60.00
G01 X11.8426 Y-16.7033 F60.00
G01 X11.8229 Y-16.7179 F60.00
G01 X11.8018 Y-16.7305 F60.00
G01 X11.7797 Y-16.7410 F60.00
G01 X11.7566 Y-16.7492 F60.00
G01 X11.7328 Y-16.7552 F60.00
G01 X11.7085 Y-16.7588 F60.00
G01 X11.6840 Y-16.7600 F60.00
G01 X11.6595 Y-16.7588 F60.00
G01 X11.6352 Y-16.7552 F60.00
G01 X11.6114 Y-16.7492 F60.00
G01 X11.5883 Y-16.7410 F60.00
G01 X11.5662 Y-16.7305 F60.00
G01 X11.5451 Y-16.7179 F60.00
G01 X11.5254 Y-16.7033 F60.00
G01 X11.5072 Y-16.6868 F60.00
G01 X11.4907 Y-16.6686 F60.00
G01 X11.4761 Y-16.6489 F60.00
G01 X11.4635 Y-16.6278 F60.00
G01 X11.4530 Y-16.6057 F60.00
G01 X11.4448 Y-16.5826 F60.00
G01 X11.4388 Y-16.5588 F60.00
G01 X11.4352 Y-16.5345 F60.00
G01 X11.4340 Y-16.5100 F60.00
G01 X11.4352 Y-16.4855 F60.00
G01 X11.4388 Y-16.4612 F60.00
G01 X11.4448 Y-16.4374 F60.00
G01 X11.4530 Y-16.4143 F60.00
G01 X11.4635 Y-16.3922 F60.00
G01 X11.4761 Y-16.3711 F60.00
G01 X11.4907 Y-16.3514 F60.00
G01 X11.5072 Y-16.3332 F60.00
G01 X11.5254 Y-16.3167 F60.00
G01 X11.5451 Y-16.3021 F60.00
G01 X11.5662 Y-16.2895 F60.00
G01 X11.5883 Y-16.2790 F60.00
G01 X11.6114 Y-16.2708 F60.00
G01 X11.6352 Y-16.2648 F60.00
G01 X11.6595 Y-16.2612 F60.00
G01 X11.6840 Y-16.2600 F60.00
G01 X11.7085 Y-16.2612 F60.00
G01 X11.7328 Y-16.2648 F60.00
G01 X11.7566 Y-16.2708 F60.00
G01 X11.7797 Y-16.2790 F60.00
G01 X11.8018 Y-16.2895 F60.00
G01 X11.8229 Y-16.3021 F60.00
G01 X11.8426 Y-16.3167 F60.00
G01 X11.8608 Y-16.3332 F60.00
G01 X11.8773 Y-16.3514 F60.00
G01 X11.8919 Y-16.3711 F60.00
G01 X11.9045 Y-16.3922 F60.00
G01 X11.9150 Y-16.4143 F60.00
G01 X11.9232 Y-16.4374 F60.00
G01 X11.9292 Y-16.4612 F60.00
G01 X11.9328 Y-16.4855 F60.00
G01 X11.9340 Y-16.5100 F60.00
G00 X11.9340 Y-16.5100
G01 F60.00
G01 Z-2.0000
G01 F60.00
G01 X11.9328 Y-16.5345 F60.00
G01 X11.9292 Y-16.5588 F60.00
G01 X11.9232 Y-16.5826 F60.00
G01 X11.9150 Y-16.6057 F60.00
G01 X11.9045 Y-16.6278 F60.00
G01 X11.8919 Y-16.6489 F60.00
G01 X11.8773 Y-16.6686 F60.00
G01 X11.8608 Y-16.6868 F60.00
G01 X11.8426 Y-16.7033 F60.00
G01 X11.8229 Y-16.7179 F60.00
G01 X11.8018 Y-16.7305 F60.00
G01 X11.7797 Y-16.7410 F60.00
G01 X11.7566 Y-16.7492 F60.00
G01 X11.7328 Y-16.7552 F60.00
G01 X11.7085 Y-16.7588 F60.00
G01 X11.6840 Y-16.7600 F60.00
G01 X11.6595 Y-16.7588 F60.00
G01 X11.6352 Y-16.7552 F60.00
G01 X11.6114 Y-16.7492 F60.00
G01 X11.5883 Y-16.7410 F60.00
G01 X11.5662 Y-16.7305 F60.00
G01 X11.5451 Y-16.7179 F60.00
G01 X11.5254 Y-16.7033 F60.00
G01 X11.5072 Y-16.6868 F60.00
G01 X11.4907 Y-16.6686 F60.00
G01 X11.4761 Y-16.6489 F60.00
G01 X11.4635 Y-16.6278 F60.00
G01 X11.4530 Y-16.6057 F60.00
G01 X11.4448 Y-16.5826 F60.00
G01 X11.4388 Y-16.5588 F60.00
G01 X11.4352 Y-16.5345 F60.00
G01 X11.4340 Y-16.5100 F60.00
G01 X11.4352 Y-16.4855 F60.00
G01 X11.4388 Y-16.4612 F60.00
G01 X11.4448 Y-16.4374 F60.00
G01 X11.4530 Y-16.4143 F60.00
G01 X11.4635 Y-16.3922 F60.00
G01 X11.4761 Y-16.3711 F60.00
G01 X11.4907 Y-16.3514 F60.00
G01 X11.5072 Y-16.3332 F60.00
G01 X11.5254 Y-16.3167 F60.00
G01 X11.5451 Y-16.3021 F60.00
G01 X11.5662 Y-16.2895 F60.00
G01 X11.5883 Y-16.2790 F60.00
G01 X11.6114 Y-16.2708 F60.00
G01 X11.6352 Y-16.2648 F60.00
G01 X11.6595 Y-16.2612 F60.00
G01 X11.6840 Y-16.2600 F60.00
G01 X11.7085 Y-16.2612 F60.00
G01 X11.7328 Y-16.2648 F60.00
G01 X11.7566 Y-16.2708 F60.00
G01 X11.7797 Y-16.2790 F60.00
G01 X11.8018 Y-16.2895 F60.00
G01 X11.8229 Y-16.3021 F60.00
G01 X11.8426 Y-16.3167 F60.00
G01 X11.8608 Y-16.3332 F60.00
G01 X11.8773 Y-16.3514 F60.00
G01 X11.8919 Y-16.3711 F60.00
G01 X11.9045 Y-16.3922 F60.00
G01 X11.9150 Y-16.4143 F60.00
G01 X11.9232 Y-16.4374 F60.00
G01 X11.9292 Y-16.4612 F60.00
G01 X11.9328 Y-16.4855 F60.00
G01 X11.9340 Y-16.5100 F60.00
G00 X11.9340 Y-16.5100
G01 F60.00
G01 Z-2.5000
G01 F60.00
G01 X11.9328 Y-16.5345 F60.00
G01 X11.9292 Y-16.5588 F60.00
G01 X11.9232 Y-16.5826 F60.00
G01 X11.9150 Y-16.6057 F60.00
G01 X11.9045 Y-16.6278 F60.00
G01 X11.8919 Y-16.6489 F60.00
G01 X11.8773 Y-16.6686 F60.00
G01 X11.8608 Y-16.6868 F60.00
G01 X11.8426 Y-16.7033 F60.00
G01 X11.8229 Y-16.7179 F60.00
G01 X11.8018 Y-16.7305 F60.00
G01 X11.7797 Y-16.7410 F60.00
G01 X11.7566 Y-16.7492 F60.00
G01 X11.7328 Y-16.7552 F60.00
G01 X11.7085 Y-16.7588 F60.00
G01 X11.6840 Y-16.7600 F60.00
G01 X11.6595 Y-16.7588 F60.00
G01 X11.6352 Y-16.7552 F60.00
G01 X11.6114 Y-16.7492 F60.00
G01 X11.5883 Y-16.7410 F60.00
G01 X11.5662 Y-16.7305 F60.00
G01 X11.5451 Y-16.7179 F60.00
G01 X11.5254 Y-16.7033 F60.00
G01 X11.5072 Y-16.6868 F60.00
G01 X11.4907 Y-16.6686 F60.00
G01 X11.4761 Y-16.6489 F60.00
G01 X11.4635 Y-16.6278 F60.00
G01 X11.4530 Y-16.6057 F60.00
G01 X11.4448 Y-16.5826 F60.00
G01 X11.4388 Y-16.5588 F60.00
G01 X11.4352 Y-16.5345 F60.00
G01 X11.4340 Y-16.5100 F60.00
G01 X11.4352 Y-16.4855 F60.00
G01 X11.4388 Y-16.4612 F60.00
G01 X11.4448 Y-16.4374 F60.00
G01 X11.4530 Y-16.4143 F60.00
G01 X11.4635 Y-16.3922 F60.00
G01 X11.4761 Y-16.3711 F60.00
G01 X11.4907 Y-16.3514 F60.00
G01 X11.5072 Y-16.3332 F60.00
G01 X11.5254 Y-16.3167 F60.00
G01 X11.5451 Y-16.3021 F60.00
G01 X11.5662 Y-16.2895 F60.00
G01 X11.5883 Y-16.2790 F60.00
G01 X11.6114 Y-16.2708 F60.00
G01 X11.6352 Y-16.2648 F60.00
G01 X11.6595 Y-16.2612 F60.00
G01 X11.6840 Y-16.2600 F60.00
G01 X11.7085 Y-16.2612 F60.00
G01 X11.7328 Y-16.2648 F60.00
G01 X11.7566 Y-16.2708 F60.00
G01 X11.7797 Y-16.2790 F60.00
G01 X11.8018 Y-16.2895 F60.00
G01 X11.8229 Y-16.3021 F60.00
G01 X11.8426 Y-16.3167 F60.00
G01 X11.8608 Y-16.3332 F60.00
G01 X11.8773 Y-16.3514 F60.00
G01 X11.8919 Y-16.3711 F60.00
G01 X11.9045 Y-16.3922 F60.00
G01 X11.9150 Y-16.4143 F60.00
G01 X11.9232 Y-16.4374 F60.00
G01 X11.9292 Y-16.4612 F60.00
G01 X11.9328 Y-16.4855 F60.00
G01 X11.9340 Y-16.5100 F60.00
G00 Z2.0000
G00 X14.4740 Y-16.5100
G01 F60.00
G01 Z-0.5000
G01 F60.00
G01 X14.4728 Y-16.5345 F60.00
G01 X14.4692 Y-16.5588 F60.00
G01 X14.4632 Y-16.5826 F60.00
G01 X14.4550 Y-16.6057 F60.00
G01 X14.4445 Y-16.6278 F60.00
G01 X14.4319 Y-16.6489 F60.00
G01 X14.4173 Y-16.6686 F60.00
G01 X14.4008 Y-16.6868 F60.00
G01 X14.3826 Y-16.7033 F60.00
G01 X14.3629 Y-16.7179 F60.00
G01 X14.3418 Y-16.7305 F60.00
G01 X14.3197 Y-16.7410 F60.00
G01 X14.2966 Y-16.7492 F60.00
G01 X14.2728 Y-16.7552 F60.00
G01 X14.2485 Y-16.7588 F60.00
G01 X14.2240 Y-16.7600 F60.00
G01 X14.1995 Y-16.7588 F60.00
G01 X14.1752 Y-16.7552 F60.00
G01 X14.1514 Y-16.7492 F60.00
G01 X14.1283 Y-16.7410 F60.00
G01 X14.1062 Y-16.7305 F60.00
G01 X14.0851 Y-16.7179 F60.00
G01 X14.0654 Y-16.7033 F60.00
G01 X14.0472 Y-16.6868 F60.00
G01 X14.0307 Y-16.6686 F60.00
G01 X14.0161 Y-16.6489 F60.00
G01 X14.0035 Y-16.6278 F60.00
G01 X13.9930 Y-16.6057 F60.00
G01 X13.9848 Y-16.5826 F60.00
G01 X13.9788 Y-16.5588 F60.00
G01 X13.9752 Y-16.5345 F60.00
G01 X13.9740 Y-16.5100 F60.00
G01 X13.9752 Y-16.4855 F60.00
G01 X13.9788 Y-16.4612 F60.00
G01 X13.9848 Y-16.4374 F60.00
G01 X13.9930 Y-16.4143 F60.00
G01 X14.0035 Y-16.3922 F60.00
G01 X14.0161 Y-16.3711 F60.00
G01 X14.0307 Y-16.3514 F60.00
G01 X14.0472 Y-16.3332 F60.00
G01 X14.0654 Y-16.3167 F60.00
G01 X14.0851 Y-16.3021 F60.00
G01 X14.1062 Y-16.2895 F60.00
G01 X14.1283 Y-16.2790 F60.00
G01 X14.1514 Y-16.2708 F60.00
G01 X14.1752 Y-16.2648 F60.00
G01 X14.1995 Y-16.2612 F60.00
G01 X14.2240 Y-16.2600 F60.00
G01 X14.2485 Y-16.2612 F60.00
G01 X14.2728 Y-16.2648 F60.00
G01 X14.2966 Y-16.2708 F60.00
G01 X14.3197 Y-16.2790 F60.00
G01 X14.3418 Y-16.2895 F60.00
G01 X14.3629 Y-16.3021 F60.00
G01 X14.3826 Y-16.3167 F60.00
G01 X14.4008 Y-16.3332 F60.00
G01 X14.4173 Y-16.3514 F60.00
G01 X14.4319 Y-16.3711 F60.00
G01 X14.4445 Y-16.3922 F60.00
G01 X14.4550 Y-16.4143 F60.00
G01 X14.4632 Y-16.4374 F60.00
G01 X14.4692 Y-16.4612 F60.00
G01 X14.4728 Y-16.4855 F60.00
G01 X14.4740 Y-16.5100 F60.00
G00 X14.4740 Y-16.5100
G01 F60.00
G01 Z-1.0000
G01 F60.00
G01 X14.4728 Y-16.5345 F60.00
G01 X14.4692 Y-16.5588 F60.00
G01 X14.4632 Y-16.5826 F60.00
G01 X14.4550 Y-16.6057 F60.00
G01 X14.4445 Y-16.6278 F60.00
G01 X14.4319 Y-16.6489 F60.00
G01 X14.4173 Y-16.6686 F60.00
G01 X14.4008 Y-16.6868 F60.00
G01 X14.3826 Y-16.7033 F60.00
G01 X14.3629 Y-16.7179 F60.00
G01 X14.3418 Y-16.7305 F60.00
G01 X14.3197 Y-16.7410 F60.00
G01 X14.2966 Y-16.7492 F60.00
G01 X14.2728 Y-16.7552 F60.00
G01 X14.2485 Y-16.7588 F60.00
G01 X14.2240 Y-16.7600 F60.00
G01 X14.1995 Y-16.7588 F60.00
G01 X14.1752 Y-16.7552 F60.00
G01 X14.1514 Y-16.7492 F60.00
G01 X14.1283 Y-16.7410 F60.00
G01 X14.1062 Y-16.7305 F60.00
G01 X14.0851 Y-16.7179 F60.00
G01 X14.0654 Y-16.7033 F60.00
G01 X14.0472 Y-16.6868 F60.00
G01 X14.0307 Y-16.6686 F60.00
G01 X14.0161 Y-16.6489 F60.00
G01 X14.0035 Y-16.6278 F60.00
G01 X13.9930 Y-16.6057 F60.00
G01 X13.9848 Y-16.5826 F60.00
G01 X13.9788 Y-16.5588 F60.00
G01 X13.9752 Y-16.5345 F60.00
G01 X13.9740 Y-16.5100 F60.00
G01 X13.9752 Y-16.4855 F60.00
G01 X13.9788 Y-16.4612 F60.00
G01 X13.9848 Y-16.4374 F60.00
G01 X13.9930 Y-16.4143 F60.00
G01 X14.0035 Y-16.3922 F60.00
G01 X14.0161 Y-16.3711 F60.00
G01 X14.0307 Y-16.3514 F60.00
G01 X14.0472 Y-16.3332 F60.00
G01 X14.0654 Y-16.3167 F60.00
G01 X14.0851 Y-16.3021 F60.00
G01 X14.1062 Y-16.2895 F60.00
G01 X14.1283 Y-16.2790 F60.00
G01 X14.1514 Y-16.2708 F60.00
G01 X14.1752 Y-16.2648 F60.00
G01 X14.1995 Y-16.2612 F60.00
G01 X14.2240 Y-16.2600 F60.00
G01 X14.2485 Y-16.2612 F60.00
G01 X14.2728 Y-16.2648 F60.00
G01 X14.2966 Y-16.2708 F60.00
G01 X14.3197 Y-16.2790 F60.00
G01 X14.3418 Y-16.2895 F60.00
G01 X14.3629 Y-16.3021 F60.00
G01 X14.3826 Y-16.3167 F60.00
G01 X14.4008 Y-16.3332 F60.00
G01 X14.4173 Y-16.3514 F60.00
G01 X14.4319 Y-16.3711 F60.00
G01 X14.4445 Y-16.3922 F60.00
G01 X14.4550 Y-16.4143 F60.00
G01 X14.4632 Y-16.4374 F60.00
G01 X14.4692 Y-16.4612 F60.00
G01 X14.4728 Y-16.4855 F60.00
G01 X14.4740 Y-16.5100 F60.00
G00 X14.4740 Y-16.5100
G01 F60.00
G01 Z-1.5000
G01 F60.00
G01 X14.4728 Y-16.5345 F60.00
G01 X14.4692 Y-16.5588 F60.00
G01 X14.4632 Y-16.5826 F60.00
G01 X14.4550 Y-16.6057 F60.00
G01 X14.4445 Y-16.6278 F60.00
G01 X14.4319 Y-16.6489 F60.00
G01 X14.4173 Y-16.6686 F60.00
G01 X14.4008 Y-16.6868 F60.00
G01 X14.3826 Y-16.7033 F60.00
G01 X14.3629 Y-16.7179 F60.00
G01 X14.3418 Y-16.7305 F60.00
G01 X14.3197 Y-16.7410 F60.00
G01 X14.2966 Y-16.7492 F60.00
G01 X14.2728 Y-16.7552 F60.00
G01 X14.2485 Y-16.7588 F60.00
G01 X14.2240 Y-16.7600 F60.00
G01 X14.1995 Y-16.7588 F60.00
G01 X14.1752 Y-16.7552 F60.00
G01 X14.1514 Y-16.7492 F60.00
G01 X14.1283 Y-16.7410 F60.00
G01 X14.1062 Y-16.7305 F60.00
G01 X14.0851 Y-16.7179 F60.00
G01 X14.0654 Y-16.7033 F60.00
G01 X14.0472 Y-16.6868 F60.00
G01 X14.0307 Y-16.6686 F60.00
G01 X14.0161 Y-16.6489 F60.00
G01 X14.0035 Y-16.6278 F60.00
G01 X13.9930 Y-16.6057 F60.00
G01 X13.9848 Y-16.5826 F60.00
G01 X13.9788 Y-16.5588 F60.00
G01 X13.9752 Y-16.5345 F60.00
G01 X13.9740 Y-16.5100 F60.00
G01 X13.9752 Y-16.4855 F60.00
G01 X13.9788 Y-16.4612 F60.00
G01 X13.9848 Y-16.4374 F60.00
G01 X13.9930 Y-16.4143 F60.00
G01 X14.0035 Y-16.3922 F60.00
G01 X14.0161 Y-16.3711 F60.00
G01 X14.0307 Y-16.3514 F60.00
G01 X14.0472 Y-16.3332 F60.00
G01 X14.0654 Y-16.3167 F60.00
G01 X14.0851 Y-16.3021 F60.00
G01 X14.1062 Y-16.2895 F60.00
G01 X14.1283 Y-16.2790 F60.00
G01 X14.1514 Y-16.2708 F60.00
G01 X14.1752 Y-16.2648 F60.00
G01 X14.1995 Y-16.2612 F60.00
G01 X14.2240 Y-16.2600 F60.00
G01 X14.2485 Y-16.2612 F60.00
G01 X14.2728 Y-16.2648 F60.00
G01 X14.2966 Y-16.2708 F60.00
G01 X14.3197 Y-16.2790 F60.00
G01 X14.3418 Y-16.2895 F60.00
G01 X14.3629 Y-16.3021 F60.00
G01 X14.3826 Y-16.3167 F60.00
G01 X14.4008 Y-16.3332 F60.00
G01 X14.4173 Y-16.3514 F60.00
G01 X14.4319 Y-16.3711 F60.00
G01 X14.4445 Y-16.3922 F60.00
G01 X14.4550 Y-16.4143 F60.00
G01 X14.4632 Y-16.4374 F60.00
G01 X14.4692 Y-16.4612 F60.00
G01 X14.4728 Y-16.4855 F60.00
G01 X14.4740 Y-16.5100 F60.00
G00 X14.4740 Y-16.5100
G01 F60.00
G01 Z-2.0000
G01 F60.00
G01 X14.4728 Y-16.5345 F60.00
G01 X14.4692 Y-16.5588 F60.00
G01 X14.4632 Y-16.5826 F60.00
G01 X14.4550 Y-16.6057 F60.00
G01 X14.4445 Y-16.6278 F60.00
G01 X14.4319 Y-16.6489 F60.00
G01 X14.4173 Y-16.6686 F60.00
G01 X14.4008 Y-16.6868 F60.00
G01 X14.3826 Y-16.7033 F60.00
G01 X14.3629 Y-16.7179 F60.00
G01 X14.3418 Y-16.7305 F60.00
G01 X14.3197 Y-16.7410 F60.00
G01 X14.2966 Y-16.7492 F60.00
G01 X14.2728 Y-16.7552 F60.00
G01 X14.2485 Y-16.7588 F60.00
G01 X14.2240 Y-16.7600 F60.00
G01 X14.1995 Y-16.7588 F60.00
G01 X14.1752 Y-16.7552 F60.00
G01 X14.1514 Y-16.7492 F60.00
G01 X14.1283 Y-16.7410 F60.00
G01 X14.1062 Y-16.7305 F60.00
G01 X14.0851 Y-16.7179 F60.00
G01 X14.0654 Y-16.7033 F60.00
G01 X14.0472 Y-16.6868 F60.00
G01 X14.0307 Y-16.6686 F60.00
G01 X14.0161 Y-16.6489 F60.00
G01 X14.0035 Y-16.6278 F60.00
G01 X13.9930 Y-16.6057 F60.00
G01 X13.9848 Y-16.5826 F60.00
G01 X13.9788 Y-16.5588 F60.00
G01 X13.9752 Y-16.5345 F60.00
G01 X13.9740 Y-16.5100 F60.00
G01 X13.9752 Y-16.4855 F60.00
G01 X13.9788 Y-16.4612 F60.00
G01 X13.9848 Y-16.4374 F60.00
G01 X13.9930 Y-16.4143 F60.00
G01 X14.0035 Y-16.3922 F60.00
G01 X14.0161 Y-16.3711 F60.00
G01 X14.0307 Y-16.3514 F60.00
G01 X14.0472 Y-16.3332 F60.00
G01 X14.0654 Y-16.3167 F60.00
G01 X14.0851 Y-16.3021 F60.00
G01 X14.1062 Y-16.2895 F60.00
G01 X14.1283 Y-16.2790 F60.00
G01 X14.1514 Y-16.2708 F60.00
G01 X14.1752 Y-16.2648 F60.00
G01 X14.1995 Y-16.2612 F60.00
G01 X14.2240 Y-16.2600 F60.00
G01 X14.2485 Y-16.2612 F60.00
G01 X14.2728 Y-16.2648 F60.00
G01 X14.2966 Y-16.2708 F60.00
G01 X14.3197 Y-16.2790 F60.00
G01 X14.3418 Y-16.2895 F60.00
G01 X14.3629 Y-16.3021 F60.00
G01 X14.3826 Y-16.3167 F60.00
G01 X14.4008 Y-16.3332 F60.00
G01 X14.4173 Y-16.3514 F60.00
G01 X14.4319 Y-16.3711 F60.00
G01 X14.4445 Y-16.3922 F60.00
G01 X14.4550 Y-16.4143 F60.00
G01 X14.4632 Y-16.4374 F60.00
G01 X14.4692 Y-16.4612 F60.00
G01 X14.4728 Y-16.4855 F60.00
G01 X14.4740 Y-16.5100 F60.00
G00 X14.4740 Y-16.5100
G01 F60.00
G01 Z-2.5000
G01 F60.00
G01 X14.4728 Y-16.5345 F60.00
G01 X14.4692 Y-16.5588 F60.00
G01 X14.4632 Y-16.5826 F60.00
G01 X14.4550 Y-16.6057 F60.00
G01 X14.4445 Y-16.6278 F60.00
G01 X14.4319 Y-16.6489 F60.00
G01 X14.4173 Y-16.6686 F60.00
G01 X14.4008 Y-16.6868 F60.00
G01 X14.3826 Y-16.7033 F60.00
G01 X14.3629 Y-16.7179 F60.00
G01 X14.3418 Y-16.7305 F60.00
G01 X14.3197 Y-16.7410 F60.00
G01 X14.2966 Y-16.7492 F60.00
G01 X14.2728 Y-16.7552 F60.00
G01 X14.2485 Y-16.7588 F60.00
G01 X14.2240 Y-16.7600 F60.00
G01 X14.1995 Y-16.7588 F60.00
G01 X14.1752 Y-16.7552 F60.00
G01 X14.1514 Y-16.7492 F60.00
G01 X14.1283 Y-16.7410 F60.00
G01 X14.1062 Y-16.7305 F60.00
G01 X14.0851 Y-16.7179 F60.00
G01 X14.0654 Y-16.7033 F60.00
G01 X14.0472 Y-16.6868 F60.00
G01 X14.0307 Y-16.6686 F60.00
G01 X14.0161 Y-16.6489 F60.00
G01 X14.0035 Y-16.6278 F60.00
G01 X13.9930 Y-16.6057 F60.00
G01 X13.9848 Y-16.5826 F60.00
G01 X13.9788 Y-16.5588 F60.00
G01 X13.9752 Y-16.5345 F60.00
G01 X13.9740 Y-16.5100 F60.00
G01 X13.9752 Y-16.4855 F60.00
G01 X13.9788 Y-16.4612 F60.00
G01 X13.9848 Y-16.4374 F60.00
G01 X13.9930 Y-16.4143 F60.00
G01 X14.0035 Y-16.3922 F60.00
G01 X14.0161 Y-16.3711 F60.00
G01 X14.0307 Y-16.3514 F60.00
G01 X14.0472 Y-16.3332 F60.00
G01 X14.0654 Y-16.3167 F60.00
G01 X14.0851 Y-16.3021 F60.00
G01 X14.1062 Y-16.2895 F60.00
G01 X14.1283 Y-16.2790 F60.00
G01 X14.1514 Y-16.2708 F60.00
G01 X14.1752 Y-16.2648 F60.00
G01 X14.1995 Y-16.2612 F60.00
G01 X14.2240 Y-16.2600 F60.00
G01 X14.2485 Y-16.2612 F60.00
G01 X14.2728 Y-16.2648 F60.00
G01 X14.2966 Y-16.2708 F60.00
G01 X14.3197 Y-16.2790 F60.00
G01 X14.3418 Y-16.2895 F60.00
G01 X14.3629 Y-16.3021 F60.00
G01 X14.3826 Y-16.3167 F60.00
G01 X14.4008 Y-16.3332 F60.00
G01 X14.4173 Y-16.3514 F60.00
G01 X14.4319 Y-16.3711 F60.00
G01 X14.4445 Y-16.3922 F60.00
G01 X14.4550 Y-16.4143 F60.00
G01 X14.4632 Y-16.4374 F60.00
G01 X14.4692 Y-16.4612 F60.00
G01 X14.4728 Y-16.4855 F60.00
G01 X14.4740 Y-16.5100 F60.00
G00 Z2.0000
G00 X13.2040 Y-19.0500
G01 F60.00
G01 Z-0.5000
G01 F60.00
G01 X13.2028 Y-19.0745 F60.00
G01 X13.1992 Y-19.0988 F60.00
G01 X13.1932 Y-19.1226 F60.00
G01 X13.1850 Y-19.1457 F60.00
G01 X13.1745 Y-19.1678 F60.00
G01 X13.1619 Y-19.1889 F60.00
G01 X13.1473 Y-19.2086 F60.00
G01 X13.1308 Y-19.2268 F60.00
G01 X13.1126 Y-19.2433 F60.00
G01 X13.0929 Y-19.2579 F60.00
G01 X13.0718 Y-19.2705 F60.00
G01 X13.0497 Y-19.2810 F60.00
G01 X13.0266 Y-19.2892 F60.00
G01 X13.0028 Y-19.2952 F60.00
G01 X12.9785 Y-19.2988 F60.00
G01 X12.9540 Y-19.3000 F60.00
G01 X12.9295 Y-19.2988 F60.00
G01 X12.9052 Y-19.2952 F60.00
G01 X12.8814 Y-19.2892 F60.00
G01 X12.8583 Y-19.2810 F60.00
G01 X12.8362 Y-19.2705 F60.00
G01 X12.8151 Y-19.2579 F60.00
G01 X12.7954 Y-19.2433 F60.00
G01 X12.7772 Y-19.2268 F60.00
G01 X12.7607 Y-19.2086 F60.00
G01 X12.7461 Y-19.1889 F60.00
G01 X12.7335 Y-19.1678 F60.00
G01 X12.7230 Y-19.1457 F60.00
G01 X12.7148 Y-19.1226 F60.00
G01 X12.7088 Y-19.0988 F60.00
G01 X12.7052 Y-19.0745 F60.00
G01 X12.7040 Y-19.0500 F60.00
G01 X12.7052 Y-19.0255 F60.00
G01 X12.7088 Y-19.0012 F60.00
G01 X12.7148 Y-18.9774 F60.00
G01 X12.7230 Y-18.9543 F60.00
G01 X12.7335 Y-18.9322 F60.00
G01 X12.7461 Y-18.9111 F60.00
G01 X12.7607 Y-18.8914 F60.00
G01 X12.7772 Y-18.8732 F60.00
G01 X12.7954 Y-18.8567 F60.00
G01 X12.8151 Y-18.8421 F60.00
G01 X12.8362 Y-18.8295 F60.00
G01 X12.8583 Y-18.8190 F60.00
G01 X12.8814 Y-18.8108 F60.00
G01 X12.9052 Y-18.8048 F60.00
G01 X12.9295 Y-18.8012 F60.00
G01 X12.9540 Y-18.8000 F60.00
G01 X12.9785 Y-18.8012 F60.00
G01 X13.0028 Y-18.8048 F60.00
G01 X13.0266 Y-18.8108 F60.00
G01 X13.0497 Y-18.8190 F60.00
G01 X13.0718 Y-18.8295 F60.00
G01 X13.0929 Y-18.8421 F60.00
G01 X13.1126 Y-18.8567 F60.00
G01 X13.1308 Y-18.8732 F60.00
G01 X13.1473 Y-18.8914 F60.00
G01 X13.1619 Y-18.9111 F60.00
G01 X13.1745 Y-18.9322 F60.00
G01 X13.1850 Y-18.9543 F60.00
G01 X13.1932 Y-18.9774 F60.00
G01 X13.1992 Y-19.0012 F60.00
G01 X13.2028 Y-19.0255 F60.00
G01 X13.2040 Y-19.0500 F60.00
G00 X13.2040 Y-19.0500
G01 F60.00
G01 Z-1.0000
G01 F60.00
G01 X13.2028 Y-19.0745 F60.00
G01 X13.1992 Y-19.0988 F60.00
G01 X13.1932 Y-19.1226 F60.00
G01 X13.1850 Y-19.1457 F60.00
G01 X13.1745 Y-19.1678 F60.00
G01 X13.1619 Y-19.1889 F60.00
G01 X13.1473 Y-19.2086 F60.00
G01 X13.1308 Y-19.2268 F60.00
G01 X13.1126 Y-19.2433 F60.00
G01 X13.0929 Y-19.2579 F60.00
G01 X13.0718 Y-19.2705 F60.00
G01 X13.0497 Y-19.2810 F60.00
G01 X13.0266 Y-19.2892 F60.00
G01 X13.0028 Y-19.2952 F60.00
G01 X12.9785 Y-19.2988 F60.00
G01 X12.9540 Y-19.3000 F60.00
G01 X12.9295 Y-19.2988 F60.00
G01 X12.9052 Y-19.2952 F60.00
G01 X12.8814 Y-19.2892 F60.00
G01 X12.8583 Y-19.2810 F60.00
G01 X12.8362 Y-19.2705 F60.00
G01 X12.8151 Y-19.2579 F60.00
G01 X12.7954 Y-19.2433 F60.00
G01 X12.7772 Y-19.2268 F60.00
G01 X12.7607 Y-19.2086 F60.00
G01 X12.7461 Y-19.1889 F60.00
G01 X12.7335 Y-19.1678 F60.00
G01 X12.7230 Y-19.1457 F60.00
G01 X12.7148 Y-19.1226 F60.00
G01 X12.7088 Y-19.0988 F60.00
G01 X12.7052 Y-19.0745 F60.00
G01 X12.7040 Y-19.0500 F60.00
G01 X12.7052 Y-19.0255 F60.00
G01 X12.7088 Y-19.0012 F60.00
G01 X12.7148 Y-18.9774 F60.00
G01 X12.7230 Y-18.9543 F60.00
G01 X12.7335 Y-18.9322 F60.00
G01 X12.7461 Y-18.9111 F60.00
G01 X12.7607 Y-18.8914 F60.00
G01 X12.7772 Y-18.8732 F60.00
G01 X12.7954 Y-18.8567 F60.00
G01 X12.8151 Y-18.8421 F60.00
G01 X12.8362 Y-18.8295 F60.00
G01 X12.8583 Y-18.8190 F60.00
G01 X12.8814 Y-18.8108 F60.00
G01 X12.9052 Y-18.8048 F60.00
G01 X12.9295 Y-18.8012 F60.00
G01 X12.9540 Y-18.8000 F60.00
G01 X12.9785 Y-18.8012 F60.00
G01 X13.0028 Y-18.8048 F60.00
G01 X13.0266 Y-18.8108 F60.00
G01 X13.0497 Y-18.8190 F60.00
G01 X13.0718 Y-18.8295 F60.00
G01 X13.0929 Y-18.8421 F60.00
G01 X13.1126 Y-18.8567 F60.00
G01 X13.1308 Y-18.8732 F60.00
G01 X13.1473 Y-18.8914 F60.00
G01 X13.1619 Y-18.9111 F60.00
G01 X13.1745 Y-18.9322 F60.00
G01 X13.1850 Y-18.9543 F60.00
G01 X13.1932 Y-18.9774 F60.00
G01 X13.1992 Y-19.0012 F60.00
G01 X13.2028 Y-19.0255 F60.00
G01 X13.2040 Y-19.0500 F60.00
G00 X13.2040 Y-19.0500
G01 F60.00
G01 Z-1.5000
G01 F60.00
G01 X13.2028 Y-19.0745 F60.00
G01 X13.1992 Y-19.0988 F60.00
G01 X13.1932 Y-19.1226 F60.00
G01 X13.1850 Y-19.1457 F60.00
G01 X13.1745 Y-19.1678 F60.00
G01 X13.1619 Y-19.1889 F60.00
G01 X13.1473 Y-19.2086 F60.00
G01 X13.1308 Y-19.2268 F60.00
G01 X13.1126 Y-19.2433 F60.00
G01 X13.0929 Y-19.2579 F60.00
G01 X13.0718 Y-19.2705 F60.00
G01 X13.0497 Y-19.2810 F60.00
G01 X13.0266 Y-19.2892 F60.00
G01 X13.0028 Y-19.2952 F60.00
G01 X12.9785 Y-19.2988 F60.00
G01 X12.9540 Y-19.3000 F60.00
G01 X12.9295 Y-19.2988 F60.00
G01 X12.9052 Y-19.2952 F60.00
G01 X12.8814 Y-19.2892 F60.00
G01 X12.8583 Y-19.2810 F60.00
G01 X12.8362 Y-19.2705 F60.00
G01 X12.8151 Y-19.2579 F60.00
G01 X12.7954 Y-19.2433 F60.00
G01 X12.7772 Y-19.2268 F60.00
G01 X12.7607 Y-19.2086 F60.00
G01 X12.7461 Y-19.1889 F60.00
G01 X12.7335 Y-19.1678 F60.00
G01 X12.7230 Y-19.1457 F60.00
G01 X12.7148 Y-19.1226 F60.00
G01 X12.7088 Y-19.0988 F60.00
G01 X12.7052 Y-19.0745 F60.00
G01 X12.7040 Y-19.0500 F60.00
G01 X12.7052 Y-19.0255 F60.00
G01 X12.7088 Y-19.0012 F60.00
G01 X12.7148 Y-18.9774 F60.00
G01 X12.7230 Y-18.9543 F60.00
G01 X12.7335 Y-18.9322 F60.00
G01 X12.7461 Y-18.9111 F60.00
G01 X12.7607 Y-18.8914 F60.00
G01 X12.7772 Y-18.8732 F60.00
G01 X12.7954 Y-18.8567 F60.00
G01 X12.8151 Y-18.8421 F60.00
G01 X12.8362 Y-18.8295 F60.00
G01 X12.8583 Y-18.8190 F60.00
G01 X12.8814 Y-18.8108 F60.00
G01 X12.9052 Y-18.8048 F60.00
G01 X12.9295 Y-18.8012 F60.00
G01 X12.9540 Y-18.8000 F60.00
G01 X12.9785 Y-18.8012 F60.00
G01 X13.0028 Y-18.8048 F60.00
G01 X13.0266 Y-18.8108 F60.00
G01 X13.0497 Y-18.8190 F60.00
G01 X13.0718 Y-18.8295 F60.00
G01 X13.0929 Y-18.8421 F60.00
G01 X13.1126 Y-18.8567 F60.00
G01 X13.1308 Y-18.8732 F60.00
G01 X13.1473 Y-18.8914 F60.00
G01 X13.1619 Y-18.9111 F60.00
G01 X13.1745 Y-18.9322 F60.00
G01 X13.1850 Y-18.9543 F60.00
G01 X13.1932 Y-18.9774 F60.00
G01 X13.1992 Y-19.0012 F60.00
G01 X13.2028 Y-19.0255 F60.00
G01 X13.2040 Y-19.0500 F60.00
G00 X13.2040 Y-19.0500
G01 F60.00
G01 Z-2.0000
G01 F60.00
G01 X13.2028 Y-19.0745 F60.00
G01 X13.1992 Y-19.0988 F60.00
G01 X13.1932 Y-19.1226 F60.00
G01 X13.1850 Y-19.1457 F60.00
G01 X13.1745 Y-19.1678 F60.00
G01 X13.1619 Y-19.1889 F60.00
G01 X13.1473 Y-19.2086 F60.00
G01 X13.1308 Y-19.2268 F60.00
G01 X13.1126 Y-19.2433 F60.00
G01 X13.0929 Y-19.2579 F60.00
G01 X13.0718 Y-19.2705 F60.00
G01 X13.0497 Y-19.2810 F60.00
G01 X13.0266 Y-19.2892 F60.00
G01 X13.0028 Y-19.2952 F60.00
G01 X12.9785 Y-19.2988 F60.00
G01 X12.9540 Y-19.3000 F60.00
G01 X12.9295 Y-19.2988 F60.00
G01 X12.9052 Y-19.2952 F60.00
G01 X12.8814 Y-19.2892 F60.00
G01 X12.8583 Y-19.2810 F60.00
G01 X12.8362 Y-19.2705 F60.00
G01 X12.8151 Y-19.2579 F60.00
G01 X12.7954 Y-19.2433 F60.00
G01 X12.7772 Y-19.2268 F60.00
G01 X12.7607 Y-19.2086 F60.00
G01 X12.7461 Y-19.1889 F60.00
G01 X12.7335 Y-19.1678 F60.00
G01 X12.7230 Y-19.1457 F60.00
G01 X12.7148 Y-19.1226 F60.00
G01 X12.7088 Y-19.0988 F60.00
G01 X12.7052 Y-19.0745 F60.00
G01 X12.7040 Y-19.0500 F60.00
G01 X12.7052 Y-19.0255 F60.00
G01 X12.7088 Y-19.0012 F60.00
G01 X12.7148 Y-18.9774 F60.00
G01 X12.7230 Y-18.9543 F60.00
G01 X12.7335 Y-18.9322 F60.00
G01 X12.7461 Y-18.9111 F60.00
G01 X12.7607 Y-18.8914 F60.00
G01 X12.7772 Y-18.8732 F60.00
G01 X12.7954 Y-18.8567 F60.00
G01 X12.8151 Y-18.8421 F60.00
G01 X12.8362 Y-18.8295 F60.00
G01 X12.8583 Y-18.8190 F60.00
G01 X12.8814 Y-18.8108 F60.00
G01 X12.9052 Y-18.8048 F60.00
G01 X12.9295 Y-18.8012 F60.00
G01 X12.9540 Y-18.8000 F60.00
G01 X12.9785 Y-18.8012 F60.00
G01 X13.0028 Y-18.8048 F60.00
G01 X13.0266 Y-18.8108 F60.00
G01 X13.0497 Y-18.8190 F60.00
G01 X13.0718 Y-18.8295 F60.00
G01 X13.0929 Y-18.8421 F60.00
G01 X13.1126 Y-18.8567 F60.00
G01 X13.1308 Y-18.8732 F60.00
G01 X13.1473 Y-18.8914 F60.00
G01 X13.1619 Y-18.9111 F60.00
G01 X13.1745 Y-18.9322 F60.00
G01 X13.1850 Y-18.9543 F60.00
G01 X13.1932 Y-18.9774 F60.00
G01 X13.1992 Y-19.0012 F60.00
G01 X13.2028 Y-19.0255 F60.00
G01 X13.2040 Y-19.0500 F60.00
G00 X13.2040 Y-19.0500
G01 F60.00
G01 Z-2.5000
G01 F60.00
G01 X13.2028 Y-19.0745 F60.00
G01 X13.1992 Y-19.0988 F60.00
G01 X13.1932 Y-19.1226 F60.00
G01 X13.1850 Y-19.1457 F60.00
G01 X13.1745 Y-19.1678 F60.00
G01 X13.1619 Y-19.1889 F60.00
G01 X13.1473 Y-19.2086 F60.00
G01 X13.1308 Y-19.2268 F60.00
G01 X13.1126 Y-19.2433 F60.00
G01 X13.0929 Y-19.2579 F60.00
G01 X13.0718 Y-19.2705 F60.00
G01 X13.0497 Y-19.2810 F60.00
G01 X13.0266 Y-19.2892 F60.00
G01 X13.0028 Y-19.2952 F60.00
G01 X12.9785 Y-19.2988 F60.00
G01 X12.9540 Y-19.3000 F60.00
G01 X12.9295 Y-19.2988 F60.00
G01 X12.9052 Y-19.2952 F60.00
G01 X12.8814 Y-19.2892 F60.00
G01 X12.8583 Y-19.2810 F60.00
G01 X12.8362 Y-19.2705 F60.00
G01 X12.8151 Y-19.2579 F60.00
G01 X12.7954 Y-19.2433 F60.00
G01 X12.7772 Y-19.2268 F60.00
G01 X12.7607 Y-19.2086 F60.00
G01 X12.7461 Y-19.1889 F60.00
G01 X12.7335 Y-19.1678 F60.00
G01 X12.7230 Y-19.1457 F60.00
G01 X12.7148 Y-19.1226 F60.00
G01 X12.7088 Y-19.0988 F60.00
G01 X12.7052 Y-19.0745 F60.00
G01 X12.7040 Y-19.0500 F60.00
G01 X12.7052 Y-19.0255 F60.00
G01 X12.7088 Y-19.0012 F60.00
G01 X12.7148 Y-18.9774 F60.00
G01 X12.7230 Y-18.9543 F60.00
G01 X12.7335 Y-18.9322 F60.00
G01 X12.7461 Y-18.9111 F60.00
G01 X12.7607 Y-18.8914 F60.00
G01 X12.7772 Y-18.8732 F60.00
G01 X12.7954 Y-18.8567 F60.00
G01 X12.8151 Y-18.8421 F60.00
G01 X12.8362 Y-18.8295 F60.00
G01 X12.8583 Y-18.8190 F60.00
G01 X12.8814 Y-18.8108 F60.00
G01 X12.9052 Y-18.8048 F60.00
G01 X12.9295 Y-18.8012 F60.00
G01 X12.9540 Y-18.8000 F60.00
G01 X12.9785 Y-18.8012 F60.00
G01 X13.0028 Y-18.8048 F60.00
G01 X13.0266 Y-18.8108 F60.00
G01 X13.0497 Y-18.8190 F60.00
G01 X13.0718 Y-18.8295 F60.00
G01 X13.0929 Y-18.8421 F60.00
G01 X13.1126 Y-18.8567 F60.00
G01 X13.1308 Y-18.8732 F60.00
G01 X13.1473 Y-18.8914 F60.00
G01 X13.1619 Y-18.9111 F60.00
G01 X13.1745 Y-18.9322 F60.00
G01 X13.1850 Y-18.9543 F60.00
G01 X13.1932 Y-18.9774 F60.00
G01 X13.1992 Y-19.0012 F60.00
G01 X13.2028 Y-19.0255 F60.00
G01 X13.2040 Y-19.0500 F60.00
G00 Z2.0000
G00 X15.7440 Y-19.0500
G01 F60.00
G01 Z-0.5000
G01 F60.00
G01 X15.7428 Y-19.0745 F60.00
G01 X15.7392 Y-19.0988 F60.00
G01 X15.7332 Y-19.1226 F60.00
G01 X15.7250 Y-19.1457 F60.00
G01 X15.7145 Y-19.1678 F60.00
G01 X15.7019 Y-19.1889 F60.00
G01 X15.6873 Y-19.2086 F60.00
G01 X15.6708 Y-19.2268 F60.00
G01 X15.6526 Y-19.2433 F60.00
G01 X15.6329 Y-19.2579 F60.00
G01 X15.6118 Y-19.2705 F60.00
G01 X15.5897 Y-19.2810 F60.00
G01 X15.5666 Y-19.2892 F60.00
G01 X15.5428 Y-19.2952 F60.00
G01 X15.5185 Y-19.2988 F60.00
G01 X15.4940 Y-19.3000 F60.00
G01 X15.4695 Y-19.2988 F60.00
G01 X15.4452 Y-19.2952 F60.00
G01 X15.4214 Y-19.2892 F60.00
G01 X15.3983 Y-19.2810 F60.00
G01 X15.3762 Y-19.2705 F60.00
G01 X15.3551 Y-19.2579 F60.00
G01 X15.3354 Y-19.2433 F60.00
G01 X15.3172 Y-19.2268 F60.00
G01 X15.3007 Y-19.2086 F60.00
G01 X15.2861 Y-19.1889 F60.00
G01 X15.2735 Y-19.1678 F60.00
G01 X15.2630 Y-19.1457 F60.00
G01 X15.2548 Y-19.1226 F60.00
G01 X15.2488 Y-19.0988 F60.00
G01 X15.2452 Y-19.0745 F60.00
G01 X15.2440 Y-19.0500 F60.00
G01 X15.2452 Y-19.0255 F60.00
G01 X15.2488 Y-19.0012 F60.00
G01 X15.2548 Y-18.9774 F60.00
G01 X15.2630 Y-18.9543 F60.00
G01 X15.2735 Y-18.9322 F60.00
G01 X15.2861 Y-18.9111 F60.00
G01 X15.3007 Y-18.8914 F60.00
G01 X15.3172 Y-18.8732 F60.00
G01 X15.3354 Y-18.8567 F60.00
G01 X15.3551 Y-18.8421 F60.00
G01 X15.3762 Y-18.8295 F60.00
G01 X15.3983 Y-18.8190 F60.00
G01 X15.4214 Y-18.8108 F60.00
G01 X15.4452 Y-18.8048 F60.00
G01 X15.4695 Y-18.8012 F60.00
G01 X15.4940 Y-18.8000 F60.00
G01 X15.5185 Y-18.8012 F60.00
G01 X15.5428 Y-18.8048 F60.00
G01 X15.5666 Y-18.8108 F60.00
G01 X15.5897 Y-18.8190 F60.00
G01 X15.6118 Y-18.8295 F60.00
G01 X15.6329 Y-18.8421 F60.00
G01 X15.6526 Y-18.8567 F60.00
G01 X15.6708 Y-18.8732 F60.00
G01 X15.6873 Y-18.8914 F60.00
G01 X15.7019 Y-18.9111 F60.00
G01 X15.7145 Y-18.9322 F60.00
G01 X15.7250 Y-18.9543 F60.00
G01 X15.7332 Y-18.9774 F60.00
G01 X15.7392 Y-19.0012 F60.00
G01 X15.7428 Y-19.0255 F60.00
G01 X15.7440 Y-19.0500 F60.00
G00 X15.7440 Y-19.0500
G01 F60.00
G01 Z-1.0000
G01 F60.00
G01 X15.7428 Y-19.0745 F60.00
G01 X15.7392 Y-19.0988 F60.00
G01 X15.7332 Y-19.1226 F60.00
G01 X15.7250 Y-19.1457 F60.00
G01 X15.7145 Y-19.1678 F60.00
G01 X15.7019 Y-19.1889 F60.00
G01 X15.6873 Y-19.2086 F60.00
G01 X15.6708 Y-19.2268 F60.00
G01 X15.6526 Y-19.2433 F60.00
G01 X15.6329 Y-19.2579 F60.00
G01 X15.6118 Y-19.2705 F60.00
G01 X15.5897 Y-19.2810 F60.00
G01 X15.5666 Y-19.2892 F60.00
G01 X15.5428 Y-19.2952 F60.00
G01 X15.5185 Y-19.2988 F60.00
G01 X15.4940 Y-19.3000 F60.00
G01 X15.4695 Y-19.2988 F60.00
G01 X15.4452 Y-19.2952 F60.00
G01 X15.4214 Y-19.2892 F60.00
G01 X15.3983 Y-19.2810 F60.00
G01 X15.3762 Y-19.2705 F60.00
G01 X15.3551 Y-19.2579 F60.00
G01 X15.3354 Y-19.2433 F60.00
G01 X15.3172 Y-19.2268 F60.00
G01 X15.3007 Y-19.2086 F60.00
G01 X15.2861 Y-19.1889 F60.00
G01 X15.2735 Y-19.1678 F60.00
G01 X15.2630 Y-19.1457 F60.00
G01 X15.2548 Y-19.1226 F60.00
G01 X15.2488 Y-19.0988 F60.00
G01 X15.2452 Y-19.0745 F60.00
G01 X15.2440 Y-19.0500 F60.00
G01 X15.2452 Y-19.0255 F60.00
G01 X15.2488 Y-19.0012 F60.00
G01 X15.2548 Y-18.9774 F60.00
G01 X15.2630 Y-18.9543 F60.00
G01 X15.2735 Y-18.9322 F60.00
G01 X15.2861 Y-18.9111 F60.00
G01 X15.3007 Y-18.8914 F60.00
G01 X15.3172 Y-18.8732 F60.00
G01 X15.3354 Y-18.8567 F60.00
G01 X15.3551 Y-18.8421 F60.00
G01 X15.3762 Y-18.8295 F60.00
G01 X15.3983 Y-18.8190 F60.00
G01 X15.4214 Y-18.8108 F60.00
G01 X15.4452 Y-18.8048 F60.00
G01 X15.4695 Y-18.8012 F60.00
G01 X15.4940 Y-18.8000 F60.00
G01 X15.5185 Y-18.8012 F60.00
G01 X15.5428 Y-18.8048 F60.00
G01 X15.5666 Y-18.8108 F60.00
G01 X15.5897 Y-18.8190 F60.00
G01 X15.6118 Y-18.8295 F60.00
G01 X15.6329 Y-18.8421 F60.00
G01 X15.6526 Y-18.8567 F60.00
G01 X15.6708 Y-18.8732 F60.00
G01 X15.6873 Y-18.8914 F60.00
G01 X15.7019 Y-18.9111 F60.00
G01 X15.7145 Y-18.9322 F60.00
G01 X15.7250 Y-18.9543 F60.00
G01 X15.7332 Y-18.9774 F60.00
G01 X15.7392 Y-19.0012 F60.00
G01 X15.7428 Y-19.0255 F60.00
G01 X15.7440 Y-19.0500 F60.00
G00 X15.7440 Y-19.0500
G01 F60.00
G01 Z-1.5000
G01 F60.00
G01 X15.7428 Y-19.0745 F60.00
G01 X15.7392 Y-19.0988 F60.00
G01 X15.7332 Y-19.1226 F60.00
G01 X15.7250 Y-19.1457 F60.00
G01 X15.7145 Y-19.1678 F60.00
G01 X15.7019 Y-19.1889 F60.00
G01 X15.6873 Y-19.2086 F60.00
G01 X15.6708 Y-19.2268 F60.00
G01 X15.6526 Y-19.2433 F60.00
G01 X15.6329 Y-19.2579 F60.00
G01 X15.6118 Y-19.2705 F60.00
G01 X15.5897 Y-19.2810 F60.00
G01 X15.5666 Y-19.2892 F60.00
G01 X15.5428 Y-19.2952 F60.00
G01 X15.5185 Y-19.2988 F60.00
G01 X15.4940 Y-19.3000 F60.00
G01 X15.4695 Y-19.2988 F60.00
G01 X15.4452 Y-19.2952 F60.00
G01 X15.4214 Y-19.2892 F60.00
G01 X15.3983 Y-19.2810 F60.00
G01 X15.3762 Y-19.2705 F60.00
G01 X15.3551 Y-19.2579 F60.00
G01 X15.3354 Y-19.2433 F60.00
G01 X15.3172 Y-19.2268 F60.00
G01 X15.3007 Y-19.2086 F60.00
G01 X15.2861 Y-19.1889 F60.00
G01 X15.2735 Y-19.1678 F60.00
G01 X15.2630 Y-19.1457 F60.00
G01 X15.2548 Y-19.1226 F60.00
G01 X15.2488 Y-19.0988 F60.00
G01 X15.2452 Y-19.0745 F60.00
G01 X15.2440 Y-19.0500 F60.00
G01 X15.2452 Y-19.0255 F60.00
G01 X15.2488 Y-19.0012 F60.00
G01 X15.2548 Y-18.9774 F60.00
G01 X15.2630 Y-18.9543 F60.00
G01 X15.2735 Y-18.9322 F60.00
G01 X15.2861 Y-18.9111 F60.00
G01 X15.3007 Y-18.8914 F60.00
G01 X15.3172 Y-18.8732 F60.00
G01 X15.3354 Y-18.8567 F60.00
G01 X15.3551 Y-18.8421 F60.00
G01 X15.3762 Y-18.8295 F60.00
G01 X15.3983 Y-18.8190 F60.00
G01 X15.4214 Y-18.8108 F60.00
G01 X15.4452 Y-18.8048 F60.00
G01 X15.4695 Y-18.8012 F60.00
G01 X15.4940 Y-18.8000 F60.00
G01 X15.5185 Y-18.8012 F60.00
G01 X15.5428 Y-18.8048 F60.00
G01 X15.5666 Y-18.8108 F60.00
G01 X15.5897 Y-18.8190 F60.00
G01 X15.6118 Y-18.8295 F60.00
G01 X15.6329 Y-18.8421 F60.00
G01 X15.6526 Y-18.8567 F60.00
G01 X15.6708 Y-18.8732 F60.00
G01 X15.6873 Y-18.8914 F60.00
G01 X15.7019 Y-18.9111 F60.00
G01 X15.7145 Y-18.9322 F60.00
G01 X15.7250 Y-18.9543 F60.00
G01 X15.7332 Y-18.9774 F60.00
G01 X15.7392 Y-19.0012 F60.00
G01 X15.7428 Y-19.0255 F60.00
G01 X15.7440 Y-19.0500 F60.00
G00 X15.7440 Y-19.0500
G01 F60.00
G01 Z-2.0000
G01 F60.00
G01 X15.7428 Y-19.0745 F60.00
G01 X15.7392 Y-19.0988 F60.00
G01 X15.7332 Y-19.1226 F60.00
G01 X15.7250 Y-19.1457 F60.00
G01 X15.7145 Y-19.1678 F60.00
G01 X15.7019 Y-19.1889 F60.00
G01 X15.6873 Y-19.2086 F60.00
G01 X15.6708 Y-19.2268 F60.00
G01 X15.6526 Y-19.2433 F60.00
G01 X15.6329 Y-19.2579 F60.00
G01 X15.6118 Y-19.2705 F60.00
G01 X15.5897 Y-19.2810 F60.00
G01 X15.5666 Y-19.2892 F60.00
G01 X15.5428 Y-19.2952 F60.00
G01 X15.5185 Y-19.2988 F60.00
G01 X15.4940 Y-19.3000 F60.00
G01 X15.4695 Y-19.2988 F60.00
G01 X15.4452 Y-19.2952 F60.00
G01 X15.4214 Y-19.2892 F60.00
G01 X15.3983 Y-19.2810 F60.00
G01 X15.3762 Y-19.2705 F60.00
G01 X15.3551 Y-19.2579 F60.00
G01 X15.3354 Y-19.2433 F60.00
G01 X15.3172 Y-19.2268 F60.00
G01 X15.3007 Y-19.2086 F60.00
G01 X15.2861 Y-19.1889 F60.00
G01 X15.2735 Y-19.1678 F60.00
G01 X15.2630 Y-19.1457 F60.00
G01 X15.2548 Y-19.1226 F60.00
G01 X15.2488 Y-19.0988 F60.00
G01 X15.2452 Y-19.0745 F60.00
G01 X15.2440 Y-19.0500 F60.00
G01 X15.2452 Y-19.0255 F60.00
G01 X15.2488 Y-19.0012 F60.00
G01 X15.2548 Y-18.9774 F60.00
G01 X15.2630 Y-18.9543 F60.00
G01 X15.2735 Y-18.9322 F60.00
G01 X15.2861 Y-18.9111 F60.00
G01 X15.3007 Y-18.8914 F60.00
G01 X15.3172 Y-18.8732 F60.00
G01 X15.3354 Y-18.8567 F60.00
G01 X15.3551 Y-18.8421 F60.00
G01 X15.3762 Y-18.8295 F60.00
G01 X15.3983 Y-18.8190 F60.00
G01 X15.4214 Y-18.8108 F60.00
G01 X15.4452 Y-18.8048 F60.00
G01 X15.4695 Y-18.8012 F60.00
G01 X15.4940 Y-18.8000 F60.00
G01 X15.5185 Y-18.8012 F60.00
G01 X15.5428 Y-18.8048 F60.00
G01 X15.5666 Y-18.8108 F60.00
G01 X15.5897 Y-18.8190 F60.00
G01 X15.6118 Y-18.8295 F60.00
G01 X15.6329 Y-18.8421 F60.00
G01 X15.6526 Y-18.8567 F60.00
G01 X15.6708 Y-18.8732 F60.00
G01 X15.6873 Y-18.8914 F60.00
G01 X15.7019 Y-18.9111 F60.00
G01 X15.7145 Y-18.9322 F60.00
G01 X15.7250 Y-18.9543 F60.00
G01 X15.7332 Y-18.9774 F60.00
G01 X15.7392 Y-19.0012 F60.00
G01 X15.7428 Y-19.0255 F60.00
G01 X15.7440 Y-19.0500 F60.00
G00 X15.7440 Y-19.0500
G01 F60.00
G01 Z-2.5000
G01 F60.00
G01 X15.7428 Y-19.0745 F60.00
G01 X15.7392 Y-19.0988 F60.00
G01 X15.7332 Y-19.1226 F60.00
G01 X15.7250 Y-19.1457 F60.00
G01 X15.7145 Y-19.1678 F60.00
G01 X15.7019 Y-19.1889 F60.00
G01 X15.6873 Y-19.2086 F60.00
G01 X15.6708 Y-19.2268 F60.00
G01 X15.6526 Y-19.2433 F60.00
G01 X15.6329 Y-19.2579 F60.00
G01 X15.6118 Y-19.2705 F60.00
G01 X15.5897 Y-19.2810 F60.00
G01 X15.5666 Y-19.2892 F60.00
G01 X15.5428 Y-19.2952 F60.00
G01 X15.5185 Y-19.2988 F60.00
G01 X15.4940 Y-19.3000 F60.00
G01 X15.4695 Y-19.2988 F60.00
G01 X15.4452 Y-19.2952 F60.00
G01 X15.4214 Y-19.2892 F60.00
G01 X15.3983 Y-19.2810 F60.00
G01 X15.3762 Y-19.2705 F60.00
G01 X15.3551 Y-19.2579 F60.00
G01 X15.3354 Y-19.2433 F60.00
G01 X15.3172 Y-19.2268 F60.00
G01 X15.3007 Y-19.2086 F60.00
G01 X15.2861 Y-19.1889 F60.00
G01 X15.2735 Y-19.1678 F60.00
G01 X15.2630 Y-19.1457 F60.00
G01 X15.2548 Y-19.1226 F60.00
G01 X15.2488 Y-19.0988 F60.00
G01 X15.2452 Y-19.0745 F60.00
G01 X15.2440 Y-19.0500 F60.00
G01 X15.2452 Y-19.0255 F60.00
G01 X15.2488 Y-19.0012 F60.00
G01 X15.2548 Y-18.9774 F60.00
G01 X15.2630 Y-18.9543 F60.00
G01 X15.2735 Y-18.9322 F60.00
G01 X15.2861 Y-18.9111 F60.00
G01 X15.3007 Y-18.8914 F60.00
G01 X15.3172 Y-18.8732 F60.00
G01 X15.3354 Y-18.8567 F60.00
G01 X15.3551 Y-18.8421 F60.00
G01 X15.3762 Y-18.8295 F60.00
G01 X15.3983 Y-18.8190 F60.00
G01 X15.4214 Y-18.8108 F60.00
G01 X15.4452 Y-18.8048 F60.00
G01 X15.4695 Y-18.8012 F60.00
G01 X15.4940 Y-18.8000 F60.00
G01 X15.5185 Y-18.8012 F60.00
G01 X15.5428 Y-18.8048 F60.00
G01 X15.5666 Y-18.8108 F60.00
G01 X15.5897 Y-18.8190 F60.00
G01 X15.6118 Y-18.8295 F60.00
G01 X15.6329 Y-18.8421 F60.00
G01 X15.6526 Y-18.8567 F60.00
G01 X15.6708 Y-18.8732 F60.00
G01 X15.6873 Y-18.8914 F60.00
G01 X15.7019 Y-18.9111 F60.00
G01 X15.7145 Y-18.9322 F60.00
G01 X15.7250 Y-18.9543 F60.00
G01 X15.7332 Y-18.9774 F60.00
G01 X15.7392 Y-19.0012 F60.00
G01 X15.7428 Y-19.0255 F60.00
G01 X15.7440 Y-19.0500 F60.00
G00 Z2.0000
G00 X10.6640 Y-19.0500
G01 F60.00
G01 Z-0.5000
G01 F60.00
G01 X10.6628 Y-19.0745 F60.00
G01 X10.6592 Y-19.0988 F60.00
G01 X10.6532 Y-19.1226 F60.00
G01 X10.6450 Y-19.1457 F60.00
G01 X10.6345 Y-19.1678 F60.00
G01 X10.6219 Y-19.1889 F60.00
G01 X10.6073 Y-19.2086 F60.00
G01 X10.5908 Y-19.2268 F60.00
G01 X10.5726 Y-19.2433 F60.00
G01 X10.5529 Y-19.2579 F60.00
G01 X10.5318 Y-19.2705 F60.00
G01 X10.5097 Y-19.2810 F60.00
G01 X10.4866 Y-19.2892 F60.00
G01 X10.4628 Y-19.2952 F60.00
G01 X10.4385 Y-19.2988 F60.00
G01 X10.4140 Y-19.3000 F60.00
G01 X10.3895 Y-19.2988 F60.00
G01 X10.3652 Y-19.2952 F60.00
G01 X10.3414 Y-19.2892 F60.00
G01 X10.3183 Y-19.2810 F60.00
G01 X10.2962 Y-19.2705 F60.00
G01 X10.2751 Y-19.2579 F60.00
G01 X10.2554 Y-19.2433 F60.00
G01 X10.2372 Y-19.2268 F60.00
G01 X10.2207 Y-19.2086 F60.00
G01 X10.2061 Y-19.1889 F60.00
G01 X10.1935 Y-19.1678 F60.00
G01 X10.1830 Y-19.1457 F60.00
G01 X10.1748 Y-19.1226 F60.00
G01 X10.1688 Y-19.0988 F60.00
G01 X10.1652 Y-19.0745 F60.00
G01 X10.1640 Y-19.0500 F60.00
G01 X10.1652 Y-19.0255 F60.00
G01 X10.1688 Y-19.0012 F60.00
G01 X10.1748 Y-18.9774 F60.00
G01 X10.1830 Y-18.9543 F60.00
G01 X10.1935 Y-18.9322 F60.00
G01 X10.2061 Y-18.9111 F60.00
G01 X10.2207 Y-18.8914 F60.00
G01 X10.2372 Y-18.8732 F60.00
G01 X10.2554 Y-18.8567 F60.00
G01 X10.2751 Y-18.8421 F60.00
G01 X10.2962 Y-18.8295 F60.00
G01 X10.3183 Y-18.8190 F60.00
G01 X10.3414 Y-18.8108 F60.00
G01 X10.3652 Y-18.8048 F60.00
G01 X10.3895 Y-18.8012 F60.00
G01 X10.4140 Y-18.8000 F60.00
G01 X10.4385 Y-18.8012 F60.00
G01 X10.4628 Y-18.8048 F60.00
G01 X10.4866 Y-18.8108 F60.00
G01 X10.5097 Y-18.8190 F60.00
G01 X10.5318 Y-18.8295 F60.00
G01 X10.5529 Y-18.8421 F60.00
G01 X10.5726 Y-18.8567 F60.00
G01 X10.5908 Y-18.8732 F60.00
G01 X10.6073 Y-18.8914 F60.00
G01 X10.6219 Y-18.9111 F60.00
G01 X10.6345 Y-18.9322 F60.00
G01 X10.6450 Y-18.9543 F60.00
G01 X10.6532 Y-18.9774 F60.00
G01 X10.6592 Y-19.0012 F60.00
G01 X10.6628 Y-19.0255 F60.00
G01 X10.6640 Y-19.0500 F60.00
G00 X10.6640 Y-19.0500
G01 F60.00
G01 Z-1.0000
G01 F60.00
G01 X10.6628 Y-19.0745 F60.00
G01 X10.6592 Y-19.0988 F60.00
G01 X10.6532 Y-19.1226 F60.00
G01 X10.6450 Y-19.1457 F60.00
G01 X10.6345 Y-19.1678 F60.00
G01 X10.6219 Y-19.1889 F60.00
G01 X10.6073 Y-19.2086 F60.00
G01 X10.5908 Y-19.2268 F60.00
G01 X10.5726 Y-19.2433 F60.00
G01 X10.5529 Y-19.2579 F60.00
G01 X10.5318 Y-19.2705 F60.00
G01 X10.5097 Y-19.2810 F60.00
G01 X10.4866 Y-19.2892 F60.00
G01 X10.4628 Y-19.2952 F60.00
G01 X10.4385 Y-19.2988 F60.00
G01 X10.4140 Y-19.3000 F60.00
G01 X10.3895 Y-19.2988 F60.00
G01 X10.3652 Y-19.2952 F60.00
G01 X10.3414 Y-19.2892 F60.00
G01 X10.3183 Y-19.2810 F60.00
G01 X10.2962 Y-19.2705 F60.00
G01 X10.2751 Y-19.2579 F60.00
G01 X10.2554 Y-19.2433 F60.00
G01 X10.2372 Y-19.2268 F60.00
G01 X10.2207 Y-19.2086 F60.00
G01 X10.2061 Y-19.1889 F60.00
G01 X10.1935 Y-19.1678 F60.00
G01 X10.1830 Y-19.1457 F60.00
G01 X10.1748 Y-19.1226 F60.00
G01 X10.1688 Y-19.0988 F60.00
G01 X10.1652 Y-19.0745 F60.00
G01 X10.1640 Y-19.0500 F60.00
G01 X10.1652 Y-19.0255 F60.00
G01 X10.1688 Y-19.0012 F60.00
G01 X10.1748 Y-18.9774 F60.00
G01 X10.1830 Y-18.9543 F60.00
G01 X10.1935 Y-18.9322 F60.00
G01 X10.2061 Y-18.9111 F60.00
G01 X10.2207 Y-18.8914 F60.00
G01 X10.2372 Y-18.8732 F60.00
G01 X10.2554 Y-18.8567 F60.00
G01 X10.2751 Y-18.8421 F60.00
G01 X10.2962 Y-18.8295 F60.00
G01 X10.3183 Y-18.8190 F60.00
G01 X10.3414 Y-18.8108 F60.00
G01 X10.3652 Y-18.8048 F60.00
G01 X10.3895 Y-18.8012 F60.00
G01 X10.4140 Y-18.8000 F60.00
G01 X10.4385 Y-18.8012 F60.00
G01 X10.4628 Y-18.8048 F60.00
G01 X10.4866 Y-18.8108 F60.00
G01 X10.5097 Y-18.8190 F60.00
G01 X10.5318 Y-18.8295 F60.00
G01 X10.5529 Y-18.8421 F60.00
G01 X10.5726 Y-18.8567 F60.00
G01 X10.5908 Y-18.8732 F60.00
G01 X10.6073 Y-18.8914 F60.00
G01 X10.6219 Y-18.9111 F60.00
G01 X10.6345 Y-18.9322 F60.00
G01 X10.6450 Y-18.9543 F60.00
G01 X10.6532 Y-18.9774 F60.00
G01 X10.6592 Y-19.0012 F60.00
G01 X10.6628 Y-19.0255 F60.00
G01 X10.6640 Y-19.0500 F60.00
G00 X10.6640 Y-19.0500
G01 F60.00
G01 Z-1.5000
G01 F60.00
G01 X10.6628 Y-19.0745 F60.00
G01 X10.6592 Y-19.0988 F60.00
G01 X10.6532 Y-19.1226 F60.00
G01 X10.6450 Y-19.1457 F60.00
G01 X10.6345 Y-19.1678 F60.00
G01 X10.6219 Y-19.1889 F60.00
G01 X10.6073 Y-19.2086 F60.00
G01 X10.5908 Y-19.2268 F60.00
G01 X10.5726 Y-19.2433 F60.00
G01 X10.5529 Y-19.2579 F60.00
G01 X10.5318 Y-19.2705 F60.00
G01 X10.5097 Y-19.2810 F60.00
G01 X10.4866 Y-19.2892 F60.00
G01 X10.4628 Y-19.2952 F60.00
G01 X10.4385 Y-19.2988 F60.00
G01 X10.4140 Y-19.3000 F60.00
G01 X10.3895 Y-19.2988 F60.00
G01 X10.3652 Y-19.2952 F60.00
G01 X10.3414 Y-19.2892 F60.00
G01 X10.3183 Y-19.2810 F60.00
G01 X10.2962 Y-19.2705 F60.00
G01 X10.2751 Y-19.2579 F60.00
G01 X10.2554 Y-19.2433 F60.00
G01 X10.2372 Y-19.2268 F60.00
G01 X10.2207 Y-19.2086 F60.00
G01 X10.2061 Y-19.1889 F60.00
G01 X10.1935 Y-19.1678 F60.00
G01 X10.1830 Y-19.1457 F60.00
G01 X10.1748 Y-19.1226 F60.00
G01 X10.1688 Y-19.0988 F60.00
G01 X10.1652 Y-19.0745 F60.00
G01 X10.1640 Y-19.0500 F60.00
G01 X10.1652 Y-19.0255 F60.00
G01 X10.1688 Y-19.0012 F60.00
G01 X10.1748 Y-18.9774 F60.00
G01 X10.1830 Y-18.9543 F60.00
G01 X10.1935 Y-18.9322 F60.00
G01 X10.2061 Y-18.9111 F60.00
G01 X10.2207 Y-18.8914 F60.00
G01 X10.2372 Y-18.8732 F60.00
G01 X10.2554 Y-18.8567 F60.00
G01 X10.2751 Y-18.8421 F60.00
G01 X10.2962 Y-18.8295 F60.00
G01 X10.3183 Y-18.8190 F60.00
G01 X10.3414 Y-18.8108 F60.00
G01 X10.3652 Y-18.8048 F60.00
G01 X10.3895 Y-18.8012 F60.00
G01 X10.4140 Y-18.8000 F60.00
G01 X10.4385 Y-18.8012 F60.00
G01 X10.4628 Y-18.8048 F60.00
G01 X10.4866 Y-18.8108 F60.00
G01 X10.5097 Y-18.8190 F60.00
G01 X10.5318 Y-18.8295 F60.00
G01 X10.5529 Y-18.8421 F60.00
G01 X10.5726 Y-18.8567 F60.00
G01 X10.5908 Y-18.8732 F60.00
G01 X10.6073 Y-18.8914 F60.00
G01 X10.6219 Y-18.9111 F60.00
G01 X10.6345 Y-18.9322 F60.00
G01 X10.6450 Y-18.9543 F60.00
G01 X10.6532 Y-18.9774 F60.00
G01 X10.6592 Y-19.0012 F60.00
G01 X10.6628 Y-19.0255 F60.00
G01 X10.6640 Y-19.0500 F60.00
G00 X10.6640 Y-19.0500
G01 F60.00
G01 Z-2.0000
G01 F60.00
G01 X10.6628 Y-19.0745 F60.00
G01 X10.6592 Y-19.0988 F60.00
G01 X10.6532 Y-19.1226 F60.00
G01 X10.6450 Y-19.1457 F60.00
G01 X10.6345 Y-19.1678 F60.00
G01 X10.6219 Y-19.1889 F60.00
G01 X10.6073 Y-19.2086 F60.00
G01 X10.5908 Y-19.2268 F60.00
G01 X10.5726 Y-19.2433 F60.00
G01 X10.5529 Y-19.2579 F60.00
G01 X10.5318 Y-19.2705 F60.00
G01 X10.5097 Y-19.2810 F60.00
G01 X10.4866 Y-19.2892 F60.00
G01 X10.4628 Y-19.2952 F60.00
G01 X10.4385 Y-19.2988 F60.00
G01 X10.4140 Y-19.3000 F60.00
G01 X10.3895 Y-19.2988 F60.00
G01 X10.3652 Y-19.2952 F60.00
G01 X10.3414 Y-19.2892 F60.00
G01 X10.3183 Y-19.2810 F60.00
G01 X10.2962 Y-19.2705 F60.00
G01 X10.2751 Y-19.2579 F60.00
G01 X10.2554 Y-19.2433 F60.00
G01 X10.2372 Y-19.2268 F60.00
G01 X10.2207 Y-19.2086 F60.00
G01 X10.2061 Y-19.1889 F60.00
G01 X10.1935 Y-19.1678 F60.00
G01 X10.1830 Y-19.1457 F60.00
G01 X10.1748 Y-19.1226 F60.00
G01 X10.1688 Y-19.0988 F60.00
G01 X10.1652 Y-19.0745 F60.00
G01 X10.1640 Y-19.0500 F60.00
G01 X10.1652 Y-19.0255 F60.00
G01 X10.1688 Y-19.0012 F60.00
G01 X10.1748 Y-18.9774 F60.00
G01 X10.1830 Y-18.9543 F60.00
G01 X10.1935 Y-18.9322 F60.00
G01 X10.2061 Y-18.9111 F60.00
G01 X10.2207 Y-18.8914 F60.00
G01 X10.2372 Y-18.8732 F60.00
G01 X10.2554 Y-18.8567 F60.00
G01 X10.2751 Y-18.8421 F60.00
G01 X10.2962 Y-18.8295 F60.00
G01 X10.3183 Y-18.8190 F60.00
G01 X10.3414 Y-18.8108 F60.00
G01 X10.3652 Y-18.8048 F60.00
G01 X10.3895 Y-18.8012 F60.00
G01 X10.4140 Y-18.8000 F60.00
G01 X10.4385 Y-18.8012 F60.00
G01 X10.4628 Y-18.8048 F60.00
G01 X10.4866 Y-18.8108 F60.00
G01 X10.5097 Y-18.8190 F60.00
G01 X10.5318 Y-18.8295 F60.00
G01 X10.5529 Y-18.8421 F60.00
G01 X10.5726 Y-18.8567 F60.00
G01 X10.5908 Y-18.8732 F60.00
G01 X10.6073 Y-18.8914 F60.00
G01 X10.6219 Y-18.9111 F60.00
G01 X10.6345 Y-18.9322 F60.00
G01 X10.6450 Y-18.9543 F60.00
G01 X10.6532 Y-18.9774 F60.00
G01 X10.6592 Y-19.0012 F60.00
G01 X10.6628 Y-19.0255 F60.00
G01 X10.6640 Y-19.0500 F60.00
G00 X10.6640 Y-19.0500
G01 F60.00
G01 Z-2.5000
G01 F60.00
G01 X10.6628 Y-19.0745 F60.00
G01 X10.6592 Y-19.0988 F60.00
G01 X10.6532 Y-19.1226 F60.00
G01 X10.6450 Y-19.1457 F60.00
G01 X10.6345 Y-19.1678 F60.00
G01 X10.6219 Y-19.1889 F60.00
G01 X10.6073 Y-19.2086 F60.00
G01 X10.5908 Y-19.2268 F60.00
G01 X10.5726 Y-19.2433 F60.00
G01 X10.5529 Y-19.2579 F60.00
G01 X10.5318 Y-19.2705 F60.00
G01 X10.5097 Y-19.2810 F60.00
G01 X10.4866 Y-19.2892 F60.00
G01 X10.4628 Y-19.2952 F60.00
G01 X10.4385 Y-19.2988 F60.00
G01 X10.4140 Y-19.3000 F60.00
G01 X10.3895 Y-19.2988 F60.00
G01 X10.3652 Y-19.2952 F60.00
G01 X10.3414 Y-19.2892 F60.00
G01 X10.3183 Y-19.2810 F60.00
G01 X10.2962 Y-19.2705 F60.00
G01 X10.2751 Y-19.2579 F60.00
G01 X10.2554 Y-19.2433 F60.00
G01 X10.2372 Y-19.2268 F60.00
G01 X10.2207 Y-19.2086 F60.00
G01 X10.2061 Y-19.1889 F60.00
G01 X10.1935 Y-19.1678 F60.00
G01 X10.1830 Y-19.1457 F60.00
G01 X10.1748 Y-19.1226 F60.00
G01 X10.1688 Y-19.0988 F60.00
G01 X10.1652 Y-19.0745 F60.00
G01 X10.1640 Y-19.0500 F60.00
G01 X10.1652 Y-19.0255 F60.00
G01 X10.1688 Y-19.0012 F60.00
G01 X10.1748 Y-18.9774 F60.00
G01 X10.1830 Y-18.9543 F60.00
G01 X10.1935 Y-18.9322 F60.00
G01 X10.2061 Y-18.9111 F60.00
G01 X10.2207 Y-18.8914 F60.00
G01 X10.2372 Y-18.8732 F60.00
G01 X10.2554 Y-18.8567 F60.00
G01 X10.2751 Y-18.8421 F60.00
G01 X10.2962 Y-18.8295 F60.00
G01 X10.3183 Y-18.8190 F60.00
G01 X10.3414 Y-18.8108 F60.00
G01 X10.3652 Y-18.8048 F60.00
G01 X10.3895 Y-18.8012 F60.00
G01 X10.4140 Y-18.8000 F60.00
G01 X10.4385 Y-18.8012 F60.00
G01 X10.4628 Y-18.8048 F60.00
G01 X10.4866 Y-18.8108 F60.00
G01 X10.5097 Y-18.8190 F60.00
G01 X10.5318 Y-18.8295 F60.00
G01 X10.5529 Y-18.8421 F60.00
G01 X10.5726 Y-18.8567 F60.00
G01 X10.5908 Y-18.8732 F60.00
G01 X10.6073 Y-18.8914 F60.00
G01 X10.6219 Y-18.9111 F60.00
G01 X10.6345 Y-18.9322 F60.00
G01 X10.6450 Y-18.9543 F60.00
G01 X10.6532 Y-18.9774 F60.00
G01 X10.6592 Y-19.0012 F60.00
G01 X10.6628 Y-19.0255 F60.00
G01 X10.6640 Y-19.0500 F60.00
G00 Z2.0000
G00 X8.1240 Y-19.0500
G01 F60.00
G01 Z-0.5000
G01 F60.00
G01 X8.1228 Y-19.0745 F60.00
G01 X8.1192 Y-19.0988 F60.00
G01 X8.1132 Y-19.1226 F60.00
G01 X8.1050 Y-19.1457 F60.00
G01 X8.0945 Y-19.1678 F60.00
G01 X8.0819 Y-19.1889 F60.00
G01 X8.0673 Y-19.2086 F60.00
G01 X8.0508 Y-19.2268 F60.00
G01 X8.0326 Y-19.2433 F60.00
G01 X8.0129 Y-19.2579 F60.00
G01 X7.9918 Y-19.2705 F60.00
G01 X7.9697 Y-19.2810 F60.00
G01 X7.9466 Y-19.2892 F60.00
G01 X7.9228 Y-19.2952 F60.00
G01 X7.8985 Y-19.2988 F60.00
G01 X7.8740 Y-19.3000 F60.00
G01 X7.8495 Y-19.2988 F60.00
G01 X7.8252 Y-19.2952 F60.00
G01 X7.8014 Y-19.2892 F60.00
G01 X7.7783 Y-19.2810 F60.00
G01 X7.7562 Y-19.2705 F60.00
G01 X7.7351 Y-19.2579 F60.00
G01 X7.7154 Y-19.2433 F60.00
G01 X7.6972 Y-19.2268 F60.00
G01 X7.6807 Y-19.2086 F60.00
G01 X7.6661 Y-19.1889 F60.00
G01 X7.6535 Y-19.1678 F60.00
G01 X7.6430 Y-19.1457 F60.00
G01 X7.6348 Y-19.1226 F60.00
G01 X7.6288 Y-19.0988 F60.00
G01 X7.6252 Y-19.0745 F60.00
G01 X7.6240 Y-19.0500 F60.00
G01 X7.6252 Y-19.0255 F60.00
G01 X7.6288 Y-19.0012 F60.00
G01 X7.6348 Y-18.9774 F60.00
G01 X7.6430 Y-18.9543 F60.00
G01 X7.6535 Y-18.9322 F60.00
G01 X7.6661 Y-18.9111 F60.00
G01 X7.6807 Y-18.8914 F60.00
G01 X7.6972 Y-18.8732 F60.00
G01 X7.7154 Y-18.8567 F60.00
G01 X7.7351 Y-18.8421 F60.00
G01 X7.7562 Y-18.8295 F60.00
G01 X7.7783 Y-18.8190 F60.00
G01 X7.8014 Y-18.8108 F60.00
G01 X7.8252 Y-18.8048 F60.00
G01 X7.8495 Y-18.8012 F60.00
G01 X7.8740 Y-18.8000 F60.00
G01 X7.8985 Y-18.8012 F60.00
G01 X7.9228 Y-18.8048 F60.00
G01 X7.9466 Y-18.8108 F60.00
G01 X7.9697 Y-18.8190 F60.00
G01 X7.9918 Y-18.8295 F60.00
G01 X8.0129 Y-18.8421 F60.00
G01 X8.0326 Y-18.8567 F60.00
G01 X8.0508 Y-18.8732 F60.00
G01 X8.0673 Y-18.8914 F60.00
G01 X8.0819 Y-18.9111 F60.00
G01 X8.0945 Y-18.9322 F60.00
G01 X8.1050 Y-18.9543 F60.00
G01 X8.1132 Y-18.9774 F60.00
G01 X8.1192 Y-19.0012 F60.00
G01 X8.1228 Y-19.0255 F60.00
G01 X8.1240 Y-19.0500 F60.00
G00 X8.1240 Y-19.0500
G01 F60.00
G01 Z-1.0000
G01 F60.00
G01 X8.1228 Y-19.0745 F60.00
G01 X8.1192 Y-19.0988 F60.00
G01 X8.1132 Y-19.1226 F60.00
G01 X8.1050 Y-19.1457 F60.00
G01 X8.0945 Y-19.1678 F60.00
G01 X8.0819 Y-19.1889 F60.00
G01 X8.0673 Y-19.2086 F60.00
G01 X8.0508 Y-19.2268 F60.00
G01 X8.0326 Y-19.2433 F60.00
G01 X8.0129 Y-19.2579 F60.00
G01 X7.9918 Y-19.2705 F60.00
G01 X7.9697 Y-19.2810 F60.00
G01 X7.9466 Y-19.2892 F60.00
G01 X7.9228 Y-19.2952 F60.00
G01 X7.8985 Y-19.2988 F60.00
G01 X7.8740 Y-19.3000 F60.00
G01 X7.8495 Y-19.2988 F60.00
G01 X7.8252 Y-19.2952 F60.00
G01 X7.8014 Y-19.2892 F60.00
G01 X7.7783 Y-19.2810 F60.00
G01 X7.7562 Y-19.2705 F60.00
G01 X7.7351 Y-19.2579 F60.00
G01 X7.7154 Y-19.2433 F60.00
G01 X7.6972 Y-19.2268 F60.00
G01 X7.6807 Y-19.2086 F60.00
G01 X7.6661 Y-19.1889 F60.00
G01 X7.6535 Y-19.1678 F60.00
G01 X7.6430 Y-19.1457 F60.00
G01 X7.6348 Y-19.1226 F60.00
G01 X7.6288 Y-19.0988 F60.00
G01 X7.6252 Y-19.0745 F60.00
G01 X7.6240 Y-19.0500 F60.00
G01 X7.6252 Y-19.0255 F60.00
G01 X7.6288 Y-19.0012 F60.00
G01 X7.6348 Y-18.9774 F60.00
G01 X7.6430 Y-18.9543 F60.00
G01 X7.6535 Y-18.9322 F60.00
G01 X7.6661 Y-18.9111 F60.00
G01 X7.6807 Y-18.8914 F60.00
G01 X7.6972 Y-18.8732 F60.00
G01 X7.7154 Y-18.8567 F60.00
G01 X7.7351 Y-18.8421 F60.00
G01 X7.7562 Y-18.8295 F60.00
G01 X7.7783 Y-18.8190 F60.00
G01 X7.8014 Y-18.8108 F60.00
G01 X7.8252 Y-18.8048 F60.00
G01 X7.8495 Y-18.8012 F60.00
G01 X7.8740 Y-18.8000 F60.00
G01 X7.8985 Y-18.8012 F60.00
G01 X7.9228 Y-18.8048 F60.00
G01 X7.9466 Y-18.8108 F60.00
G01 X7.9697 Y-18.8190 F60.00
G01 X7.9918 Y-18.8295 F60.00
G01 X8.0129 Y-18.8421 F60.00
G01 X8.0326 Y-18.8567 F60.00
G01 X8.0508 Y-18.8732 F60.00
G01 X8.0673 Y-18.8914 F60.00
G01 X8.0819 Y-18.9111 F60.00
G01 X8.0945 Y-18.9322 F60.00
G01 X8.1050 Y-18.9543 F60.00
G01 X8.1132 Y-18.9774 F60.00
G01 X8.1192 Y-19.0012 F60.00
G01 X8.1228 Y-19.0255 F60.00
G01 X8.1240 Y-19.0500 F60.00
G00 X8.1240 Y-19.0500
G01 F60.00
G01 Z-1.5000
G01 F60.00
G01 X8.1228 Y-19.0745 F60.00
G01 X8.1192 Y-19.0988 F60.00
G01 X8.1132 Y-19.1226 F60.00
G01 X8.1050 Y-19.1457 F60.00
G01 X8.0945 Y-19.1678 F60.00
G01 X8.0819 Y-19.1889 F60.00
G01 X8.0673 Y-19.2086 F60.00
G01 X8.0508 Y-19.2268 F60.00
G01 X8.0326 Y-19.2433 F60.00
G01 X8.0129 Y-19.2579 F60.00
G01 X7.9918 Y-19.2705 F60.00
G01 X7.9697 Y-19.2810 F60.00
G01 X7.9466 Y-19.2892 F60.00
G01 X7.9228 Y-19.2952 F60.00
G01 X7.8985 Y-19.2988 F60.00
G01 X7.8740 Y-19.3000 F60.00
G01 X7.8495 Y-19.2988 F60.00
G01 X7.8252 Y-19.2952 F60.00
G01 X7.8014 Y-19.2892 F60.00
G01 X7.7783 Y-19.2810 F60.00
G01 X7.7562 Y-19.2705 F60.00
G01 X7.7351 Y-19.2579 F60.00
G01 X7.7154 Y-19.2433 F60.00
G01 X7.6972 Y-19.2268 F60.00
G01 X7.6807 Y-19.2086 F60.00
G01 X7.6661 Y-19.1889 F60.00
G01 X7.6535 Y-19.1678 F60.00
G01 X7.6430 Y-19.1457 F60.00
G01 X7.6348 Y-19.1226 F60.00
G01 X7.6288 Y-19.0988 F60.00
G01 X7.6252 Y-19.0745 F60.00
G01 X7.6240 Y-19.0500 F60.00
G01 X7.6252 Y-19.0255 F60.00
G01 X7.6288 Y-19.0012 F60.00
G01 X7.6348 Y-18.9774 F60.00
G01 X7.6430 Y-18.9543 F60.00
G01 X7.6535 Y-18.9322 F60.00
G01 X7.6661 Y-18.9111 F60.00
G01 X7.6807 Y-18.8914 F60.00
G01 X7.6972 Y-18.8732 F60.00
G01 X7.7154 Y-18.8567 F60.00
G01 X7.7351 Y-18.8421 F60.00
G01 X7.7562 Y-18.8295 F60.00
G01 X7.7783 Y-18.8190 F60.00
G01 X7.8014 Y-18.8108 F60.00
G01 X7.8252 Y-18.8048 F60.00
G01 X7.8495 Y-18.8012 F60.00
G01 X7.8740 Y-18.8000 F60.00
G01 X7.8985 Y-18.8012 F60.00
G01 X7.9228 Y-18.8048 F60.00
G01 X7.9466 Y-18.8108 F60.00
G01 X7.9697 Y-18.8190 F60.00
G01 X7.9918 Y-18.8295 F60.00
G01 X8.0129 Y-18.8421 F60.00
G01 X8.0326 Y-18.8567 F60.00
G01 X8.0508 Y-18.8732 F60.00
G01 X8.0673 Y-18.8914 F60.00
G01 X8.0819 Y-18.9111 F60.00
G01 X8.0945 Y-18.9322 F60.00
G01 X8.1050 Y-18.9543 F60.00
G01 X8.1132 Y-18.9774 F60.00
G01 X8.1192 Y-19.0012 F60.00
G01 X8.1228 Y-19.0255 F60.00
G01 X8.1240 Y-19.0500 F60.00
G00 X8.1240 Y-19.0500
G01 F60.00
G01 Z-2.0000
G01 F60.00
G01 X8.1228 Y-19.0745 F60.00
G01 X8.1192 Y-19.0988 F60.00
G01 X8.1132 Y-19.1226 F60.00
G01 X8.1050 Y-19.1457 F60.00
G01 X8.0945 Y-19.1678 F60.00
G01 X8.0819 Y-19.1889 F60.00
G01 X8.0673 Y-19.2086 F60.00
G01 X8.0508 Y-19.2268 F60.00
G01 X8.0326 Y-19.2433 F60.00
G01 X8.0129 Y-19.2579 F60.00
G01 X7.9918 Y-19.2705 F60.00
G01 X7.9697 Y-19.2810 F60.00
G01 X7.9466 Y-19.2892 F60.00
G01 X7.9228 Y-19.2952 F60.00
G01 X7.8985 Y-19.2988 F60.00
G01 X7.8740 Y-19.3000 F60.00
G01 X7.8495 Y-19.2988 F60.00
G01 X7.8252 Y-19.2952 F60.00
G01 X7.8014 Y-19.2892 F60.00
G01 X7.7783 Y-19.2810 F60.00
G01 X7.7562 Y-19.2705 F60.00
G01 X7.7351 Y-19.2579 F60.00
G01 X7.7154 Y-19.2433 F60.00
G01 X7.6972 Y-19.2268 F60.00
G01 X7.6807 Y-19.2086 F60.00
G01 X7.6661 Y-19.1889 F60.00
G01 X7.6535 Y-19.1678 F60.00
G01 X7.6430 Y-19.1457 F60.00
G01 X7.6348 Y-19.1226 F60.00
G01 X7.6288 Y-19.0988 F60.00
G01 X7.6252 Y-19.0745 F60.00
G01 X7.6240 Y-19.0500 F60.00
G01 X7.6252 Y-19.0255 F60.00
G01 X7.6288 Y-19.0012 F60.00
G01 X7.6348 Y-18.9774 F60.00
G01 X7.6430 Y-18.9543 F60.00
G01 X7.6535 Y-18.9322 F60.00
G01 X7.6661 Y-18.9111 F60.00
G01 X7.6807 Y-18.8914 F60.00
G01 X7.6972 Y-18.8732 F60.00
G01 X7.7154 Y-18.8567 F60.00
G01 X7.7351 Y-18.8421 F60.00
G01 X7.7562 Y-18.8295 F60.00
G01 X7.7783 Y-18.8190 F60.00
G01 X7.8014 Y-18.8108 F60.00
G01 X7.8252 Y-18.8048 F60.00
G01 X7.8495 Y-18.8012 F60.00
G01 X7.8740 Y-18.8000 F60.00
G01 X7.8985 Y-18.8012 F60.00
G01 X7.9228 Y-18.8048 F60.00
G01 X7.9466 Y-18.8108 F60.00
G01 X7.9697 Y-18.8190 F60.00
G01 X7.9918 Y-18.8295 F60.00
G01 X8.0129 Y-18.8421 F60.00
G01 X8.0326 Y-18.8567 F60.00
G01 X8.0508 Y-18.8732 F60.00
G01 X8.0673 Y-18.8914 F60.00
G01 X8.0819 Y-18.9111 F60.00
G01 X8.0945 Y-18.9322 F60.00
G01 X8.1050 Y-18.9543 F60.00
G01 X8.1132 Y-18.9774 F60.00
G01 X8.1192 Y-19.0012 F60.00
G01 X8.1228 Y-19.0255 F60.00
G01 X8.1240 Y-19.0500 F60.00
G00 X8.1240 Y-19.0500
G01 F60.00
G01 Z-2.5000
G01 F60.00
G01 X8.1228 Y-19.0745 F60.00
G01 X8.1192 Y-19.0988 F60.00
G01 X8.1132 Y-19.1226 F60.00
G01 X8.1050 Y-19.1457 F60.00
G01 X8.0945 Y-19.1678 F60.00
G01 X8.0819 Y-19.1889 F60.00
G01 X8.0673 Y-19.2086 F60.00
G01 X8.0508 Y-19.2268 F60.00
G01 X8.0326 Y-19.2433 F60.00
G01 X8.0129 Y-19.2579 F60.00
G01 X7.9918 Y-19.2705 F60.00
G01 X7.9697 Y-19.2810 F60.00
G01 X7.9466 Y-19.2892 F60.00
G01 X7.9228 Y-19.2952 F60.00
G01 X7.8985 Y-19.2988 F60.00
G01 X7.8740 Y-19.3000 F60.00
G01 X7.8495 Y-19.2988 F60.00
G01 X7.8252 Y-19.2952 F60.00
G01 X7.8014 Y-19.2892 F60.00
G01 X7.7783 Y-19.2810 F60.00
G01 X7.7562 Y-19.2705 F60.00
G01 X7.7351 Y-19.2579 F60.00
G01 X7.7154 Y-19.2433 F60.00
G01 X7.6972 Y-19.2268 F60.00
G01 X7.6807 Y-19.2086 F60.00
G01 X7.6661 Y-19.1889 F60.00
G01 X7.6535 Y-19.1678 F60.00
G01 X7.6430 Y-19.1457 F60.00
G01 X7.6348 Y-19.1226 F60.00
G01 X7.6288 Y-19.0988 F60.00
G01 X7.6252 Y-19.0745 F60.00
G01 X7.6240 Y-19.0500 F60.00
G01 X7.6252 Y-19.0255 F60.00
G01 X7.6288 Y-19.0012 F60.00
G01 X7.6348 Y-18.9774 F60.00
G01 X7.6430 Y-18.9543 F60.00
G01 X7.6535 Y-18.9322 F60.00
G01 X7.6661 Y-18.9111 F60.00
G01 X7.6807 Y-18.8914 F60.00
G01 X7.6972 Y-18.8732 F60.00
G01 X7.7154 Y-18.8567 F60.00
G01 X7.7351 Y-18.8421 F60.00
G01 X7.7562 Y-18.8295 F60.00
G01 X7.7783 Y-18.8190 F60.00
G01 X7.8014 Y-18.8108 F60.00
G01 X7.8252 Y-18.8048 F60.00
G01 X7.8495 Y-18.8012 F60.00
G01 X7.8740 Y-18.8000 F60.00
G01 X7.8985 Y-18.8012 F60.00
G01 X7.9228 Y-18.8048 F60.00
G01 X7.9466 Y-18.8108 F60.00
G01 X7.9697 Y-18.8190 F60.00
G01 X7.9918 Y-18.8295 F60.00
G01 X8.0129 Y-18.8421 F60.00
G01 X8.0326 Y-18.8567 F60.00
G01 X8.0508 Y-18.8732 F60.00
G01 X8.0673 Y-18.8914 F60.00
G01 X8.0819 Y-18.9111 F60.00
G01 X8.0945 Y-18.9322 F60.00
G01 X8.1050 Y-18.9543 F60.00
G01 X8.1132 Y-18.9774 F60.00
G01 X8.1192 Y-19.0012 F60.00
G01 X8.1228 Y-19.0255 F60.00
G01 X8.1240 Y-19.0500 F60.00
G00 Z2.0000
G00 X10.6620 Y-24.2400
G01 F60.00
G01 Z-0.5000
G01 F60.00
G01 X10.6608 Y-24.2645 F60.00
G01 X10.6572 Y-24.2888 F60.00
G01 X10.6512 Y-24.3126 F60.00
G01 X10.6430 Y-24.3357 F60.00
G01 X10.6325 Y-24.3578 F60.00
G01 X10.6199 Y-24.3789 F60.00
G01 X10.6053 Y-24.3986 F60.00
G01 X10.5888 Y-24.4168 F60.00
G01 X10.5706 Y-24.4333 F60.00
G01 X10.5509 Y-24.4479 F60.00
G01 X10.5298 Y-24.4605 F60.00
G01 X10.5077 Y-24.4710 F60.00
G01 X10.4846 Y-24.4792 F60.00
G01 X10.4608 Y-24.4852 F60.00
G01 X10.4365 Y-24.4888 F60.00
G01 X10.4120 Y-24.4900 F60.00
G01 X10.3875 Y-24.4888 F60.00
G01 X10.3632 Y-24.4852 F60.00
G01 X10.3394 Y-24.4792 F60.00
G01 X10.3163 Y-24.4710 F60.00
G01 X10.2942 Y-24.4605 F60.00
G01 X10.2731 Y-24.4479 F60.00
G01 X10.2534 Y-24.4333 F60.00
G01 X10.2352 Y-24.4168 F60.00
G01 X10.2187 Y-24.3986 F60.00
G01 X10.2041 Y-24.3789 F60.00
G01 X10.1915 Y-24.3578 F60.00
G01 X10.1810 Y-24.3357 F60.00
G01 X10.1728 Y-24.3126 F60.00
G01 X10.1668 Y-24.2888 F60.00
G01 X10.1632 Y-24.2645 F60.00
G01 X10.1620 Y-24.2400 F60.00
G01 X10.1632 Y-24.2155 F60.00
G01 X10.1668 Y-24.1912 F60.00
G01 X10.1728 Y-24.1674 F60.00
G01 X10.1810 Y-24.1443 F60.00
G01 X10.1915 Y-24.1222 F60.00
G01 X10.2041 Y-24.1011 F60.00
G01 X10.2187 Y-24.0814 F60.00
G01 X10.2352 Y-24.0632 F60.00
G01 X10.2534 Y-24.0467 F60.00
G01 X10.2731 Y-24.0321 F60.00
G01 X10.2942 Y-24.0195 F60.00
G01 X10.3163 Y-24.0090 F60.00
G01 X10.3394 Y-24.0008 F60.00
G01 X10.3632 Y-23.9948 F60.00
G01 X10.3875 Y-23.9912 F60.00
G01 X10.4120 Y-23.9900 F60.00
G01 X10.4365 Y-23.9912 F60.00
G01 X10.4608 Y-23.9948 F60.00
G01 X10.4846 Y-24.0008 F60.00
G01 X10.5077 Y-24.0090 F60.00
G01 X10.5298 Y-24.0195 F60.00
G01 X10.5509 Y-24.0321 F60.00
G01 X10.5706 Y-24.0467 F60.00
G01 X10.5888 Y-24.0632 F60.00
G01 X10.6053 Y-24.0814 F60.00
G01 X10.6199 Y-24.1011 F60.00
G01 X10.6325 Y-24.1222 F60.00
G01 X10.6430 Y-24.1443 F60.00
G01 X10.6512 Y-24.1674 F60.00
G01 X10.6572 Y-24.1912 F60.00
G01 X10.6608 Y-24.2155 F60.00
G01 X10.6620 Y-24.2400 F60.00
G00 X10.6620 Y-24.2400
G01 F60.00
G01 Z-1.0000
G01 F60.00
G01 X10.6608 Y-24.2645 F60.00
G01 X10.6572 Y-24.2888 F60.00
G01 X10.6512 Y-24.3126 F60.00
G01 X10.6430 Y-24.3357 F60.00
G01 X10.6325 Y-24.3578 F60.00
G01 X10.6199 Y-24.3789 F60.00
G01 X10.6053 Y-24.3986 F60.00
G01 X10.5888 Y-24.4168 F60.00
G01 X10.5706 Y-24.4333 F60.00
G01 X10.5509 Y-24.4479 F60.00
G01 X10.5298 Y-24.4605 F60.00
G01 X10.5077 Y-24.4710 F60.00
G01 X10.4846 Y-24.4792 F60.00
G01 X10.4608 Y-24.4852 F60.00
G01 X10.4365 Y-24.4888 F60.00
G01 X10.4120 Y-24.4900 F60.00
G01 X10.3875 Y-24.4888 F60.00
G01 X10.3632 Y-24.4852 F60.00
G01 X10.3394 Y-24.4792 F60.00
G01 X10.3163 Y-24.4710 F60.00
G01 X10.2942 Y-24.4605 F60.00
G01 X10.2731 Y-24.4479 F60.00
G01 X10.2534 Y-24.4333 F60.00
G01 X10.2352 Y-24.4168 F60.00
G01 X10.2187 Y-24.3986 F60.00
G01 X10.2041 Y-24.3789 F60.00
G01 X10.1915 Y-24.3578 F60.00
G01 X10.1810 Y-24.3357 F60.00
G01 X10.1728 Y-24.3126 F60.00
G01 X10.1668 Y-24.2888 F60.00
G01 X10.1632 Y-24.2645 F60.00
G01 X10.1620 Y-24.2400 F60.00
G01 X10.1632 Y-24.2155 F60.00
G01 X10.1668 Y-24.1912 F60.00
G01 X10.1728 Y-24.1674 F60.00
G01 X10.1810 Y-24.1443 F60.00
G01 X10.1915 Y-24.1222 F60.00
G01 X10.2041 Y-24.1011 F60.00
G01 X10.2187 Y-24.0814 F60.00
G01 X10.2352 Y-24.0632 F60.00
G01 X10.2534 Y-24.0467 F60.00
G01 X10.2731 Y-24.0321 F60.00
G01 X10.2942 Y-24.0195 F60.00
G01 X10.3163 Y-24.0090 F60.00
G01 X10.3394 Y-24.0008 F60.00
G01 X10.3632 Y-23.9948 F60.00
G01 X10.3875 Y-23.9912 F60.00
G01 X10.4120 Y-23.9900 F60.00
G01 X10.4365 Y-23.9912 F60.00
G01 X10.4608 Y-23.9948 F60.00
G01 X10.4846 Y-24.0008 F60.00
G01 X10.5077 Y-24.0090 F60.00
G01 X10.5298 Y-24.0195 F60.00
G01 X10.5509 Y-24.0321 F60.00
G01 X10.5706 Y-24.0467 F60.00
G01 X10.5888 Y-24.0632 F60.00
G01 X10.6053 Y-24.0814 F60.00
G01 X10.6199 Y-24.1011 F60.00
G01 X10.6325 Y-24.1222 F60.00
G01 X10.6430 Y-24.1443 F60.00
G01 X10.6512 Y-24.1674 F60.00
G01 X10.6572 Y-24.1912 F60.00
G01 X10.6608 Y-24.2155 F60.00
G01 X10.6620 Y-24.2400 F60.00
G00 X10.6620 Y-24.2400
G01 F60.00
G01 Z-1.5000
G01 F60.00
G01 X10.6608 Y-24.2645 F60.00
G01 X10.6572 Y-24.2888 F60.00
G01 X10.6512 Y-24.3126 F60.00
G01 X10.6430 Y-24.3357 F60.00
G01 X10.6325 Y-24.3578 F60.00
G01 X10.6199 Y-24.3789 F60.00
G01 X10.6053 Y-24.3986 F60.00
G01 X10.5888 Y-24.4168 F60.00
G01 X10.5706 Y-24.4333 F60.00
G01 X10.5509 Y-24.4479 F60.00
G01 X10.5298 Y-24.4605 F60.00
G01 X10.5077 Y-24.4710 F60.00
G01 X10.4846 Y-24.4792 F60.00
G01 X10.4608 Y-24.4852 F60.00
G01 X10.4365 Y-24.4888 F60.00
G01 X10.4120 Y-24.4900 F60.00
G01 X10.3875 Y-24.4888 F60.00
G01 X10.3632 Y-24.4852 F60.00
G01 X10.3394 Y-24.4792 F60.00
G01 X10.3163 Y-24.4710 F60.00
G01 X10.2942 Y-24.4605 F60.00
G01 X10.2731 Y-24.4479 F60.00
G01 X10.2534 Y-24.4333 F60.00
G01 X10.2352 Y-24.4168 F60.00
G01 X10.2187 Y-24.3986 F60.00
G01 X10.2041 Y-24.3789 F60.00
G01 X10.1915 Y-24.3578 F60.00
G01 X10.1810 Y-24.3357 F60.00
G01 X10.1728 Y-24.3126 F60.00
G01 X10.1668 Y-24.2888 F60.00
G01 X10.1632 Y-24.2645 F60.00
G01 X10.1620 Y-24.2400 F60.00
G01 X10.1632 Y-24.2155 F60.00
G01 X10.1668 Y-24.1912 F60.00
G01 X10.1728 Y-24.1674 F60.00
G01 X10.1810 Y-24.1443 F60.00
G01 X10.1915 Y-24.1222 F60.00
G01 X10.2041 Y-24.1011 F60.00
G01 X10.2187 Y-24.0814 F60.00
G01 X10.2352 Y-24.0632 F60.00
G01 X10.2534 Y-24.0467 F60.00
G01 X10.2731 Y-24.0321 F60.00
G01 X10.2942 Y-24.0195 F60.00
G01 X10.3163 Y-24.0090 F60.00
G01 X10.3394 Y-24.0008 F60.00
G01 X10.3632 Y-23.9948 F60.00
G01 X10.3875 Y-23.9912 F60.00
G01 X10.4120 Y-23.9900 F60.00
G01 X10.4365 Y-23.9912 F60.00
G01 X10.4608 Y-23.9948 F60.00
G01 X10.4846 Y-24.0008 F60.00
G01 X10.5077 Y-24.0090 F60.00
G01 X10.5298 Y-24.0195 F60.00
G01 X10.5509 Y-24.0321 F60.00
G01 X10.5706 Y-24.0467 F60.00
G01 X10.5888 Y-24.0632 F60.00
G01 X10.6053 Y-24.0814 F60.00
G01 X10.6199 Y-24.1011 F60.00
G01 X10.6325 Y-24.1222 F60.00
G01 X10.6430 Y-24.1443 F60.00
G01 X10.6512 Y-24.1674 F60.00
G01 X10.6572 Y-24.1912 F60.00
G01 X10.6608 Y-24.2155 F60.00
G01 X10.6620 Y-24.2400 F60.00
G00 X10.6620 Y-24.2400
G01 F60.00
G01 Z-2.0000
G01 F60.00
G01 X10.6608 Y-24.2645 F60.00
G01 X10.6572 Y-24.2888 F60.00
G01 X10.6512 Y-24.3126 F60.00
G01 X10.6430 Y-24.3357 F60.00
G01 X10.6325 Y-24.3578 F60.00
G01 X10.6199 Y-24.3789 F60.00
G01 X10.6053 Y-24.3986 F60.00
G01 X10.5888 Y-24.4168 F60.00
G01 X10.5706 Y-24.4333 F60.00
G01 X10.5509 Y-24.4479 F60.00
G01 X10.5298 Y-24.4605 F60.00
G01 X10.5077 Y-24.4710 F60.00
G01 X10.4846 Y-24.4792 F60.00
G01 X10.4608 Y-24.4852 F60.00
G01 X10.4365 Y-24.4888 F60.00
G01 X10.4120 Y-24.4900 F60.00
G01 X10.3875 Y-24.4888 F60.00
G01 X10.3632 Y-24.4852 F60.00
G01 X10.3394 Y-24.4792 F60.00
G01 X10.3163 Y-24.4710 F60.00
G01 X10.2942 Y-24.4605 F60.00
G01 X10.2731 Y-24.4479 F60.00
G01 X10.2534 Y-24.4333 F60.00
G01 X10.2352 Y-24.4168 F60.00
G01 X10.2187 Y-24.3986 F60.00
G01 X10.2041 Y-24.3789 F60.00
G01 X10.1915 Y-24.3578 F60.00
G01 X10.1810 Y-24.3357 F60.00
G01 X10.1728 Y-24.3126 F60.00
G01 X10.1668 Y-24.2888 F60.00
G01 X10.1632 Y-24.2645 F60.00
G01 X10.1620 Y-24.2400 F60.00
G01 X10.1632 Y-24.2155 F60.00
G01 X10.1668 Y-24.1912 F60.00
G01 X10.1728 Y-24.1674 F60.00
G01 X10.1810 Y-24.1443 F60.00
G01 X10.1915 Y-24.1222 F60.00
G01 X10.2041 Y-24.1011 F60.00
G01 X10.2187 Y-24.0814 F60.00
G01 X10.2352 Y-24.0632 F60.00
G01 X10.2534 Y-24.0467 F60.00
G01 X10.2731 Y-24.0321 F60.00
G01 X10.2942 Y-24.0195 F60.00
G01 X10.3163 Y-24.0090 F60.00
G01 X10.3394 Y-24.0008 F60.00
G01 X10.3632 Y-23.9948 F60.00
G01 X10.3875 Y-23.9912 F60.00
G01 X10.4120 Y-23.9900 F60.00
G01 X10.4365 Y-23.9912 F60.00
G01 X10.4608 Y-23.9948 F60.00
G01 X10.4846 Y-24.0008 F60.00
G01 X10.5077 Y-24.0090 F60.00
G01 X10.5298 Y-24.0195 F60.00
G01 X10.5509 Y-24.0321 F60.00
G01 X10.5706 Y-24.0467 F60.00
G01 X10.5888 Y-24.0632 F60.00
G01 X10.6053 Y-24.0814 F60.00
G01 X10.6199 Y-24.1011 F60.00
G01 X10.6325 Y-24.1222 F60.00
G01 X10.6430 Y-24.1443 F60.00
G01 X10.6512 Y-24.1674 F60.00
G01 X10.6572 Y-24.1912 F60.00
G01 X10.6608 Y-24.2155 F60.00
G01 X10.6620 Y-24.2400 F60.00
G00 X10.6620 Y-24.2400
G01 F60.00
G01 Z-2.5000
G01 F60.00
G01 X10.6608 Y-24.2645 F60.00
G01 X10.6572 Y-24.2888 F60.00
G01 X10.6512 Y-24.3126 F60.00
G01 X10.6430 Y-24.3357 F60.00
G01 X10.6325 Y-24.3578 F60.00
G01 X10.6199 Y-24.3789 F60.00
G01 X10.6053 Y-24.3986 F60.00
G01 X10.5888 Y-24.4168 F60.00
G01 X10.5706 Y-24.4333 F60.00
G01 X10.5509 Y-24.4479 F60.00
G01 X10.5298 Y-24.4605 F60.00
G01 X10.5077 Y-24.4710 F60.00
G01 X10.4846 Y-24.4792 F60.00
G01 X10.4608 Y-24.4852 F60.00
G01 X10.4365 Y-24.4888 F60.00
G01 X10.4120 Y-24.4900 F60.00
G01 X10.3875 Y-24.4888 F60.00
G01 X10.3632 Y-24.4852 F60.00
G01 X10.3394 Y-24.4792 F60.00
G01 X10.3163 Y-24.4710 F60.00
G01 X10.2942 Y-24.4605 F60.00
G01 X10.2731 Y-24.4479 F60.00
G01 X10.2534 Y-24.4333 F60.00
G01 X10.2352 Y-24.4168 F60.00
G01 X10.2187 Y-24.3986 F60.00
G01 X10.2041 Y-24.3789 F60.00
G01 X10.1915 Y-24.3578 F60.00
G01 X10.1810 Y-24.3357 F60.00
G01 X10.1728 Y-24.3126 F60.00
G01 X10.1668 Y-24.2888 F60.00
G01 X10.1632 Y-24.2645 F60.00
G01 X10.1620 Y-24.2400 F60.00
G01 X10.1632 Y-24.2155 F60.00
G01 X10.1668 Y-24.1912 F60.00
G01 X10.1728 Y-24.1674 F60.00
G01 X10.1810 Y-24.1443 F60.00
G01 X10.1915 Y-24.1222 F60.00
G01 X10.2041 Y-24.1011 F60.00
G01 X10.2187 Y-24.0814 F60.00
G01 X10.2352 Y-24.0632 F60.00
G01 X10.2534 Y-24.0467 F60.00
G01 X10.2731 Y-24.0321 F60.00
G01 X10.2942 Y-24.0195 F60.00
G01 X10.3163 Y-24.0090 F60.00
G01 X10.3394 Y-24.0008 F60.00
G01 X10.3632 Y-23.9948 F60.00
G01 X10.3875 Y-23.9912 F60.00
G01 X10.4120 Y-23.9900 F60.00
G01 X10.4365 Y-23.9912 F60.00
G01 X10.4608 Y-23.9948 F60.00
G01 X10.4846 Y-24.0008 F60.00
G01 X10.5077 Y-24.0090 F60.00
G01 X10.5298 Y-24.0195 F60.00
G01 X10.5509 Y-24.0321 F60.00
G01 X10.5706 Y-24.0467 F60.00
G01 X10.5888 Y-24.0632 F60.00
G01 X10.6053 Y-24.0814 F60.00
G01 X10.6199 Y-24.1011 F60.00
G01 X10.6325 Y-24.1222 F60.00
G01 X10.6430 Y-24.1443 F60.00
G01 X10.6512 Y-24.1674 F60.00
G01 X10.6572 Y-24.1912 F60.00
G01 X10.6608 Y-24.2155 F60.00
G01 X10.6620 Y-24.2400 F60.00
G00 Z2.0000
G00 X10.6620 Y-26.7800
G01 F60.00
G01 Z-0.5000
G01 F60.00
G01 X10.6608 Y-26.8045 F60.00
G01 X10.6572 Y-26.8288 F60.00
G01 X10.6512 Y-26.8526 F60.00
G01 X10.6430 Y-26.8757 F60.00
G01 X10.6325 Y-26.8978 F60.00
G01 X10.6199 Y-26.9189 F60.00
G01 X10.6053 Y-26.9386 F60.00
G01 X10.5888 Y-26.9568 F60.00
G01 X10.5706 Y-26.9733 F60.00
G01 X10.5509 Y-26.9879 F60.00
G01 X10.5298 Y-27.0005 F60.00
G01 X10.5077 Y-27.0110 F60.00
G01 X10.4846 Y-27.0192 F60.00
G01 X10.4608 Y-27.0252 F60.00
G01 X10.4365 Y-27.0288 F60.00
G01 X10.4120 Y-27.0300 F60.00
G01 X10.3875 Y-27.0288 F60.00
G01 X10.3632 Y-27.0252 F60.00
G01 X10.3394 Y-27.0192 F60.00
G01 X10.3163 Y-27.0110 F60.00
G01 X10.2942 Y-27.0005 F60.00
G01 X10.2731 Y-26.9879 F60.00
G01 X10.2534 Y-26.9733 F60.00
G01 X10.2352 Y-26.9568 F60.00
G01 X10.2187 Y-26.9386 F60.00
G01 X10.2041 Y-26.9189 F60.00
G01 X10.1915 Y-26.8978 F60.00
G01 X10.1810 Y-26.8757 F60.00
G01 X10.1728 Y-26.8526 F60.00
G01 X10.1668 Y-26.8288 F60.00
G01 X10.1632 Y-26.8045 F60.00
G01 X10.1620 Y-26.7800 F60.00
G01 X10.1632 Y-26.7555 F60.00
G01 X10.1668 Y-26.7312 F60.00
G01 X10.1728 Y-26.7074 F60.00
G01 X10.1810 Y-26.6843 F60.00
G01 X10.1915 Y-26.6622 F60.00
G01 X10.2041 Y-26.6411 F60.00
G01 X10.2187 Y-26.6214 F60.00
G01 X10.2352 Y-26.6032 F60.00
G01 X10.2534 Y-26.5867 F60.00
G01 X10.2731 Y-26.5721 F60.00
G01 X10.2942 Y-26.5595 F60.00
G01 X10.3163 Y-26.5490 F60.00
G01 X10.3394 Y-26.5408 F60.00
G01 X10.3632 Y-26.5348 F60.00
