(G-CODE GENERATED BY FLATCAM v8.994 - www.flatcam.org - Version Date: 2020/11/7)

(Name: Electrode_Select_Breakout-F_Cu.gbr_iso_combined_cnc)
(Type: G-code from Geometry)
(Units: MM)

(Created on Sunday, 31 March 2024 at 17:44)

(This preprocessor is used with a motion controller loaded with GRBL firmware.)
(It is configured to be compatible with almost any version of GRBL firmware.)

(TOOL DIAMETER: 0.3 mm)
(Feedrate_XY: 30.0 mm/min)
(Feedrate_Z: 45.0 mm/min)
(Feedrate rapids 1500.0 mm/min)

(Z_Cut: -0.09 mm)
(Z_Move: 2.0 mm)
(Z Start: None mm)
(Z End: 15.0 mm)
(X,Y End: 0.0000, 0.0000 mm)
(Steps per circle: 64)
(Steps per circle: 64)
(Preprocessor Geometry: GRBL_11_no_M6)

(X range:    2.2087 ...   34.9663  mm)
(Y range:  -43.2400 ...   -6.9697  mm)

(Spindle Speed: 0.0 RPM)
G21
G90
G17
G94


G01 F30.00

M5             
G00 Z15.0000
G00 X0.0000 Y0.0000                
T2
(MSG, Change to Tool Dia = 0.3000)
M0
G00 Z15.0000
        
M03
G01 F30.00
G00 X6.8040 Y-20.2700
G01 F45.00
G01 Z-0.0900
G01 F30.00
G01 X7.2237 Y-20.2700 F30.00
G01 X7.2238 Y-26.1657 F30.00
G01 X7.2269 Y-26.2257 F30.00
G01 X7.2350 Y-26.2816 F30.00
G01 X7.2379 Y-26.2960 F30.00
G01 X7.2517 Y-26.3508 F30.00
G01 X7.2706 Y-26.4040 F30.00
G01 X7.2762 Y-26.4176 F30.00
G01 X7.3005 Y-26.4685 F30.00
G01 X7.3313 Y-26.5202 F30.00
G01 X7.3376 Y-26.5293 F30.00
G01 X7.3713 Y-26.5745 F30.00
G01 X7.4116 Y-26.6192 F30.00
G01 X8.0348 Y-27.2424 F30.00
G01 X8.0795 Y-27.2827 F30.00
G01 X8.1247 Y-27.3164 F30.00
G01 X8.1370 Y-27.3246 F30.00
G01 X8.1791 Y-27.3498 F30.00
G01 X8.1887 Y-27.3552 F30.00
G01 X8.2432 Y-27.3808 F30.00
G01 X8.3032 Y-27.4023 F30.00
G01 X8.3651 Y-27.4178 F30.00
G01 X8.4210 Y-27.4262 F30.00
G01 X8.4319 Y-27.4274 F30.00
G01 X8.4920 Y-27.4303 F30.00
G01 X9.1920 Y-27.4303 F30.00
G01 X9.1920 Y-27.8500 F30.00
G01 X9.1924 Y-27.8610 F30.00
G01 X9.1942 Y-27.8756 F30.00
G01 X9.1956 Y-27.8829 F30.00
G01 X9.1985 Y-27.8935 F30.00
G01 X9.2021 Y-27.9040 F30.00
G01 X9.2064 Y-27.9141 F30.00
G01 X9.2115 Y-27.9239 F30.00
G01 X9.2173 Y-27.9333 F30.00
G01 X9.2237 Y-27.9423 F30.00
G01 X9.2284 Y-27.9480 F30.00
G01 X9.2359 Y-27.9561 F30.00
G01 X9.2440 Y-27.9636 F30.00
G01 X9.2497 Y-27.9683 F30.00
G01 X9.2587 Y-27.9747 F30.00
G01 X9.2681 Y-27.9805 F30.00
G01 X9.2746 Y-27.9840 F30.00
G01 X9.2812 Y-27.9871 F30.00
G01 X9.2915 Y-27.9912 F30.00
G01 X9.3056 Y-27.9955 F30.00
G01 X9.3164 Y-27.9978 F30.00
G01 X9.3273 Y-27.9993 F30.00
G01 X9.3420 Y-28.0000 F30.00
G01 X11.4820 Y-28.0000 F30.00
G01 X11.4930 Y-27.9996 F30.00
G01 X11.5040 Y-27.9984 F30.00
G01 X11.5149 Y-27.9964 F30.00
G01 X11.5255 Y-27.9935 F30.00
G01 X11.5360 Y-27.9899 F30.00
G01 X11.5428 Y-27.9871 F30.00
G01 X11.5527 Y-27.9823 F30.00
G01 X11.5622 Y-27.9767 F30.00
G01 X11.5714 Y-27.9705 F30.00
G01 X11.5772 Y-27.9660 F30.00
G01 X11.5827 Y-27.9611 F30.00
G01 X11.5906 Y-27.9534 F30.00
G01 X11.5956 Y-27.9480 F30.00
G01 X11.6025 Y-27.9394 F30.00
G01 X11.6067 Y-27.9333 F30.00
G01 X11.6125 Y-27.9239 F30.00
G01 X11.6176 Y-27.9141 F30.00
G01 X11.6206 Y-27.9074 F30.00
G01 X11.6232 Y-27.9005 F30.00
G01 X11.6266 Y-27.8900 F30.00
G01 X11.6291 Y-27.8793 F30.00
G01 X11.6309 Y-27.8684 F30.00
G01 X11.6318 Y-27.8574 F30.00
G01 X11.6320 Y-27.8500 F30.00
G01 X11.6320 Y-25.7063 F30.00
G01 X11.6313 Y-25.6953 F30.00
G01 X11.6304 Y-25.6880 F30.00
G01 X11.6284 Y-25.6771 F30.00
G01 X11.6266 Y-25.6700 F30.00
G01 X11.6244 Y-25.6629 F30.00
G01 X11.6206 Y-25.6526 F30.00
G01 X11.6160 Y-25.6426 F30.00
G01 X11.6125 Y-25.6361 F30.00
G01 X11.6067 Y-25.6267 F30.00
G01 X11.6025 Y-25.6206 F30.00
G01 X11.5980 Y-25.6148 F30.00
G01 X11.5906 Y-25.6066 F30.00
G01 X11.5854 Y-25.6014 F30.00
G01 X11.5772 Y-25.5940 F30.00
G01 X11.5653 Y-25.5853 F30.00
G01 X11.5559 Y-25.5795 F30.00
G01 X11.5461 Y-25.5744 F30.00
G01 X11.5360 Y-25.5701 F30.00
G01 X11.5255 Y-25.5665 F30.00
G01 X11.5149 Y-25.5636 F30.00
G01 X11.5040 Y-25.5616 F30.00
G01 X11.4930 Y-25.5604 F30.00
G01 X11.4820 Y-25.5600 F30.00
G01 X9.3420 Y-25.5600 F30.00
G01 X9.3310 Y-25.5604 F30.00
G01 X9.3236 Y-25.5611 F30.00
G01 X9.3091 Y-25.5636 F30.00
G01 X9.2985 Y-25.5665 F30.00
G01 X9.2880 Y-25.5701 F30.00
G01 X9.2779 Y-25.5744 F30.00
G01 X9.2681 Y-25.5795 F30.00
G01 X9.2587 Y-25.5853 F30.00
G01 X9.2497 Y-25.5917 F30.00
G01 X9.2413 Y-25.5989 F30.00
G01 X9.2334 Y-25.6066 F30.00
G01 X9.2260 Y-25.6148 F30.00
G01 X9.2194 Y-25.6236 F30.00
G01 X9.2133 Y-25.6329 F30.00
G01 X9.2080 Y-25.6426 F30.00
G01 X9.2049 Y-25.6492 F30.00
G01 X9.2008 Y-25.6595 F30.00
G01 X9.1974 Y-25.6700 F30.00
G01 X9.1949 Y-25.6807 F30.00
G01 X9.1927 Y-25.6953 F30.00
G01 X9.1920 Y-25.7100 F30.00
G01 X9.1920 Y-26.1297 F30.00
G01 X8.7613 Y-26.1297 F30.00
G01 X8.5243 Y-25.8927 F30.00
G01 X8.5243 Y-20.2700 F30.00
G01 X8.9440 Y-20.2700 F30.00
G01 X8.9587 Y-20.2693 F30.00
G01 X8.9733 Y-20.2671 F30.00
G01 X8.9840 Y-20.2646 F30.00
G01 X8.9945 Y-20.2612 F30.00
G01 X9.0014 Y-20.2586 F30.00
G01 X9.0114 Y-20.2540 F30.00
G01 X9.0211 Y-20.2487 F30.00
G01 X9.0304 Y-20.2426 F30.00
G01 X9.0392 Y-20.2360 F30.00
G01 X9.0474 Y-20.2286 F30.00
G01 X9.0551 Y-20.2207 F30.00
G01 X9.0623 Y-20.2123 F30.00
G01 X9.0687 Y-20.2033 F30.00
G01 X9.0745 Y-20.1939 F30.00
G01 X9.0796 Y-20.1841 F30.00
G01 X9.0839 Y-20.1740 F30.00
G01 X9.0875 Y-20.1635 F30.00
G01 X9.0904 Y-20.1529 F30.00
G01 X9.0918 Y-20.1456 F30.00
G01 X9.0933 Y-20.1347 F30.00
G01 X9.0940 Y-20.1200 F30.00
G01 X9.0940 Y-17.9763 F30.00
G01 X9.0929 Y-17.9616 F30.00
G01 X9.0904 Y-17.9471 F30.00
G01 X9.0864 Y-17.9329 F30.00
G01 X9.0811 Y-17.9192 F30.00
G01 X9.0745 Y-17.9061 F30.00
G01 X9.0666 Y-17.8936 F30.00
G01 X9.0576 Y-17.8820 F30.00
G01 X9.0474 Y-17.8714 F30.00
G01 X9.0363 Y-17.8617 F30.00
G01 X9.0273 Y-17.8553 F30.00
G01 X9.0147 Y-17.8477 F30.00
G01 X9.0014 Y-17.8414 F30.00
G01 X8.9875 Y-17.8365 F30.00
G01 X8.9769 Y-17.8336 F30.00
G01 X8.9624 Y-17.8311 F30.00
G01 X8.9477 Y-17.8300 F30.00
G01 X6.8040 Y-17.8300 F30.00
G01 X6.7893 Y-17.8307 F30.00
G01 X6.7747 Y-17.8329 F30.00
G01 X6.7605 Y-17.8365 F30.00
G01 X6.7466 Y-17.8414 F30.00
G01 X6.7366 Y-17.8460 F30.00
G01 X6.7301 Y-17.8495 F30.00
G01 X6.7176 Y-17.8574 F30.00
G01 X6.7060 Y-17.8664 F30.00
G01 X6.6954 Y-17.8766 F30.00
G01 X6.6857 Y-17.8877 F30.00
G01 X6.6773 Y-17.8998 F30.00
G01 X6.6700 Y-17.9126 F30.00
G01 X6.6654 Y-17.9226 F30.00
G01 X6.6605 Y-17.9365 F30.00
G01 X6.6576 Y-17.9471 F30.00
G01 X6.6551 Y-17.9616 F30.00
G01 X6.6540 Y-17.9763 F30.00
G01 X6.6542 Y-20.1274 F30.00
G01 X6.6556 Y-20.1420 F30.00
G01 X6.6576 Y-20.1529 F30.00
G01 X6.6616 Y-20.1671 F30.00
G01 X6.6669 Y-20.1808 F30.00
G01 X6.6735 Y-20.1939 F30.00
G01 X6.6814 Y-20.2064 F30.00
G01 X6.6904 Y-20.2180 F30.00
G01 X6.7006 Y-20.2286 F30.00
G01 X6.7117 Y-20.2383 F30.00
G01 X6.7238 Y-20.2467 F30.00
G01 X6.7366 Y-20.2540 F30.00
G01 X6.7500 Y-20.2599 F30.00
G01 X6.7640 Y-20.2646 F30.00
G01 X6.7784 Y-20.2678 F30.00
G01 X6.7930 Y-20.2696 F30.00
G01 X6.8040 Y-20.2700 F30.00
G00 Z2.0000
G00 X9.3420 Y-25.4600
G01 F45.00
G01 Z-0.0900
G01 F30.00
G01 X11.4894 Y-25.4598 F30.00
G01 X11.5004 Y-25.4589 F30.00
G01 X11.5113 Y-25.4571 F30.00
G01 X11.5220 Y-25.4546 F30.00
G01 X11.5325 Y-25.4512 F30.00
G01 X11.5461 Y-25.4456 F30.00
G01 X11.5559 Y-25.4405 F30.00
G01 X11.5653 Y-25.4347 F30.00
G01 X11.5743 Y-25.4283 F30.00
G01 X11.5827 Y-25.4211 F30.00
G01 X11.5906 Y-25.4134 F30.00
G01 X11.6003 Y-25.4023 F30.00
G01 X11.6067 Y-25.3933 F30.00
G01 X11.6125 Y-25.3839 F30.00
G01 X11.6176 Y-25.3741 F30.00
G01 X11.6232 Y-25.3605 F30.00
G01 X11.6266 Y-25.3500 F30.00
G01 X11.6291 Y-25.3393 F30.00
G01 X11.6309 Y-25.3284 F30.00
G01 X11.6318 Y-25.3174 F30.00
G01 X11.6320 Y-25.3100 F30.00
G01 X11.6320 Y-23.1700 F30.00
G01 X11.6318 Y-23.1626 F30.00
G01 X11.6309 Y-23.1516 F30.00
G01 X11.6291 Y-23.1407 F30.00
G01 X11.6275 Y-23.1336 F30.00
G01 X11.6244 Y-23.1229 F30.00
G01 X11.6219 Y-23.1160 F30.00
G01 X11.6176 Y-23.1059 F30.00
G01 X11.6125 Y-23.0961 F30.00
G01 X11.6067 Y-23.0867 F30.00
G01 X11.6003 Y-23.0777 F30.00
G01 X11.5931 Y-23.0693 F30.00
G01 X11.5854 Y-23.0614 F30.00
G01 X11.5772 Y-23.0540 F30.00
G01 X11.5684 Y-23.0474 F30.00
G01 X11.5591 Y-23.0413 F30.00
G01 X11.5527 Y-23.0377 F30.00
G01 X11.5428 Y-23.0329 F30.00
G01 X11.5325 Y-23.0288 F30.00
G01 X11.5220 Y-23.0254 F30.00
G01 X11.5113 Y-23.0229 F30.00
G01 X11.4967 Y-23.0207 F30.00
G01 X11.4820 Y-23.0200 F30.00
G01 X11.0643 Y-23.0200 F30.00
G01 X11.0643 Y-20.2700 F30.00
G01 X11.4840 Y-20.2700 F30.00
G01 X11.4914 Y-20.2698 F30.00
G01 X11.5024 Y-20.2689 F30.00
G01 X11.5096 Y-20.2678 F30.00
G01 X11.5204 Y-20.2655 F30.00
G01 X11.5345 Y-20.2612 F30.00
G01 X11.5448 Y-20.2571 F30.00
G01 X11.5547 Y-20.2523 F30.00
G01 X11.5642 Y-20.2467 F30.00
G01 X11.5734 Y-20.2405 F30.00
G01 X11.5820 Y-20.2336 F30.00
G01 X11.5901 Y-20.2261 F30.00
G01 X11.5976 Y-20.2180 F30.00
G01 X11.6045 Y-20.2094 F30.00
G01 X11.6127 Y-20.1971 F30.00
G01 X11.6180 Y-20.1874 F30.00
G01 X11.6226 Y-20.1774 F30.00
G01 X11.6264 Y-20.1671 F30.00
G01 X11.6295 Y-20.1564 F30.00
G01 X11.6318 Y-20.1456 F30.00
G01 X11.6333 Y-20.1347 F30.00
G01 X11.6340 Y-20.1200 F30.00
G01 X11.6338 Y-17.9726 F30.00
G01 X11.6324 Y-17.9580 F30.00
G01 X11.6304 Y-17.9471 F30.00
G01 X11.6275 Y-17.9365 F30.00
G01 X11.6239 Y-17.9260 F30.00
G01 X11.6196 Y-17.9159 F30.00
G01 X11.6145 Y-17.9061 F30.00
G01 X11.6066 Y-17.8936 F30.00
G01 X11.6000 Y-17.8848 F30.00
G01 X11.5926 Y-17.8766 F30.00
G01 X11.5847 Y-17.8689 F30.00
G01 X11.5763 Y-17.8617 F30.00
G01 X11.5673 Y-17.8553 F30.00
G01 X11.5579 Y-17.8495 F30.00
G01 X11.5448 Y-17.8429 F30.00
G01 X11.5345 Y-17.8388 F30.00
G01 X11.5240 Y-17.8354 F30.00
G01 X11.5133 Y-17.8329 F30.00
G01 X11.5024 Y-17.8311 F30.00
G01 X11.4914 Y-17.8302 F30.00
G01 X11.4840 Y-17.8300 F30.00
G01 X9.3366 Y-17.8302 F30.00
G01 X9.3220 Y-17.8316 F30.00
G01 X9.3111 Y-17.8336 F30.00
G01 X9.3005 Y-17.8365 F30.00
G01 X9.2900 Y-17.8401 F30.00
G01 X9.2799 Y-17.8444 F30.00
G01 X9.2701 Y-17.8495 F30.00
G01 X9.2607 Y-17.8553 F30.00
G01 X9.2488 Y-17.8640 F30.00
G01 X9.2406 Y-17.8714 F30.00
G01 X9.2329 Y-17.8793 F30.00
G01 X9.2257 Y-17.8877 F30.00
G01 X9.2193 Y-17.8967 F30.00
G01 X9.2135 Y-17.9061 F30.00
G01 X9.2084 Y-17.9159 F30.00
G01 X9.2028 Y-17.9295 F30.00
G01 X9.1994 Y-17.9400 F30.00
G01 X9.1969 Y-17.9507 F30.00
G01 X9.1951 Y-17.9616 F30.00
G01 X9.1942 Y-17.9726 F30.00
G01 X9.1940 Y-17.9800 F30.00
G01 X9.1940 Y-20.1200 F30.00
G01 X9.1942 Y-20.1274 F30.00
G01 X9.1951 Y-20.1384 F30.00
G01 X9.1962 Y-20.1456 F30.00
G01 X9.1985 Y-20.1564 F30.00
G01 X9.2016 Y-20.1671 F30.00
G01 X9.2054 Y-20.1774 F30.00
G01 X9.2100 Y-20.1874 F30.00
G01 X9.2153 Y-20.1971 F30.00
G01 X9.2214 Y-20.2064 F30.00
G01 X9.2280 Y-20.2152 F30.00
G01 X9.2354 Y-20.2234 F30.00
G01 X9.2406 Y-20.2286 F30.00
G01 X9.2488 Y-20.2360 F30.00
G01 X9.2576 Y-20.2426 F30.00
G01 X9.2669 Y-20.2487 F30.00
G01 X9.2766 Y-20.2540 F30.00
G01 X9.2866 Y-20.2586 F30.00
G01 X9.2969 Y-20.2624 F30.00
G01 X9.3076 Y-20.2655 F30.00
G01 X9.3147 Y-20.2671 F30.00
G01 X9.3293 Y-20.2693 F30.00
G01 X9.3440 Y-20.2700 F30.00
G01 X9.7637 Y-20.2700 F30.00
G01 X9.7637 Y-23.0200 F30.00
G01 X9.3420 Y-23.0200 F30.00
G01 X9.3346 Y-23.0202 F30.00
G01 X9.3236 Y-23.0211 F30.00
G01 X9.3127 Y-23.0229 F30.00
G01 X9.3056 Y-23.0245 F30.00
G01 X9.2949 Y-23.0276 F30.00
G01 X9.2846 Y-23.0314 F30.00
G01 X9.2746 Y-23.0360 F30.00
G01 X9.2618 Y-23.0433 F30.00
G01 X9.2497 Y-23.0517 F30.00
G01 X9.2413 Y-23.0589 F30.00
G01 X9.2334 Y-23.0666 F30.00
G01 X9.2260 Y-23.0748 F30.00
G01 X9.2194 Y-23.0836 F30.00
G01 X9.2133 Y-23.0929 F30.00
G01 X9.2080 Y-23.1026 F30.00
G01 X9.2034 Y-23.1126 F30.00
G01 X9.1996 Y-23.1229 F30.00
G01 X9.1956 Y-23.1371 F30.00
G01 X9.1936 Y-23.1480 F30.00
G01 X9.1924 Y-23.1590 F30.00
G01 X9.1920 Y-23.1700 F30.00
G01 X9.1920 Y-25.3100 F30.00
G01 X9.1924 Y-25.3210 F30.00
G01 X9.1942 Y-25.3356 F30.00
G01 X9.1974 Y-25.3500 F30.00
G01 X9.2021 Y-25.3640 F30.00
G01 X9.2080 Y-25.3774 F30.00
G01 X9.2133 Y-25.3871 F30.00
G01 X9.2215 Y-25.3994 F30.00
G01 X9.2309 Y-25.4107 F30.00
G01 X9.2413 Y-25.4211 F30.00
G01 X9.2526 Y-25.4305 F30.00
G01 X9.2649 Y-25.4387 F30.00
G01 X9.2779 Y-25.4456 F30.00
G01 X9.2880 Y-25.4499 F30.00
G01 X9.2985 Y-25.4535 F30.00
G01 X9.3127 Y-25.4571 F30.00
G01 X9.3273 Y-25.4593 F30.00
G01 X9.3420 Y-25.4600 F30.00
G00 Z2.0000
G00 X9.1920 Y-28.2500
G01 F45.00
G01 Z-0.0900
G01 F30.00
G01 X9.1922 Y-30.3974 F30.00
G01 X9.1936 Y-30.4120 F30.00
G01 X9.1956 Y-30.4229 F30.00
G01 X9.1996 Y-30.4371 F30.00
G01 X9.2034 Y-30.4474 F30.00
G01 X9.2080 Y-30.4574 F30.00
G01 X9.2153 Y-30.4702 F30.00
G01 X9.2215 Y-30.4794 F30.00
G01 X9.2309 Y-30.4907 F30.00
G01 X9.2386 Y-30.4986 F30.00
G01 X9.2497 Y-30.5083 F30.00
G01 X9.2587 Y-30.5147 F30.00
G01 X9.2681 Y-30.5205 F30.00
G01 X9.2812 Y-30.5271 F30.00
G01 X9.2915 Y-30.5312 F30.00
G01 X9.3056 Y-30.5355 F30.00
G01 X9.3164 Y-30.5378 F30.00
G01 X9.3273 Y-30.5393 F30.00
G01 X9.3420 Y-30.5400 F30.00
G01 X11.4820 Y-30.5400 F30.00
G01 X11.4967 Y-30.5393 F30.00
G01 X11.5113 Y-30.5371 F30.00
G01 X11.5220 Y-30.5346 F30.00
G01 X11.5360 Y-30.5299 F30.00
G01 X11.5428 Y-30.5271 F30.00
G01 X11.5527 Y-30.5223 F30.00
G01 X11.5622 Y-30.5167 F30.00
G01 X11.5714 Y-30.5105 F30.00
G01 X11.5800 Y-30.5036 F30.00
G01 X11.5854 Y-30.4986 F30.00
G01 X11.5906 Y-30.4934 F30.00
G01 X11.5980 Y-30.4852 F30.00
G01 X11.6046 Y-30.4764 F30.00
G01 X11.6107 Y-30.4671 F30.00
G01 X11.6160 Y-30.4574 F30.00
G01 X11.6191 Y-30.4508 F30.00
G01 X11.6232 Y-30.4405 F30.00
G01 X11.6255 Y-30.4335 F30.00
G01 X11.6284 Y-30.4229 F30.00
G01 X11.6298 Y-30.4156 F30.00
G01 X11.6313 Y-30.4047 F30.00
G01 X11.6320 Y-30.3900 F30.00
G01 X11.6320 Y-29.9703 F30.00
G01 X12.3380 Y-29.9703 F30.00
G01 X12.3981 Y-29.9674 F30.00
G01 X12.4090 Y-29.9662 F30.00
G01 X12.4649 Y-29.9578 F30.00
G01 X12.5268 Y-29.9423 F30.00
G01 X12.5868 Y-29.9208 F30.00
G01 X12.6445 Y-29.8935 F30.00
G01 X12.6930 Y-29.8646 F30.00
G01 X12.7053 Y-29.8564 F30.00
G01 X12.7505 Y-29.8227 F30.00
G01 X12.7952 Y-29.7824 F30.00
G01 X13.4164 Y-29.1612 F30.00
G01 X13.4567 Y-29.1165 F30.00
G01 X13.4947 Y-29.0653 F30.00
G01 X13.5275 Y-29.0105 F30.00
G01 X13.5518 Y-28.9596 F30.00
G01 X13.5574 Y-28.9460 F30.00
G01 X13.5763 Y-28.8928 F30.00
G01 X13.5918 Y-28.8309 F30.00
G01 X13.6011 Y-28.7677 F30.00
G01 X13.6043 Y-28.7040 F30.00
G01 X13.6043 Y-20.2700 F30.00
G01 X14.0240 Y-20.2700 F30.00
G01 X14.0314 Y-20.2698 F30.00
G01 X14.0424 Y-20.2689 F30.00
G01 X14.0569 Y-20.2664 F30.00
G01 X14.0675 Y-20.2635 F30.00
G01 X14.0780 Y-20.2599 F30.00
G01 X14.0881 Y-20.2556 F30.00
G01 X14.0979 Y-20.2505 F30.00
G01 X14.1073 Y-20.2447 F30.00
G01 X14.1163 Y-20.2383 F30.00
G01 X14.1247 Y-20.2311 F30.00
G01 X14.1326 Y-20.2234 F30.00
G01 X14.1400 Y-20.2152 F30.00
G01 X14.1445 Y-20.2094 F30.00
G01 X14.1507 Y-20.2002 F30.00
G01 X14.1563 Y-20.1907 F30.00
G01 X14.1611 Y-20.1808 F30.00
G01 X14.1652 Y-20.1705 F30.00
G01 X14.1686 Y-20.1600 F30.00
G01 X14.1711 Y-20.1493 F30.00
G01 X14.1733 Y-20.1347 F30.00
G01 X14.1740 Y-20.1200 F30.00
G01 X14.1740 Y-17.9763 F30.00
G01 X14.1733 Y-17.9653 F30.00
G01 X14.1718 Y-17.9544 F30.00
G01 X14.1695 Y-17.9436 F30.00
G01 X14.1664 Y-17.9329 F30.00
G01 X14.1626 Y-17.9226 F30.00
G01 X14.1580 Y-17.9126 F30.00
G01 X14.1545 Y-17.9061 F30.00
G01 X14.1487 Y-17.8967 F30.00
G01 X14.1423 Y-17.8877 F30.00
G01 X14.1351 Y-17.8793 F30.00
G01 X14.1274 Y-17.8714 F30.00
G01 X14.1220 Y-17.8664 F30.00
G01 X14.1163 Y-17.8617 F30.00
G01 X14.1073 Y-17.8553 F30.00
G01 X14.0979 Y-17.8495 F30.00
G01 X14.0881 Y-17.8444 F30.00
G01 X14.0745 Y-17.8388 F30.00
G01 X14.0675 Y-17.8365 F30.00
G01 X14.0569 Y-17.8336 F30.00
G01 X14.0460 Y-17.8316 F30.00
G01 X14.0387 Y-17.8307 F30.00
G01 X14.0240 Y-17.8300 F30.00
G01 X11.8766 Y-17.8302 F30.00
G01 X11.8620 Y-17.8316 F30.00
G01 X11.8511 Y-17.8336 F30.00
G01 X11.8405 Y-17.8365 F30.00
G01 X11.8266 Y-17.8414 F30.00
G01 X11.8133 Y-17.8477 F30.00
G01 X11.8038 Y-17.8533 F30.00
G01 X11.7917 Y-17.8617 F30.00
G01 X11.7833 Y-17.8689 F30.00
G01 X11.7754 Y-17.8766 F30.00
G01 X11.7657 Y-17.8877 F30.00
G01 X11.7593 Y-17.8967 F30.00
G01 X11.7535 Y-17.9061 F30.00
G01 X11.7484 Y-17.9159 F30.00
G01 X11.7428 Y-17.9295 F30.00
G01 X11.7394 Y-17.9400 F30.00
G01 X11.7362 Y-17.9544 F30.00
G01 X11.7347 Y-17.9653 F30.00
G01 X11.7340 Y-17.9800 F30.00
G01 X11.7340 Y-20.1200 F30.00
G01 X11.7342 Y-20.1274 F30.00
G01 X11.7351 Y-20.1384 F30.00
G01 X11.7362 Y-20.1456 F30.00
G01 X11.7385 Y-20.1564 F30.00
G01 X11.7416 Y-20.1671 F30.00
G01 X11.7454 Y-20.1774 F30.00
G01 X11.7500 Y-20.1874 F30.00
G01 X11.7553 Y-20.1971 F30.00
G01 X11.7614 Y-20.2064 F30.00
G01 X11.7680 Y-20.2152 F30.00
G01 X11.7754 Y-20.2234 F30.00
G01 X11.7806 Y-20.2286 F30.00
G01 X11.7888 Y-20.2360 F30.00
G01 X11.7976 Y-20.2426 F30.00
G01 X11.8069 Y-20.2487 F30.00
G01 X11.8166 Y-20.2540 F30.00
G01 X11.8266 Y-20.2586 F30.00
G01 X11.8369 Y-20.2624 F30.00
G01 X11.8476 Y-20.2655 F30.00
G01 X11.8547 Y-20.2671 F30.00
G01 X11.8693 Y-20.2693 F30.00
G01 X11.8840 Y-20.2700 F30.00
G01 X12.3037 Y-20.2700 F30.00
G01 X12.3037 Y-28.4347 F30.00
G01 X12.0687 Y-28.6697 F30.00
G01 X11.6320 Y-28.6697 F30.00
G01 X11.6320 Y-28.2500 F30.00
G01 X11.6318 Y-28.2426 F30.00
G01 X11.6309 Y-28.2316 F30.00
G01 X11.6291 Y-28.2207 F30.00
G01 X11.6275 Y-28.2136 F30.00
G01 X11.6232 Y-28.1995 F30.00
G01 X11.6191 Y-28.1892 F30.00
G01 X11.6143 Y-28.1793 F30.00
G01 X11.6087 Y-28.1698 F30.00
G01 X11.6025 Y-28.1606 F30.00
G01 X11.5956 Y-28.1520 F30.00
G01 X11.5854 Y-28.1414 F30.00
G01 X11.5772 Y-28.1340 F30.00
G01 X11.5684 Y-28.1274 F30.00
G01 X11.5591 Y-28.1213 F30.00
G01 X11.5461 Y-28.1144 F30.00
G01 X11.5360 Y-28.1101 F30.00
G01 X11.5255 Y-28.1065 F30.00
G01 X11.5113 Y-28.1029 F30.00
G01 X11.5004 Y-28.1011 F30.00
G01 X11.4894 Y-28.1002 F30.00
G01 X9.3420 Y-28.1000 F30.00
G01 X9.3310 Y-28.1004 F30.00
G01 X9.3164 Y-28.1022 F30.00
G01 X9.3020 Y-28.1054 F30.00
G01 X9.2880 Y-28.1101 F30.00
G01 X9.2746 Y-28.1160 F30.00
G01 X9.2618 Y-28.1233 F30.00
G01 X9.2497 Y-28.1317 F30.00
G01 X9.2386 Y-28.1414 F30.00
G01 X9.2309 Y-28.1493 F30.00
G01 X9.2215 Y-28.1606 F30.00
G01 X9.2153 Y-28.1698 F30.00
G01 X9.2080 Y-28.1826 F30.00
G01 X9.2021 Y-28.1960 F30.00
G01 X9.1974 Y-28.2100 F30.00
G01 X9.1942 Y-28.2244 F30.00
G01 X9.1924 Y-28.2390 F30.00
G01 X9.1920 Y-28.2500 F30.00
G00 Z2.0000
G00 X9.1920 Y-30.7900
G01 F45.00
G01 Z-0.0900
G01 F30.00
G01 X9.1920 Y-32.9337 F30.00
G01 X9.1931 Y-32.9484 F30.00
G01 X9.1956 Y-32.9629 F30.00
G01 X9.1996 Y-32.9771 F30.00
G01 X9.2034 Y-32.9874 F30.00
G01 X9.2097 Y-33.0007 F30.00
G01 X9.2173 Y-33.0133 F30.00
G01 X9.2260 Y-33.0252 F30.00
G01 X9.2359 Y-33.0361 F30.00
G01 X9.2468 Y-33.0460 F30.00
G01 X9.2587 Y-33.0547 F30.00
G01 X9.2713 Y-33.0623 F30.00
G01 X9.2846 Y-33.0686 F30.00
G01 X9.2985 Y-33.0735 F30.00
G01 X9.3127 Y-33.0771 F30.00
G01 X9.3236 Y-33.0789 F30.00
G01 X9.3383 Y-33.0800 F30.00
G01 X11.4820 Y-33.0800 F30.00
G01 X11.4930 Y-33.0796 F30.00
G01 X11.5004 Y-33.0789 F30.00
G01 X11.5113 Y-33.0771 F30.00
G01 X11.5220 Y-33.0746 F30.00
G01 X11.5325 Y-33.0712 F30.00
G01 X11.5428 Y-33.0671 F30.00
G01 X11.5527 Y-33.0623 F30.00
G01 X11.5622 Y-33.0567 F30.00
G01 X11.5714 Y-33.0505 F30.00
G01 X11.5772 Y-33.0460 F30.00
G01 X11.5854 Y-33.0386 F30.00
G01 X11.5931 Y-33.0307 F30.00
G01 X11.6003 Y-33.0223 F30.00
G01 X11.6046 Y-33.0164 F30.00
G01 X11.6107 Y-33.0071 F30.00
G01 X11.6160 Y-32.9974 F30.00
G01 X11.6206 Y-32.9874 F30.00
G01 X11.6232 Y-32.9805 F30.00
G01 X11.6266 Y-32.9700 F30.00
G01 X11.6291 Y-32.9593 F30.00
G01 X11.6313 Y-32.9447 F30.00
G01 X11.6320 Y-32.9300 F30.00
G01 X11.6320 Y-32.5103 F30.00
G01 X12.2127 Y-32.5102 F30.00
G01 X12.2727 Y-32.5071 F30.00
G01 X12.3286 Y-32.4990 F30.00
G01 X12.3430 Y-32.4961 F30.00
G01 X12.3978 Y-32.4823 F30.00
G01 X12.4510 Y-32.4634 F30.00
G01 X12.4646 Y-32.4578 F30.00
G01 X12.5155 Y-32.4335 F30.00
G01 X12.5640 Y-32.4046 F30.00
G01 X12.5763 Y-32.3964 F30.00
G01 X12.6215 Y-32.3627 F30.00
G01 X12.6688 Y-32.3198 F30.00
G01 X15.9538 Y-29.0348 F30.00
G01 X15.9918 Y-28.9931 F30.00
G01 X16.0012 Y-28.9817 F30.00
G01 X16.0347 Y-28.9363 F30.00
G01 X16.0657 Y-28.8848 F30.00
G01 X16.0708 Y-28.8749 F30.00
G01 X16.0948 Y-28.8238 F30.00
G01 X16.1139 Y-28.7707 F30.00
G01 X16.1182 Y-28.7567 F30.00
G01 X16.1318 Y-28.7019 F30.00
G01 X16.1402 Y-28.6460 F30.00
G01 X16.1417 Y-28.6314 F30.00
G01 X16.1443 Y-28.5750 F30.00
G01 X16.1443 Y-20.2700 F30.00
G01 X16.5640 Y-20.2700 F30.00
G01 X16.5714 Y-20.2698 F30.00
G01 X16.5824 Y-20.2689 F30.00
G01 X16.5969 Y-20.2664 F30.00
G01 X16.6075 Y-20.2635 F30.00
G01 X16.6180 Y-20.2599 F30.00
G01 X16.6281 Y-20.2556 F30.00
G01 X16.6379 Y-20.2505 F30.00
G01 X16.6473 Y-20.2447 F30.00
G01 X16.6563 Y-20.2383 F30.00
G01 X16.6647 Y-20.2311 F30.00
G01 X16.6726 Y-20.2234 F30.00
G01 X16.6800 Y-20.2152 F30.00
G01 X16.6866 Y-20.2064 F30.00
G01 X16.6927 Y-20.1971 F30.00
G01 X16.6963 Y-20.1907 F30.00
G01 X16.7011 Y-20.1808 F30.00
G01 X16.7052 Y-20.1705 F30.00
G01 X16.7086 Y-20.1600 F30.00
G01 X16.7111 Y-20.1493 F30.00
G01 X16.7133 Y-20.1347 F30.00
G01 X16.7140 Y-20.1200 F30.00
G01 X16.7140 Y-17.9763 F30.00
G01 X16.7136 Y-17.9690 F30.00
G01 X16.7124 Y-17.9580 F30.00
G01 X16.7104 Y-17.9471 F30.00
G01 X16.7086 Y-17.9400 F30.00
G01 X16.7052 Y-17.9295 F30.00
G01 X16.7011 Y-17.9192 F30.00
G01 X16.6963 Y-17.9093 F30.00
G01 X16.6927 Y-17.9029 F30.00
G01 X16.6887 Y-17.8967 F30.00
G01 X16.6823 Y-17.8877 F30.00
G01 X16.6751 Y-17.8793 F30.00
G01 X16.6674 Y-17.8714 F30.00
G01 X16.6620 Y-17.8664 F30.00
G01 X16.6534 Y-17.8595 F30.00
G01 X16.6473 Y-17.8553 F30.00
G01 X16.6379 Y-17.8495 F30.00
G01 X16.6281 Y-17.8444 F30.00
G01 X16.6214 Y-17.8414 F30.00
G01 X16.6111 Y-17.8376 F30.00
G01 X16.6004 Y-17.8345 F30.00
G01 X16.5896 Y-17.8322 F30.00
G01 X16.5824 Y-17.8311 F30.00
G01 X16.5714 Y-17.8302 F30.00
G01 X16.5640 Y-17.8300 F30.00
G01 X14.4166 Y-17.8302 F30.00
G01 X14.4020 Y-17.8316 F30.00
G01 X14.3911 Y-17.8336 F30.00
G01 X14.3805 Y-17.8365 F30.00
G01 X14.3666 Y-17.8414 F30.00
G01 X14.3533 Y-17.8477 F30.00
G01 X14.3438 Y-17.8533 F30.00
G01 X14.3317 Y-17.8617 F30.00
G01 X14.3233 Y-17.8689 F30.00
G01 X14.3154 Y-17.8766 F30.00
G01 X14.3057 Y-17.8877 F30.00
G01 X14.2993 Y-17.8967 F30.00
G01 X14.2935 Y-17.9061 F30.00
G01 X14.2869 Y-17.9192 F30.00
G01 X14.2828 Y-17.9295 F30.00
G01 X14.2794 Y-17.9400 F30.00
G01 X14.2762 Y-17.9544 F30.00
G01 X14.2747 Y-17.9653 F30.00
G01 X14.2740 Y-17.9800 F30.00
G01 X14.2740 Y-20.1200 F30.00
G01 X14.2742 Y-20.1274 F30.00
G01 X14.2751 Y-20.1384 F30.00
G01 X14.2762 Y-20.1456 F30.00
G01 X14.2785 Y-20.1564 F30.00
G01 X14.2816 Y-20.1671 F30.00
G01 X14.2854 Y-20.1774 F30.00
G01 X14.2900 Y-20.1874 F30.00
G01 X14.2953 Y-20.1971 F30.00
G01 X14.3014 Y-20.2064 F30.00
G01 X14.3057 Y-20.2123 F30.00
G01 X14.3129 Y-20.2207 F30.00
G01 X14.3206 Y-20.2286 F30.00
G01 X14.3288 Y-20.2360 F30.00
G01 X14.3376 Y-20.2426 F30.00
G01 X14.3469 Y-20.2487 F30.00
G01 X14.3566 Y-20.2540 F30.00
G01 X14.3666 Y-20.2586 F30.00
G01 X14.3769 Y-20.2624 F30.00
G01 X14.3876 Y-20.2655 F30.00
G01 X14.3947 Y-20.2671 F30.00
G01 X14.4093 Y-20.2693 F30.00
G01 X14.4240 Y-20.2700 F30.00
G01 X14.8437 Y-20.2700 F30.00
G01 X14.8437 Y-28.3057 F30.00
G01 X11.9397 Y-31.2097 F30.00
G01 X11.6320 Y-31.2097 F30.00
G01 X11.6320 Y-30.7900 F30.00
G01 X11.6313 Y-30.7753 F30.00
G01 X11.6304 Y-30.7680 F30.00
G01 X11.6284 Y-30.7571 F30.00
G01 X11.6255 Y-30.7465 F30.00
G01 X11.6219 Y-30.7360 F30.00
G01 X11.6176 Y-30.7259 F30.00
G01 X11.6125 Y-30.7161 F30.00
G01 X11.6067 Y-30.7067 F30.00
G01 X11.6003 Y-30.6977 F30.00
G01 X11.5931 Y-30.6893 F30.00
G01 X11.5854 Y-30.6814 F30.00
G01 X11.5743 Y-30.6717 F30.00
G01 X11.5653 Y-30.6653 F30.00
G01 X11.5559 Y-30.6595 F30.00
G01 X11.5461 Y-30.6544 F30.00
G01 X11.5360 Y-30.6501 F30.00
G01 X11.5255 Y-30.6465 F30.00
G01 X11.5149 Y-30.6436 F30.00
G01 X11.5040 Y-30.6416 F30.00
G01 X11.4930 Y-30.6404 F30.00
G01 X11.4820 Y-30.6400 F30.00
G01 X9.3420 Y-30.6400 F30.00
G01 X9.3310 Y-30.6404 F30.00
G01 X9.3164 Y-30.6422 F30.00
G01 X9.3020 Y-30.6454 F30.00
G01 X9.2880 Y-30.6501 F30.00
G01 X9.2746 Y-30.6560 F30.00
G01 X9.2618 Y-30.6633 F30.00
G01 X9.2497 Y-30.6717 F30.00
G01 X9.2386 Y-30.6814 F30.00
G01 X9.2309 Y-30.6893 F30.00
G01 X9.2215 Y-30.7006 F30.00
G01 X9.2153 Y-30.7098 F30.00
G01 X9.2080 Y-30.7226 F30.00
G01 X9.2021 Y-30.7360 F30.00
G01 X9.1974 Y-30.7500 F30.00
G01 X9.1942 Y-30.7644 F30.00
G01 X9.1924 Y-30.7790 F30.00
G01 X9.1920 Y-30.7900 F30.00
G00 Z2.0000
G00 X9.1920 Y-33.3300
G01 F45.00
G01 Z-0.0900
G01 F30.00
G01 X9.1920 Y-35.4737 F30.00
G01 X9.1931 Y-35.4884 F30.00
G01 X9.1956 Y-35.5029 F30.00
G01 X9.1996 Y-35.5171 F30.00
G01 X9.2049 Y-35.5308 F30.00
G01 X9.2115 Y-35.5439 F30.00
G01 X9.2194 Y-35.5564 F30.00
G01 X9.2284 Y-35.5680 F30.00
G01 X9.2386 Y-35.5786 F30.00
G01 X9.2497 Y-35.5883 F30.00
G01 X9.2618 Y-35.5967 F30.00
G01 X9.2746 Y-35.6040 F30.00
G01 X9.2846 Y-35.6086 F30.00
G01 X9.2985 Y-35.6135 F30.00
G01 X9.3127 Y-35.6171 F30.00
G01 X9.3236 Y-35.6189 F30.00
G01 X9.3383 Y-35.6200 F30.00
G01 X11.4820 Y-35.6200 F30.00
G01 X11.4967 Y-35.6193 F30.00
G01 X11.5113 Y-35.6171 F30.00
G01 X11.5184 Y-35.6155 F30.00
G01 X11.5291 Y-35.6124 F30.00
G01 X11.5428 Y-35.6071 F30.00
G01 X11.5527 Y-35.6023 F30.00
G01 X11.5622 Y-35.5967 F30.00
G01 X11.5684 Y-35.5926 F30.00
G01 X11.5772 Y-35.5860 F30.00
G01 X11.5854 Y-35.5786 F30.00
G01 X11.5906 Y-35.5734 F30.00
G01 X11.5956 Y-35.5680 F30.00
G01 X11.6025 Y-35.5594 F30.00
G01 X11.6087 Y-35.5502 F30.00
G01 X11.6125 Y-35.5439 F30.00
G01 X11.6176 Y-35.5341 F30.00
G01 X11.6206 Y-35.5274 F30.00
G01 X11.6232 Y-35.5205 F30.00
G01 X11.6266 Y-35.5100 F30.00
G01 X11.6284 Y-35.5029 F30.00
G01 X11.6304 Y-35.4920 F30.00
G01 X11.6316 Y-35.4810 F30.00
G01 X11.6320 Y-35.4700 F30.00
G01 X11.6320 Y-35.0503 F30.00
G01 X12.3360 Y-35.0503 F30.00
G01 X12.3924 Y-35.0477 F30.00
G01 X12.4034 Y-35.0467 F30.00
G01 X12.4629 Y-35.0378 F30.00
G01 X12.5177 Y-35.0242 F30.00
G01 X12.5317 Y-35.0199 F30.00
G01 X12.5848 Y-35.0008 F30.00
G01 X12.6425 Y-34.9735 F30.00
G01 X12.6910 Y-34.9446 F30.00
G01 X12.7033 Y-34.9364 F30.00
G01 X12.7427 Y-34.9072 F30.00
G01 X12.7513 Y-34.9003 F30.00
G01 X12.7958 Y-34.8598 F30.00
G01 X17.9858 Y-29.6698 F30.00
G01 X18.0287 Y-29.6225 F30.00
G01 X18.0624 Y-29.5773 F30.00
G01 X18.0706 Y-29.5650 F30.00
G01 X18.0995 Y-29.5165 F30.00
G01 X18.1238 Y-29.4656 F30.00
G01 X18.1294 Y-29.4520 F30.00
G01 X18.1471 Y-29.4023 F30.00
G01 X18.1502 Y-29.3917 F30.00
G01 X18.1621 Y-29.3440 F30.00
G01 X18.1650 Y-29.3296 F30.00
G01 X18.1731 Y-29.2737 F30.00
G01 X18.1763 Y-29.2100 F30.00
G01 X18.1763 Y-17.6276 F30.00
G01 X18.1731 Y-17.5639 F30.00
G01 X18.1638 Y-17.5007 F30.00
G01 X18.1483 Y-17.4388 F30.00
G01 X18.1294 Y-17.3856 F30.00
G01 X18.1238 Y-17.3720 F30.00
G01 X18.0995 Y-17.3211 F30.00
G01 X18.0706 Y-17.2726 F30.00
G01 X18.0624 Y-17.2603 F30.00
G01 X18.0287 Y-17.2151 F30.00
G01 X17.9909 Y-17.1731 F30.00
G01 X16.8682 Y-16.0502 F30.00
G01 X16.8209 Y-16.0073 F30.00
G01 X16.7757 Y-15.9736 F30.00
G01 X16.7634 Y-15.9654 F30.00
G01 X16.7213 Y-15.9402 F30.00
G01 X16.7083 Y-15.9332 F30.00
G01 X16.6572 Y-15.9092 F30.00
G01 X16.6041 Y-15.8901 F30.00
G01 X16.5901 Y-15.8858 F30.00
G01 X16.5353 Y-15.8722 F30.00
G01 X16.4794 Y-15.8638 F30.00
G01 X16.4685 Y-15.8626 F30.00
G01 X16.4084 Y-15.8597 F30.00
G01 X15.4440 Y-15.8597 F30.00
G01 X15.4440 Y-15.4400 F30.00
G01 X15.4436 Y-15.4290 F30.00
G01 X15.4418 Y-15.4144 F30.00
G01 X15.4395 Y-15.4036 F30.00
G01 X15.4364 Y-15.3929 F30.00
G01 X15.4326 Y-15.3826 F30.00
G01 X15.4296 Y-15.3759 F30.00
G01 X15.4245 Y-15.3661 F30.00
G01 X15.4187 Y-15.3567 F30.00
G01 X15.4123 Y-15.3477 F30.00
G01 X15.4076 Y-15.3420 F30.00
G01 X15.4001 Y-15.3339 F30.00
G01 X15.3920 Y-15.3264 F30.00
G01 X15.3863 Y-15.3217 F30.00
G01 X15.3773 Y-15.3153 F30.00
G01 X15.3679 Y-15.3095 F30.00
G01 X15.3581 Y-15.3044 F30.00
G01 X15.3480 Y-15.3001 F30.00
G01 X15.3411 Y-15.2976 F30.00
G01 X15.3304 Y-15.2945 F30.00
G01 X15.3196 Y-15.2922 F30.00
G01 X15.3050 Y-15.2904 F30.00
G01 X15.2940 Y-15.2900 F30.00
G01 X13.1503 Y-15.2900 F30.00
G01 X13.1356 Y-15.2911 F30.00
G01 X13.1211 Y-15.2936 F30.00
G01 X13.1069 Y-15.2976 F30.00
G01 X13.0932 Y-15.3029 F30.00
G01 X13.0833 Y-15.3077 F30.00
G01 X13.0707 Y-15.3153 F30.00
G01 X13.0588 Y-15.3240 F30.00
G01 X13.0479 Y-15.3339 F30.00
G01 X13.0380 Y-15.3448 F30.00
G01 X13.0293 Y-15.3567 F30.00
G01 X13.0217 Y-15.3693 F30.00
G01 X13.0154 Y-15.3826 F30.00
G01 X13.0105 Y-15.3965 F30.00
G01 X13.0069 Y-15.4107 F30.00
G01 X13.0047 Y-15.4253 F30.00
G01 X13.0040 Y-15.4363 F30.00
G01 X13.0040 Y-17.5800 F30.00
G01 X13.0042 Y-17.5874 F30.00
G01 X13.0051 Y-17.5984 F30.00
G01 X13.0076 Y-17.6129 F30.00
G01 X13.0105 Y-17.6235 F30.00
G01 X13.0141 Y-17.6340 F30.00
G01 X13.0200 Y-17.6474 F30.00
G01 X13.0253 Y-17.6571 F30.00
G01 X13.0335 Y-17.6694 F30.00
G01 X13.0429 Y-17.6807 F30.00
G01 X13.0506 Y-17.6886 F30.00
G01 X13.0617 Y-17.6983 F30.00
G01 X13.0707 Y-17.7047 F30.00
G01 X13.0801 Y-17.7105 F30.00
G01 X13.0932 Y-17.7171 F30.00
G01 X13.1035 Y-17.7212 F30.00
G01 X13.1176 Y-17.7255 F30.00
G01 X13.1320 Y-17.7284 F30.00
G01 X13.1466 Y-17.7298 F30.00
G01 X15.2940 Y-17.7300 F30.00
G01 X15.3050 Y-17.7296 F30.00
G01 X15.3160 Y-17.7284 F30.00
G01 X15.3269 Y-17.7264 F30.00
G01 X15.3375 Y-17.7235 F30.00
G01 X15.3480 Y-17.7199 F30.00
G01 X15.3581 Y-17.7156 F30.00
G01 X15.3679 Y-17.7105 F30.00
G01 X15.3773 Y-17.7047 F30.00
G01 X15.3863 Y-17.6983 F30.00
G01 X15.3947 Y-17.6911 F30.00
G01 X15.4026 Y-17.6834 F30.00
G01 X15.4100 Y-17.6752 F30.00
G01 X15.4166 Y-17.6664 F30.00
G01 X15.4227 Y-17.6571 F30.00
G01 X15.4280 Y-17.6474 F30.00
G01 X15.4326 Y-17.6374 F30.00
G01 X15.4375 Y-17.6235 F30.00
G01 X15.4404 Y-17.6129 F30.00
G01 X15.4429 Y-17.5984 F30.00
G01 X15.4438 Y-17.5874 F30.00
G01 X15.4440 Y-17.5800 F30.00
G01 X15.4440 Y-17.1603 F30.00
G01 X16.1391 Y-17.1603 F30.00
G01 X16.8757 Y-17.8969 F30.00
G01 X16.8757 Y-28.9407 F30.00
G01 X12.0667 Y-33.7497 F30.00
G01 X11.6320 Y-33.7497 F30.00
G01 X11.6320 Y-33.3300 F30.00
G01 X11.6316 Y-33.3190 F30.00
G01 X11.6309 Y-33.3116 F30.00
G01 X11.6284 Y-33.2971 F30.00
G01 X11.6255 Y-33.2865 F30.00
G01 X11.6219 Y-33.2760 F30.00
G01 X11.6176 Y-33.2659 F30.00
G01 X11.6125 Y-33.2561 F30.00
G01 X11.6067 Y-33.2467 F30.00
G01 X11.6003 Y-33.2377 F30.00
G01 X11.5931 Y-33.2293 F30.00
G01 X11.5854 Y-33.2214 F30.00
G01 X11.5772 Y-33.2140 F30.00
G01 X11.5684 Y-33.2074 F30.00
G01 X11.5591 Y-33.2013 F30.00
G01 X11.5461 Y-33.1944 F30.00
G01 X11.5360 Y-33.1901 F30.00
G01 X11.5255 Y-33.1865 F30.00
G01 X11.5149 Y-33.1836 F30.00
G01 X11.5040 Y-33.1816 F30.00
G01 X11.4930 Y-33.1804 F30.00
G01 X11.4820 Y-33.1800 F30.00
G01 X9.3420 Y-33.1800 F30.00
G01 X9.3310 Y-33.1804 F30.00
G01 X9.3164 Y-33.1822 F30.00
G01 X9.3020 Y-33.1854 F30.00
G01 X9.2880 Y-33.1901 F30.00
G01 X9.2779 Y-33.1944 F30.00
G01 X9.2649 Y-33.2013 F30.00
G01 X9.2526 Y-33.2095 F30.00
G01 X9.2413 Y-33.2189 F30.00
G01 X9.2309 Y-33.2293 F30.00
G01 X9.2237 Y-33.2377 F30.00
G01 X9.2153 Y-33.2498 F30.00
G01 X9.2080 Y-33.2626 F30.00
G01 X9.2021 Y-33.2760 F30.00
G01 X9.1974 Y-33.2900 F30.00
G01 X9.1942 Y-33.3044 F30.00
G01 X9.1924 Y-33.3190 F30.00
G01 X9.1920 Y-33.3300 F30.00
G00 Z2.0000
G00 X5.1919 Y-34.1744
G01 F45.00
G01 Z-0.0900
G01 F30.00
G01 X5.1949 Y-34.2307 F30.00
G01 X5.2042 Y-34.2939 F30.00
G01 X5.2197 Y-34.3558 F30.00
G01 X5.2412 Y-34.4158 F30.00
G01 X5.2685 Y-34.4735 F30.00
G01 X5.3013 Y-34.5283 F30.00
G01 X5.3393 Y-34.5795 F30.00
G01 X5.3771 Y-34.6215 F30.00
G01 X8.1552 Y-37.3998 F30.00
G01 X8.1997 Y-37.4403 F30.00
G01 X8.2083 Y-37.4472 F30.00
G01 X8.2477 Y-37.4764 F30.00
G01 X8.2600 Y-37.4846 F30.00
G01 X8.3085 Y-37.5135 F30.00
G01 X8.3594 Y-37.5378 F30.00
G01 X8.3730 Y-37.5434 F30.00
G01 X8.4262 Y-37.5623 F30.00
G01 X8.4810 Y-37.5761 F30.00
G01 X8.4954 Y-37.5790 F30.00
G01 X8.5513 Y-37.5871 F30.00
G01 X8.6113 Y-37.5902 F30.00
G01 X9.1920 Y-37.5903 F30.00
G01 X9.1920 Y-38.0100 F30.00
G01 X9.1922 Y-38.0174 F30.00
G01 X9.1931 Y-38.0284 F30.00
G01 X9.1956 Y-38.0429 F30.00
G01 X9.1974 Y-38.0500 F30.00
G01 X9.2008 Y-38.0605 F30.00
G01 X9.2034 Y-38.0674 F30.00
G01 X9.2080 Y-38.0774 F30.00
G01 X9.2153 Y-38.0902 F30.00
G01 X9.2215 Y-38.0994 F30.00
G01 X9.2260 Y-38.1052 F30.00
G01 X9.2334 Y-38.1134 F30.00
G01 X9.2386 Y-38.1186 F30.00
G01 X9.2468 Y-38.1260 F30.00
G01 X9.2526 Y-38.1305 F30.00
G01 X9.2649 Y-38.1387 F30.00
G01 X9.2746 Y-38.1440 F30.00
G01 X9.2812 Y-38.1471 F30.00
G01 X9.2915 Y-38.1512 F30.00
G01 X9.3020 Y-38.1546 F30.00
G01 X9.3127 Y-38.1571 F30.00
G01 X9.3200 Y-38.1584 F30.00
G01 X9.3310 Y-38.1596 F30.00
G01 X9.3420 Y-38.1600 F30.00
G01 X11.4857 Y-38.1600 F30.00
G01 X11.4967 Y-38.1593 F30.00
G01 X11.5040 Y-38.1584 F30.00
G01 X11.5113 Y-38.1571 F30.00
G01 X11.5220 Y-38.1546 F30.00
G01 X11.5325 Y-38.1512 F30.00
G01 X11.5394 Y-38.1486 F30.00
G01 X11.5494 Y-38.1440 F30.00
G01 X11.5559 Y-38.1405 F30.00
G01 X11.5653 Y-38.1347 F30.00
G01 X11.5743 Y-38.1283 F30.00
G01 X11.5827 Y-38.1211 F30.00
G01 X11.5881 Y-38.1161 F30.00
G01 X11.5931 Y-38.1107 F30.00
G01 X11.6003 Y-38.1023 F30.00
G01 X11.6067 Y-38.0933 F30.00
G01 X11.6107 Y-38.0871 F30.00
G01 X11.6143 Y-38.0807 F30.00
G01 X11.6191 Y-38.0708 F30.00
G01 X11.6232 Y-38.0605 F30.00
G01 X11.6266 Y-38.0500 F30.00
G01 X11.6291 Y-38.0393 F30.00
G01 X11.6309 Y-38.0284 F30.00
G01 X11.6318 Y-38.0174 F30.00
G01 X11.6320 Y-38.0100 F30.00
G01 X11.6320 Y-35.8663 F30.00
G01 X11.6313 Y-35.8553 F30.00
G01 X11.6304 Y-35.8480 F30.00
G01 X11.6275 Y-35.8336 F30.00
G01 X11.6232 Y-35.8195 F30.00
G01 X11.6206 Y-35.8126 F30.00
G01 X11.6160 Y-35.8026 F30.00
G01 X11.6087 Y-35.7898 F30.00
G01 X11.6025 Y-35.7806 F30.00
G01 X11.5980 Y-35.7748 F30.00
G01 X11.5881 Y-35.7639 F30.00
G01 X11.5772 Y-35.7540 F30.00
G01 X11.5684 Y-35.7474 F30.00
G01 X11.5559 Y-35.7395 F30.00
G01 X11.5461 Y-35.7344 F30.00
G01 X11.5360 Y-35.7301 F30.00
G01 X11.5255 Y-35.7265 F30.00
G01 X11.5113 Y-35.7229 F30.00
G01 X11.5004 Y-35.7211 F30.00
G01 X11.4857 Y-35.7200 F30.00
G01 X9.3420 Y-35.7200 F30.00
G01 X9.3273 Y-35.7207 F30.00
G01 X9.3127 Y-35.7229 F30.00
G01 X9.3056 Y-35.7245 F30.00
G01 X9.2949 Y-35.7276 F30.00
G01 X9.2846 Y-35.7314 F30.00
G01 X9.2746 Y-35.7360 F30.00
G01 X9.2649 Y-35.7413 F30.00
G01 X9.2556 Y-35.7474 F30.00
G01 X9.2468 Y-35.7540 F30.00
G01 X9.2386 Y-35.7614 F30.00
G01 X9.2309 Y-35.7693 F30.00
G01 X9.2237 Y-35.7777 F30.00
G01 X9.2173 Y-35.7867 F30.00
G01 X9.2115 Y-35.7961 F30.00
G01 X9.2064 Y-35.8059 F30.00
G01 X9.2021 Y-35.8160 F30.00
G01 X9.1985 Y-35.8265 F30.00
G01 X9.1956 Y-35.8371 F30.00
G01 X9.1942 Y-35.8444 F30.00
G01 X9.1927 Y-35.8553 F30.00
G01 X9.1920 Y-35.8700 F30.00
G01 X9.1920 Y-36.2897 F30.00
G01 X8.8843 Y-36.2897 F30.00
G01 X6.4923 Y-33.8977 F30.00
G01 X6.4923 Y-17.7300 F30.00
G01 X7.6740 Y-17.7300 F30.00
G01 X7.6850 Y-17.7296 F30.00
G01 X7.6924 Y-17.7289 F30.00
G01 X7.7033 Y-17.7271 F30.00
G01 X7.7104 Y-17.7255 F30.00
G01 X7.7211 Y-17.7224 F30.00
G01 X7.7314 Y-17.7186 F30.00
G01 X7.7414 Y-17.7140 F30.00
G01 X7.7479 Y-17.7105 F30.00
G01 X7.7573 Y-17.7047 F30.00
G01 X7.7634 Y-17.7005 F30.00
G01 X7.7720 Y-17.6936 F30.00
G01 X7.7801 Y-17.6861 F30.00
G01 X7.7876 Y-17.6780 F30.00
G01 X7.7923 Y-17.6723 F30.00
G01 X7.7987 Y-17.6633 F30.00
G01 X7.8027 Y-17.6571 F30.00
G01 X7.8080 Y-17.6474 F30.00
G01 X7.8111 Y-17.6408 F30.00
G01 X7.8152 Y-17.6305 F30.00
G01 X7.8195 Y-17.6164 F30.00
G01 X7.8218 Y-17.6056 F30.00
G01 X7.8229 Y-17.5984 F30.00
G01 X7.8238 Y-17.5874 F30.00
G01 X7.8240 Y-17.5800 F30.00
G01 X7.8238 Y-15.4326 F30.00
G01 X7.8229 Y-15.4216 F30.00
G01 X7.8204 Y-15.4071 F30.00
G01 X7.8164 Y-15.3929 F30.00
G01 X7.8126 Y-15.3826 F30.00
G01 X7.8063 Y-15.3693 F30.00
G01 X7.8007 Y-15.3598 F30.00
G01 X7.7923 Y-15.3477 F30.00
G01 X7.7851 Y-15.3393 F30.00
G01 X7.7774 Y-15.3314 F30.00
G01 X7.7663 Y-15.3217 F30.00
G01 X7.7542 Y-15.3133 F30.00
G01 X7.7414 Y-15.3060 F30.00
G01 X7.7314 Y-15.3014 F30.00
G01 X7.7175 Y-15.2965 F30.00
G01 X7.7033 Y-15.2929 F30.00
G01 X7.6924 Y-15.2911 F30.00
G01 X7.6814 Y-15.2902 F30.00
G01 X7.6740 Y-15.2900 F30.00
G01 X5.5266 Y-15.2902 F30.00
G01 X5.5156 Y-15.2911 F30.00
G01 X5.5011 Y-15.2936 F30.00
G01 X5.4869 Y-15.2976 F30.00
G01 X5.4766 Y-15.3014 F30.00
G01 X5.4666 Y-15.3060 F30.00
G01 X5.4538 Y-15.3133 F30.00
G01 X5.4446 Y-15.3195 F30.00
G01 X5.4333 Y-15.3289 F30.00
G01 X5.4229 Y-15.3393 F30.00
G01 X5.4157 Y-15.3477 F30.00
G01 X5.4073 Y-15.3598 F30.00
G01 X5.4000 Y-15.3726 F30.00
G01 X5.3941 Y-15.3860 F30.00
G01 X5.3905 Y-15.3965 F30.00
G01 X5.3876 Y-15.4071 F30.00
G01 X5.3851 Y-15.4216 F30.00
G01 X5.3844 Y-15.4290 F30.00
G01 X5.3840 Y-15.4400 F30.00
G01 X5.3840 Y-16.8104 F30.00
G01 X5.3771 Y-16.8175 F30.00
G01 X5.3393 Y-16.8595 F30.00
G01 X5.3013 Y-16.9107 F30.00
G01 X5.2685 Y-16.9655 F30.00
G01 X5.2412 Y-17.0232 F30.00
G01 X5.2197 Y-17.0832 F30.00
G01 X5.2042 Y-17.1451 F30.00
G01 X5.1949 Y-17.2083 F30.00
G01 X5.1917 Y-17.2720 F30.00
G01 X5.1919 Y-34.1744 F30.00
G00 Z2.0000
G00 X3.6679 Y-35.3134
G01 F45.00
G01 Z-0.0900
G01 F30.00
G01 X3.6709 Y-35.3697 F30.00
G01 X3.6802 Y-35.4329 F30.00
G01 X3.6957 Y-35.4948 F30.00
G01 X3.7172 Y-35.5548 F30.00
G01 X3.7445 Y-35.6125 F30.00
G01 X3.7773 Y-35.6673 F30.00
G01 X3.8153 Y-35.7185 F30.00
G01 X3.8556 Y-35.7632 F30.00
G01 X8.0322 Y-39.9398 F30.00
G01 X8.0795 Y-39.9827 F30.00
G01 X8.1307 Y-40.0207 F30.00
G01 X8.1855 Y-40.0535 F30.00
G01 X8.2364 Y-40.0778 F30.00
G01 X8.2500 Y-40.0834 F30.00
G01 X8.3032 Y-40.1023 F30.00
G01 X8.3580 Y-40.1161 F30.00
G01 X8.3724 Y-40.1190 F30.00
G01 X8.4283 Y-40.1271 F30.00
G01 X8.4920 Y-40.1303 F30.00
G01 X9.1920 Y-40.1303 F30.00
G01 X9.1920 Y-40.5500 F30.00
G01 X9.1927 Y-40.5647 F30.00
G01 X9.1942 Y-40.5756 F30.00
G01 X9.1956 Y-40.5829 F30.00
G01 X9.1985 Y-40.5935 F30.00
G01 X9.2021 Y-40.6040 F30.00
G01 X9.2064 Y-40.6141 F30.00
G01 X9.2115 Y-40.6239 F30.00
G01 X9.2173 Y-40.6333 F30.00
G01 X9.2237 Y-40.6423 F30.00
G01 X9.2309 Y-40.6507 F30.00
G01 X9.2386 Y-40.6586 F30.00
G01 X9.2468 Y-40.6660 F30.00
G01 X9.2556 Y-40.6726 F30.00
G01 X9.2649 Y-40.6787 F30.00
G01 X9.2746 Y-40.6840 F30.00
G01 X9.2846 Y-40.6886 F30.00
G01 X9.2949 Y-40.6924 F30.00
G01 X9.3056 Y-40.6955 F30.00
G01 X9.3164 Y-40.6978 F30.00
G01 X9.3310 Y-40.6996 F30.00
G01 X9.3420 Y-40.7000 F30.00
G01 X11.4857 Y-40.7000 F30.00
G01 X11.4967 Y-40.6993 F30.00
G01 X11.5040 Y-40.6984 F30.00
G01 X11.5113 Y-40.6971 F30.00
G01 X11.5220 Y-40.6946 F30.00
G01 X11.5325 Y-40.6912 F30.00
G01 X11.5394 Y-40.6886 F30.00
G01 X11.5494 Y-40.6840 F30.00
G01 X11.5559 Y-40.6805 F30.00
G01 X11.5653 Y-40.6747 F30.00
G01 X11.5714 Y-40.6705 F30.00
G01 X11.5827 Y-40.6611 F30.00
G01 X11.5906 Y-40.6534 F30.00
G01 X11.5956 Y-40.6480 F30.00
G01 X11.6003 Y-40.6423 F30.00
G01 X11.6067 Y-40.6333 F30.00
G01 X11.6125 Y-40.6239 F30.00
G01 X11.6176 Y-40.6141 F30.00
G01 X11.6219 Y-40.6040 F30.00
G01 X11.6255 Y-40.5935 F30.00
G01 X11.6284 Y-40.5829 F30.00
G01 X11.6304 Y-40.5720 F30.00
G01 X11.6316 Y-40.5610 F30.00
G01 X11.6320 Y-40.5500 F30.00
G01 X11.6320 Y-38.4100 F30.00
G01 X11.6313 Y-38.3953 F30.00
G01 X11.6304 Y-38.3880 F30.00
G01 X11.6284 Y-38.3771 F30.00
G01 X11.6244 Y-38.3629 F30.00
G01 X11.6191 Y-38.3492 F30.00
G01 X11.6125 Y-38.3361 F30.00
G01 X11.6087 Y-38.3298 F30.00
G01 X11.6025 Y-38.3206 F30.00
G01 X11.5956 Y-38.3120 F30.00
G01 X11.5906 Y-38.3066 F30.00
G01 X11.5800 Y-38.2964 F30.00
G01 X11.5714 Y-38.2895 F30.00
G01 X11.5591 Y-38.2813 F30.00
G01 X11.5461 Y-38.2744 F30.00
G01 X11.5360 Y-38.2701 F30.00
G01 X11.5255 Y-38.2665 F30.00
G01 X11.5113 Y-38.2629 F30.00
G01 X11.5004 Y-38.2611 F30.00
G01 X11.4857 Y-38.2600 F30.00
G01 X9.3420 Y-38.2600 F30.00
G01 X9.3273 Y-38.2607 F30.00
G01 X9.3127 Y-38.2629 F30.00
G01 X9.3056 Y-38.2645 F30.00
G01 X9.2949 Y-38.2676 F30.00
G01 X9.2846 Y-38.2714 F30.00
G01 X9.2746 Y-38.2760 F30.00
G01 X9.2649 Y-38.2813 F30.00
G01 X9.2556 Y-38.2874 F30.00
G01 X9.2468 Y-38.2940 F30.00
G01 X9.2386 Y-38.3014 F30.00
G01 X9.2309 Y-38.3093 F30.00
G01 X9.2237 Y-38.3177 F30.00
G01 X9.2173 Y-38.3267 F30.00
G01 X9.2115 Y-38.3361 F30.00
G01 X9.2064 Y-38.3459 F30.00
G01 X9.2021 Y-38.3560 F30.00
G01 X9.1985 Y-38.3665 F30.00
G01 X9.1956 Y-38.3771 F30.00
G01 X9.1931 Y-38.3916 F30.00
G01 X9.1922 Y-38.4026 F30.00
G01 X9.1920 Y-38.4100 F30.00
G01 X9.1920 Y-38.8297 F30.00
G01 X8.7613 Y-38.8297 F30.00
G01 X4.9683 Y-35.0367 F30.00
G01 X4.9683 Y-15.5093 F30.00
G01 X5.6033 Y-14.8743 F30.00
G01 X8.2905 Y-14.8743 F30.00
G01 X8.4937 Y-15.0775 F30.00
G01 X8.4937 Y-15.2900 F30.00
G01 X8.0740 Y-15.2900 F30.00
G01 X8.0630 Y-15.2904 F30.00
G01 X8.0556 Y-15.2911 F30.00
G01 X8.0411 Y-15.2936 F30.00
G01 X8.0305 Y-15.2965 F30.00
G01 X8.0200 Y-15.3001 F30.00
G01 X8.0099 Y-15.3044 F30.00
G01 X8.0001 Y-15.3095 F30.00
G01 X7.9907 Y-15.3153 F30.00
G01 X7.9817 Y-15.3217 F30.00
G01 X7.9706 Y-15.3314 F30.00
G01 X7.9629 Y-15.3393 F30.00
G01 X7.9557 Y-15.3477 F30.00
G01 X7.9493 Y-15.3567 F30.00
G01 X7.9435 Y-15.3661 F30.00
G01 X7.9384 Y-15.3759 F30.00
G01 X7.9341 Y-15.3860 F30.00
G01 X7.9305 Y-15.3965 F30.00
G01 X7.9276 Y-15.4071 F30.00
G01 X7.9251 Y-15.4216 F30.00
G01 X7.9244 Y-15.4290 F30.00
G01 X7.9240 Y-15.4400 F30.00
G01 X7.9240 Y-17.5800 F30.00
G01 X7.9247 Y-17.5947 F30.00
G01 X7.9262 Y-17.6056 F30.00
G01 X7.9285 Y-17.6164 F30.00
G01 X7.9316 Y-17.6271 F30.00
G01 X7.9354 Y-17.6374 F30.00
G01 X7.9400 Y-17.6474 F30.00
G01 X7.9453 Y-17.6571 F30.00
G01 X7.9514 Y-17.6664 F30.00
G01 X7.9604 Y-17.6780 F30.00
G01 X7.9654 Y-17.6834 F30.00
G01 X7.9733 Y-17.6911 F30.00
G01 X7.9817 Y-17.6983 F30.00
G01 X7.9876 Y-17.7026 F30.00
G01 X7.9969 Y-17.7087 F30.00
G01 X8.0033 Y-17.7123 F30.00
G01 X8.0132 Y-17.7171 F30.00
G01 X8.0200 Y-17.7199 F30.00
G01 X8.0305 Y-17.7235 F30.00
G01 X8.0376 Y-17.7255 F30.00
G01 X8.0484 Y-17.7278 F30.00
G01 X8.0556 Y-17.7289 F30.00
G01 X8.0703 Y-17.7300 F30.00
G01 X10.2140 Y-17.7300 F30.00
G01 X10.2250 Y-17.7296 F30.00
G01 X10.2324 Y-17.7289 F30.00
G01 X10.2396 Y-17.7278 F30.00
G01 X10.2504 Y-17.7255 F30.00
G01 X10.2645 Y-17.7212 F30.00
G01 X10.2748 Y-17.7171 F30.00
G01 X10.2814 Y-17.7140 F30.00
G01 X10.2879 Y-17.7105 F30.00
G01 X10.2973 Y-17.7047 F30.00
G01 X10.3063 Y-17.6983 F30.00
G01 X10.3147 Y-17.6911 F30.00
G01 X10.3201 Y-17.6861 F30.00
G01 X10.3276 Y-17.6780 F30.00
G01 X10.3345 Y-17.6694 F30.00
G01 X10.3407 Y-17.6602 F30.00
G01 X10.3445 Y-17.6539 F30.00
G01 X10.3496 Y-17.6441 F30.00
G01 X10.3539 Y-17.6340 F30.00
G01 X10.3575 Y-17.6235 F30.00
G01 X10.3604 Y-17.6129 F30.00
G01 X10.3618 Y-17.6056 F30.00
G01 X10.3633 Y-17.5947 F30.00
G01 X10.3640 Y-17.5837 F30.00
G01 X10.3640 Y-15.4400 F30.00
G01 X10.3636 Y-15.4290 F30.00
G01 X10.3618 Y-15.4144 F30.00
G01 X10.3586 Y-15.4000 F30.00
G01 X10.3539 Y-15.3860 F30.00
G01 X10.3511 Y-15.3792 F30.00
G01 X10.3463 Y-15.3693 F30.00
G01 X10.3427 Y-15.3629 F30.00
G01 X10.3366 Y-15.3536 F30.00
G01 X10.3300 Y-15.3448 F30.00
G01 X10.3251 Y-15.3393 F30.00
G01 X10.3174 Y-15.3314 F30.00
G01 X10.3092 Y-15.3240 F30.00
G01 X10.3004 Y-15.3174 F30.00
G01 X10.2911 Y-15.3113 F30.00
G01 X10.2814 Y-15.3060 F30.00
G01 X10.2748 Y-15.3029 F30.00
G01 X10.2645 Y-15.2988 F30.00
G01 X10.2575 Y-15.2965 F30.00
G01 X10.2469 Y-15.2936 F30.00
G01 X10.2396 Y-15.2922 F30.00
G01 X10.2287 Y-15.2907 F30.00
G01 X10.2140 Y-15.2900 F30.00
G01 X9.7943 Y-15.2900 F30.00
G01 X9.7943 Y-14.8082 F30.00
G01 X9.7917 Y-14.7518 F30.00
G01 X9.7907 Y-14.7408 F30.00
G01 X9.7830 Y-14.6886 F30.00
G01 X9.7801 Y-14.6742 F30.00
G01 X9.7663 Y-14.6194 F30.00
G01 X9.7474 Y-14.5662 F30.00
G01 X9.7418 Y-14.5526 F30.00
G01 X9.7175 Y-14.5017 F30.00
G01 X9.6867 Y-14.4500 F30.00
G01 X9.6804 Y-14.4409 F30.00
G01 X9.6467 Y-14.3957 F30.00
G01 X9.6038 Y-14.3484 F30.00
G01 X9.0196 Y-13.7642 F30.00
G01 X8.9751 Y-13.7237 F30.00
G01 X8.9665 Y-13.7168 F30.00
G01 X8.9211 Y-13.6833 F30.00
G01 X8.8727 Y-13.6542 F30.00
G01 X8.8597 Y-13.6472 F30.00
G01 X8.8086 Y-13.6232 F30.00
G01 X8.7555 Y-13.6041 F30.00
G01 X8.7415 Y-13.5998 F30.00
G01 X8.6903 Y-13.5870 F30.00
G01 X8.6794 Y-13.5850 F30.00
G01 X8.6235 Y-13.5769 F30.00
G01 X8.5598 Y-13.5737 F30.00
G01 X5.3340 Y-13.5737 F30.00
G01 X5.2776 Y-13.5763 F30.00
G01 X5.2630 Y-13.5778 F30.00
G01 X5.2071 Y-13.5862 F30.00
G01 X5.1452 Y-13.6017 F30.00
G01 X5.0852 Y-13.6232 F30.00
G01 X5.0341 Y-13.6472 F30.00
G01 X5.0211 Y-13.6542 F30.00
G01 X4.9727 Y-13.6833 F30.00
G01 X4.9273 Y-13.7168 F30.00
G01 X4.9159 Y-13.7262 F30.00
G01 X4.8795 Y-13.7591 F30.00
G01 X3.8556 Y-14.7828 F30.00
G01 X3.8153 Y-14.8275 F30.00
G01 X3.7816 Y-14.8727 F30.00
G01 X3.7734 Y-14.8850 F30.00
G01 X3.7445 Y-14.9335 F30.00
G01 X3.7202 Y-14.9844 F30.00
G01 X3.7146 Y-14.9980 F30.00
G01 X3.6957 Y-15.0512 F30.00
G01 X3.6810 Y-15.1095 F30.00
G01 X3.6790 Y-15.1204 F30.00
G01 X3.6709 Y-15.1763 F30.00
G01 X3.6677 Y-15.2400 F30.00
G01 X3.6679 Y-35.3134 F30.00
G00 Z2.0000
G00 X2.2089 Y-36.5444
G01 F45.00
G01 Z-0.0900
G01 F30.00
G01 X2.2119 Y-36.6007 F30.00
G01 X2.2212 Y-36.6639 F30.00
G01 X2.2367 Y-36.7258 F30.00
G01 X2.2582 Y-36.7858 F30.00
G01 X2.2855 Y-36.8435 F30.00
G01 X2.3183 Y-36.8983 F30.00
G01 X2.3563 Y-36.9495 F30.00
G01 X2.3966 Y-36.9942 F30.00
G01 X7.8822 Y-42.4798 F30.00
G01 X7.9295 Y-42.5227 F30.00
G01 X7.9777 Y-42.5586 F30.00
G01 X7.9870 Y-42.5646 F30.00
G01 X8.0355 Y-42.5935 F30.00
G01 X8.0864 Y-42.6178 F30.00
G01 X8.1000 Y-42.6234 F30.00
G01 X8.1532 Y-42.6423 F30.00
G01 X8.2080 Y-42.6561 F30.00
G01 X8.2224 Y-42.6590 F30.00
G01 X8.2783 Y-42.6671 F30.00
G01 X8.3420 Y-42.6703 F30.00
G01 X9.1920 Y-42.6703 F30.00
G01 X9.1920 Y-43.0900 F30.00
G01 X9.1927 Y-43.1047 F30.00
G01 X9.1942 Y-43.1156 F30.00
G01 X9.1956 Y-43.1229 F30.00
G01 X9.1985 Y-43.1335 F30.00
G01 X9.2021 Y-43.1440 F30.00
G01 X9.2064 Y-43.1541 F30.00
G01 X9.2115 Y-43.1639 F30.00
G01 X9.2173 Y-43.1733 F30.00
G01 X9.2237 Y-43.1823 F30.00
G01 X9.2309 Y-43.1907 F30.00
G01 X9.2386 Y-43.1986 F30.00
G01 X9.2468 Y-43.2060 F30.00
G01 X9.2556 Y-43.2126 F30.00
G01 X9.2649 Y-43.2187 F30.00
G01 X9.2746 Y-43.2240 F30.00
G01 X9.2846 Y-43.2286 F30.00
G01 X9.2949 Y-43.2324 F30.00
G01 X9.3056 Y-43.2355 F30.00
G01 X9.3164 Y-43.2378 F30.00
G01 X9.3310 Y-43.2396 F30.00
G01 X9.3420 Y-43.2400 F30.00
G01 X11.4857 Y-43.2400 F30.00
G01 X11.5004 Y-43.2389 F30.00
G01 X11.5113 Y-43.2371 F30.00
G01 X11.5184 Y-43.2355 F30.00
G01 X11.5291 Y-43.2324 F30.00
G01 X11.5360 Y-43.2299 F30.00
G01 X11.5428 Y-43.2271 F30.00
G01 X11.5527 Y-43.2223 F30.00
G01 X11.5591 Y-43.2187 F30.00
G01 X11.5684 Y-43.2126 F30.00
G01 X11.5772 Y-43.2060 F30.00
G01 X11.5827 Y-43.2011 F30.00
G01 X11.5931 Y-43.1907 F30.00
G01 X11.6003 Y-43.1823 F30.00
G01 X11.6046 Y-43.1764 F30.00
G01 X11.6107 Y-43.1671 F30.00
G01 X11.6160 Y-43.1574 F30.00
G01 X11.6206 Y-43.1474 F30.00
G01 X11.6244 Y-43.1371 F30.00
G01 X11.6275 Y-43.1264 F30.00
G01 X11.6298 Y-43.1156 F30.00
G01 X11.6313 Y-43.1047 F30.00
G01 X11.6320 Y-43.0937 F30.00
G01 X11.6320 Y-40.9500 F30.00
G01 X11.6313 Y-40.9353 F30.00
G01 X11.6304 Y-40.9280 F30.00
G01 X11.6284 Y-40.9171 F30.00
G01 X11.6244 Y-40.9029 F30.00
G01 X11.6191 Y-40.8892 F30.00
G01 X11.6125 Y-40.8761 F30.00
G01 X11.6087 Y-40.8698 F30.00
G01 X11.6025 Y-40.8606 F30.00
G01 X11.5956 Y-40.8520 F30.00
G01 X11.5906 Y-40.8466 F30.00
G01 X11.5800 Y-40.8364 F30.00
G01 X11.5714 Y-40.8295 F30.00
G01 X11.5591 Y-40.8213 F30.00
G01 X11.5461 Y-40.8144 F30.00
G01 X11.5360 Y-40.8101 F30.00
G01 X11.5255 Y-40.8065 F30.00
G01 X11.5113 Y-40.8029 F30.00
G01 X11.5004 Y-40.8011 F30.00
G01 X11.4857 Y-40.8000 F30.00
G01 X9.3420 Y-40.8000 F30.00
G01 X9.3310 Y-40.8004 F30.00
G01 X9.3164 Y-40.8022 F30.00
G01 X9.3056 Y-40.8045 F30.00
G01 X9.2949 Y-40.8076 F30.00
G01 X9.2846 Y-40.8114 F30.00
G01 X9.2746 Y-40.8160 F30.00
G01 X9.2649 Y-40.8213 F30.00
G01 X9.2556 Y-40.8274 F30.00
G01 X9.2468 Y-40.8340 F30.00
G01 X9.2386 Y-40.8414 F30.00
G01 X9.2309 Y-40.8493 F30.00
G01 X9.2237 Y-40.8577 F30.00
G01 X9.2173 Y-40.8667 F30.00
G01 X9.2115 Y-40.8761 F30.00
G01 X9.2064 Y-40.8859 F30.00
G01 X9.2021 Y-40.8960 F30.00
G01 X9.1985 Y-40.9065 F30.00
G01 X9.1956 Y-40.9171 F30.00
G01 X9.1931 Y-40.9316 F30.00
G01 X9.1922 Y-40.9426 F30.00
G01 X9.1920 Y-40.9500 F30.00
G01 X9.1920 Y-41.3697 F30.00
G01 X8.6113 Y-41.3697 F30.00
G01 X3.5093 Y-36.2677 F30.00
G01 X3.5093 Y-9.4042 F30.00
G01 X4.5782 Y-8.3353 F30.00
G01 X6.1203 Y-8.3353 F30.00
G01 X11.0337 Y-13.2487 F30.00
G01 X11.0337 Y-15.2900 F30.00
G01 X10.6140 Y-15.2900 F30.00
G01 X10.6030 Y-15.2904 F30.00
G01 X10.5956 Y-15.2911 F30.00
G01 X10.5811 Y-15.2936 F30.00
G01 X10.5705 Y-15.2965 F30.00
G01 X10.5600 Y-15.3001 F30.00
G01 X10.5499 Y-15.3044 F30.00
G01 X10.5401 Y-15.3095 F30.00
G01 X10.5307 Y-15.3153 F30.00
G01 X10.5217 Y-15.3217 F30.00
G01 X10.5106 Y-15.3314 F30.00
G01 X10.5029 Y-15.3393 F30.00
G01 X10.4957 Y-15.3477 F30.00
G01 X10.4893 Y-15.3567 F30.00
G01 X10.4835 Y-15.3661 F30.00
G01 X10.4784 Y-15.3759 F30.00
G01 X10.4728 Y-15.3895 F30.00
G01 X10.4694 Y-15.4000 F30.00
G01 X10.4669 Y-15.4107 F30.00
G01 X10.4651 Y-15.4216 F30.00
G01 X10.4644 Y-15.4290 F30.00
G01 X10.4640 Y-15.4400 F30.00
G01 X10.4640 Y-17.5837 F30.00
G01 X10.4647 Y-17.5947 F30.00
G01 X10.4662 Y-17.6056 F30.00
G01 X10.4685 Y-17.6164 F30.00
G01 X10.4716 Y-17.6271 F30.00
G01 X10.4754 Y-17.6374 F30.00
G01 X10.4800 Y-17.6474 F30.00
G01 X10.4853 Y-17.6571 F30.00
G01 X10.4935 Y-17.6694 F30.00
G01 X10.4980 Y-17.6752 F30.00
G01 X10.5054 Y-17.6834 F30.00
G01 X10.5160 Y-17.6936 F30.00
G01 X10.5217 Y-17.6983 F30.00
G01 X10.5307 Y-17.7047 F30.00
G01 X10.5433 Y-17.7123 F30.00
G01 X10.5532 Y-17.7171 F30.00
G01 X10.5600 Y-17.7199 F30.00
G01 X10.5705 Y-17.7235 F30.00
G01 X10.5776 Y-17.7255 F30.00
G01 X10.5884 Y-17.7278 F30.00
G01 X10.5956 Y-17.7289 F30.00
G01 X10.6103 Y-17.7300 F30.00
G01 X12.7577 Y-17.7300 F30.00
G01 X12.7724 Y-17.7289 F30.00
G01 X12.7869 Y-17.7264 F30.00
G01 X12.8011 Y-17.7224 F30.00
G01 X12.8114 Y-17.7186 F30.00
G01 X12.8214 Y-17.7140 F30.00
G01 X12.8342 Y-17.7067 F30.00
G01 X12.8463 Y-17.6983 F30.00
G01 X12.8547 Y-17.6911 F30.00
G01 X12.8651 Y-17.6807 F30.00
G01 X12.8745 Y-17.6694 F30.00
G01 X12.8827 Y-17.6571 F30.00
G01 X12.8880 Y-17.6474 F30.00
G01 X12.8939 Y-17.6340 F30.00
G01 X12.8986 Y-17.6200 F30.00
G01 X12.9011 Y-17.6093 F30.00
G01 X12.9033 Y-17.5947 F30.00
G01 X12.9040 Y-17.5800 F30.00
G01 X12.9040 Y-15.4400 F30.00
G01 X12.9038 Y-15.4326 F30.00
G01 X12.9029 Y-15.4216 F30.00
G01 X12.9011 Y-15.4107 F30.00
G01 X12.8986 Y-15.4000 F30.00
G01 X12.8952 Y-15.3895 F30.00
G01 X12.8896 Y-15.3759 F30.00
G01 X12.8845 Y-15.3661 F30.00
G01 X12.8787 Y-15.3567 F30.00
G01 X12.8723 Y-15.3477 F30.00
G01 X12.8651 Y-15.3393 F30.00
G01 X12.8574 Y-15.3314 F30.00
G01 X12.8492 Y-15.3240 F30.00
G01 X12.8404 Y-15.3174 F30.00
G01 X12.8311 Y-15.3113 F30.00
G01 X12.8214 Y-15.3060 F30.00
G01 X12.8080 Y-15.3001 F30.00
G01 X12.7975 Y-15.2965 F30.00
G01 X12.7869 Y-15.2936 F30.00
G01 X12.7724 Y-15.2911 F30.00
G01 X12.7614 Y-15.2902 F30.00
G01 X12.7540 Y-15.2900 F30.00
G01 X12.3343 Y-15.2900 F30.00
G01 X12.3341 Y-12.9720 F30.00
G01 X12.3311 Y-12.9157 F30.00
G01 X12.3230 Y-12.8598 F30.00
G01 X12.3201 Y-12.8454 F30.00
G01 X12.3063 Y-12.7906 F30.00
G01 X12.2874 Y-12.7374 F30.00
G01 X12.2818 Y-12.7238 F30.00
G01 X12.2575 Y-12.6729 F30.00
G01 X12.2286 Y-12.6244 F30.00
G01 X12.2204 Y-12.6121 F30.00
G01 X12.1867 Y-12.5669 F30.00
G01 X12.1438 Y-12.5196 F30.00
G01 X6.8468 Y-7.2226 F30.00
G01 X6.8021 Y-7.1823 F30.00
G01 X6.7569 Y-7.1486 F30.00
G01 X6.7446 Y-7.1404 F30.00
G01 X6.7025 Y-7.1152 F30.00
G01 X6.6895 Y-7.1082 F30.00
G01 X6.6384 Y-7.0842 F30.00
G01 X6.5784 Y-7.0627 F30.00
G01 X6.5165 Y-7.0472 F30.00
G01 X6.4606 Y-7.0388 F30.00
G01 X6.4460 Y-7.0373 F30.00
G01 X6.3896 Y-7.0347 F30.00
G01 X4.3051 Y-7.0348 F30.00
G01 X4.2451 Y-7.0379 F30.00
G01 X4.1892 Y-7.0460 F30.00
G01 X4.1748 Y-7.0489 F30.00
G01 X4.1201 Y-7.0627 F30.00
G01 X4.0669 Y-7.0816 F30.00
G01 X4.0533 Y-7.0872 F30.00
G01 X4.0089 Y-7.1082 F30.00
G01 X3.9959 Y-7.1152 F30.00
G01 X3.9538 Y-7.1404 F30.00
G01 X3.9415 Y-7.1486 F30.00
G01 X3.8963 Y-7.1823 F30.00
G01 X3.8517 Y-7.2226 F30.00
G01 X2.3941 Y-8.6804 F30.00
G01 X2.3563 Y-8.7223 F30.00
G01 X2.3226 Y-8.7675 F30.00
G01 X2.3144 Y-8.7798 F30.00
G01 X2.2892 Y-8.8219 F30.00
G01 X2.2822 Y-8.8349 F30.00
G01 X2.2582 Y-8.8860 F30.00
G01 X2.2367 Y-8.9461 F30.00
G01 X2.2212 Y-9.0080 F30.00
G01 X2.2128 Y-9.0638 F30.00
G01 X2.2113 Y-9.0784 F30.00
G01 X2.2087 Y-9.1348 F30.00
G01 X2.2089 Y-36.5444 F30.00
G00 Z2.0000
G00 X19.1619 Y-28.9634
G01 F45.00
G01 Z-0.0900
G01 F30.00
G01 X19.1649 Y-29.0197 F30.00
G01 X19.1742 Y-29.0829 F30.00
G01 X19.1897 Y-29.1448 F30.00
G01 X19.2112 Y-29.2048 F30.00
G01 X19.2385 Y-29.2625 F30.00
G01 X19.2713 Y-29.3173 F30.00
G01 X19.3093 Y-29.3685 F30.00
G01 X19.3496 Y-29.4132 F30.00
G01 X24.7662 Y-34.8298 F30.00
G01 X24.8135 Y-34.8727 F30.00
G01 X24.8587 Y-34.9064 F30.00
G01 X24.8710 Y-34.9146 F30.00
G01 X24.9195 Y-34.9435 F30.00
G01 X24.9704 Y-34.9678 F30.00
G01 X24.9840 Y-34.9734 F30.00
G01 X25.0372 Y-34.9923 F30.00
G01 X25.0920 Y-35.0061 F30.00
G01 X25.1064 Y-35.0090 F30.00
G01 X25.1586 Y-35.0167 F30.00
G01 X25.1696 Y-35.0177 F30.00
G01 X25.2260 Y-35.0203 F30.00
G01 X25.7120 Y-35.0203 F30.00
G01 X25.7120 Y-35.4400 F30.00
G01 X25.7122 Y-35.4474 F30.00
G01 X25.7131 Y-35.4584 F30.00
G01 X25.7156 Y-35.4729 F30.00
G01 X25.7174 Y-35.4800 F30.00
G01 X25.7208 Y-35.4905 F30.00
G01 X25.7249 Y-35.5008 F30.00
G01 X25.7297 Y-35.5107 F30.00
G01 X25.7353 Y-35.5202 F30.00
G01 X25.7415 Y-35.5294 F30.00
G01 X25.7484 Y-35.5380 F30.00
G01 X25.7559 Y-35.5461 F30.00
G01 X25.7640 Y-35.5536 F30.00
G01 X25.7726 Y-35.5605 F30.00
G01 X25.7818 Y-35.5667 F30.00
G01 X25.7913 Y-35.5723 F30.00
G01 X25.8012 Y-35.5771 F30.00
G01 X25.8115 Y-35.5812 F30.00
G01 X25.8220 Y-35.5846 F30.00
G01 X25.8327 Y-35.5871 F30.00
G01 X25.8473 Y-35.5893 F30.00
G01 X25.8620 Y-35.5900 F30.00
G01 X28.0057 Y-35.5900 F30.00
G01 X28.0204 Y-35.5889 F30.00
G01 X28.0313 Y-35.5871 F30.00
G01 X28.0384 Y-35.5855 F30.00
G01 X28.0491 Y-35.5824 F30.00
G01 X28.0560 Y-35.5799 F30.00
G01 X28.0628 Y-35.5771 F30.00
G01 X28.0727 Y-35.5723 F30.00
G01 X28.0791 Y-35.5687 F30.00
G01 X28.0884 Y-35.5626 F30.00
G01 X28.1000 Y-35.5536 F30.00
G01 X28.1054 Y-35.5486 F30.00
G01 X28.1131 Y-35.5407 F30.00
G01 X28.1225 Y-35.5294 F30.00
G01 X28.1287 Y-35.5202 F30.00
G01 X28.1343 Y-35.5107 F30.00
G01 X28.1391 Y-35.5008 F30.00
G01 X28.1432 Y-35.4905 F30.00
G01 X28.1466 Y-35.4800 F30.00
G01 X28.1491 Y-35.4693 F30.00
G01 X28.1513 Y-35.4547 F30.00
G01 X28.1520 Y-35.4437 F30.00
G01 X28.1520 Y-33.3000 F30.00
G01 X28.1516 Y-33.2890 F30.00
G01 X28.1509 Y-33.2816 F30.00
G01 X28.1484 Y-33.2671 F30.00
G01 X28.1444 Y-33.2529 F30.00
G01 X28.1391 Y-33.2392 F30.00
G01 X28.1325 Y-33.2261 F30.00
G01 X28.1287 Y-33.2198 F30.00
G01 X28.1225 Y-33.2106 F30.00
G01 X28.1131 Y-33.1993 F30.00
G01 X28.1027 Y-33.1889 F30.00
G01 X28.0914 Y-33.1795 F30.00
G01 X28.0822 Y-33.1733 F30.00
G01 X28.0694 Y-33.1660 F30.00
G01 X28.0594 Y-33.1614 F30.00
G01 X28.0455 Y-33.1565 F30.00
G01 X28.0313 Y-33.1529 F30.00
G01 X28.0204 Y-33.1511 F30.00
G01 X28.0057 Y-33.1500 F30.00
G01 X25.8620 Y-33.1500 F30.00
G01 X25.8473 Y-33.1507 F30.00
G01 X25.8327 Y-33.1529 F30.00
G01 X25.8220 Y-33.1554 F30.00
G01 X25.8115 Y-33.1588 F30.00
G01 X25.8012 Y-33.1629 F30.00
G01 X25.7913 Y-33.1677 F30.00
G01 X25.7818 Y-33.1733 F30.00
G01 X25.7726 Y-33.1795 F30.00
G01 X25.7640 Y-33.1864 F30.00
G01 X25.7559 Y-33.1939 F30.00
G01 X25.7484 Y-33.2020 F30.00
G01 X25.7437 Y-33.2077 F30.00
G01 X25.7373 Y-33.2167 F30.00
G01 X25.7315 Y-33.2261 F30.00
G01 X25.7264 Y-33.2359 F30.00
G01 X25.7221 Y-33.2460 F30.00
G01 X25.7185 Y-33.2565 F30.00
G01 X25.7156 Y-33.2671 F30.00
G01 X25.7136 Y-33.2780 F30.00
G01 X25.7127 Y-33.2853 F30.00
G01 X25.7120 Y-33.3000 F30.00
G01 X25.7120 Y-33.7197 F30.00
G01 X25.4953 Y-33.7197 F30.00
G01 X20.4623 Y-28.6867 F30.00
G01 X20.4623 Y-17.7300 F30.00
G01 X21.6440 Y-17.7300 F30.00
G01 X21.6550 Y-17.7296 F30.00
G01 X21.6660 Y-17.7284 F30.00
G01 X21.6733 Y-17.7271 F30.00
G01 X21.6840 Y-17.7246 F30.00
G01 X21.6911 Y-17.7224 F30.00
G01 X21.6980 Y-17.7199 F30.00
G01 X21.7081 Y-17.7156 F30.00
G01 X21.7179 Y-17.7105 F30.00
G01 X21.7273 Y-17.7047 F30.00
G01 X21.7334 Y-17.7005 F30.00
G01 X21.7420 Y-17.6936 F30.00
G01 X21.7501 Y-17.6861 F30.00
G01 X21.7551 Y-17.6807 F30.00
G01 X21.7623 Y-17.6723 F30.00
G01 X21.7687 Y-17.6633 F30.00
G01 X21.7727 Y-17.6571 F30.00
G01 X21.7780 Y-17.6474 F30.00
G01 X21.7826 Y-17.6374 F30.00
G01 X21.7852 Y-17.6305 F30.00
G01 X21.7875 Y-17.6235 F30.00
G01 X21.7904 Y-17.6129 F30.00
G01 X21.7918 Y-17.6056 F30.00
G01 X21.7933 Y-17.5947 F30.00
G01 X21.7940 Y-17.5800 F30.00
G01 X21.7938 Y-15.4326 F30.00
G01 X21.7924 Y-15.4180 F30.00
G01 X21.7904 Y-15.4071 F30.00
G01 X21.7864 Y-15.3929 F30.00
G01 X21.7826 Y-15.3826 F30.00
G01 X21.7780 Y-15.3726 F30.00
G01 X21.7707 Y-15.3598 F30.00
G01 X21.7623 Y-15.3477 F30.00
G01 X21.7551 Y-15.3393 F30.00
G01 X21.7474 Y-15.3314 F30.00
G01 X21.7363 Y-15.3217 F30.00
G01 X21.7273 Y-15.3153 F30.00
G01 X21.7179 Y-15.3095 F30.00
G01 X21.7081 Y-15.3044 F30.00
G01 X21.6945 Y-15.2988 F30.00
G01 X21.6840 Y-15.2954 F30.00
G01 X21.6696 Y-15.2922 F30.00
G01 X21.6587 Y-15.2907 F30.00
G01 X21.6440 Y-15.2900 F30.00
G01 X19.4966 Y-15.2902 F30.00
G01 X19.4856 Y-15.2911 F30.00
G01 X19.4747 Y-15.2929 F30.00
G01 X19.4640 Y-15.2954 F30.00
G01 X19.4500 Y-15.3001 F30.00
G01 X19.4366 Y-15.3060 F30.00
G01 X19.4269 Y-15.3113 F30.00
G01 X19.4146 Y-15.3195 F30.00
G01 X19.4060 Y-15.3264 F30.00
G01 X19.3979 Y-15.3339 F30.00
G01 X19.3880 Y-15.3448 F30.00
G01 X19.3814 Y-15.3536 F30.00
G01 X19.3735 Y-15.3661 F30.00
G01 X19.3669 Y-15.3792 F30.00
G01 X19.3628 Y-15.3895 F30.00
G01 X19.3585 Y-15.4036 F30.00
G01 X19.3562 Y-15.4144 F30.00
G01 X19.3547 Y-15.4253 F30.00
G01 X19.3540 Y-15.4400 F30.00
G01 X19.3540 Y-16.8104 F30.00
G01 X19.3471 Y-16.8175 F30.00
G01 X19.3093 Y-16.8595 F30.00
G01 X19.2713 Y-16.9107 F30.00
G01 X19.2385 Y-16.9655 F30.00
G01 X19.2112 Y-17.0232 F30.00
G01 X19.1897 Y-17.0832 F30.00
G01 X19.1742 Y-17.1451 F30.00
G01 X19.1649 Y-17.2083 F30.00
G01 X19.1618 Y-17.2683 F30.00
G01 X19.1619 Y-28.9634 F30.00
G00 Z2.0000
G00 X25.8620 Y-27.9700
G01 F45.00
G01 Z-0.0900
G01 F30.00
G01 X28.0020 Y-27.9700 F30.00
G01 X28.0167 Y-27.9693 F30.00
G01 X28.0313 Y-27.9671 F30.00
G01 X28.0455 Y-27.9635 F30.00
G01 X28.0594 Y-27.9586 F30.00
G01 X28.0661 Y-27.9556 F30.00
G01 X28.0759 Y-27.9505 F30.00
G01 X28.0853 Y-27.9447 F30.00
G01 X28.0914 Y-27.9405 F30.00
G01 X28.0972 Y-27.9360 F30.00
G01 X28.1054 Y-27.9286 F30.00
G01 X28.1106 Y-27.9234 F30.00
G01 X28.1180 Y-27.9152 F30.00
G01 X28.1225 Y-27.9094 F30.00
G01 X28.1287 Y-27.9002 F30.00
G01 X28.1343 Y-27.8907 F30.00
G01 X28.1391 Y-27.8808 F30.00
G01 X28.1432 Y-27.8705 F30.00
G01 X28.1455 Y-27.8635 F30.00
G01 X28.1475 Y-27.8564 F30.00
G01 X28.1498 Y-27.8456 F30.00
G01 X28.1513 Y-27.8347 F30.00
G01 X28.1520 Y-27.8200 F30.00
G01 X28.1520 Y-27.4003 F30.00
G01 X28.6820 Y-27.4003 F30.00
G01 X28.7384 Y-27.3977 F30.00
G01 X28.7494 Y-27.3967 F30.00
G01 X28.8089 Y-27.3878 F30.00
G01 X28.8637 Y-27.3742 F30.00
G01 X28.8777 Y-27.3699 F30.00
G01 X28.9308 Y-27.3508 F30.00
G01 X28.9819 Y-27.3268 F30.00
G01 X28.9949 Y-27.3198 F30.00
G01 X29.0370 Y-27.2946 F30.00
G01 X29.0493 Y-27.2864 F30.00
G01 X29.0945 Y-27.2527 F30.00
G01 X29.1418 Y-27.2098 F30.00
G01 X29.9264 Y-26.4252 F30.00
G01 X29.9667 Y-26.3805 F30.00
G01 X30.0047 Y-26.3293 F30.00
G01 X30.0375 Y-26.2745 F30.00
G01 X30.0618 Y-26.2236 F30.00
G01 X30.0674 Y-26.2100 F30.00
G01 X30.0863 Y-26.1568 F30.00
G01 X30.1018 Y-26.0949 F30.00
G01 X30.1111 Y-26.0317 F30.00
G01 X30.1143 Y-25.9680 F30.00
G01 X30.1143 Y-20.2700 F30.00
G01 X30.5340 Y-20.2700 F30.00
G01 X30.5414 Y-20.2698 F30.00
G01 X30.5524 Y-20.2689 F30.00
G01 X30.5669 Y-20.2664 F30.00
G01 X30.5775 Y-20.2635 F30.00
G01 X30.5880 Y-20.2599 F30.00
G01 X30.5981 Y-20.2556 F30.00
G01 X30.6079 Y-20.2505 F30.00
G01 X30.6173 Y-20.2447 F30.00
G01 X30.6263 Y-20.2383 F30.00
G01 X30.6347 Y-20.2311 F30.00
G01 X30.6426 Y-20.2234 F30.00
G01 X30.6500 Y-20.2152 F30.00
G01 X30.6566 Y-20.2064 F30.00
G01 X30.6627 Y-20.1971 F30.00
G01 X30.6663 Y-20.1907 F30.00
G01 X30.6711 Y-20.1808 F30.00
G01 X30.6752 Y-20.1705 F30.00
G01 X30.6786 Y-20.1600 F30.00
G01 X30.6811 Y-20.1493 F30.00
G01 X30.6833 Y-20.1347 F30.00
G01 X30.6840 Y-20.1200 F30.00
G01 X30.6840 Y-17.9763 F30.00
G01 X30.6833 Y-17.9653 F30.00
G01 X30.6818 Y-17.9544 F30.00
G01 X30.6795 Y-17.9436 F30.00
G01 X30.6764 Y-17.9329 F30.00
G01 X30.6726 Y-17.9226 F30.00
G01 X30.6680 Y-17.9126 F30.00
G01 X30.6645 Y-17.9061 F30.00
G01 X30.6587 Y-17.8967 F30.00
G01 X30.6523 Y-17.8877 F30.00
G01 X30.6451 Y-17.8793 F30.00
G01 X30.6374 Y-17.8714 F30.00
G01 X30.6320 Y-17.8664 F30.00
G01 X30.6263 Y-17.8617 F30.00
G01 X30.6173 Y-17.8553 F30.00
G01 X30.6079 Y-17.8495 F30.00
G01 X30.5981 Y-17.8444 F30.00
G01 X30.5845 Y-17.8388 F30.00
G01 X30.5775 Y-17.8365 F30.00
G01 X30.5669 Y-17.8336 F30.00
G01 X30.5596 Y-17.8322 F30.00
G01 X30.5487 Y-17.8307 F30.00
G01 X30.5340 Y-17.8300 F30.00
G01 X28.3903 Y-17.8300 F30.00
G01 X28.3793 Y-17.8307 F30.00
G01 X28.3684 Y-17.8322 F30.00
G01 X28.3576 Y-17.8345 F30.00
G01 X28.3469 Y-17.8376 F30.00
G01 X28.3400 Y-17.8401 F30.00
G01 X28.3299 Y-17.8444 F30.00
G01 X28.3201 Y-17.8495 F30.00
G01 X28.3107 Y-17.8553 F30.00
G01 X28.3017 Y-17.8617 F30.00
G01 X28.2933 Y-17.8689 F30.00
G01 X28.2854 Y-17.8766 F30.00
G01 X28.2804 Y-17.8820 F30.00
G01 X28.2735 Y-17.8906 F30.00
G01 X28.2693 Y-17.8967 F30.00
G01 X28.2635 Y-17.9061 F30.00
G01 X28.2584 Y-17.9159 F30.00
G01 X28.2528 Y-17.9295 F30.00
G01 X28.2505 Y-17.9365 F30.00
G01 X28.2476 Y-17.9471 F30.00
G01 X28.2462 Y-17.9544 F30.00
G01 X28.2447 Y-17.9653 F30.00
G01 X28.2440 Y-17.9800 F30.00
G01 X28.2440 Y-20.1200 F30.00
G01 X28.2444 Y-20.1310 F30.00
G01 X28.2451 Y-20.1384 F30.00
G01 X28.2476 Y-20.1529 F30.00
G01 X28.2505 Y-20.1635 F30.00
G01 X28.2541 Y-20.1740 F30.00
G01 X28.2584 Y-20.1841 F30.00
G01 X28.2635 Y-20.1939 F30.00
G01 X28.2693 Y-20.2033 F30.00
G01 X28.2757 Y-20.2123 F30.00
G01 X28.2829 Y-20.2207 F30.00
G01 X28.2879 Y-20.2261 F30.00
G01 X28.2960 Y-20.2336 F30.00
G01 X28.3046 Y-20.2405 F30.00
G01 X28.3138 Y-20.2467 F30.00
G01 X28.3233 Y-20.2523 F30.00
G01 X28.3332 Y-20.2571 F30.00
G01 X28.3435 Y-20.2612 F30.00
G01 X28.3540 Y-20.2646 F30.00
G01 X28.3647 Y-20.2671 F30.00
G01 X28.3793 Y-20.2693 F30.00
G01 X28.3940 Y-20.2700 F30.00
G01 X28.8137 Y-20.2700 F30.00
G01 X28.8137 Y-25.6987 F30.00
G01 X28.4127 Y-26.0997 F30.00
G01 X28.1520 Y-26.0997 F30.00
G01 X28.1520 Y-25.6800 F30.00
G01 X28.1513 Y-25.6653 F30.00
G01 X28.1491 Y-25.6507 F30.00
G01 X28.1466 Y-25.6400 F30.00
G01 X28.1432 Y-25.6295 F30.00
G01 X28.1391 Y-25.6192 F30.00
G01 X28.1343 Y-25.6093 F30.00
G01 X28.1287 Y-25.5998 F30.00
G01 X28.1225 Y-25.5906 F30.00
G01 X28.1156 Y-25.5820 F30.00
G01 X28.1081 Y-25.5739 F30.00
G01 X28.1027 Y-25.5689 F30.00
G01 X28.0943 Y-25.5617 F30.00
G01 X28.0853 Y-25.5553 F30.00
G01 X28.0759 Y-25.5495 F30.00
G01 X28.0661 Y-25.5444 F30.00
G01 X28.0560 Y-25.5401 F30.00
G01 X28.0455 Y-25.5365 F30.00
G01 X28.0349 Y-25.5336 F30.00
G01 X28.0240 Y-25.5316 F30.00
G01 X28.0167 Y-25.5307 F30.00
G01 X28.0020 Y-25.5300 F30.00
G01 X25.8583 Y-25.5300 F30.00
G01 X25.8473 Y-25.5307 F30.00
G01 X25.8327 Y-25.5329 F30.00
G01 X25.8220 Y-25.5354 F30.00
G01 X25.8115 Y-25.5388 F30.00
G01 X25.8012 Y-25.5429 F30.00
G01 X25.7881 Y-25.5495 F30.00
G01 X25.7787 Y-25.5553 F30.00
G01 X25.7697 Y-25.5617 F30.00
G01 X25.7586 Y-25.5714 F30.00
G01 X25.7534 Y-25.5766 F30.00
G01 X25.7460 Y-25.5848 F30.00
G01 X25.7373 Y-25.5967 F30.00
G01 X25.7315 Y-25.6061 F30.00
G01 X25.7280 Y-25.6126 F30.00
G01 X25.7234 Y-25.6226 F30.00
G01 X25.7208 Y-25.6295 F30.00
G01 X25.7165 Y-25.6436 F30.00
G01 X25.7142 Y-25.6544 F30.00
G01 X25.7131 Y-25.6616 F30.00
G01 X25.7120 Y-25.6763 F30.00
G01 X25.7122 Y-27.8274 F30.00
G01 X25.7136 Y-27.8420 F30.00
G01 X25.7165 Y-27.8564 F30.00
G01 X25.7196 Y-27.8671 F30.00
G01 X25.7249 Y-27.8808 F30.00
G01 X25.7315 Y-27.8939 F30.00
G01 X25.7394 Y-27.9064 F30.00
G01 X25.7484 Y-27.9180 F30.00
G01 X25.7586 Y-27.9286 F30.00
G01 X25.7697 Y-27.9383 F30.00
G01 X25.7818 Y-27.9467 F30.00
G01 X25.7946 Y-27.9540 F30.00
G01 X25.8080 Y-27.9599 F30.00
G01 X25.8185 Y-27.9635 F30.00
G01 X25.8327 Y-27.9671 F30.00
G01 X25.8473 Y-27.9693 F30.00
G01 X25.8620 Y-27.9700 F30.00
G00 Z2.0000
G00 X25.8540 Y-20.2700
G01 F45.00
G01 Z-0.0900
G01 F30.00
G01 X26.2737 Y-20.2700 F30.00
G01 X26.2737 Y-22.9900 F30.00
G01 X25.8620 Y-22.9900 F30.00
G01 X25.8473 Y-22.9907 F30.00
G01 X25.8327 Y-22.9929 F30.00
G01 X25.8220 Y-22.9954 F30.00
G01 X25.8115 Y-22.9988 F30.00
G01 X25.8012 Y-23.0029 F30.00
G01 X25.7913 Y-23.0077 F30.00
G01 X25.7818 Y-23.0133 F30.00
G01 X25.7726 Y-23.0195 F30.00
G01 X25.7640 Y-23.0264 F30.00
G01 X25.7559 Y-23.0339 F30.00
G01 X25.7484 Y-23.0420 F30.00
G01 X25.7415 Y-23.0506 F30.00
G01 X25.7353 Y-23.0598 F30.00
G01 X25.7297 Y-23.0693 F30.00
G01 X25.7249 Y-23.0792 F30.00
G01 X25.7208 Y-23.0895 F30.00
G01 X25.7174 Y-23.1000 F30.00
G01 X25.7156 Y-23.1071 F30.00
G01 X25.7131 Y-23.1216 F30.00
G01 X25.7122 Y-23.1326 F30.00
G01 X25.7120 Y-23.1400 F30.00
G01 X25.7120 Y-25.2800 F30.00
G01 X25.7124 Y-25.2910 F30.00
G01 X25.7131 Y-25.2984 F30.00
G01 X25.7156 Y-25.3129 F30.00
G01 X25.7196 Y-25.3271 F30.00
G01 X25.7249 Y-25.3408 F30.00
G01 X25.7297 Y-25.3507 F30.00
G01 X25.7353 Y-25.3602 F30.00
G01 X25.7415 Y-25.3694 F30.00
G01 X25.7460 Y-25.3752 F30.00
G01 X25.7534 Y-25.3834 F30.00
G01 X25.7613 Y-25.3911 F30.00
G01 X25.7697 Y-25.3983 F30.00
G01 X25.7787 Y-25.4047 F30.00
G01 X25.7881 Y-25.4105 F30.00
G01 X25.7979 Y-25.4156 F30.00
G01 X25.8080 Y-25.4199 F30.00
G01 X25.8185 Y-25.4235 F30.00
G01 X25.8291 Y-25.4264 F30.00
G01 X25.8400 Y-25.4284 F30.00
G01 X25.8473 Y-25.4293 F30.00
G01 X25.8583 Y-25.4300 F30.00
G01 X28.0020 Y-25.4300 F30.00
G01 X28.0130 Y-25.4296 F30.00
G01 X28.0204 Y-25.4289 F30.00
G01 X28.0349 Y-25.4264 F30.00
G01 X28.0491 Y-25.4224 F30.00
G01 X28.0628 Y-25.4171 F30.00
G01 X28.0727 Y-25.4123 F30.00
G01 X28.0822 Y-25.4067 F30.00
G01 X28.0914 Y-25.4005 F30.00
G01 X28.0972 Y-25.3960 F30.00
G01 X28.1054 Y-25.3886 F30.00
G01 X28.1131 Y-25.3807 F30.00
G01 X28.1203 Y-25.3723 F30.00
G01 X28.1267 Y-25.3633 F30.00
G01 X28.1325 Y-25.3539 F30.00
G01 X28.1376 Y-25.3441 F30.00
G01 X28.1406 Y-25.3374 F30.00
G01 X28.1444 Y-25.3271 F30.00
G01 X28.1475 Y-25.3164 F30.00
G01 X28.1498 Y-25.3056 F30.00
G01 X28.1513 Y-25.2947 F30.00
G01 X28.1518 Y-25.2874 F30.00
G01 X28.1520 Y-23.1400 F30.00
G01 X28.1513 Y-23.1253 F30.00
G01 X28.1498 Y-23.1144 F30.00
G01 X28.1466 Y-23.1000 F30.00
G01 X28.1432 Y-23.0895 F30.00
G01 X28.1391 Y-23.0792 F30.00
G01 X28.1343 Y-23.0693 F30.00
G01 X28.1287 Y-23.0598 F30.00
G01 X28.1225 Y-23.0506 F30.00
G01 X28.1131 Y-23.0393 F30.00
G01 X28.1054 Y-23.0314 F30.00
G01 X28.0972 Y-23.0240 F30.00
G01 X28.0884 Y-23.0174 F30.00
G01 X28.0791 Y-23.0113 F30.00
G01 X28.0694 Y-23.0060 F30.00
G01 X28.0560 Y-23.0001 F30.00
G01 X28.0455 Y-22.9965 F30.00
G01 X28.0349 Y-22.9936 F30.00
G01 X28.0204 Y-22.9911 F30.00
G01 X28.0130 Y-22.9904 F30.00
G01 X28.0020 Y-22.9900 F30.00
G01 X27.5743 Y-22.9900 F30.00
G01 X27.5743 Y-20.2700 F30.00
G01 X27.9940 Y-20.2700 F30.00
G01 X28.0087 Y-20.2693 F30.00
G01 X28.0233 Y-20.2671 F30.00
G01 X28.0340 Y-20.2646 F30.00
G01 X28.0445 Y-20.2612 F30.00
G01 X28.0548 Y-20.2571 F30.00
G01 X28.0647 Y-20.2523 F30.00
G01 X28.0742 Y-20.2467 F30.00
G01 X28.0834 Y-20.2405 F30.00
G01 X28.0920 Y-20.2336 F30.00
G01 X28.1001 Y-20.2261 F30.00
G01 X28.1051 Y-20.2207 F30.00
G01 X28.1123 Y-20.2123 F30.00
G01 X28.1187 Y-20.2033 F30.00
G01 X28.1245 Y-20.1939 F30.00
G01 X28.1296 Y-20.1841 F30.00
G01 X28.1339 Y-20.1740 F30.00
G01 X28.1375 Y-20.1635 F30.00
G01 X28.1404 Y-20.1529 F30.00
G01 X28.1424 Y-20.1420 F30.00
G01 X28.1433 Y-20.1347 F30.00
G01 X28.1440 Y-20.1200 F30.00
G01 X28.1440 Y-17.9763 F30.00
G01 X28.1429 Y-17.9616 F30.00
G01 X28.1404 Y-17.9471 F30.00
G01 X28.1364 Y-17.9329 F30.00
G01 X28.1311 Y-17.9192 F30.00
G01 X28.1245 Y-17.9061 F30.00
G01 X28.1166 Y-17.8936 F30.00
G01 X28.1076 Y-17.8820 F30.00
G01 X28.0974 Y-17.8714 F30.00
G01 X28.0863 Y-17.8617 F30.00
G01 X28.0773 Y-17.8553 F30.00
G01 X28.0647 Y-17.8477 F30.00
G01 X28.0514 Y-17.8414 F30.00
G01 X28.0375 Y-17.8365 F30.00
G01 X28.0269 Y-17.8336 F30.00
G01 X28.0124 Y-17.8311 F30.00
G01 X27.9977 Y-17.8300 F30.00
G01 X25.8540 Y-17.8300 F30.00
G01 X25.8393 Y-17.8307 F30.00
G01 X25.8247 Y-17.8329 F30.00
G01 X25.8176 Y-17.8345 F30.00
G01 X25.8069 Y-17.8376 F30.00
G01 X25.7932 Y-17.8429 F30.00
G01 X25.7801 Y-17.8495 F30.00
G01 X25.7676 Y-17.8574 F30.00
G01 X25.7560 Y-17.8664 F30.00
G01 X25.7454 Y-17.8766 F30.00
G01 X25.7357 Y-17.8877 F30.00
G01 X25.7273 Y-17.8998 F30.00
G01 X25.7217 Y-17.9093 F30.00
G01 X25.7154 Y-17.9226 F30.00
G01 X25.7105 Y-17.9365 F30.00
G01 X25.7069 Y-17.9507 F30.00
G01 X25.7047 Y-17.9653 F30.00
G01 X25.7040 Y-17.9763 F30.00
G01 X25.7042 Y-20.1274 F30.00
G01 X25.7056 Y-20.1420 F30.00
G01 X25.7076 Y-20.1529 F30.00
G01 X25.7116 Y-20.1671 F30.00
G01 X25.7169 Y-20.1808 F30.00
G01 X25.7235 Y-20.1939 F30.00
G01 X25.7314 Y-20.2064 F30.00
G01 X25.7404 Y-20.2180 F30.00
G01 X25.7506 Y-20.2286 F30.00
G01 X25.7617 Y-20.2383 F30.00
G01 X25.7738 Y-20.2467 F30.00
G01 X25.7866 Y-20.2540 F30.00
G01 X25.8000 Y-20.2599 F30.00
G01 X25.8140 Y-20.2646 F30.00
G01 X25.8284 Y-20.2678 F30.00
G01 X25.8430 Y-20.2696 F30.00
G01 X25.8540 Y-20.2700 F30.00
G00 Z2.0000
G00 X23.3140 Y-20.2700
G01 F45.00
G01 Z-0.0900
G01 F30.00
G01 X23.7337 Y-20.2700 F30.00
G01 X23.7337 Y-28.4480 F30.00
G01 X23.7369 Y-28.5117 F30.00
G01 X23.7462 Y-28.5749 F30.00
G01 X23.7617 Y-28.6368 F30.00
G01 X23.7806 Y-28.6900 F30.00
G01 X23.7862 Y-28.7036 F30.00
G01 X23.8105 Y-28.7545 F30.00
G01 X23.8433 Y-28.8093 F30.00
G01 X23.8813 Y-28.8605 F30.00
G01 X23.9216 Y-28.9052 F30.00
G01 X24.7662 Y-29.7498 F30.00
G01 X24.8135 Y-29.7927 F30.00
G01 X24.8587 Y-29.8264 F30.00
G01 X24.8678 Y-29.8327 F30.00
G01 X24.9195 Y-29.8635 F30.00
G01 X24.9704 Y-29.8878 F30.00
G01 X24.9840 Y-29.8934 F30.00
G01 X25.0372 Y-29.9123 F30.00
G01 X25.0920 Y-29.9261 F30.00
G01 X25.1064 Y-29.9290 F30.00
G01 X25.1586 Y-29.9367 F30.00
G01 X25.1696 Y-29.9377 F30.00
G01 X25.2260 Y-29.9403 F30.00
G01 X25.7120 Y-29.9403 F30.00
G01 X25.7120 Y-30.3600 F30.00
G01 X25.7124 Y-30.3710 F30.00
G01 X25.7142 Y-30.3856 F30.00
G01 X25.7165 Y-30.3964 F30.00
G01 X25.7185 Y-30.4035 F30.00
G01 X25.7221 Y-30.4140 F30.00
G01 X25.7264 Y-30.4241 F30.00
G01 X25.7297 Y-30.4307 F30.00
G01 X25.7353 Y-30.4402 F30.00
G01 X25.7394 Y-30.4464 F30.00
G01 X25.7460 Y-30.4552 F30.00
G01 X25.7509 Y-30.4607 F30.00
G01 X25.7586 Y-30.4686 F30.00
G01 X25.7640 Y-30.4736 F30.00
G01 X25.7726 Y-30.4805 F30.00
G01 X25.7787 Y-30.4847 F30.00
G01 X25.7881 Y-30.4905 F30.00
G01 X25.7979 Y-30.4956 F30.00
G01 X25.8046 Y-30.4986 F30.00
G01 X25.8185 Y-30.5035 F30.00
G01 X25.8327 Y-30.5071 F30.00
G01 X25.8473 Y-30.5093 F30.00
G01 X25.8620 Y-30.5100 F30.00
G01 X28.0020 Y-30.5100 F30.00
G01 X28.0130 Y-30.5096 F30.00
G01 X28.0204 Y-30.5089 F30.00
G01 X28.0349 Y-30.5064 F30.00
G01 X28.0420 Y-30.5046 F30.00
G01 X28.0525 Y-30.5012 F30.00
G01 X28.0661 Y-30.4956 F30.00
G01 X28.0759 Y-30.4905 F30.00
G01 X28.0853 Y-30.4847 F30.00
G01 X28.0943 Y-30.4783 F30.00
G01 X28.1027 Y-30.4711 F30.00
G01 X28.1106 Y-30.4634 F30.00
G01 X28.1156 Y-30.4580 F30.00
G01 X28.1225 Y-30.4494 F30.00
G01 X28.1287 Y-30.4402 F30.00
G01 X28.1343 Y-30.4307 F30.00
G01 X28.1391 Y-30.4208 F30.00
G01 X28.1432 Y-30.4105 F30.00
G01 X28.1455 Y-30.4035 F30.00
G01 X28.1484 Y-30.3929 F30.00
G01 X28.1504 Y-30.3820 F30.00
G01 X28.1516 Y-30.3710 F30.00
G01 X28.1520 Y-30.3600 F30.00
G01 X28.1520 Y-28.2163 F30.00
G01 X28.1516 Y-28.2090 F30.00
G01 X28.1504 Y-28.1980 F30.00
G01 X28.1475 Y-28.1836 F30.00
G01 X28.1432 Y-28.1695 F30.00
G01 X28.1391 Y-28.1592 F30.00
G01 X28.1360 Y-28.1526 F30.00
G01 X28.1325 Y-28.1461 F30.00
G01 X28.1267 Y-28.1367 F30.00
G01 X28.1180 Y-28.1248 F30.00
G01 X28.1081 Y-28.1139 F30.00
G01 X28.1027 Y-28.1089 F30.00
G01 X28.0943 Y-28.1017 F30.00
G01 X28.0853 Y-28.0953 F30.00
G01 X28.0759 Y-28.0895 F30.00
G01 X28.0628 Y-28.0829 F30.00
G01 X28.0525 Y-28.0788 F30.00
G01 X28.0384 Y-28.0745 F30.00
G01 X28.0276 Y-28.0722 F30.00
G01 X28.0167 Y-28.0707 F30.00
G01 X28.0057 Y-28.0700 F30.00
G01 X25.8620 Y-28.0700 F30.00
G01 X25.8510 Y-28.0704 F30.00
G01 X25.8436 Y-28.0711 F30.00
G01 X25.8291 Y-28.0736 F30.00
G01 X25.8185 Y-28.0765 F30.00
G01 X25.8080 Y-28.0801 F30.00
G01 X25.7979 Y-28.0844 F30.00
G01 X25.7881 Y-28.0895 F30.00
G01 X25.7787 Y-28.0953 F30.00
G01 X25.7697 Y-28.1017 F30.00
G01 X25.7640 Y-28.1064 F30.00
G01 X25.7559 Y-28.1139 F30.00
G01 X25.7484 Y-28.1220 F30.00
G01 X25.7415 Y-28.1306 F30.00
G01 X25.7353 Y-28.1398 F30.00
G01 X25.7297 Y-28.1493 F30.00
G01 X25.7249 Y-28.1592 F30.00
G01 X25.7208 Y-28.1695 F30.00
G01 X25.7174 Y-28.1800 F30.00
G01 X25.7149 Y-28.1907 F30.00
G01 X25.7127 Y-28.2053 F30.00
G01 X25.7120 Y-28.2200 F30.00
G01 X25.7120 Y-28.6397 F30.00
G01 X25.4953 Y-28.6397 F30.00
G01 X25.0343 Y-28.1787 F30.00
G01 X25.0343 Y-20.2700 F30.00
G01 X25.4540 Y-20.2700 F30.00
G01 X25.4687 Y-20.2693 F30.00
G01 X25.4833 Y-20.2671 F30.00
G01 X25.4940 Y-20.2646 F30.00
G01 X25.5045 Y-20.2612 F30.00
G01 X25.5148 Y-20.2571 F30.00
G01 X25.5247 Y-20.2523 F30.00
G01 X25.5342 Y-20.2467 F30.00
G01 X25.5434 Y-20.2405 F30.00
G01 X25.5520 Y-20.2336 F30.00
G01 X25.5601 Y-20.2261 F30.00
G01 X25.5651 Y-20.2207 F30.00
G01 X25.5723 Y-20.2123 F30.00
G01 X25.5787 Y-20.2033 F30.00
G01 X25.5845 Y-20.1939 F30.00
G01 X25.5896 Y-20.1841 F30.00
G01 X25.5939 Y-20.1740 F30.00
G01 X25.5975 Y-20.1635 F30.00
G01 X25.6004 Y-20.1529 F30.00
G01 X25.6024 Y-20.1420 F30.00
G01 X25.6033 Y-20.1347 F30.00
G01 X25.6040 Y-20.1200 F30.00
G01 X25.6040 Y-17.9763 F30.00
G01 X25.6029 Y-17.9616 F30.00
G01 X25.6004 Y-17.9471 F30.00
G01 X25.5964 Y-17.9329 F30.00
G01 X25.5911 Y-17.9192 F30.00
G01 X25.5845 Y-17.9061 F30.00
G01 X25.5766 Y-17.8936 F30.00
G01 X25.5676 Y-17.8820 F30.00
G01 X25.5574 Y-17.8714 F30.00
G01 X25.5463 Y-17.8617 F30.00
G01 X25.5373 Y-17.8553 F30.00
G01 X25.5247 Y-17.8477 F30.00
G01 X25.5114 Y-17.8414 F30.00
G01 X25.4975 Y-17.8365 F30.00
G01 X25.4869 Y-17.8336 F30.00
G01 X25.4724 Y-17.8311 F30.00
G01 X25.4577 Y-17.8300 F30.00
G01 X23.3140 Y-17.8300 F30.00
G01 X23.2993 Y-17.8307 F30.00
G01 X23.2847 Y-17.8329 F30.00
G01 X23.2776 Y-17.8345 F30.00
G01 X23.2669 Y-17.8376 F30.00
G01 X23.2532 Y-17.8429 F30.00
G01 X23.2401 Y-17.8495 F30.00
G01 X23.2276 Y-17.8574 F30.00
G01 X23.2160 Y-17.8664 F30.00
G01 X23.2054 Y-17.8766 F30.00
G01 X23.1957 Y-17.8877 F30.00
G01 X23.1873 Y-17.8998 F30.00
G01 X23.1817 Y-17.9093 F30.00
G01 X23.1754 Y-17.9226 F30.00
G01 X23.1705 Y-17.9365 F30.00
G01 X23.1669 Y-17.9507 F30.00
G01 X23.1647 Y-17.9653 F30.00
G01 X23.1640 Y-17.9763 F30.00
G01 X23.1642 Y-20.1274 F30.00
G01 X23.1656 Y-20.1420 F30.00
G01 X23.1676 Y-20.1529 F30.00
G01 X23.1716 Y-20.1671 F30.00
G01 X23.1769 Y-20.1808 F30.00
G01 X23.1835 Y-20.1939 F30.00
G01 X23.1914 Y-20.2064 F30.00
G01 X23.2004 Y-20.2180 F30.00
G01 X23.2106 Y-20.2286 F30.00
G01 X23.2217 Y-20.2383 F30.00
G01 X23.2338 Y-20.2467 F30.00
G01 X23.2466 Y-20.2540 F30.00
G01 X23.2600 Y-20.2599 F30.00
G01 X23.2740 Y-20.2646 F30.00
G01 X23.2884 Y-20.2678 F30.00
G01 X23.3030 Y-20.2696 F30.00
G01 X23.3140 Y-20.2700 F30.00
G00 Z2.0000
G00 X20.7740 Y-20.2700
G01 F45.00
G01 Z-0.0900
G01 F30.00
G01 X21.1937 Y-20.2700 F30.00
G01 X21.1937 Y-28.4480 F30.00
G01 X21.1963 Y-28.5044 F30.00
G01 X21.1978 Y-28.5190 F30.00
G01 X21.2062 Y-28.5749 F30.00
G01 X21.2198 Y-28.6297 F30.00
G01 X21.2241 Y-28.6437 F30.00
G01 X21.2432 Y-28.6968 F30.00
G01 X21.2672 Y-28.7479 F30.00
G01 X21.2723 Y-28.7578 F30.00
G01 X21.3033 Y-28.8093 F30.00
G01 X21.3368 Y-28.8547 F30.00
G01 X21.3462 Y-28.8661 F30.00
G01 X21.3842 Y-28.9078 F30.00
G01 X24.7662 Y-32.2898 F30.00
G01 X24.8135 Y-32.3327 F30.00
G01 X24.8587 Y-32.3664 F30.00
G01 X24.8710 Y-32.3746 F30.00
G01 X24.9195 Y-32.4035 F30.00
G01 X24.9704 Y-32.4278 F30.00
G01 X24.9840 Y-32.4334 F30.00
G01 X25.0372 Y-32.4523 F30.00
G01 X25.0920 Y-32.4661 F30.00
G01 X25.1028 Y-32.4684 F30.00
G01 X25.1623 Y-32.4771 F30.00
G01 X25.2223 Y-32.4802 F30.00
G01 X25.7120 Y-32.4803 F30.00
G01 X25.7120 Y-32.9000 F30.00
G01 X25.7122 Y-32.9074 F30.00
G01 X25.7131 Y-32.9184 F30.00
G01 X25.7142 Y-32.9256 F30.00
G01 X25.7165 Y-32.9364 F30.00
G01 X25.7208 Y-32.9505 F30.00
G01 X25.7249 Y-32.9608 F30.00
G01 X25.7280 Y-32.9674 F30.00
G01 X25.7353 Y-32.9802 F30.00
G01 X25.7415 Y-32.9894 F30.00
G01 X25.7460 Y-32.9952 F30.00
G01 X25.7559 Y-33.0061 F30.00
G01 X25.7640 Y-33.0136 F30.00
G01 X25.7697 Y-33.0183 F30.00
G01 X25.7818 Y-33.0267 F30.00
G01 X25.7913 Y-33.0323 F30.00
G01 X25.8012 Y-33.0371 F30.00
G01 X25.8115 Y-33.0412 F30.00
G01 X25.8185 Y-33.0435 F30.00
G01 X25.8291 Y-33.0464 F30.00
G01 X25.8400 Y-33.0484 F30.00
G01 X25.8510 Y-33.0496 F30.00
G01 X25.8620 Y-33.0500 F30.00
G01 X28.0020 Y-33.0500 F30.00
G01 X28.0094 Y-33.0498 F30.00
G01 X28.0204 Y-33.0489 F30.00
G01 X28.0313 Y-33.0471 F30.00
G01 X28.0384 Y-33.0455 F30.00
G01 X28.0491 Y-33.0424 F30.00
G01 X28.0560 Y-33.0399 F30.00
G01 X28.0661 Y-33.0356 F30.00
G01 X28.0759 Y-33.0305 F30.00
G01 X28.0853 Y-33.0247 F30.00
G01 X28.0914 Y-33.0205 F30.00
G01 X28.1000 Y-33.0136 F30.00
G01 X28.1081 Y-33.0061 F30.00
G01 X28.1131 Y-33.0007 F30.00
G01 X28.1203 Y-32.9923 F30.00
G01 X28.1267 Y-32.9833 F30.00
G01 X28.1325 Y-32.9739 F30.00
G01 X28.1376 Y-32.9641 F30.00
G01 X28.1419 Y-32.9540 F30.00
G01 X28.1455 Y-32.9435 F30.00
G01 X28.1475 Y-32.9364 F30.00
G01 X28.1498 Y-32.9256 F30.00
G01 X28.1509 Y-32.9184 F30.00
G01 X28.1518 Y-32.9074 F30.00
G01 X28.1520 Y-32.9000 F30.00
G01 X28.1520 Y-30.7563 F30.00
G01 X28.1509 Y-30.7416 F30.00
G01 X28.1484 Y-30.7271 F30.00
G01 X28.1466 Y-30.7200 F30.00
G01 X28.1432 Y-30.7095 F30.00
G01 X28.1376 Y-30.6959 F30.00
G01 X28.1307 Y-30.6829 F30.00
G01 X28.1225 Y-30.6706 F30.00
G01 X28.1131 Y-30.6593 F30.00
G01 X28.1054 Y-30.6514 F30.00
G01 X28.1000 Y-30.6464 F30.00
G01 X28.0914 Y-30.6395 F30.00
G01 X28.0791 Y-30.6313 F30.00
G01 X28.0661 Y-30.6244 F30.00
G01 X28.0560 Y-30.6201 F30.00
G01 X28.0455 Y-30.6165 F30.00
G01 X28.0313 Y-30.6129 F30.00
G01 X28.0167 Y-30.6107 F30.00
G01 X28.0057 Y-30.6100 F30.00
G01 X25.8620 Y-30.6100 F30.00
G01 X25.8473 Y-30.6107 F30.00
G01 X25.8327 Y-30.6129 F30.00
G01 X25.8220 Y-30.6154 F30.00
G01 X25.8115 Y-30.6188 F30.00
G01 X25.8012 Y-30.6229 F30.00
G01 X25.7913 Y-30.6277 F30.00
G01 X25.7818 Y-30.6333 F30.00
G01 X25.7726 Y-30.6395 F30.00
G01 X25.7640 Y-30.6464 F30.00
G01 X25.7559 Y-30.6539 F30.00
G01 X25.7484 Y-30.6620 F30.00
G01 X25.7415 Y-30.6706 F30.00
G01 X25.7353 Y-30.6798 F30.00
G01 X25.7297 Y-30.6893 F30.00
G01 X25.7249 Y-30.6992 F30.00
G01 X25.7208 Y-30.7095 F30.00
G01 X25.7185 Y-30.7165 F30.00
G01 X25.7156 Y-30.7271 F30.00
G01 X25.7131 Y-30.7416 F30.00
G01 X25.7122 Y-30.7526 F30.00
G01 X25.7120 Y-30.7600 F30.00
G01 X25.7120 Y-31.1797 F30.00
G01 X25.4953 Y-31.1797 F30.00
G01 X22.4943 Y-28.1787 F30.00
G01 X22.4943 Y-20.2700 F30.00
G01 X22.9140 Y-20.2700 F30.00
G01 X22.9287 Y-20.2693 F30.00
G01 X22.9433 Y-20.2671 F30.00
G01 X22.9540 Y-20.2646 F30.00
G01 X22.9645 Y-20.2612 F30.00
G01 X22.9748 Y-20.2571 F30.00
G01 X22.9847 Y-20.2523 F30.00
G01 X22.9942 Y-20.2467 F30.00
G01 X23.0034 Y-20.2405 F30.00
G01 X23.0120 Y-20.2336 F30.00
G01 X23.0201 Y-20.2261 F30.00
G01 X23.0251 Y-20.2207 F30.00
G01 X23.0323 Y-20.2123 F30.00
G01 X23.0387 Y-20.2033 F30.00
G01 X23.0445 Y-20.1939 F30.00
G01 X23.0496 Y-20.1841 F30.00
G01 X23.0539 Y-20.1740 F30.00
G01 X23.0575 Y-20.1635 F30.00
G01 X23.0604 Y-20.1529 F30.00
G01 X23.0624 Y-20.1420 F30.00
G01 X23.0633 Y-20.1347 F30.00
G01 X23.0640 Y-20.1200 F30.00
G01 X23.0640 Y-17.9763 F30.00
G01 X23.0629 Y-17.9616 F30.00
G01 X23.0604 Y-17.9471 F30.00
G01 X23.0564 Y-17.9329 F30.00
G01 X23.0511 Y-17.9192 F30.00
G01 X23.0445 Y-17.9061 F30.00
G01 X23.0366 Y-17.8936 F30.00
G01 X23.0276 Y-17.8820 F30.00
G01 X23.0174 Y-17.8714 F30.00
G01 X23.0063 Y-17.8617 F30.00
G01 X22.9973 Y-17.8553 F30.00
G01 X22.9847 Y-17.8477 F30.00
G01 X22.9714 Y-17.8414 F30.00
G01 X22.9575 Y-17.8365 F30.00
G01 X22.9469 Y-17.8336 F30.00
G01 X22.9324 Y-17.8311 F30.00
G01 X22.9177 Y-17.8300 F30.00
G01 X20.7740 Y-17.8300 F30.00
G01 X20.7593 Y-17.8307 F30.00
G01 X20.7447 Y-17.8329 F30.00
G01 X20.7376 Y-17.8345 F30.00
G01 X20.7269 Y-17.8376 F30.00
G01 X20.7132 Y-17.8429 F30.00
G01 X20.7001 Y-17.8495 F30.00
G01 X20.6876 Y-17.8574 F30.00
G01 X20.6760 Y-17.8664 F30.00
G01 X20.6654 Y-17.8766 F30.00
G01 X20.6580 Y-17.8848 F30.00
G01 X20.6493 Y-17.8967 F30.00
G01 X20.6417 Y-17.9093 F30.00
G01 X20.6354 Y-17.9226 F30.00
G01 X20.6305 Y-17.9365 F30.00
G01 X20.6276 Y-17.9471 F30.00
G01 X20.6251 Y-17.9616 F30.00
G01 X20.6240 Y-17.9763 F30.00
G01 X20.6242 Y-20.1274 F30.00
G01 X20.6256 Y-20.1420 F30.00
G01 X20.6285 Y-20.1564 F30.00
G01 X20.6328 Y-20.1705 F30.00
G01 X20.6369 Y-20.1808 F30.00
G01 X20.6435 Y-20.1939 F30.00
G01 X20.6514 Y-20.2064 F30.00
G01 X20.6604 Y-20.2180 F30.00
G01 X20.6706 Y-20.2286 F30.00
G01 X20.6817 Y-20.2383 F30.00
G01 X20.6938 Y-20.2467 F30.00
G01 X20.7066 Y-20.2540 F30.00
G01 X20.7200 Y-20.2599 F30.00
G01 X20.7340 Y-20.2646 F30.00
G01 X20.7484 Y-20.2678 F30.00
G01 X20.7630 Y-20.2696 F30.00
G01 X20.7740 Y-20.2700 F30.00
G00 Z2.0000
G00 X22.0440 Y-17.7300
G01 F45.00
G01 Z-0.0900
G01 F30.00
G01 X24.1877 Y-17.7300 F30.00
G01 X24.1950 Y-17.7296 F30.00
G01 X24.2060 Y-17.7284 F30.00
G01 X24.2204 Y-17.7255 F30.00
G01 X24.2345 Y-17.7212 F30.00
G01 X24.2448 Y-17.7171 F30.00
G01 X24.2514 Y-17.7140 F30.00
G01 X24.2642 Y-17.7067 F30.00
G01 X24.2763 Y-17.6983 F30.00
G01 X24.2847 Y-17.6911 F30.00
G01 X24.2901 Y-17.6861 F30.00
G01 X24.3000 Y-17.6752 F30.00
G01 X24.3087 Y-17.6633 F30.00
G01 X24.3145 Y-17.6539 F30.00
G01 X24.3211 Y-17.6408 F30.00
G01 X24.3252 Y-17.6305 F30.00
G01 X24.3295 Y-17.6164 F30.00
G01 X24.3318 Y-17.6056 F30.00
G01 X24.3333 Y-17.5947 F30.00
G01 X24.3340 Y-17.5837 F30.00
G01 X24.3340 Y-15.4400 F30.00
G01 X24.3336 Y-15.4290 F30.00
G01 X24.3318 Y-15.4144 F30.00
G01 X24.3295 Y-15.4036 F30.00
G01 X24.3264 Y-15.3929 F30.00
G01 X24.3226 Y-15.3826 F30.00
G01 X24.3180 Y-15.3726 F30.00
G01 X24.3127 Y-15.3629 F30.00
G01 X24.3066 Y-15.3536 F30.00
G01 X24.3000 Y-15.3448 F30.00
G01 X24.2926 Y-15.3366 F30.00
G01 X24.2847 Y-15.3289 F30.00
G01 X24.2763 Y-15.3217 F30.00
G01 X24.2673 Y-15.3153 F30.00
G01 X24.2579 Y-15.3095 F30.00
G01 X24.2481 Y-15.3044 F30.00
G01 X24.2380 Y-15.3001 F30.00
G01 X24.2275 Y-15.2965 F30.00
G01 X24.2169 Y-15.2936 F30.00
G01 X24.2024 Y-15.2911 F30.00
G01 X24.1914 Y-15.2902 F30.00
G01 X24.1840 Y-15.2900 F30.00
G01 X23.7643 Y-15.2900 F30.00
G01 X23.7643 Y-14.3943 F30.00
G01 X29.8883 Y-8.2703 F30.00
G01 X31.7347 Y-8.2703 F30.00
G01 X33.6657 Y-10.2013 F30.00
G01 X33.6657 Y-36.0267 F30.00
G01 X28.4407 Y-41.2517 F30.00
G01 X28.1520 Y-41.2517 F30.00
G01 X28.1520 Y-40.9163 F30.00
G01 X28.1516 Y-40.9090 F30.00
G01 X28.1504 Y-40.8980 F30.00
G01 X28.1484 Y-40.8871 F30.00
G01 X28.1466 Y-40.8800 F30.00
G01 X28.1432 Y-40.8695 F30.00
G01 X28.1391 Y-40.8592 F30.00
G01 X28.1343 Y-40.8493 F30.00
G01 X28.1287 Y-40.8398 F30.00
G01 X28.1225 Y-40.8306 F30.00
G01 X28.1156 Y-40.8220 F30.00
G01 X28.1081 Y-40.8139 F30.00
G01 X28.1000 Y-40.8064 F30.00
G01 X28.0914 Y-40.7995 F30.00
G01 X28.0822 Y-40.7933 F30.00
G01 X28.0727 Y-40.7877 F30.00
G01 X28.0628 Y-40.7829 F30.00
G01 X28.0560 Y-40.7801 F30.00
G01 X28.0455 Y-40.7765 F30.00
G01 X28.0349 Y-40.7736 F30.00
G01 X28.0240 Y-40.7716 F30.00
G01 X28.0130 Y-40.7704 F30.00
G01 X28.0020 Y-40.7700 F30.00
G01 X25.8583 Y-40.7700 F30.00
G01 X25.8436 Y-40.7711 F30.00
G01 X25.8364 Y-40.7722 F30.00
G01 X25.8256 Y-40.7745 F30.00
G01 X25.8115 Y-40.7788 F30.00
G01 X25.8012 Y-40.7829 F30.00
G01 X25.7946 Y-40.7860 F30.00
G01 X25.7818 Y-40.7933 F30.00
G01 X25.7756 Y-40.7974 F30.00
G01 X25.7668 Y-40.8040 F30.00
G01 X25.7586 Y-40.8114 F30.00
G01 X25.7534 Y-40.8166 F30.00
G01 X25.7437 Y-40.8277 F30.00
G01 X25.7353 Y-40.8398 F30.00
G01 X25.7297 Y-40.8493 F30.00
G01 X25.7249 Y-40.8592 F30.00
G01 X25.7208 Y-40.8695 F30.00
G01 X25.7174 Y-40.8800 F30.00
G01 X25.7149 Y-40.8907 F30.00
G01 X25.7127 Y-40.9053 F30.00
G01 X25.7120 Y-40.9163 F30.00
G01 X25.7120 Y-43.0600 F30.00
G01 X25.7127 Y-43.0747 F30.00
G01 X25.7149 Y-43.0893 F30.00
G01 X25.7185 Y-43.1035 F30.00
G01 X25.7234 Y-43.1174 F30.00
G01 X25.7297 Y-43.1307 F30.00
G01 X25.7373 Y-43.1433 F30.00
G01 X25.7460 Y-43.1552 F30.00
G01 X25.7534 Y-43.1634 F30.00
G01 X25.7640 Y-43.1736 F30.00
G01 X25.7756 Y-43.1826 F30.00
G01 X25.7881 Y-43.1905 F30.00
G01 X25.8012 Y-43.1971 F30.00
G01 X25.8149 Y-43.2024 F30.00
G01 X25.8291 Y-43.2064 F30.00
G01 X25.8436 Y-43.2089 F30.00
G01 X25.8583 Y-43.2100 F30.00
G01 X28.0020 Y-43.2100 F30.00
G01 X28.0167 Y-43.2093 F30.00
G01 X28.0240 Y-43.2084 F30.00
G01 X28.0349 Y-43.2064 F30.00
G01 X28.0455 Y-43.2035 F30.00
G01 X28.0560 Y-43.1999 F30.00
G01 X28.0661 Y-43.1956 F30.00
G01 X28.0759 Y-43.1905 F30.00
G01 X28.0853 Y-43.1847 F30.00
G01 X28.0943 Y-43.1783 F30.00
G01 X28.1027 Y-43.1711 F30.00
G01 X28.1106 Y-43.1634 F30.00
G01 X28.1180 Y-43.1552 F30.00
G01 X28.1246 Y-43.1464 F30.00
G01 X28.1307 Y-43.1371 F30.00
G01 X28.1360 Y-43.1274 F30.00
G01 X28.1406 Y-43.1174 F30.00
G01 X28.1444 Y-43.1071 F30.00
G01 X28.1475 Y-43.0964 F30.00
G01 X28.1498 Y-43.0856 F30.00
G01 X28.1516 Y-43.0710 F30.00
G01 X28.1520 Y-43.0600 F30.00
G01 X28.1520 Y-42.5523 F30.00
G01 X28.7137 Y-42.5522 F30.00
G01 X28.7737 Y-42.5491 F30.00
G01 X28.8296 Y-42.5410 F30.00
G01 X28.8440 Y-42.5381 F30.00
G01 X28.8917 Y-42.5262 F30.00
G01 X28.9057 Y-42.5219 F30.00
G01 X28.9588 Y-42.5028 F30.00
G01 X29.0099 Y-42.4788 F30.00
G01 X29.0229 Y-42.4718 F30.00
G01 X29.0713 Y-42.4427 F30.00
G01 X29.1167 Y-42.4092 F30.00
G01 X29.1281 Y-42.3998 F30.00
G01 X29.1698 Y-42.3618 F30.00
G01 X34.7784 Y-36.7532 F30.00
G01 X34.8187 Y-36.7085 F30.00
G01 X34.8524 Y-36.6633 F30.00
G01 X34.8606 Y-36.6510 F30.00
G01 X34.8895 Y-36.6025 F30.00
G01 X34.9138 Y-36.5516 F30.00
G01 X34.9194 Y-36.5380 F30.00
G01 X34.9383 Y-36.4848 F30.00
G01 X34.9538 Y-36.4229 F30.00
G01 X34.9631 Y-36.3597 F30.00
G01 X34.9663 Y-36.2960 F30.00
G01 X34.9663 Y-9.9320 F30.00
G01 X34.9637 Y-9.8756 F30.00
G01 X34.9622 Y-9.8610 F30.00
G01 X34.9538 Y-9.8051 F30.00
G01 X34.9383 Y-9.7432 F30.00
G01 X34.9194 Y-9.6900 F30.00
G01 X34.9138 Y-9.6764 F30.00
G01 X34.8895 Y-9.6255 F30.00
G01 X34.8587 Y-9.5738 F30.00
G01 X34.8524 Y-9.5647 F30.00
G01 X34.8187 Y-9.5195 F30.00
G01 X34.7758 Y-9.4722 F30.00
G01 X32.4638 Y-7.1602 F30.00
G01 X32.4165 Y-7.1173 F30.00
G01 X32.3653 Y-7.0793 F30.00
G01 X32.3105 Y-7.0465 F30.00
G01 X32.2562 Y-7.0207 F30.00
G01 X32.2460 Y-7.0166 F30.00
G01 X32.1928 Y-6.9977 F30.00
G01 X32.1309 Y-6.9822 F30.00
G01 X32.0677 Y-6.9729 F30.00
G01 X32.0077 Y-6.9698 F30.00
G01 X29.6152 Y-6.9698 F30.00
G01 X29.5552 Y-6.9729 F30.00
G01 X29.4993 Y-6.9810 F30.00
G01 X29.4849 Y-6.9839 F30.00
G01 X29.4302 Y-6.9977 F30.00
G01 X29.3769 Y-7.0166 F30.00
G01 X29.3633 Y-7.0222 F30.00
G01 X29.3124 Y-7.0465 F30.00
G01 X29.2607 Y-7.0773 F30.00
G01 X29.2516 Y-7.0836 F30.00
G01 X29.2064 Y-7.1173 F30.00
G01 X29.1591 Y-7.1602 F30.00
G01 X22.6542 Y-13.6651 F30.00
G01 X22.6113 Y-13.7124 F30.00
G01 X22.5733 Y-13.7637 F30.00
G01 X22.5442 Y-13.8120 F30.00
G01 X22.5372 Y-13.8250 F30.00
G01 X22.5132 Y-13.8761 F30.00
G01 X22.4941 Y-13.9292 F30.00
G01 X22.4898 Y-13.9432 F30.00
G01 X22.4762 Y-13.9981 F30.00
G01 X22.4678 Y-14.0539 F30.00
G01 X22.4666 Y-14.0648 F30.00
G01 X22.4637 Y-14.1249 F30.00
G01 X22.4637 Y-15.2900 F30.00
G01 X22.0440 Y-15.2900 F30.00
G01 X22.0293 Y-15.2907 F30.00
G01 X22.0220 Y-15.2916 F30.00
G01 X22.0111 Y-15.2936 F30.00
G01 X22.0005 Y-15.2965 F30.00
G01 X21.9900 Y-15.3001 F30.00
G01 X21.9799 Y-15.3044 F30.00
G01 X21.9669 Y-15.3113 F30.00
G01 X21.9576 Y-15.3174 F30.00
G01 X21.9488 Y-15.3240 F30.00
G01 X21.9406 Y-15.3314 F30.00
G01 X21.9329 Y-15.3393 F30.00
G01 X21.9257 Y-15.3477 F30.00
G01 X21.9193 Y-15.3567 F30.00
G01 X21.9117 Y-15.3693 F30.00
G01 X21.9069 Y-15.3792 F30.00
G01 X21.9028 Y-15.3895 F30.00
G01 X21.8994 Y-15.4000 F30.00
G01 X21.8969 Y-15.4107 F30.00
G01 X21.8951 Y-15.4216 F30.00
G01 X21.8942 Y-15.4326 F30.00
G01 X21.8940 Y-15.4400 F30.00
G01 X21.8940 Y-17.5800 F30.00
G01 X21.8944 Y-17.5910 F30.00
G01 X21.8962 Y-17.6056 F30.00
G01 X21.8994 Y-17.6200 F30.00
G01 X21.9041 Y-17.6340 F30.00
G01 X21.9100 Y-17.6474 F30.00
G01 X21.9173 Y-17.6602 F30.00
G01 X21.9257 Y-17.6723 F30.00
G01 X21.9354 Y-17.6834 F30.00
G01 X21.9433 Y-17.6911 F30.00
G01 X21.9546 Y-17.7005 F30.00
G01 X21.9669 Y-17.7087 F30.00
G01 X21.9799 Y-17.7156 F30.00
G01 X21.9900 Y-17.7199 F30.00
G01 X22.0005 Y-17.7235 F30.00
G01 X22.0147 Y-17.7271 F30.00
G01 X22.0293 Y-17.7293 F30.00
G01 X22.0440 Y-17.7300 F30.00
G00 Z2.0000
G00 X24.5840 Y-17.7300
G01 F45.00
G01 Z-0.0900
G01 F30.00
G01 X26.7277 Y-17.7300 F30.00
G01 X26.7350 Y-17.7296 F30.00
G01 X26.7460 Y-17.7284 F30.00
G01 X26.7569 Y-17.7264 F30.00
G01 X26.7640 Y-17.7246 F30.00
G01 X26.7745 Y-17.7212 F30.00
G01 X26.7814 Y-17.7186 F30.00
G01 X26.7914 Y-17.7140 F30.00
G01 X26.7979 Y-17.7105 F30.00
G01 X26.8073 Y-17.7047 F30.00
G01 X26.8134 Y-17.7005 F30.00
G01 X26.8247 Y-17.6911 F30.00
G01 X26.8326 Y-17.6834 F30.00
G01 X26.8376 Y-17.6780 F30.00
G01 X26.8423 Y-17.6723 F30.00
G01 X26.8487 Y-17.6633 F30.00
G01 X26.8545 Y-17.6539 F30.00
G01 X26.8596 Y-17.6441 F30.00
G01 X26.8639 Y-17.6340 F30.00
G01 X26.8675 Y-17.6235 F30.00
G01 X26.8704 Y-17.6129 F30.00
G01 X26.8724 Y-17.6020 F30.00
G01 X26.8736 Y-17.5910 F30.00
G01 X26.8740 Y-17.5800 F30.00
G01 X26.8740 Y-15.4400 F30.00
G01 X26.8736 Y-15.4290 F30.00
G01 X26.8729 Y-15.4216 F30.00
G01 X26.8711 Y-15.4107 F30.00
G01 X26.8686 Y-15.4000 F30.00
G01 X26.8639 Y-15.3860 F30.00
G01 X26.8596 Y-15.3759 F30.00
G01 X26.8545 Y-15.3661 F30.00
G01 X26.8487 Y-15.3567 F30.00
G01 X26.8423 Y-15.3477 F30.00
G01 X26.8351 Y-15.3393 F30.00
G01 X26.8274 Y-15.3314 F30.00
G01 X26.8192 Y-15.3240 F30.00
G01 X26.8104 Y-15.3174 F30.00
G01 X26.8011 Y-15.3113 F30.00
G01 X26.7914 Y-15.3060 F30.00
G01 X26.7814 Y-15.3014 F30.00
G01 X26.7675 Y-15.2965 F30.00
G01 X26.7569 Y-15.2936 F30.00
G01 X26.7424 Y-15.2911 F30.00
G01 X26.7314 Y-15.2902 F30.00
G01 X26.7240 Y-15.2900 F30.00
G01 X26.3043 Y-15.2900 F30.00
G01 X26.3043 Y-15.0775 F30.00
G01 X26.5075 Y-14.8743 F30.00
G01 X30.3227 Y-14.8743 F30.00
G01 X32.2557 Y-16.8073 F30.00
G01 X32.2557 Y-34.8967 F30.00
G01 X28.3527 Y-38.7997 F30.00
G01 X28.1520 Y-38.7997 F30.00
G01 X28.1520 Y-38.3800 F30.00
G01 X28.1518 Y-38.3726 F30.00
G01 X28.1509 Y-38.3616 F30.00
G01 X28.1484 Y-38.3471 F30.00
G01 X28.1455 Y-38.3365 F30.00
G01 X28.1432 Y-38.3295 F30.00
G01 X28.1391 Y-38.3192 F30.00
G01 X28.1343 Y-38.3093 F30.00
G01 X28.1287 Y-38.2998 F30.00
G01 X28.1225 Y-38.2906 F30.00
G01 X28.1156 Y-38.2820 F30.00
G01 X28.1081 Y-38.2739 F30.00
G01 X28.1000 Y-38.2664 F30.00
G01 X28.0914 Y-38.2595 F30.00
G01 X28.0822 Y-38.2533 F30.00
G01 X28.0727 Y-38.2477 F30.00
G01 X28.0628 Y-38.2429 F30.00
G01 X28.0525 Y-38.2388 F30.00
G01 X28.0420 Y-38.2354 F30.00
G01 X28.0313 Y-38.2329 F30.00
G01 X28.0167 Y-38.2307 F30.00
G01 X28.0020 Y-38.2300 F30.00
G01 X25.8583 Y-38.2300 F30.00
G01 X25.8436 Y-38.2311 F30.00
G01 X25.8364 Y-38.2322 F30.00
G01 X25.8256 Y-38.2345 F30.00
G01 X25.8149 Y-38.2376 F30.00
G01 X25.8080 Y-38.2401 F30.00
G01 X25.8012 Y-38.2429 F30.00
G01 X25.7913 Y-38.2477 F30.00
G01 X25.7849 Y-38.2513 F30.00
G01 X25.7756 Y-38.2574 F30.00
G01 X25.7640 Y-38.2664 F30.00
G01 X25.7586 Y-38.2714 F30.00
G01 X25.7509 Y-38.2793 F30.00
G01 X25.7415 Y-38.2906 F30.00
G01 X25.7353 Y-38.2998 F30.00
G01 X25.7297 Y-38.3093 F30.00
G01 X25.7249 Y-38.3192 F30.00
G01 X25.7208 Y-38.3295 F30.00
G01 X25.7174 Y-38.3400 F30.00
G01 X25.7149 Y-38.3507 F30.00
G01 X25.7127 Y-38.3653 F30.00
G01 X25.7120 Y-38.3763 F30.00
G01 X25.7120 Y-40.5200 F30.00
G01 X25.7127 Y-40.5347 F30.00
G01 X25.7149 Y-40.5493 F30.00
G01 X25.7185 Y-40.5635 F30.00
G01 X25.7234 Y-40.5774 F30.00
G01 X25.7297 Y-40.5907 F30.00
G01 X25.7373 Y-40.6033 F30.00
G01 X25.7460 Y-40.6152 F30.00
G01 X25.7534 Y-40.6234 F30.00
G01 X25.7640 Y-40.6336 F30.00
G01 X25.7756 Y-40.6426 F30.00
G01 X25.7881 Y-40.6505 F30.00
G01 X25.8012 Y-40.6571 F30.00
G01 X25.8149 Y-40.6624 F30.00
G01 X25.8291 Y-40.6664 F30.00
G01 X25.8436 Y-40.6689 F30.00
G01 X25.8583 Y-40.6700 F30.00
G01 X28.0020 Y-40.6700 F30.00
G01 X28.0130 Y-40.6696 F30.00
G01 X28.0240 Y-40.6684 F30.00
G01 X28.0349 Y-40.6664 F30.00
G01 X28.0455 Y-40.6635 F30.00
G01 X28.0560 Y-40.6599 F30.00
G01 X28.0661 Y-40.6556 F30.00
G01 X28.0759 Y-40.6505 F30.00
G01 X28.0853 Y-40.6447 F30.00
G01 X28.0972 Y-40.6360 F30.00
G01 X28.1054 Y-40.6286 F30.00
G01 X28.1131 Y-40.6207 F30.00
G01 X28.1203 Y-40.6123 F30.00
G01 X28.1267 Y-40.6033 F30.00
G01 X28.1325 Y-40.5939 F30.00
G01 X28.1376 Y-40.5841 F30.00
G01 X28.1419 Y-40.5740 F30.00
G01 X28.1455 Y-40.5635 F30.00
G01 X28.1484 Y-40.5529 F30.00
G01 X28.1504 Y-40.5420 F30.00
G01 X28.1513 Y-40.5347 F30.00
G01 X28.1520 Y-40.5200 F30.00
G01 X28.1520 Y-40.1003 F30.00
G01 X28.6257 Y-40.1002 F30.00
G01 X28.6857 Y-40.0971 F30.00
G01 X28.7452 Y-40.0884 F30.00
G01 X28.7560 Y-40.0861 F30.00
G01 X28.8037 Y-40.0742 F30.00
G01 X28.8177 Y-40.0699 F30.00
G01 X28.8708 Y-40.0508 F30.00
G01 X28.9219 Y-40.0268 F30.00
G01 X28.9349 Y-40.0198 F30.00
G01 X28.9833 Y-39.9907 F30.00
G01 X29.0287 Y-39.9572 F30.00
G01 X29.0401 Y-39.9478 F30.00
G01 X29.0818 Y-39.9098 F30.00
G01 X33.3684 Y-35.6232 F30.00
G01 X33.4087 Y-35.5785 F30.00
G01 X33.4424 Y-35.5333 F30.00
G01 X33.4506 Y-35.5210 F30.00
G01 X33.4795 Y-35.4725 F30.00
G01 X33.5038 Y-35.4216 F30.00
G01 X33.5094 Y-35.4080 F30.00
G01 X33.5283 Y-35.3548 F30.00
G01 X33.5430 Y-35.2965 F30.00
G01 X33.5450 Y-35.2856 F30.00
G01 X33.5531 Y-35.2297 F30.00
G01 X33.5563 Y-35.1660 F30.00
G01 X33.5563 Y-16.5380 F30.00
G01 X33.5531 Y-16.4742 F30.00
G01 X33.5450 Y-16.4184 F30.00
G01 X33.5421 Y-16.4039 F30.00
G01 X33.5302 Y-16.3563 F30.00
G01 X33.5259 Y-16.3422 F30.00
G01 X33.5068 Y-16.2891 F30.00
G01 X33.4795 Y-16.2314 F30.00
G01 X33.4506 Y-16.1829 F30.00
G01 X33.4424 Y-16.1707 F30.00
G01 X33.4087 Y-16.1254 F30.00
G01 X33.3684 Y-16.0808 F30.00
G01 X31.0492 Y-13.7616 F30.00
G01 X31.0046 Y-13.7213 F30.00
G01 X30.9533 Y-13.6833 F30.00
G01 X30.8986 Y-13.6505 F30.00
G01 X30.8476 Y-13.6262 F30.00
G01 X30.8375 Y-13.6219 F30.00
G01 X30.7808 Y-13.6017 F30.00
G01 X30.7189 Y-13.5862 F30.00
G01 X30.6558 Y-13.5769 F30.00
G01 X30.5920 Y-13.5737 F30.00
G01 X26.2382 Y-13.5737 F30.00
G01 X26.1818 Y-13.5763 F30.00
G01 X26.1672 Y-13.5778 F30.00
G01 X26.1113 Y-13.5862 F30.00
G01 X26.0565 Y-13.5998 F30.00
G01 X26.0425 Y-13.6041 F30.00
G01 X25.9894 Y-13.6232 F30.00
G01 X25.9383 Y-13.6472 F30.00
G01 X25.9253 Y-13.6542 F30.00
G01 X25.8769 Y-13.6833 F30.00
G01 X25.8257 Y-13.7213 F30.00
G01 X25.7784 Y-13.7642 F30.00
G01 X25.1942 Y-14.3484 F30.00
G01 X25.1513 Y-14.3957 F30.00
G01 X25.1133 Y-14.4469 F30.00
G01 X25.0805 Y-14.5017 F30.00
G01 X25.0562 Y-14.5526 F30.00
G01 X25.0506 Y-14.5662 F30.00
G01 X25.0317 Y-14.6194 F30.00
G01 X25.0179 Y-14.6742 F30.00
G01 X25.0150 Y-14.6886 F30.00
G01 X25.0073 Y-14.7408 F30.00
G01 X25.0063 Y-14.7518 F30.00
G01 X25.0037 Y-14.8082 F30.00
G01 X25.0037 Y-15.2900 F30.00
G01 X24.5840 Y-15.2900 F30.00
G01 X24.5693 Y-15.2907 F30.00
G01 X24.5584 Y-15.2922 F30.00
G01 X24.5511 Y-15.2936 F30.00
G01 X24.5405 Y-15.2965 F30.00
G01 X24.5300 Y-15.3001 F30.00
G01 X24.5232 Y-15.3029 F30.00
G01 X24.5133 Y-15.3077 F30.00
G01 X24.5038 Y-15.3133 F30.00
G01 X24.4976 Y-15.3174 F30.00
G01 X24.4888 Y-15.3240 F30.00
G01 X24.4833 Y-15.3289 F30.00
G01 X24.4754 Y-15.3366 F30.00
G01 X24.4680 Y-15.3448 F30.00
G01 X24.4614 Y-15.3536 F30.00
G01 X24.4553 Y-15.3629 F30.00
G01 X24.4517 Y-15.3693 F30.00
G01 X24.4469 Y-15.3792 F30.00
G01 X24.4441 Y-15.3860 F30.00
G01 X24.4394 Y-15.4000 F30.00
G01 X24.4369 Y-15.4107 F30.00
G01 X24.4347 Y-15.4253 F30.00
G01 X24.4340 Y-15.4400 F30.00
G01 X24.4342 Y-17.5874 F30.00
G01 X24.4356 Y-17.6020 F30.00
G01 X24.4385 Y-17.6164 F30.00
G01 X24.4416 Y-17.6271 F30.00
G01 X24.4469 Y-17.6408 F30.00
G01 X24.4535 Y-17.6539 F30.00
G01 X24.4614 Y-17.6664 F30.00
G01 X24.4704 Y-17.6780 F30.00
G01 X24.4806 Y-17.6886 F30.00
G01 X24.4917 Y-17.6983 F30.00
G01 X24.5038 Y-17.7067 F30.00
G01 X24.5166 Y-17.7140 F30.00
G01 X24.5300 Y-17.7199 F30.00
G01 X24.5405 Y-17.7235 F30.00
G01 X24.5547 Y-17.7271 F30.00
G01 X24.5693 Y-17.7293 F30.00
G01 X24.5840 Y-17.7300 F30.00
G00 Z2.0000
G00 X25.8620 Y-38.1300
G01 F45.00
G01 Z-0.0900
G01 F30.00
G01 X28.0020 Y-38.1300 F30.00
G01 X28.0130 Y-38.1296 F30.00
G01 X28.0204 Y-38.1289 F30.00
G01 X28.0313 Y-38.1271 F30.00
G01 X28.0420 Y-38.1246 F30.00
G01 X28.0525 Y-38.1212 F30.00
G01 X28.0628 Y-38.1171 F30.00
G01 X28.0727 Y-38.1123 F30.00
G01 X28.0822 Y-38.1067 F30.00
G01 X28.0914 Y-38.1005 F30.00
G01 X28.0972 Y-38.0960 F30.00
G01 X28.1081 Y-38.0861 F30.00
G01 X28.1156 Y-38.0780 F30.00
G01 X28.1203 Y-38.0723 F30.00
G01 X28.1287 Y-38.0602 F30.00
G01 X28.1325 Y-38.0539 F30.00
G01 X28.1376 Y-38.0441 F30.00
G01 X28.1432 Y-38.0305 F30.00
G01 X28.1475 Y-38.0164 F30.00
G01 X28.1498 Y-38.0056 F30.00
G01 X28.1509 Y-37.9984 F30.00
G01 X28.1516 Y-37.9910 F30.00
G01 X28.1520 Y-37.9800 F30.00
G01 X28.1520 Y-37.5603 F30.00
G01 X28.6257 Y-37.5602 F30.00
G01 X28.6857 Y-37.5571 F30.00
G01 X28.7452 Y-37.5484 F30.00
G01 X28.7560 Y-37.5461 F30.00
G01 X28.8037 Y-37.5342 F30.00
G01 X28.8177 Y-37.5299 F30.00
G01 X28.8708 Y-37.5108 F30.00
G01 X28.9219 Y-37.4868 F30.00
G01 X28.9349 Y-37.4798 F30.00
G01 X28.9833 Y-37.4507 F30.00
G01 X29.0287 Y-37.4172 F30.00
G01 X29.0373 Y-37.4103 F30.00
G01 X29.0818 Y-37.3698 F30.00
G01 X31.9584 Y-34.4932 F30.00
G01 X31.9987 Y-34.4485 F30.00
G01 X32.0324 Y-34.4033 F30.00
G01 X32.0406 Y-34.3910 F30.00
G01 X32.0695 Y-34.3425 F30.00
G01 X32.0968 Y-34.2848 F30.00
G01 X32.1159 Y-34.2317 F30.00
G01 X32.1202 Y-34.2177 F30.00
G01 X32.1321 Y-34.1700 F30.00
G01 X32.1350 Y-34.1556 F30.00
G01 X32.1431 Y-34.0997 F30.00
G01 X32.1463 Y-34.0360 F30.00
G01 X32.1463 Y-17.5780 F30.00
G01 X32.1431 Y-17.5143 F30.00
G01 X32.1350 Y-17.4584 F30.00
G01 X32.1321 Y-17.4440 F30.00
G01 X32.1202 Y-17.3963 F30.00
G01 X32.1159 Y-17.3823 F30.00
G01 X32.0968 Y-17.3292 F30.00
G01 X32.0695 Y-17.2715 F30.00
G01 X32.0406 Y-17.2230 F30.00
G01 X32.0324 Y-17.2107 F30.00
G01 X31.9987 Y-17.1655 F30.00
G01 X31.9609 Y-17.1235 F30.00
G01 X30.8852 Y-16.0476 F30.00
G01 X30.8461 Y-16.0122 F30.00
G01 X30.8347 Y-16.0028 F30.00
G01 X30.7893 Y-15.9693 F30.00
G01 X30.7409 Y-15.9402 F30.00
G01 X30.7279 Y-15.9332 F30.00
G01 X30.6768 Y-15.9092 F30.00
G01 X30.6168 Y-15.8877 F30.00
G01 X30.5549 Y-15.8722 F30.00
G01 X30.4990 Y-15.8638 F30.00
G01 X30.4844 Y-15.8623 F30.00
G01 X30.4280 Y-15.8597 F30.00
G01 X29.4140 Y-15.8597 F30.00
G01 X29.4140 Y-15.4400 F30.00
G01 X29.4138 Y-15.4326 F30.00
G01 X29.4129 Y-15.4216 F30.00
G01 X29.4104 Y-15.4071 F30.00
G01 X29.4075 Y-15.3965 F30.00
G01 X29.4039 Y-15.3860 F30.00
G01 X29.3996 Y-15.3759 F30.00
G01 X29.3945 Y-15.3661 F30.00
G01 X29.3887 Y-15.3567 F30.00
G01 X29.3823 Y-15.3477 F30.00
G01 X29.3751 Y-15.3393 F30.00
G01 X29.3674 Y-15.3314 F30.00
G01 X29.3592 Y-15.3240 F30.00
G01 X29.3504 Y-15.3174 F30.00
G01 X29.3411 Y-15.3113 F30.00
G01 X29.3281 Y-15.3044 F30.00
G01 X29.3180 Y-15.3001 F30.00
G01 X29.3075 Y-15.2965 F30.00
G01 X29.2969 Y-15.2936 F30.00
G01 X29.2860 Y-15.2916 F30.00
G01 X29.2750 Y-15.2904 F30.00
G01 X29.2640 Y-15.2900 F30.00
G01 X27.1203 Y-15.2900 F30.00
G01 X27.1056 Y-15.2911 F30.00
G01 X27.0911 Y-15.2936 F30.00
G01 X27.0769 Y-15.2976 F30.00
G01 X27.0632 Y-15.3029 F30.00
G01 X27.0501 Y-15.3095 F30.00
G01 X27.0376 Y-15.3174 F30.00
G01 X27.0288 Y-15.3240 F30.00
G01 X27.0179 Y-15.3339 F30.00
G01 X27.0080 Y-15.3448 F30.00
G01 X27.0014 Y-15.3536 F30.00
G01 X26.9935 Y-15.3661 F30.00
G01 X26.9869 Y-15.3792 F30.00
G01 X26.9816 Y-15.3929 F30.00
G01 X26.9776 Y-15.4071 F30.00
G01 X26.9751 Y-15.4216 F30.00
G01 X26.9740 Y-15.4363 F30.00
G01 X26.9740 Y-17.5800 F30.00
G01 X26.9744 Y-17.5910 F30.00
G01 X26.9762 Y-17.6056 F30.00
G01 X26.9794 Y-17.6200 F30.00
G01 X26.9828 Y-17.6305 F30.00
G01 X26.9884 Y-17.6441 F30.00
G01 X26.9953 Y-17.6571 F30.00
G01 X27.0035 Y-17.6694 F30.00
G01 X27.0129 Y-17.6807 F30.00
G01 X27.0206 Y-17.6886 F30.00
G01 X27.0317 Y-17.6983 F30.00
G01 X27.0407 Y-17.7047 F30.00
G01 X27.0501 Y-17.7105 F30.00
G01 X27.0632 Y-17.7171 F30.00
G01 X27.0735 Y-17.7212 F30.00
G01 X27.0876 Y-17.7255 F30.00
G01 X27.1020 Y-17.7284 F30.00
G01 X27.1166 Y-17.7298 F30.00
G01 X29.2640 Y-17.7300 F30.00
G01 X29.2750 Y-17.7296 F30.00
G01 X29.2824 Y-17.7289 F30.00
G01 X29.2933 Y-17.7271 F30.00
G01 X29.3075 Y-17.7235 F30.00
G01 X29.3180 Y-17.7199 F30.00
G01 X29.3281 Y-17.7156 F30.00
G01 X29.3379 Y-17.7105 F30.00
G01 X29.3473 Y-17.7047 F30.00
G01 X29.3563 Y-17.6983 F30.00
G01 X29.3647 Y-17.6911 F30.00
G01 X29.3726 Y-17.6834 F30.00
G01 X29.3800 Y-17.6752 F30.00
G01 X29.3866 Y-17.6664 F30.00
G01 X29.3927 Y-17.6571 F30.00
G01 X29.3980 Y-17.6474 F30.00
G01 X29.4026 Y-17.6374 F30.00
G01 X29.4075 Y-17.6235 F30.00
G01 X29.4104 Y-17.6129 F30.00
G01 X29.4129 Y-17.5984 F30.00
G01 X29.4138 Y-17.5874 F30.00
G01 X29.4140 Y-17.5800 F30.00
G01 X29.4140 Y-17.1603 F30.00
G01 X30.1587 Y-17.1603 F30.00
G01 X30.8457 Y-17.8473 F30.00
G01 X30.8457 Y-33.7667 F30.00
G01 X28.3527 Y-36.2597 F30.00
G01 X28.1520 Y-36.2597 F30.00
G01 X28.1520 Y-35.8400 F30.00
G01 X28.1518 Y-35.8326 F30.00
G01 X28.1509 Y-35.8216 F30.00
G01 X28.1484 Y-35.8071 F30.00
G01 X28.1455 Y-35.7965 F30.00
G01 X28.1432 Y-35.7895 F30.00
G01 X28.1391 Y-35.7792 F30.00
G01 X28.1343 Y-35.7693 F30.00
G01 X28.1287 Y-35.7598 F30.00
G01 X28.1225 Y-35.7506 F30.00
