(G-CODE GENERATED BY FLATCAM v8.994 - www.flatcam.org - Version Date: 2020/11/7)

(Name: Electrode_Breakout-F_Cu.gbr_iso_combined_cnc)
(Type: G-code from Geometry)
(Units: MM)

(Created on Sunday, 31 March 2024 at 23:15)

(This preprocessor is used with a motion controller loaded with GRBL firmware.)
(It is configured to be compatible with almost any version of GRBL firmware.)

(TOOL DIAMETER: 0.3 mm)
(Feedrate_XY: 35.0 mm/min)
(Feedrate_Z: 45.0 mm/min)
(Feedrate rapids 1500.0 mm/min)

(Z_Cut: -0.09 mm)
(Z_Move: 2.0 mm)
(Z Start: None mm)
(Z End: 15.0 mm)
(X,Y End: 0.0000, 0.0000 mm)
(Steps per circle: 64)
(Steps per circle: 64)
(Preprocessor Geometry: GRBL_11_no_M6)

(X range:   -0.1495 ...   30.3995  mm)
(Y range:  -65.8995 ...    0.1495  mm)

(Spindle Speed: 0.0 RPM)
G21
G90
G17
G94


G01 F35.00

M5             
G00 Z15.0000
G00 X0.0000 Y0.0000                
T2
(MSG, Change to Tool Dia = 0.3000)
M0
G00 Z15.0000
        
M03
G01 F35.00
G00 X-0.1495 Y-0.2045
G01 F45.00
G01 Z-0.0900
G01 F35.00
G01 X-0.1495 Y-65.5455 F35.00
G01 X-0.1486 Y-65.5623 F35.00
G01 X-0.1425 Y-65.6148 F35.00
G01 X-0.1404 Y-65.6254 F35.00
G01 X-0.1375 Y-65.6359 F35.00
G01 X-0.1339 Y-65.6461 F35.00
G01 X-0.1311 Y-65.6527 F35.00
G01 X-0.0885 Y-65.7411 F35.00
G01 X-0.0810 Y-65.7541 F35.00
G01 X-0.0723 Y-65.7662 F35.00
G01 X-0.0624 Y-65.7774 F35.00
G01 X-0.0514 Y-65.7876 F35.00
G01 X0.0284 Y-65.8511 F35.00
G01 X0.0410 Y-65.8592 F35.00
G01 X0.0509 Y-65.8644 F35.00
G01 X0.0612 Y-65.8689 F35.00
G01 X0.0754 Y-65.8737 F35.00
G01 X0.1748 Y-65.8965 F35.00
G01 X0.1896 Y-65.8988 F35.00
G01 X0.2045 Y-65.8995 F35.00
G01 X30.0455 Y-65.8995 F35.00
G01 X30.0623 Y-65.8986 F35.00
G01 X30.1148 Y-65.8925 F35.00
G01 X30.1219 Y-65.8911 F35.00
G01 X30.1324 Y-65.8885 F35.00
G01 X30.1427 Y-65.8852 F35.00
G01 X30.1527 Y-65.8811 F35.00
G01 X30.2411 Y-65.8385 F35.00
G01 X30.2541 Y-65.8310 F35.00
G01 X30.2662 Y-65.8223 F35.00
G01 X30.2774 Y-65.8124 F35.00
G01 X30.2876 Y-65.8014 F35.00
G01 X30.3511 Y-65.7216 F35.00
G01 X30.3592 Y-65.7090 F35.00
G01 X30.3644 Y-65.6991 F35.00
G01 X30.3703 Y-65.6853 F35.00
G01 X30.3737 Y-65.6746 F35.00
G01 X30.3965 Y-65.5752 F35.00
G01 X30.3988 Y-65.5604 F35.00
G01 X30.3995 Y-65.5455 F35.00
G01 X30.3995 Y-0.2045 F35.00
G01 X30.3986 Y-0.1877 F35.00
G01 X30.3925 Y-0.1352 F35.00
G01 X30.3904 Y-0.1246 F35.00
G01 X30.3875 Y-0.1141 F35.00
G01 X30.3852 Y-0.1073 F35.00
G01 X30.3811 Y-0.0973 F35.00
G01 X30.3385 Y-0.0089 F35.00
G01 X30.3310 Y0.0041 F35.00
G01 X30.3223 Y0.0162 F35.00
G01 X30.3124 Y0.0274 F35.00
G01 X30.3014 Y0.0376 F35.00
G01 X30.2216 Y0.1011 F35.00
G01 X30.2090 Y0.1092 F35.00
G01 X30.1991 Y0.1144 F35.00
G01 X30.1853 Y0.1203 F35.00
G01 X30.1746 Y0.1237 F35.00
G01 X30.0752 Y0.1465 F35.00
G01 X30.0604 Y0.1488 F35.00
G01 X30.0455 Y0.1495 F35.00
G01 X0.2045 Y0.1495 F35.00
G01 X0.1877 Y0.1486 F35.00
G01 X0.1352 Y0.1425 F35.00
G01 X0.1281 Y0.1411 F35.00
G01 X0.1176 Y0.1385 F35.00
G01 X0.1039 Y0.1339 F35.00
G01 X0.0940 Y0.1295 F35.00
G01 X0.0056 Y0.0867 F35.00
G01 X-0.0041 Y0.0810 F35.00
G01 X-0.0133 Y0.0746 F35.00
G01 X-0.0219 Y0.0675 F35.00
G01 X-0.0301 Y0.0597 F35.00
G01 X-0.0400 Y0.0485 F35.00
G01 X-0.0989 Y-0.0254 F35.00
G01 X-0.1073 Y-0.0378 F35.00
G01 X-0.1128 Y-0.0476 F35.00
G01 X-0.1160 Y-0.0543 F35.00
G01 X-0.1203 Y-0.0647 F35.00
G01 X-0.1247 Y-0.0790 F35.00
G01 X-0.1457 Y-0.1711 F35.00
G01 X-0.1483 Y-0.1858 F35.00
G01 X-0.1493 Y-0.1970 F35.00
G01 X-0.1495 Y-0.2045 F35.00
G00 Z2.0000
G00 X10.1201 Y-3.3794
G01 F45.00
G01 Z-0.0900
G01 F35.00
G01 X10.1570 Y-3.6239 F35.00
G01 X10.2298 Y-3.8602 F35.00
G01 X10.3371 Y-4.0830 F35.00
G01 X10.4764 Y-4.2873 F35.00
G01 X10.6446 Y-4.4686 F35.00
G01 X10.8380 Y-4.6228 F35.00
G01 X11.0521 Y-4.7464 F35.00
G01 X11.2823 Y-4.8368 F35.00
G01 X11.5234 Y-4.8918 F35.00
G01 X11.7083 Y-4.9057 F35.00
G01 X11.8317 Y-4.9057 F35.00
G01 X12.0166 Y-4.8918 F35.00
G01 X12.2577 Y-4.8368 F35.00
G01 X12.4879 Y-4.7464 F35.00
G01 X12.7020 Y-4.6228 F35.00
G01 X12.8954 Y-4.4686 F35.00
G01 X13.0636 Y-4.2873 F35.00
G01 X13.2029 Y-4.0830 F35.00
G01 X13.3102 Y-3.8602 F35.00
G01 X13.3830 Y-3.6239 F35.00
G01 X13.4199 Y-3.3794 F35.00
G01 X13.4199 Y-3.1321 F35.00
G01 X13.3830 Y-2.8876 F35.00
G01 X13.3102 Y-2.6513 F35.00
G01 X13.2029 Y-2.4285 F35.00
G01 X13.0636 Y-2.2242 F35.00
G01 X12.8954 Y-2.0429 F35.00
G01 X12.7020 Y-1.8887 F35.00
G01 X12.4879 Y-1.7651 F35.00
G01 X12.2577 Y-1.6747 F35.00
G01 X12.0166 Y-1.6197 F35.00
G01 X11.8317 Y-1.6058 F35.00
G01 X11.7083 Y-1.6058 F35.00
G01 X11.6761 Y-1.6083 F35.00
G01 X11.5234 Y-1.6197 F35.00
G01 X11.2823 Y-1.6747 F35.00
G01 X11.0521 Y-1.7651 F35.00
G01 X10.8380 Y-1.8887 F35.00
G01 X10.6446 Y-2.0429 F35.00
G01 X10.4764 Y-2.2242 F35.00
G01 X10.3371 Y-2.4285 F35.00
G01 X10.2298 Y-2.6513 F35.00
G01 X10.1570 Y-2.8876 F35.00
G01 X10.1201 Y-3.1321 F35.00
G01 X10.1201 Y-3.3794 F35.00
G00 Z2.0000
G00 X14.2600 Y-11.3408
G01 F45.00
G01 Z-0.0900
G01 F35.00
G01 X14.2600 Y-10.9210 F35.00
G01 X20.1658 Y-10.9210 F35.00
G01 X20.7790 Y-11.5342 F35.00
G01 X20.8234 Y-11.5747 F35.00
G01 X20.8320 Y-11.5816 F35.00
G01 X20.8775 Y-11.6151 F35.00
G01 X20.9322 Y-11.6479 F35.00
G01 X20.9899 Y-11.6752 F35.00
G01 X21.0465 Y-11.6955 F35.00
G01 X21.0571 Y-11.6986 F35.00
G01 X21.1047 Y-11.7105 F35.00
G01 X21.1191 Y-11.7134 F35.00
G01 X21.1750 Y-11.7215 F35.00
G01 X21.2351 Y-11.7246 F35.00
G01 X22.6858 Y-11.7247 F35.00
G01 X22.6858 Y-12.1444 F35.00
G01 X22.6865 Y-12.1591 F35.00
G01 X22.6886 Y-12.1737 F35.00
G01 X22.6912 Y-12.1844 F35.00
G01 X22.6945 Y-12.1949 F35.00
G01 X22.6972 Y-12.2018 F35.00
G01 X22.7018 Y-12.2118 F35.00
G01 X22.7071 Y-12.2215 F35.00
G01 X22.7131 Y-12.2308 F35.00
G01 X22.7198 Y-12.2396 F35.00
G01 X22.7271 Y-12.2478 F35.00
G01 X22.7323 Y-12.2530 F35.00
G01 X22.7406 Y-12.2604 F35.00
G01 X22.7494 Y-12.2670 F35.00
G01 X22.7586 Y-12.2731 F35.00
G01 X22.7683 Y-12.2784 F35.00
G01 X22.7750 Y-12.2815 F35.00
G01 X22.7852 Y-12.2856 F35.00
G01 X22.7957 Y-12.2890 F35.00
G01 X22.8029 Y-12.2908 F35.00
G01 X22.8137 Y-12.2928 F35.00
G01 X22.8247 Y-12.2940 F35.00
G01 X22.8358 Y-12.2944 F35.00
G01 X24.9758 Y-12.2944 F35.00
G01 X24.9868 Y-12.2940 F35.00
G01 X24.9941 Y-12.2933 F35.00
G01 X25.0050 Y-12.2915 F35.00
G01 X25.0193 Y-12.2879 F35.00
G01 X25.0332 Y-12.2830 F35.00
G01 X25.0432 Y-12.2784 F35.00
G01 X25.0529 Y-12.2731 F35.00
G01 X25.0651 Y-12.2649 F35.00
G01 X25.0737 Y-12.2580 F35.00
G01 X25.0844 Y-12.2478 F35.00
G01 X25.0940 Y-12.2367 F35.00
G01 X25.1025 Y-12.2246 F35.00
G01 X25.1097 Y-12.2118 F35.00
G01 X25.1143 Y-12.2018 F35.00
G01 X25.1193 Y-12.1879 F35.00
G01 X25.1221 Y-12.1773 F35.00
G01 X25.1241 Y-12.1664 F35.00
G01 X25.1256 Y-12.1518 F35.00
G01 X25.1258 Y-10.0044 F35.00
G01 X25.1256 Y-9.9970 F35.00
G01 X25.1246 Y-9.9860 F35.00
G01 X25.1221 Y-9.9715 F35.00
G01 X25.1193 Y-9.9609 F35.00
G01 X25.1143 Y-9.9470 F35.00
G01 X25.1097 Y-9.9370 F35.00
G01 X25.1025 Y-9.9242 F35.00
G01 X25.0962 Y-9.9150 F35.00
G01 X25.0869 Y-9.9037 F35.00
G01 X25.0765 Y-9.8933 F35.00
G01 X25.0680 Y-9.8861 F35.00
G01 X25.0560 Y-9.8777 F35.00
G01 X25.0432 Y-9.8704 F35.00
G01 X25.0332 Y-9.8658 F35.00
G01 X25.0228 Y-9.8620 F35.00
G01 X25.0086 Y-9.8580 F35.00
G01 X24.9978 Y-9.8560 F35.00
G01 X24.9831 Y-9.8546 F35.00
G01 X22.8358 Y-9.8544 F35.00
G01 X22.8284 Y-9.8546 F35.00
G01 X22.8174 Y-9.8555 F35.00
G01 X22.8029 Y-9.8580 F35.00
G01 X22.7922 Y-9.8609 F35.00
G01 X22.7818 Y-9.8645 F35.00
G01 X22.7716 Y-9.8688 F35.00
G01 X22.7618 Y-9.8739 F35.00
G01 X22.7524 Y-9.8797 F35.00
G01 X22.7435 Y-9.8861 F35.00
G01 X22.7350 Y-9.8933 F35.00
G01 X22.7271 Y-9.9010 F35.00
G01 X22.7198 Y-9.9092 F35.00
G01 X22.7131 Y-9.9180 F35.00
G01 X22.7071 Y-9.9273 F35.00
G01 X22.7018 Y-9.9370 F35.00
G01 X22.6972 Y-9.9470 F35.00
G01 X22.6933 Y-9.9573 F35.00
G01 X22.6894 Y-9.9715 F35.00
G01 X22.6869 Y-9.9860 F35.00
G01 X22.6859 Y-9.9970 F35.00
G01 X22.6858 Y-10.0044 F35.00
G01 X22.6858 Y-10.4241 F35.00
G01 X21.5081 Y-10.4241 F35.00
G01 X20.8949 Y-9.8110 F35.00
G01 X20.8532 Y-9.7729 F35.00
G01 X20.8447 Y-9.7658 F35.00
G01 X20.7964 Y-9.7301 F35.00
G01 X20.7480 Y-9.7009 F35.00
G01 X20.7351 Y-9.6940 F35.00
G01 X20.6839 Y-9.6700 F35.00
G01 X20.6309 Y-9.6508 F35.00
G01 X20.6168 Y-9.6465 F35.00
G01 X20.5620 Y-9.6330 F35.00
G01 X20.5061 Y-9.6245 F35.00
G01 X20.4915 Y-9.6231 F35.00
G01 X20.4351 Y-9.6205 F35.00
G01 X14.2600 Y-9.6205 F35.00
G01 X14.2600 Y-9.2008 F35.00
G01 X14.2593 Y-9.1860 F35.00
G01 X14.2571 Y-9.1715 F35.00
G01 X14.2546 Y-9.1607 F35.00
G01 X14.2512 Y-9.1502 F35.00
G01 X14.2486 Y-9.1433 F35.00
G01 X14.2440 Y-9.1333 F35.00
G01 X14.2387 Y-9.1236 F35.00
G01 X14.2326 Y-9.1144 F35.00
G01 X14.2260 Y-9.1056 F35.00
G01 X14.2186 Y-9.0973 F35.00
G01 X14.2107 Y-9.0896 F35.00
G01 X14.2023 Y-9.0825 F35.00
G01 X14.1933 Y-9.0760 F35.00
G01 X14.1839 Y-9.0702 F35.00
G01 X14.1741 Y-9.0652 F35.00
G01 X14.1640 Y-9.0608 F35.00
G01 X14.1535 Y-9.0572 F35.00
G01 X14.1429 Y-9.0544 F35.00
G01 X14.1320 Y-9.0524 F35.00
G01 X14.1247 Y-9.0515 F35.00
G01 X14.1100 Y-9.0508 F35.00
G01 X11.9663 Y-9.0508 F35.00
G01 X11.9516 Y-9.0519 F35.00
G01 X11.9371 Y-9.0544 F35.00
G01 X11.9229 Y-9.0583 F35.00
G01 X11.9092 Y-9.0636 F35.00
G01 X11.8961 Y-9.0702 F35.00
G01 X11.8836 Y-9.0781 F35.00
G01 X11.8720 Y-9.0872 F35.00
G01 X11.8614 Y-9.0973 F35.00
G01 X11.8517 Y-9.1085 F35.00
G01 X11.8433 Y-9.1205 F35.00
G01 X11.8360 Y-9.1333 F35.00
G01 X11.8314 Y-9.1433 F35.00
G01 X11.8265 Y-9.1572 F35.00
G01 X11.8229 Y-9.1715 F35.00
G01 X11.8211 Y-9.1824 F35.00
G01 X11.8200 Y-9.1971 F35.00
G01 X11.8200 Y-11.3408 F35.00
G01 X11.8207 Y-11.3555 F35.00
G01 X11.8229 Y-11.3700 F35.00
G01 X11.8265 Y-11.3843 F35.00
G01 X11.8314 Y-11.3982 F35.00
G01 X11.8360 Y-11.4082 F35.00
G01 X11.8395 Y-11.4147 F35.00
G01 X11.8474 Y-11.4271 F35.00
G01 X11.8564 Y-11.4387 F35.00
G01 X11.8666 Y-11.4494 F35.00
G01 X11.8748 Y-11.4567 F35.00
G01 X11.8867 Y-11.4655 F35.00
G01 X11.8993 Y-11.4730 F35.00
G01 X11.9126 Y-11.4793 F35.00
G01 X11.9229 Y-11.4832 F35.00
G01 X11.9371 Y-11.4871 F35.00
G01 X11.9516 Y-11.4896 F35.00
G01 X11.9663 Y-11.4907 F35.00
G01 X14.1174 Y-11.4906 F35.00
G01 X14.1284 Y-11.4896 F35.00
G01 X14.1429 Y-11.4871 F35.00
G01 X14.1571 Y-11.4832 F35.00
G01 X14.1708 Y-11.4779 F35.00
G01 X14.1839 Y-11.4713 F35.00
G01 X14.1964 Y-11.4634 F35.00
G01 X14.2080 Y-11.4543 F35.00
G01 X14.2186 Y-11.4442 F35.00
G01 X14.2283 Y-11.4330 F35.00
G01 X14.2347 Y-11.4241 F35.00
G01 X14.2423 Y-11.4115 F35.00
G01 X14.2486 Y-11.3982 F35.00
G01 X14.2535 Y-11.3843 F35.00
G01 X14.2571 Y-11.3700 F35.00
G01 X14.2593 Y-11.3555 F35.00
G01 X14.2600 Y-11.3408 F35.00
G00 Z2.0000
G00 X11.9700 Y-14.2307
G01 F45.00
G01 Z-0.0900
G01 F35.00
G01 X14.1100 Y-14.2307 F35.00
G01 X14.1174 Y-14.2306 F35.00
G01 X14.1284 Y-14.2296 F35.00
G01 X14.1393 Y-14.2279 F35.00
G01 X14.1464 Y-14.2263 F35.00
G01 X14.1535 Y-14.2243 F35.00
G01 X14.1640 Y-14.2207 F35.00
G01 X14.1741 Y-14.2163 F35.00
G01 X14.1839 Y-14.2113 F35.00
G01 X14.1933 Y-14.2055 F35.00
G01 X14.2023 Y-14.1990 F35.00
G01 X14.2107 Y-14.1919 F35.00
G01 X14.2186 Y-14.1842 F35.00
G01 X14.2236 Y-14.1787 F35.00
G01 X14.2305 Y-14.1701 F35.00
G01 X14.2367 Y-14.1610 F35.00
G01 X14.2423 Y-14.1515 F35.00
G01 X14.2471 Y-14.1415 F35.00
G01 X14.2512 Y-14.1313 F35.00
G01 X14.2546 Y-14.1208 F35.00
G01 X14.2571 Y-14.1100 F35.00
G01 X14.2593 Y-14.0955 F35.00
G01 X14.2600 Y-14.0807 F35.00
G01 X14.2600 Y-13.6610 F35.00
G01 X20.3150 Y-13.6610 F35.00
G01 X20.7282 Y-14.0742 F35.00
G01 X20.7754 Y-14.1171 F35.00
G01 X20.8267 Y-14.1551 F35.00
G01 X20.8814 Y-14.1879 F35.00
G01 X20.9391 Y-14.2152 F35.00
G01 X20.9922 Y-14.2343 F35.00
G01 X21.0063 Y-14.2386 F35.00
G01 X21.0611 Y-14.2522 F35.00
G01 X21.1169 Y-14.2606 F35.00
G01 X21.1316 Y-14.2621 F35.00
G01 X21.1843 Y-14.2646 F35.00
G01 X22.6858 Y-14.2647 F35.00
G01 X22.6858 Y-14.6844 F35.00
G01 X22.6865 Y-14.6991 F35.00
G01 X22.6886 Y-14.7137 F35.00
G01 X22.6912 Y-14.7244 F35.00
G01 X22.6945 Y-14.7349 F35.00
G01 X22.6972 Y-14.7418 F35.00
G01 X22.7018 Y-14.7518 F35.00
G01 X22.7071 Y-14.7615 F35.00
G01 X22.7131 Y-14.7708 F35.00
G01 X22.7198 Y-14.7796 F35.00
G01 X22.7271 Y-14.7878 F35.00
G01 X22.7323 Y-14.7930 F35.00
G01 X22.7406 Y-14.8004 F35.00
G01 X22.7494 Y-14.8070 F35.00
G01 X22.7586 Y-14.8131 F35.00
G01 X22.7683 Y-14.8184 F35.00
G01 X22.7783 Y-14.8230 F35.00
G01 X22.7887 Y-14.8268 F35.00
G01 X22.7993 Y-14.8299 F35.00
G01 X22.8101 Y-14.8322 F35.00
G01 X22.8174 Y-14.8333 F35.00
G01 X22.8247 Y-14.8340 F35.00
G01 X22.8358 Y-14.8344 F35.00
G01 X24.9758 Y-14.8344 F35.00
G01 X24.9868 Y-14.8340 F35.00
G01 X24.9941 Y-14.8333 F35.00
G01 X25.0050 Y-14.8315 F35.00
G01 X25.0193 Y-14.8279 F35.00
G01 X25.0332 Y-14.8230 F35.00
G01 X25.0432 Y-14.8184 F35.00
G01 X25.0529 Y-14.8131 F35.00
G01 X25.0651 Y-14.8049 F35.00
G01 X25.0737 Y-14.7980 F35.00
G01 X25.0844 Y-14.7878 F35.00
G01 X25.0940 Y-14.7767 F35.00
G01 X25.1025 Y-14.7646 F35.00
G01 X25.1097 Y-14.7518 F35.00
G01 X25.1143 Y-14.7418 F35.00
G01 X25.1193 Y-14.7279 F35.00
G01 X25.1221 Y-14.7173 F35.00
G01 X25.1241 Y-14.7064 F35.00
G01 X25.1256 Y-14.6918 F35.00
G01 X25.1258 Y-12.5444 F35.00
G01 X25.1256 Y-12.5370 F35.00
G01 X25.1246 Y-12.5260 F35.00
G01 X25.1221 Y-12.5115 F35.00
G01 X25.1193 Y-12.5009 F35.00
G01 X25.1143 Y-12.4870 F35.00
G01 X25.1097 Y-12.4770 F35.00
G01 X25.1025 Y-12.4642 F35.00
G01 X25.0962 Y-12.4550 F35.00
G01 X25.0869 Y-12.4437 F35.00
G01 X25.0765 Y-12.4333 F35.00
G01 X25.0680 Y-12.4261 F35.00
G01 X25.0560 Y-12.4177 F35.00
G01 X25.0432 Y-12.4104 F35.00
G01 X25.0332 Y-12.4058 F35.00
G01 X25.0228 Y-12.4020 F35.00
G01 X25.0086 Y-12.3980 F35.00
G01 X24.9978 Y-12.3960 F35.00
G01 X24.9831 Y-12.3946 F35.00
G01 X22.8358 Y-12.3944 F35.00
G01 X22.8284 Y-12.3946 F35.00
G01 X22.8174 Y-12.3955 F35.00
G01 X22.8029 Y-12.3980 F35.00
G01 X22.7922 Y-12.4009 F35.00
G01 X22.7818 Y-12.4045 F35.00
G01 X22.7716 Y-12.4088 F35.00
G01 X22.7618 Y-12.4139 F35.00
G01 X22.7524 Y-12.4197 F35.00
G01 X22.7435 Y-12.4261 F35.00
G01 X22.7350 Y-12.4333 F35.00
G01 X22.7271 Y-12.4410 F35.00
G01 X22.7198 Y-12.4492 F35.00
G01 X22.7131 Y-12.4580 F35.00
G01 X22.7071 Y-12.4673 F35.00
G01 X22.7018 Y-12.4770 F35.00
G01 X22.6972 Y-12.4870 F35.00
G01 X22.6933 Y-12.4973 F35.00
G01 X22.6894 Y-12.5115 F35.00
G01 X22.6869 Y-12.5260 F35.00
G01 X22.6859 Y-12.5370 F35.00
G01 X22.6858 Y-12.5444 F35.00
G01 X22.6858 Y-12.9641 F35.00
G01 X21.4573 Y-12.9641 F35.00
G01 X21.0441 Y-12.5510 F35.00
G01 X21.0024 Y-12.5129 F35.00
G01 X20.9910 Y-12.5036 F35.00
G01 X20.9456 Y-12.4701 F35.00
G01 X20.8972 Y-12.4409 F35.00
G01 X20.8843 Y-12.4340 F35.00
G01 X20.8331 Y-12.4100 F35.00
G01 X20.7800 Y-12.3908 F35.00
G01 X20.7660 Y-12.3865 F35.00
G01 X20.7112 Y-12.3730 F35.00
G01 X20.6517 Y-12.3640 F35.00
G01 X20.6407 Y-12.3631 F35.00
G01 X20.5843 Y-12.3605 F35.00
G01 X14.2600 Y-12.3605 F35.00
G01 X14.2600 Y-11.9408 F35.00
G01 X14.2593 Y-11.9260 F35.00
G01 X14.2571 Y-11.9115 F35.00
G01 X14.2546 Y-11.9007 F35.00
G01 X14.2512 Y-11.8902 F35.00
G01 X14.2486 Y-11.8833 F35.00
G01 X14.2440 Y-11.8733 F35.00
G01 X14.2387 Y-11.8636 F35.00
G01 X14.2326 Y-11.8544 F35.00
G01 X14.2260 Y-11.8456 F35.00
G01 X14.2186 Y-11.8373 F35.00
G01 X14.2107 Y-11.8296 F35.00
G01 X14.2023 Y-11.8225 F35.00
G01 X14.1964 Y-11.8181 F35.00
G01 X14.1871 Y-11.8121 F35.00
G01 X14.1774 Y-11.8068 F35.00
G01 X14.1674 Y-11.8022 F35.00
G01 X14.1571 Y-11.7983 F35.00
G01 X14.1464 Y-11.7952 F35.00
G01 X14.1393 Y-11.7936 F35.00
G01 X14.1284 Y-11.7919 F35.00
G01 X14.1210 Y-11.7912 F35.00
G01 X14.1100 Y-11.7908 F35.00
G01 X11.9700 Y-11.7908 F35.00
G01 X11.9590 Y-11.7912 F35.00
G01 X11.9516 Y-11.7919 F35.00
G01 X11.9407 Y-11.7936 F35.00
G01 X11.9265 Y-11.7972 F35.00
G01 X11.9126 Y-11.8022 F35.00
G01 X11.9026 Y-11.8068 F35.00
G01 X11.8898 Y-11.8140 F35.00
G01 X11.8777 Y-11.8225 F35.00
G01 X11.8693 Y-11.8296 F35.00
G01 X11.8589 Y-11.8400 F35.00
G01 X11.8517 Y-11.8485 F35.00
G01 X11.8433 Y-11.8605 F35.00
G01 X11.8360 Y-11.8733 F35.00
G01 X11.8314 Y-11.8833 F35.00
G01 X11.8276 Y-11.8937 F35.00
G01 X11.8236 Y-11.9079 F35.00
G01 X11.8216 Y-11.9187 F35.00
G01 X11.8202 Y-11.9334 F35.00
G01 X11.8200 Y-14.0807 F35.00
G01 X11.8207 Y-14.0955 F35.00
G01 X11.8229 Y-14.1100 F35.00
G01 X11.8265 Y-14.1243 F35.00
G01 X11.8314 Y-14.1382 F35.00
G01 X11.8377 Y-14.1515 F35.00
G01 X11.8453 Y-14.1641 F35.00
G01 X11.8540 Y-14.1759 F35.00
G01 X11.8639 Y-14.1868 F35.00
G01 X11.8748 Y-14.1967 F35.00
G01 X11.8867 Y-14.2055 F35.00
G01 X11.8993 Y-14.2130 F35.00
G01 X11.9126 Y-14.2193 F35.00
G01 X11.9265 Y-14.2243 F35.00
G01 X11.9407 Y-14.2279 F35.00
G01 X11.9553 Y-14.2300 F35.00
G01 X11.9700 Y-14.2307 F35.00
G00 Z2.0000
G00 X11.8200 Y-14.6808
G01 F45.00
G01 Z-0.0900
G01 F35.00
G01 X11.8202 Y-16.8281 F35.00
G01 X11.8216 Y-16.8428 F35.00
G01 X11.8236 Y-16.8536 F35.00
G01 X11.8276 Y-16.8678 F35.00
G01 X11.8314 Y-16.8782 F35.00
G01 X11.8360 Y-16.8882 F35.00
G01 X11.8413 Y-16.8979 F35.00
G01 X11.8495 Y-16.9101 F35.00
G01 X11.8564 Y-16.9187 F35.00
G01 X11.8639 Y-16.9268 F35.00
G01 X11.8748 Y-16.9367 F35.00
G01 X11.8836 Y-16.9434 F35.00
G01 X11.8961 Y-16.9513 F35.00
G01 X11.9059 Y-16.9563 F35.00
G01 X11.9160 Y-16.9607 F35.00
G01 X11.9300 Y-16.9653 F35.00
G01 X11.9407 Y-16.9679 F35.00
G01 X11.9553 Y-16.9700 F35.00
G01 X11.9700 Y-16.9707 F35.00
G01 X14.1100 Y-16.9707 F35.00
G01 X14.1174 Y-16.9706 F35.00
G01 X14.1284 Y-16.9696 F35.00
G01 X14.1356 Y-16.9685 F35.00
G01 X14.1464 Y-16.9663 F35.00
G01 X14.1571 Y-16.9632 F35.00
G01 X14.1640 Y-16.9607 F35.00
G01 X14.1741 Y-16.9563 F35.00
G01 X14.1839 Y-16.9513 F35.00
G01 X14.1933 Y-16.9455 F35.00
G01 X14.2023 Y-16.9390 F35.00
G01 X14.2107 Y-16.9319 F35.00
G01 X14.2186 Y-16.9242 F35.00
G01 X14.2260 Y-16.9159 F35.00
G01 X14.2326 Y-16.9071 F35.00
G01 X14.2387 Y-16.8979 F35.00
G01 X14.2440 Y-16.8882 F35.00
G01 X14.2486 Y-16.8782 F35.00
G01 X14.2524 Y-16.8678 F35.00
G01 X14.2555 Y-16.8572 F35.00
G01 X14.2571 Y-16.8500 F35.00
G01 X14.2593 Y-16.8355 F35.00
G01 X14.2600 Y-16.8207 F35.00
G01 X14.2600 Y-16.4010 F35.00
G01 X20.4642 Y-16.4010 F35.00
G01 X20.6800 Y-16.6168 F35.00
G01 X20.7246 Y-16.6571 F35.00
G01 X20.7729 Y-16.6930 F35.00
G01 X20.7821 Y-16.6990 F35.00
G01 X20.8306 Y-16.7279 F35.00
G01 X20.8883 Y-16.7552 F35.00
G01 X20.9484 Y-16.7767 F35.00
G01 X21.0031 Y-16.7905 F35.00
G01 X21.0139 Y-16.7928 F35.00
G01 X21.0734 Y-16.8015 F35.00
G01 X21.1372 Y-16.8047 F35.00
G01 X22.6858 Y-16.8047 F35.00
G01 X22.6858 Y-17.2244 F35.00
G01 X22.6865 Y-17.2391 F35.00
G01 X22.6874 Y-17.2464 F35.00
G01 X22.6894 Y-17.2573 F35.00
G01 X22.6922 Y-17.2679 F35.00
G01 X22.6958 Y-17.2784 F35.00
G01 X22.7002 Y-17.2885 F35.00
G01 X22.7052 Y-17.2983 F35.00
G01 X22.7110 Y-17.3077 F35.00
G01 X22.7175 Y-17.3167 F35.00
G01 X22.7246 Y-17.3251 F35.00
G01 X22.7323 Y-17.3330 F35.00
G01 X22.7406 Y-17.3404 F35.00
G01 X22.7494 Y-17.3470 F35.00
G01 X22.7586 Y-17.3531 F35.00
G01 X22.7683 Y-17.3584 F35.00
G01 X22.7783 Y-17.3630 F35.00
G01 X22.7887 Y-17.3668 F35.00
G01 X22.7993 Y-17.3699 F35.00
G01 X22.8101 Y-17.3722 F35.00
G01 X22.8210 Y-17.3737 F35.00
G01 X22.8358 Y-17.3744 F35.00
G01 X24.9831 Y-17.3742 F35.00
G01 X24.9978 Y-17.3728 F35.00
G01 X25.0086 Y-17.3708 F35.00
G01 X25.0193 Y-17.3679 F35.00
G01 X25.0332 Y-17.3630 F35.00
G01 X25.0432 Y-17.3584 F35.00
G01 X25.0529 Y-17.3531 F35.00
G01 X25.0621 Y-17.3470 F35.00
G01 X25.0737 Y-17.3380 F35.00
G01 X25.0844 Y-17.3278 F35.00
G01 X25.0917 Y-17.3196 F35.00
G01 X25.0984 Y-17.3108 F35.00
G01 X25.1063 Y-17.2983 F35.00
G01 X25.1113 Y-17.2885 F35.00
G01 X25.1157 Y-17.2784 F35.00
G01 X25.1203 Y-17.2644 F35.00
G01 X25.1229 Y-17.2537 F35.00
G01 X25.1250 Y-17.2391 F35.00
G01 X25.1258 Y-17.2244 F35.00
G01 X25.1256 Y-15.0770 F35.00
G01 X25.1241 Y-15.0624 F35.00
G01 X25.1221 Y-15.0515 F35.00
G01 X25.1193 Y-15.0409 F35.00
G01 X25.1143 Y-15.0270 F35.00
G01 X25.1097 Y-15.0170 F35.00
G01 X25.1025 Y-15.0042 F35.00
G01 X25.0962 Y-14.9950 F35.00
G01 X25.0893 Y-14.9864 F35.00
G01 X25.0818 Y-14.9783 F35.00
G01 X25.0737 Y-14.9708 F35.00
G01 X25.0621 Y-14.9618 F35.00
G01 X25.0529 Y-14.9557 F35.00
G01 X25.0432 Y-14.9504 F35.00
G01 X25.0297 Y-14.9445 F35.00
G01 X25.0193 Y-14.9409 F35.00
G01 X25.0050 Y-14.9373 F35.00
G01 X24.9905 Y-14.9351 F35.00
G01 X24.9758 Y-14.9344 F35.00
G01 X22.8358 Y-14.9344 F35.00
G01 X22.8247 Y-14.9348 F35.00
G01 X22.8137 Y-14.9360 F35.00
G01 X22.8029 Y-14.9380 F35.00
G01 X22.7922 Y-14.9409 F35.00
G01 X22.7818 Y-14.9445 F35.00
G01 X22.7716 Y-14.9488 F35.00
G01 X22.7618 Y-14.9539 F35.00
G01 X22.7524 Y-14.9597 F35.00
G01 X22.7435 Y-14.9661 F35.00
G01 X22.7350 Y-14.9733 F35.00
G01 X22.7271 Y-14.9810 F35.00
G01 X22.7198 Y-14.9892 F35.00
G01 X22.7131 Y-14.9980 F35.00
G01 X22.7071 Y-15.0073 F35.00
G01 X22.7018 Y-15.0170 F35.00
G01 X22.6972 Y-15.0270 F35.00
G01 X22.6933 Y-15.0373 F35.00
G01 X22.6894 Y-15.0515 F35.00
G01 X22.6869 Y-15.0660 F35.00
G01 X22.6859 Y-15.0770 F35.00
G01 X22.6858 Y-15.0844 F35.00
G01 X22.6858 Y-15.5041 F35.00
G01 X21.4065 Y-15.5041 F35.00
G01 X21.1907 Y-15.2884 F35.00
G01 X21.1460 Y-15.2481 F35.00
G01 X21.0948 Y-15.2101 F35.00
G01 X21.0464 Y-15.1809 F35.00
G01 X21.0335 Y-15.1740 F35.00
G01 X20.9823 Y-15.1500 F35.00
G01 X20.9292 Y-15.1308 F35.00
G01 X20.9152 Y-15.1265 F35.00
G01 X20.8604 Y-15.1130 F35.00
G01 X20.8045 Y-15.1045 F35.00
G01 X20.7936 Y-15.1033 F35.00
G01 X20.7335 Y-15.1005 F35.00
G01 X14.2600 Y-15.1005 F35.00
G01 X14.2600 Y-14.6808 F35.00
G01 X14.2593 Y-14.6660 F35.00
G01 X14.2584 Y-14.6587 F35.00
G01 X14.2564 Y-14.6479 F35.00
G01 X14.2535 Y-14.6372 F35.00
G01 X14.2499 Y-14.6268 F35.00
G01 X14.2456 Y-14.6166 F35.00
G01 X14.2405 Y-14.6068 F35.00
G01 X14.2347 Y-14.5974 F35.00
G01 X14.2283 Y-14.5885 F35.00
G01 X14.2211 Y-14.5800 F35.00
G01 X14.2134 Y-14.5721 F35.00
G01 X14.2052 Y-14.5648 F35.00
G01 X14.1964 Y-14.5581 F35.00
G01 X14.1871 Y-14.5521 F35.00
G01 X14.1774 Y-14.5468 F35.00
G01 X14.1674 Y-14.5422 F35.00
G01 X14.1571 Y-14.5383 F35.00
G01 X14.1464 Y-14.5352 F35.00
G01 X14.1356 Y-14.5330 F35.00
G01 X14.1210 Y-14.5312 F35.00
G01 X14.1100 Y-14.5308 F35.00
G01 X11.9700 Y-14.5308 F35.00
G01 X11.9590 Y-14.5312 F35.00
G01 X11.9444 Y-14.5330 F35.00
G01 X11.9300 Y-14.5362 F35.00
G01 X11.9160 Y-14.5408 F35.00
G01 X11.9026 Y-14.5468 F35.00
G01 X11.8898 Y-14.5540 F35.00
G01 X11.8777 Y-14.5625 F35.00
G01 X11.8693 Y-14.5696 F35.00
G01 X11.8589 Y-14.5800 F35.00
G01 X11.8517 Y-14.5885 F35.00
G01 X11.8433 Y-14.6005 F35.00
G01 X11.8360 Y-14.6133 F35.00
G01 X11.8301 Y-14.6268 F35.00
G01 X11.8265 Y-14.6372 F35.00
G01 X11.8229 Y-14.6515 F35.00
G01 X11.8207 Y-14.6660 F35.00
G01 X11.8200 Y-14.6808 F35.00
G00 Z2.0000
G00 X9.4300 Y-12.8608
G01 F45.00
G01 Z-0.0900
G01 F35.00
G01 X11.5737 Y-12.8607 F35.00
G01 X11.5810 Y-12.8603 F35.00
G01 X11.5920 Y-12.8591 F35.00
G01 X11.6029 Y-12.8571 F35.00
G01 X11.6135 Y-12.8543 F35.00
G01 X11.6240 Y-12.8507 F35.00
G01 X11.6308 Y-12.8479 F35.00
G01 X11.6374 Y-12.8447 F35.00
G01 X11.6471 Y-12.8394 F35.00
G01 X11.6564 Y-12.8334 F35.00
G01 X11.6623 Y-12.8290 F35.00
G01 X11.6707 Y-12.8219 F35.00
G01 X11.6786 Y-12.8142 F35.00
G01 X11.6836 Y-12.8087 F35.00
G01 X11.6905 Y-12.8001 F35.00
G01 X11.6967 Y-12.7910 F35.00
G01 X11.7005 Y-12.7847 F35.00
G01 X11.7056 Y-12.7749 F35.00
G01 X11.7086 Y-12.7682 F35.00
G01 X11.7124 Y-12.7578 F35.00
G01 X11.7155 Y-12.7472 F35.00
G01 X11.7171 Y-12.7400 F35.00
G01 X11.7189 Y-12.7291 F35.00
G01 X11.7196 Y-12.7218 F35.00
G01 X11.7200 Y-12.7108 F35.00
G01 X11.7200 Y-10.5708 F35.00
G01 X11.7193 Y-10.5560 F35.00
G01 X11.7178 Y-10.5451 F35.00
G01 X11.7164 Y-10.5379 F35.00
G01 X11.7135 Y-10.5272 F35.00
G01 X11.7099 Y-10.5168 F35.00
G01 X11.7056 Y-10.5066 F35.00
G01 X11.7005 Y-10.4968 F35.00
G01 X11.6947 Y-10.4874 F35.00
G01 X11.6883 Y-10.4785 F35.00
G01 X11.6811 Y-10.4700 F35.00
G01 X11.6734 Y-10.4621 F35.00
G01 X11.6652 Y-10.4548 F35.00
G01 X11.6564 Y-10.4481 F35.00
G01 X11.6471 Y-10.4421 F35.00
G01 X11.6407 Y-10.4385 F35.00
G01 X11.6308 Y-10.4336 F35.00
G01 X11.6205 Y-10.4295 F35.00
G01 X11.6100 Y-10.4262 F35.00
G01 X11.5993 Y-10.4236 F35.00
G01 X11.5847 Y-10.4215 F35.00
G01 X11.5700 Y-10.4208 F35.00
G01 X11.1503 Y-10.4208 F35.00
G01 X11.1503 Y-9.3501 F35.00
G01 X11.6459 Y-8.8545 F35.00
G01 X21.4349 Y-8.8545 F35.00
G01 X21.5772 Y-8.9968 F35.00
G01 X21.6219 Y-9.0371 F35.00
G01 X21.6671 Y-9.0708 F35.00
G01 X21.6794 Y-9.0790 F35.00
G01 X21.7215 Y-9.1042 F35.00
G01 X21.7345 Y-9.1112 F35.00
G01 X21.7856 Y-9.1352 F35.00
G01 X21.8387 Y-9.1543 F35.00
G01 X21.8492 Y-9.1577 F35.00
G01 X21.9004 Y-9.1705 F35.00
G01 X21.9148 Y-9.1734 F35.00
G01 X21.9707 Y-9.1815 F35.00
G01 X22.0307 Y-9.1846 F35.00
G01 X22.6858 Y-9.1847 F35.00
G01 X22.6858 Y-9.6044 F35.00
G01 X22.6865 Y-9.6191 F35.00
G01 X22.6886 Y-9.6337 F35.00
G01 X22.6912 Y-9.6444 F35.00
G01 X22.6945 Y-9.6549 F35.00
G01 X22.6972 Y-9.6618 F35.00
G01 X22.7018 Y-9.6718 F35.00
G01 X22.7071 Y-9.6815 F35.00
G01 X22.7131 Y-9.6908 F35.00
G01 X22.7198 Y-9.6996 F35.00
G01 X22.7271 Y-9.7078 F35.00
G01 X22.7323 Y-9.7130 F35.00
G01 X22.7406 Y-9.7204 F35.00
G01 X22.7494 Y-9.7270 F35.00
G01 X22.7586 Y-9.7331 F35.00
G01 X22.7683 Y-9.7384 F35.00
G01 X22.7783 Y-9.7430 F35.00
G01 X22.7887 Y-9.7468 F35.00
G01 X22.7993 Y-9.7499 F35.00
G01 X22.8101 Y-9.7522 F35.00
G01 X22.8174 Y-9.7533 F35.00
G01 X22.8247 Y-9.7540 F35.00
G01 X22.8358 Y-9.7544 F35.00
G01 X24.9758 Y-9.7544 F35.00
G01 X24.9905 Y-9.7537 F35.00
G01 X25.0050 Y-9.7515 F35.00
G01 X25.0193 Y-9.7479 F35.00
G01 X25.0332 Y-9.7430 F35.00
G01 X25.0432 Y-9.7384 F35.00
G01 X25.0529 Y-9.7331 F35.00
G01 X25.0651 Y-9.7249 F35.00
G01 X25.0737 Y-9.7180 F35.00
G01 X25.0844 Y-9.7078 F35.00
G01 X25.0940 Y-9.6967 F35.00
G01 X25.1025 Y-9.6846 F35.00
G01 X25.1097 Y-9.6718 F35.00
G01 X25.1143 Y-9.6618 F35.00
G01 X25.1193 Y-9.6479 F35.00
G01 X25.1221 Y-9.6373 F35.00
G01 X25.1241 Y-9.6264 F35.00
G01 X25.1256 Y-9.6118 F35.00
G01 X25.1258 Y-7.4644 F35.00
G01 X25.1250 Y-7.4497 F35.00
G01 X25.1235 Y-7.4388 F35.00
G01 X25.1203 Y-7.4244 F35.00
G01 X25.1170 Y-7.4139 F35.00
G01 X25.1129 Y-7.4036 F35.00
G01 X25.1080 Y-7.3937 F35.00
G01 X25.1025 Y-7.3842 F35.00
G01 X25.0962 Y-7.3750 F35.00
G01 X25.0893 Y-7.3664 F35.00
G01 X25.0818 Y-7.3583 F35.00
G01 X25.0737 Y-7.3508 F35.00
G01 X25.0651 Y-7.3439 F35.00
G01 X25.0560 Y-7.3377 F35.00
G01 X25.0465 Y-7.3321 F35.00
G01 X25.0365 Y-7.3273 F35.00
G01 X25.0263 Y-7.3232 F35.00
G01 X25.0158 Y-7.3198 F35.00
G01 X25.0050 Y-7.3173 F35.00
G01 X24.9941 Y-7.3155 F35.00
G01 X24.9831 Y-7.3146 F35.00
G01 X22.8358 Y-7.3144 F35.00
G01 X22.8210 Y-7.3151 F35.00
G01 X22.8065 Y-7.3173 F35.00
G01 X22.7957 Y-7.3198 F35.00
G01 X22.7852 Y-7.3232 F35.00
G01 X22.7750 Y-7.3273 F35.00
G01 X22.7650 Y-7.3321 F35.00
G01 X22.7555 Y-7.3377 F35.00
G01 X22.7464 Y-7.3439 F35.00
G01 X22.7378 Y-7.3508 F35.00
G01 X22.7297 Y-7.3583 F35.00
G01 X22.7222 Y-7.3664 F35.00
G01 X22.7175 Y-7.3721 F35.00
G01 X22.7110 Y-7.3811 F35.00
G01 X22.7052 Y-7.3905 F35.00
G01 X22.7002 Y-7.4003 F35.00
G01 X22.6958 Y-7.4104 F35.00
G01 X22.6922 Y-7.4209 F35.00
G01 X22.6894 Y-7.4315 F35.00
G01 X22.6869 Y-7.4460 F35.00
G01 X22.6859 Y-7.4570 F35.00
G01 X22.6858 Y-7.4644 F35.00
G01 X22.6858 Y-7.8841 F35.00
G01 X22.3037 Y-7.8841 F35.00
G01 X22.1640 Y-7.7444 F35.00
G01 X22.1195 Y-7.7039 F35.00
G01 X22.1109 Y-7.6970 F35.00
G01 X22.0655 Y-7.6635 F35.00
G01 X22.0140 Y-7.6325 F35.00
G01 X22.0041 Y-7.6274 F35.00
G01 X21.9530 Y-7.6034 F35.00
G01 X21.8999 Y-7.5843 F35.00
G01 X21.8859 Y-7.5800 F35.00
G01 X21.8311 Y-7.5664 F35.00
G01 X21.7752 Y-7.5580 F35.00
G01 X21.7606 Y-7.5565 F35.00
G01 X21.7079 Y-7.5540 F35.00
G01 X11.3766 Y-7.5539 F35.00
G01 X11.3128 Y-7.5571 F35.00
G01 X11.2569 Y-7.5652 F35.00
G01 X11.2425 Y-7.5681 F35.00
G01 X11.1949 Y-7.5800 F35.00
G01 X11.1808 Y-7.5843 F35.00
G01 X11.1346 Y-7.6008 F35.00
G01 X11.1210 Y-7.6064 F35.00
G01 X11.0700 Y-7.6307 F35.00
G01 X11.0215 Y-7.6596 F35.00
G01 X11.0093 Y-7.6678 F35.00
G01 X10.9640 Y-7.7015 F35.00
G01 X10.9194 Y-7.7418 F35.00
G01 X10.0376 Y-8.6236 F35.00
G01 X9.9973 Y-8.6682 F35.00
G01 X9.9593 Y-8.7195 F35.00
G01 X9.9265 Y-8.7742 F35.00
G01 X9.9022 Y-8.8252 F35.00
G01 X9.8966 Y-8.8388 F35.00
G01 X9.8777 Y-8.8920 F35.00
G01 X9.8622 Y-8.9539 F35.00
G01 X9.8529 Y-9.0170 F35.00
G01 X9.8498 Y-9.0771 F35.00
G01 X9.8497 Y-10.4208 F35.00
G01 X9.4300 Y-10.4208 F35.00
G01 X9.4190 Y-10.4212 F35.00
G01 X9.4044 Y-10.4230 F35.00
G01 X9.3936 Y-10.4252 F35.00
G01 X9.3829 Y-10.4283 F35.00
G01 X9.3726 Y-10.4322 F35.00
G01 X9.3659 Y-10.4352 F35.00
G01 X9.3561 Y-10.4402 F35.00
G01 X9.3498 Y-10.4440 F35.00
G01 X9.3406 Y-10.4503 F35.00
G01 X9.3320 Y-10.4572 F35.00
G01 X9.3266 Y-10.4621 F35.00
G01 X9.3189 Y-10.4700 F35.00
G01 X9.3117 Y-10.4785 F35.00
G01 X9.3053 Y-10.4874 F35.00
G01 X9.2995 Y-10.4968 F35.00
G01 X9.2944 Y-10.5066 F35.00
G01 X9.2914 Y-10.5133 F35.00
G01 X9.2876 Y-10.5237 F35.00
G01 X9.2836 Y-10.5379 F35.00
G01 X9.2816 Y-10.5487 F35.00
G01 X9.2804 Y-10.5597 F35.00
G01 X9.2800 Y-10.5708 F35.00
G01 X9.2802 Y-12.7181 F35.00
G01 X9.2816 Y-12.7328 F35.00
G01 X9.2845 Y-12.7472 F35.00
G01 X9.2888 Y-12.7613 F35.00
G01 X9.2944 Y-12.7749 F35.00
G01 X9.2995 Y-12.7847 F35.00
G01 X9.3074 Y-12.7971 F35.00
G01 X9.3164 Y-12.8087 F35.00
G01 X9.3266 Y-12.8194 F35.00
G01 X9.3377 Y-12.8290 F35.00
G01 X9.3498 Y-12.8375 F35.00
G01 X9.3626 Y-12.8447 F35.00
G01 X9.3760 Y-12.8507 F35.00
G01 X9.3900 Y-12.8553 F35.00
G01 X9.4044 Y-12.8585 F35.00
G01 X9.4190 Y-12.8603 F35.00
G01 X9.4300 Y-12.8608 F35.00
G00 Z2.0000
G00 X14.2600 Y-19.5607
G01 F45.00
G01 Z-0.0900
G01 F35.00
G01 X14.2600 Y-19.1410 F35.00
G01 X20.4102 Y-19.1410 F35.00
G01 X20.4287 Y-19.1593 F35.00
G01 X20.4651 Y-19.1922 F35.00
G01 X20.4764 Y-19.2016 F35.00
G01 X20.5219 Y-19.2351 F35.00
G01 X20.5702 Y-19.2642 F35.00
G01 X20.5799 Y-19.2696 F35.00
G01 X20.6343 Y-19.2952 F35.00
G01 X20.6944 Y-19.3167 F35.00
G01 X20.7563 Y-19.3322 F35.00
G01 X20.8194 Y-19.3415 F35.00
G01 X20.8832 Y-19.3447 F35.00
G01 X22.6858 Y-19.3447 F35.00
G01 X22.6858 Y-19.7644 F35.00
G01 X22.6865 Y-19.7791 F35.00
G01 X22.6874 Y-19.7864 F35.00
G01 X22.6894 Y-19.7973 F35.00
G01 X22.6922 Y-19.8079 F35.00
G01 X22.6958 Y-19.8184 F35.00
G01 X22.7002 Y-19.8285 F35.00
G01 X22.7052 Y-19.8383 F35.00
G01 X22.7110 Y-19.8477 F35.00
G01 X22.7175 Y-19.8567 F35.00
G01 X22.7246 Y-19.8651 F35.00
G01 X22.7323 Y-19.8730 F35.00
G01 X22.7406 Y-19.8804 F35.00
G01 X22.7494 Y-19.8870 F35.00
G01 X22.7586 Y-19.8931 F35.00
G01 X22.7683 Y-19.8984 F35.00
G01 X22.7783 Y-19.9030 F35.00
G01 X22.7887 Y-19.9068 F35.00
G01 X22.7993 Y-19.9099 F35.00
G01 X22.8101 Y-19.9122 F35.00
G01 X22.8210 Y-19.9137 F35.00
G01 X22.8358 Y-19.9144 F35.00
G01 X24.9758 Y-19.9144 F35.00
G01 X24.9905 Y-19.9137 F35.00
G01 X25.0014 Y-19.9122 F35.00
G01 X25.0158 Y-19.9090 F35.00
G01 X25.0263 Y-19.9056 F35.00
G01 X25.0399 Y-19.9000 F35.00
G01 X25.0497 Y-19.8949 F35.00
G01 X25.0591 Y-19.8891 F35.00
G01 X25.0709 Y-19.8804 F35.00
G01 X25.0792 Y-19.8730 F35.00
G01 X25.0893 Y-19.8624 F35.00
G01 X25.0984 Y-19.8508 F35.00
G01 X25.1044 Y-19.8415 F35.00
G01 X25.1097 Y-19.8318 F35.00
G01 X25.1143 Y-19.8218 F35.00
G01 X25.1193 Y-19.8079 F35.00
G01 X25.1221 Y-19.7973 F35.00
G01 X25.1241 Y-19.7864 F35.00
G01 X25.1256 Y-19.7718 F35.00
G01 X25.1258 Y-17.6244 F35.00
G01 X25.1250 Y-17.6097 F35.00
G01 X25.1235 Y-17.5988 F35.00
G01 X25.1203 Y-17.5844 F35.00
G01 X25.1170 Y-17.5739 F35.00
G01 X25.1113 Y-17.5603 F35.00
G01 X25.1063 Y-17.5505 F35.00
G01 X25.1005 Y-17.5411 F35.00
G01 X25.0917 Y-17.5292 F35.00
G01 X25.0844 Y-17.5210 F35.00
G01 X25.0737 Y-17.5108 F35.00
G01 X25.0621 Y-17.5018 F35.00
G01 X25.0529 Y-17.4957 F35.00
G01 X25.0432 Y-17.4904 F35.00
G01 X25.0332 Y-17.4858 F35.00
G01 X25.0193 Y-17.4809 F35.00
G01 X25.0086 Y-17.4780 F35.00
G01 X24.9978 Y-17.4760 F35.00
G01 X24.9831 Y-17.4746 F35.00
G01 X22.8358 Y-17.4744 F35.00
G01 X22.8284 Y-17.4746 F35.00
G01 X22.8174 Y-17.4755 F35.00
G01 X22.8065 Y-17.4773 F35.00
G01 X22.7957 Y-17.4798 F35.00
G01 X22.7852 Y-17.4832 F35.00
G01 X22.7750 Y-17.4873 F35.00
G01 X22.7650 Y-17.4921 F35.00
G01 X22.7555 Y-17.4977 F35.00
G01 X22.7464 Y-17.5039 F35.00
G01 X22.7350 Y-17.5133 F35.00
G01 X22.7271 Y-17.5210 F35.00
G01 X22.7198 Y-17.5292 F35.00
G01 X22.7131 Y-17.5380 F35.00
G01 X22.7071 Y-17.5473 F35.00
G01 X22.7018 Y-17.5570 F35.00
G01 X22.6972 Y-17.5670 F35.00
G01 X22.6922 Y-17.5809 F35.00
G01 X22.6894 Y-17.5915 F35.00
G01 X22.6869 Y-17.6060 F35.00
G01 X22.6859 Y-17.6170 F35.00
G01 X22.6858 Y-17.6244 F35.00
G01 X22.6858 Y-18.0441 F35.00
G01 X21.1525 Y-18.0441 F35.00
G01 X21.1367 Y-18.0284 F35.00
G01 X21.0948 Y-17.9905 F35.00
G01 X21.0862 Y-17.9836 F35.00
G01 X21.0438 Y-17.9522 F35.00
G01 X21.0345 Y-17.9461 F35.00
G01 X20.9860 Y-17.9173 F35.00
G01 X20.9317 Y-17.8914 F35.00
G01 X20.9215 Y-17.8873 F35.00
G01 X20.8683 Y-17.8685 F35.00
G01 X20.8064 Y-17.8530 F35.00
G01 X20.7432 Y-17.8436 F35.00
G01 X20.6832 Y-17.8405 F35.00
G01 X14.2600 Y-17.8405 F35.00
G01 X14.2600 Y-17.4208 F35.00
G01 X14.2593 Y-17.4060 F35.00
G01 X14.2571 Y-17.3915 F35.00
G01 X14.2555 Y-17.3843 F35.00
G01 X14.2524 Y-17.3737 F35.00
G01 X14.2486 Y-17.3633 F35.00
G01 X14.2440 Y-17.3533 F35.00
G01 X14.2387 Y-17.3436 F35.00
G01 X14.2326 Y-17.3344 F35.00
G01 X14.2260 Y-17.3256 F35.00
G01 X14.2186 Y-17.3173 F35.00
G01 X14.2107 Y-17.3096 F35.00
G01 X14.2023 Y-17.3025 F35.00
G01 X14.1933 Y-17.2960 F35.00
G01 X14.1839 Y-17.2902 F35.00
G01 X14.1741 Y-17.2852 F35.00
G01 X14.1640 Y-17.2808 F35.00
G01 X14.1535 Y-17.2772 F35.00
G01 X14.1429 Y-17.2744 F35.00
G01 X14.1320 Y-17.2724 F35.00
G01 X14.1247 Y-17.2715 F35.00
G01 X14.1100 Y-17.2708 F35.00
G01 X11.9663 Y-17.2708 F35.00
G01 X11.9516 Y-17.2719 F35.00
G01 X11.9371 Y-17.2744 F35.00
G01 X11.9229 Y-17.2783 F35.00
G01 X11.9092 Y-17.2836 F35.00
G01 X11.8961 Y-17.2902 F35.00
G01 X11.8836 Y-17.2981 F35.00
G01 X11.8720 Y-17.3072 F35.00
G01 X11.8614 Y-17.3173 F35.00
G01 X11.8540 Y-17.3256 F35.00
G01 X11.8453 Y-17.3374 F35.00
G01 X11.8377 Y-17.3500 F35.00
G01 X11.8314 Y-17.3633 F35.00
G01 X11.8265 Y-17.3772 F35.00
G01 X11.8229 Y-17.3915 F35.00
G01 X11.8211 Y-17.4024 F35.00
G01 X11.8200 Y-17.4171 F35.00
G01 X11.8200 Y-19.5607 F35.00
G01 X11.8207 Y-19.5755 F35.00
G01 X11.8229 Y-19.5900 F35.00
G01 X11.8265 Y-19.6043 F35.00
G01 X11.8314 Y-19.6182 F35.00
G01 X11.8377 Y-19.6315 F35.00
G01 X11.8453 Y-19.6441 F35.00
G01 X11.8540 Y-19.6559 F35.00
G01 X11.8589 Y-19.6615 F35.00
G01 X11.8666 Y-19.6694 F35.00
G01 X11.8777 Y-19.6790 F35.00
G01 X11.8898 Y-19.6875 F35.00
G01 X11.9026 Y-19.6947 F35.00
G01 X11.9126 Y-19.6993 F35.00
G01 X11.9265 Y-19.7043 F35.00
G01 X11.9371 Y-19.7071 F35.00
G01 X11.9516 Y-19.7096 F35.00
G01 X11.9663 Y-19.7107 F35.00
G01 X14.1174 Y-19.7106 F35.00
G01 X14.1320 Y-19.7091 F35.00
G01 X14.1464 Y-19.7063 F35.00
G01 X14.1571 Y-19.7032 F35.00
G01 X14.1708 Y-19.6979 F35.00
G01 X14.1839 Y-19.6913 F35.00
G01 X14.1964 Y-19.6834 F35.00
G01 X14.2080 Y-19.6743 F35.00
G01 X14.2186 Y-19.6642 F35.00
G01 X14.2283 Y-19.6530 F35.00
G01 X14.2367 Y-19.6410 F35.00
G01 X14.2440 Y-19.6282 F35.00
G01 X14.2499 Y-19.6147 F35.00
G01 X14.2546 Y-19.6008 F35.00
G01 X14.2578 Y-19.5864 F35.00
G01 X14.2596 Y-19.5718 F35.00
G01 X14.2600 Y-19.5607 F35.00
G00 Z2.0000
G00 X14.2600 Y-22.3007
G01 F45.00
G01 Z-0.0900
G01 F35.00
G01 X14.2600 Y-21.8810 F35.00
G01 X22.6858 Y-21.8810 F35.00
G01 X22.6858 Y-22.3044 F35.00
G01 X22.6865 Y-22.3191 F35.00
G01 X22.6886 Y-22.3337 F35.00
G01 X22.6912 Y-22.3444 F35.00
G01 X22.6945 Y-22.3549 F35.00
G01 X22.6972 Y-22.3618 F35.00
G01 X22.7018 Y-22.3718 F35.00
G01 X22.7071 Y-22.3815 F35.00
G01 X22.7131 Y-22.3908 F35.00
G01 X22.7198 Y-22.3996 F35.00
G01 X22.7271 Y-22.4078 F35.00
G01 X22.7350 Y-22.4155 F35.00
G01 X22.7435 Y-22.4227 F35.00
G01 X22.7524 Y-22.4291 F35.00
G01 X22.7618 Y-22.4349 F35.00
G01 X22.7683 Y-22.4384 F35.00
G01 X22.7783 Y-22.4430 F35.00
G01 X22.7887 Y-22.4468 F35.00
G01 X22.7993 Y-22.4499 F35.00
G01 X22.8101 Y-22.4522 F35.00
G01 X22.8174 Y-22.4533 F35.00
G01 X22.8284 Y-22.4542 F35.00
G01 X22.8358 Y-22.4544 F35.00
G01 X24.9758 Y-22.4544 F35.00
G01 X24.9905 Y-22.4537 F35.00
G01 X25.0050 Y-22.4515 F35.00
G01 X25.0158 Y-22.4490 F35.00
G01 X25.0297 Y-22.4443 F35.00
G01 X25.0399 Y-22.4400 F35.00
G01 X25.0497 Y-22.4349 F35.00
G01 X25.0591 Y-22.4291 F35.00
G01 X25.0709 Y-22.4204 F35.00
G01 X25.0792 Y-22.4130 F35.00
G01 X25.0893 Y-22.4024 F35.00
G01 X25.0984 Y-22.3908 F35.00
G01 X25.1044 Y-22.3815 F35.00
G01 X25.1097 Y-22.3718 F35.00
G01 X25.1143 Y-22.3618 F35.00
G01 X25.1193 Y-22.3479 F35.00
G01 X25.1221 Y-22.3373 F35.00
G01 X25.1241 Y-22.3264 F35.00
G01 X25.1256 Y-22.3118 F35.00
G01 X25.1258 Y-20.1644 F35.00
G01 X25.1250 Y-20.1497 F35.00
G01 X25.1229 Y-20.1351 F35.00
G01 X25.1203 Y-20.1244 F35.00
G01 X25.1157 Y-20.1104 F35.00
G01 X25.1113 Y-20.1003 F35.00
G01 X25.1063 Y-20.0905 F35.00
G01 X25.1005 Y-20.0811 F35.00
G01 X25.0917 Y-20.0692 F35.00
G01 X25.0844 Y-20.0610 F35.00
G01 X25.0737 Y-20.0508 F35.00
G01 X25.0621 Y-20.0418 F35.00
G01 X25.0529 Y-20.0357 F35.00
G01 X25.0432 Y-20.0304 F35.00
G01 X25.0332 Y-20.0258 F35.00
G01 X25.0193 Y-20.0209 F35.00
G01 X25.0086 Y-20.0180 F35.00
G01 X24.9978 Y-20.0160 F35.00
G01 X24.9831 Y-20.0146 F35.00
G01 X22.8358 Y-20.0144 F35.00
G01 X22.8247 Y-20.0148 F35.00
G01 X22.8101 Y-20.0166 F35.00
G01 X22.7993 Y-20.0189 F35.00
G01 X22.7887 Y-20.0220 F35.00
G01 X22.7783 Y-20.0258 F35.00
G01 X22.7683 Y-20.0304 F35.00
G01 X22.7586 Y-20.0357 F35.00
G01 X22.7494 Y-20.0418 F35.00
G01 X22.7406 Y-20.0484 F35.00
G01 X22.7323 Y-20.0558 F35.00
G01 X22.7246 Y-20.0637 F35.00
G01 X22.7175 Y-20.0721 F35.00
G01 X22.7110 Y-20.0811 F35.00
G01 X22.7052 Y-20.0905 F35.00
G01 X22.7002 Y-20.1003 F35.00
G01 X22.6958 Y-20.1104 F35.00
G01 X22.6922 Y-20.1209 F35.00
G01 X22.6894 Y-20.1315 F35.00
G01 X22.6880 Y-20.1388 F35.00
G01 X22.6865 Y-20.1497 F35.00
G01 X22.6858 Y-20.1644 F35.00
G01 X22.6858 Y-20.5805 F35.00
G01 X14.2600 Y-20.5805 F35.00
G01 X14.2600 Y-20.1607 F35.00
G01 X14.2593 Y-20.1460 F35.00
G01 X14.2571 Y-20.1315 F35.00
G01 X14.2555 Y-20.1243 F35.00
G01 X14.2524 Y-20.1137 F35.00
G01 X14.2486 Y-20.1033 F35.00
G01 X14.2440 Y-20.0933 F35.00
G01 X14.2387 Y-20.0836 F35.00
G01 X14.2326 Y-20.0744 F35.00
G01 X14.2260 Y-20.0656 F35.00
G01 X14.2186 Y-20.0573 F35.00
G01 X14.2107 Y-20.0496 F35.00
G01 X14.2023 Y-20.0425 F35.00
G01 X14.1933 Y-20.0360 F35.00
G01 X14.1839 Y-20.0302 F35.00
G01 X14.1741 Y-20.0252 F35.00
G01 X14.1640 Y-20.0208 F35.00
G01 X14.1535 Y-20.0172 F35.00
G01 X14.1429 Y-20.0144 F35.00
G01 X14.1320 Y-20.0124 F35.00
G01 X14.1247 Y-20.0115 F35.00
G01 X14.1100 Y-20.0107 F35.00
G01 X11.9663 Y-20.0108 F35.00
G01 X11.9516 Y-20.0119 F35.00
G01 X11.9371 Y-20.0144 F35.00
G01 X11.9229 Y-20.0183 F35.00
G01 X11.9092 Y-20.0236 F35.00
G01 X11.8961 Y-20.0302 F35.00
G01 X11.8836 Y-20.0381 F35.00
G01 X11.8720 Y-20.0472 F35.00
G01 X11.8614 Y-20.0573 F35.00
G01 X11.8540 Y-20.0656 F35.00
G01 X11.8453 Y-20.0774 F35.00
G01 X11.8377 Y-20.0900 F35.00
G01 X11.8314 Y-20.1033 F35.00
G01 X11.8265 Y-20.1172 F35.00
G01 X11.8229 Y-20.1315 F35.00
G01 X11.8211 Y-20.1424 F35.00
G01 X11.8200 Y-20.1571 F35.00
G01 X11.8200 Y-22.3007 F35.00
G01 X11.8207 Y-22.3155 F35.00
G01 X11.8229 Y-22.3300 F35.00
G01 X11.8265 Y-22.3443 F35.00
G01 X11.8314 Y-22.3582 F35.00
G01 X11.8377 Y-22.3715 F35.00
G01 X11.8453 Y-22.3841 F35.00
G01 X11.8540 Y-22.3959 F35.00
G01 X11.8589 Y-22.4015 F35.00
G01 X11.8666 Y-22.4094 F35.00
G01 X11.8777 Y-22.4190 F35.00
G01 X11.8898 Y-22.4275 F35.00
G01 X11.9026 Y-22.4347 F35.00
G01 X11.9126 Y-22.4393 F35.00
G01 X11.9265 Y-22.4443 F35.00
G01 X11.9371 Y-22.4471 F35.00
G01 X11.9516 Y-22.4496 F35.00
G01 X11.9663 Y-22.4507 F35.00
G01 X14.1174 Y-22.4506 F35.00
G01 X14.1320 Y-22.4491 F35.00
G01 X14.1464 Y-22.4463 F35.00
G01 X14.1571 Y-22.4432 F35.00
G01 X14.1708 Y-22.4379 F35.00
G01 X14.1839 Y-22.4313 F35.00
G01 X14.1964 Y-22.4234 F35.00
G01 X14.2080 Y-22.4143 F35.00
G01 X14.2186 Y-22.4042 F35.00
G01 X14.2283 Y-22.3930 F35.00
G01 X14.2367 Y-22.3810 F35.00
G01 X14.2440 Y-22.3682 F35.00
G01 X14.2499 Y-22.3547 F35.00
G01 X14.2546 Y-22.3408 F35.00
G01 X14.2578 Y-22.3264 F35.00
G01 X14.2596 Y-22.3118 F35.00
G01 X14.2600 Y-22.3007 F35.00
G00 Z2.0000
G00 X25.4448 Y-30.0220
G01 F45.00
G01 Z-0.0900
G01 F35.00
G01 X25.8648 Y-30.0220 F35.00
G01 X25.8758 Y-30.0224 F35.00
G01 X25.8868 Y-30.0236 F35.00
G01 X25.8976 Y-30.0256 F35.00
G01 X25.9083 Y-30.0285 F35.00
G01 X25.9187 Y-30.0321 F35.00
G01 X25.9322 Y-30.0380 F35.00
G01 X25.9419 Y-30.0433 F35.00
G01 X25.9511 Y-30.0494 F35.00
G01 X25.9599 Y-30.0560 F35.00
G01 X25.9708 Y-30.0659 F35.00
G01 X25.9807 Y-30.0768 F35.00
G01 X25.9895 Y-30.0887 F35.00
G01 X25.9970 Y-30.1013 F35.00
G01 X26.0033 Y-30.1146 F35.00
G01 X26.0083 Y-30.1285 F35.00
G01 X26.0119 Y-30.1427 F35.00
G01 X26.0140 Y-30.1573 F35.00
G01 X26.0148 Y-30.1720 F35.00
G01 X26.0148 Y-30.5920 F35.00
G01 X26.1248 Y-30.5920 F35.00
G01 X26.1248 Y-30.1515 F35.00
G01 X26.1151 Y-30.0906 F35.00
G01 X26.0777 Y-30.0173 F35.00
G01 X26.0195 Y-29.9590 F35.00
G01 X25.9461 Y-29.9216 F35.00
G01 X25.8852 Y-29.9120 F35.00
G01 X25.4448 Y-29.9120 F35.00
G01 X25.4448 Y-30.0220 F35.00
G00 Z2.0000
G00 X26.0148 Y-31.8920
G01 F45.00
G01 Z-0.0900
G01 F35.00
G01 X26.0148 Y-32.3120 F35.00
G01 X26.0143 Y-32.3230 F35.00
G01 X26.0131 Y-32.3340 F35.00
G01 X26.0111 Y-32.3449 F35.00
G01 X26.0083 Y-32.3555 F35.00
G01 X26.0047 Y-32.3660 F35.00
G01 X26.0003 Y-32.3761 F35.00
G01 X25.9953 Y-32.3859 F35.00
G01 X25.9874 Y-32.3984 F35.00
G01 X25.9807 Y-32.4072 F35.00
G01 X25.9708 Y-32.4181 F35.00
G01 X25.9599 Y-32.4280 F35.00
G01 X25.9481 Y-32.4367 F35.00
G01 X25.9355 Y-32.4443 F35.00
G01 X25.9222 Y-32.4506 F35.00
G01 X25.9083 Y-32.4555 F35.00
G01 X25.8940 Y-32.4591 F35.00
G01 X25.8795 Y-32.4613 F35.00
G01 X25.8648 Y-32.4620 F35.00
G01 X25.4448 Y-32.4620 F35.00
G01 X25.4448 Y-32.5720 F35.00
G01 X25.8852 Y-32.5720 F35.00
G01 X25.9461 Y-32.5624 F35.00
G01 X26.0195 Y-32.5250 F35.00
G01 X26.0777 Y-32.4667 F35.00
G01 X26.1151 Y-32.3933 F35.00
G01 X26.1248 Y-32.3325 F35.00
G01 X26.1248 Y-31.8920 F35.00
G01 X26.0148 Y-31.8920 F35.00
G00 Z2.0000
G00 X25.4448 Y-33.5780
G01 F45.00
G01 Z-0.0900
G01 F35.00
G01 X25.8648 Y-33.5780 F35.00
G01 X25.8758 Y-33.5784 F35.00
G01 X25.8868 Y-33.5796 F35.00
G01 X25.8976 Y-33.5816 F35.00
G01 X25.9083 Y-33.5845 F35.00
G01 X25.9187 Y-33.5881 F35.00
G01 X25.9289 Y-33.5924 F35.00
G01 X25.9387 Y-33.5975 F35.00
G01 X25.9511 Y-33.6054 F35.00
G01 X25.9599 Y-33.6120 F35.00
G01 X25.9708 Y-33.6219 F35.00
G01 X25.9807 Y-33.6328 F35.00
G01 X25.9895 Y-33.6447 F35.00
G01 X25.9970 Y-33.6573 F35.00
G01 X26.0033 Y-33.6706 F35.00
G01 X26.0083 Y-33.6845 F35.00
G01 X26.0119 Y-33.6987 F35.00
G01 X26.0140 Y-33.7133 F35.00
G01 X26.0148 Y-33.7280 F35.00
G01 X26.0148 Y-34.1480 F35.00
G01 X26.1248 Y-34.1480 F35.00
G01 X26.1248 Y-33.7075 F35.00
G01 X26.1151 Y-33.6466 F35.00
G01 X26.0777 Y-33.5733 F35.00
G01 X26.0195 Y-33.5150 F35.00
G01 X25.9461 Y-33.4776 F35.00
G01 X25.8852 Y-33.4680 F35.00
G01 X25.4448 Y-33.4680 F35.00
G01 X25.4448 Y-33.5780 F35.00
G00 Z2.0000
G00 X26.0148 Y-35.4480
G01 F45.00
G01 Z-0.0900
G01 F35.00
G01 X26.0148 Y-35.8680 F35.00
G01 X26.0143 Y-35.8790 F35.00
G01 X26.0131 Y-35.8900 F35.00
G01 X26.0111 Y-35.9009 F35.00
G01 X26.0083 Y-35.9115 F35.00
G01 X26.0047 Y-35.9220 F35.00
G01 X26.0003 Y-35.9321 F35.00
G01 X25.9953 Y-35.9419 F35.00
G01 X25.9874 Y-35.9544 F35.00
G01 X25.9807 Y-35.9632 F35.00
G01 X25.9708 Y-35.9741 F35.00
G01 X25.9599 Y-35.9840 F35.00
G01 X25.9481 Y-35.9927 F35.00
G01 X25.9355 Y-36.0003 F35.00
G01 X25.9222 Y-36.0066 F35.00
G01 X25.9083 Y-36.0115 F35.00
G01 X25.8940 Y-36.0151 F35.00
G01 X25.8795 Y-36.0173 F35.00
G01 X25.8648 Y-36.0180 F35.00
G01 X25.4448 Y-36.0180 F35.00
G01 X25.4448 Y-36.1280 F35.00
G01 X25.8852 Y-36.1280 F35.00
G01 X25.9461 Y-36.1184 F35.00
G01 X26.0195 Y-36.0810 F35.00
G01 X26.0777 Y-36.0227 F35.00
G01 X26.1151 Y-35.9493 F35.00
G01 X26.1248 Y-35.8885 F35.00
G01 X26.1248 Y-35.4480 F35.00
G01 X26.0148 Y-35.4480 F35.00
G00 Z2.0000
G00 X11.8200 Y-43.5370
G01 F45.00
G01 Z-0.0900
G01 F35.00
G01 X11.8202 Y-45.6844 F35.00
G01 X11.8216 Y-45.6990 F35.00
G01 X11.8236 Y-45.7099 F35.00
G01 X11.8265 Y-45.7205 F35.00
G01 X11.8314 Y-45.7344 F35.00
G01 X11.8360 Y-45.7444 F35.00
G01 X11.8433 Y-45.7573 F35.00
G01 X11.8495 Y-45.7664 F35.00
G01 X11.8564 Y-45.7750 F35.00
G01 X11.8639 Y-45.7831 F35.00
G01 X11.8748 Y-45.7930 F35.00
G01 X11.8867 Y-45.8017 F35.00
G01 X11.8961 Y-45.8075 F35.00
G01 X11.9092 Y-45.8141 F35.00
G01 X11.9195 Y-45.8182 F35.00
G01 X11.9336 Y-45.8225 F35.00
G01 X11.9444 Y-45.8248 F35.00
G01 X11.9553 Y-45.8263 F35.00
G01 X11.9700 Y-45.8270 F35.00
G01 X14.1100 Y-45.8270 F35.00
G01 X14.1174 Y-45.8268 F35.00
G01 X14.1284 Y-45.8259 F35.00
G01 X14.1356 Y-45.8248 F35.00
G01 X14.1464 Y-45.8225 F35.00
G01 X14.1571 Y-45.8194 F35.00
G01 X14.1674 Y-45.8156 F35.00
G01 X14.1774 Y-45.8110 F35.00
G01 X14.1871 Y-45.8057 F35.00
G01 X14.1933 Y-45.8017 F35.00
G01 X14.2023 Y-45.7953 F35.00
G01 X14.2107 Y-45.7881 F35.00
G01 X14.2186 Y-45.7804 F35.00
G01 X14.2260 Y-45.7722 F35.00
G01 X14.2326 Y-45.7634 F35.00
G01 X14.2387 Y-45.7541 F35.00
G01 X14.2440 Y-45.7444 F35.00
G01 X14.2486 Y-45.7344 F35.00
G01 X14.2524 Y-45.7241 F35.00
G01 X14.2555 Y-45.7134 F35.00
G01 X14.2571 Y-45.7063 F35.00
G01 X14.2593 Y-45.6917 F35.00
G01 X14.2600 Y-45.6770 F35.00
G01 X14.2600 Y-45.2573 F35.00
G01 X22.6858 Y-45.2573 F35.00
G01 X22.6858 Y-45.6770 F35.00
G01 X22.6865 Y-45.6917 F35.00
G01 X22.6874 Y-45.6990 F35.00
G01 X22.6894 Y-45.7099 F35.00
G01 X22.6922 Y-45.7205 F35.00
G01 X22.6958 Y-45.7310 F35.00
G01 X22.7002 Y-45.7411 F35.00
G01 X22.7052 Y-45.7509 F35.00
G01 X22.7110 Y-45.7603 F35.00
G01 X22.7175 Y-45.7693 F35.00
G01 X22.7246 Y-45.7777 F35.00
G01 X22.7323 Y-45.7856 F35.00
G01 X22.7406 Y-45.7930 F35.00
G01 X22.7494 Y-45.7996 F35.00
G01 X22.7586 Y-45.8057 F35.00
G01 X22.7683 Y-45.8110 F35.00
G01 X22.7783 Y-45.8156 F35.00
G01 X22.7887 Y-45.8194 F35.00
G01 X22.7993 Y-45.8225 F35.00
G01 X22.8101 Y-45.8248 F35.00
G01 X22.8210 Y-45.8263 F35.00
G01 X22.8358 Y-45.8270 F35.00
G01 X24.9831 Y-45.8268 F35.00
G01 X24.9941 Y-45.8259 F35.00
G01 X25.0086 Y-45.8234 F35.00
G01 X25.0228 Y-45.8194 F35.00
G01 X25.0332 Y-45.8156 F35.00
G01 X25.0432 Y-45.8110 F35.00
G01 X25.0560 Y-45.8037 F35.00
G01 X25.0651 Y-45.7975 F35.00
G01 X25.0765 Y-45.7881 F35.00
G01 X25.0844 Y-45.7804 F35.00
G01 X25.0940 Y-45.7693 F35.00
G01 X25.1005 Y-45.7603 F35.00
G01 X25.1063 Y-45.7509 F35.00
G01 X25.1113 Y-45.7411 F35.00
G01 X25.1170 Y-45.7275 F35.00
G01 X25.1203 Y-45.7170 F35.00
G01 X25.1235 Y-45.7026 F35.00
G01 X25.1250 Y-45.6917 F35.00
G01 X25.1258 Y-45.6770 F35.00
G01 X25.1256 Y-43.5296 F35.00
G01 X25.1241 Y-43.5150 F35.00
G01 X25.1221 Y-43.5041 F35.00
G01 X25.1193 Y-43.4935 F35.00
G01 X25.1143 Y-43.4796 F35.00
G01 X25.1097 Y-43.4696 F35.00
G01 X25.1025 Y-43.4568 F35.00
G01 X25.0962 Y-43.4476 F35.00
G01 X25.0893 Y-43.4390 F35.00
G01 X25.0792 Y-43.4284 F35.00
G01 X25.0709 Y-43.4210 F35.00
G01 X25.0591 Y-43.4123 F35.00
G01 X25.0497 Y-43.4065 F35.00
G01 X25.0365 Y-43.3999 F35.00
G01 X25.0263 Y-43.3958 F35.00
G01 X25.0122 Y-43.3915 F35.00
G01 X25.0014 Y-43.3892 F35.00
G01 X24.9905 Y-43.3877 F35.00
G01 X24.9758 Y-43.3870 F35.00
G01 X22.8358 Y-43.3870 F35.00
G01 X22.8284 Y-43.3872 F35.00
G01 X22.8174 Y-43.3881 F35.00
G01 X22.8065 Y-43.3899 F35.00
G01 X22.7993 Y-43.3915 F35.00
G01 X22.7887 Y-43.3946 F35.00
G01 X22.7783 Y-43.3984 F35.00
G01 X22.7683 Y-43.4030 F35.00
G01 X22.7586 Y-43.4083 F35.00
G01 X22.7524 Y-43.4123 F35.00
G01 X22.7435 Y-43.4187 F35.00
G01 X22.7350 Y-43.4259 F35.00
G01 X22.7271 Y-43.4336 F35.00
G01 X22.7198 Y-43.4418 F35.00
G01 X22.7131 Y-43.4506 F35.00
G01 X22.7071 Y-43.4599 F35.00
G01 X22.7018 Y-43.4696 F35.00
G01 X22.6972 Y-43.4796 F35.00
G01 X22.6945 Y-43.4865 F35.00
G01 X22.6912 Y-43.4970 F35.00
G01 X22.6886 Y-43.5077 F35.00
G01 X22.6865 Y-43.5223 F35.00
G01 X22.6858 Y-43.5370 F35.00
G01 X22.6858 Y-43.9568 F35.00
G01 X14.2600 Y-43.9568 F35.00
G01 X14.2600 Y-43.5370 F35.00
G01 X14.2593 Y-43.5223 F35.00
G01 X14.2578 Y-43.5114 F35.00
G01 X14.2564 Y-43.5041 F35.00
G01 X14.2535 Y-43.4935 F35.00
G01 X14.2499 Y-43.4830 F35.00
G01 X14.2456 Y-43.4729 F35.00
G01 X14.2405 Y-43.4631 F35.00
G01 X14.2347 Y-43.4537 F35.00
G01 X14.2283 Y-43.4447 F35.00
G01 X14.2211 Y-43.4363 F35.00
G01 X14.2134 Y-43.4284 F35.00
G01 X14.2052 Y-43.4210 F35.00
G01 X14.1964 Y-43.4144 F35.00
G01 X14.1871 Y-43.4083 F35.00
G01 X14.1774 Y-43.4030 F35.00
G01 X14.1674 Y-43.3984 F35.00
G01 X14.1571 Y-43.3946 F35.00
G01 X14.1464 Y-43.3915 F35.00
G01 X14.1356 Y-43.3892 F35.00
G01 X14.1247 Y-43.3877 F35.00
G01 X14.1100 Y-43.3870 F35.00
G01 X11.9700 Y-43.3870 F35.00
G01 X11.9590 Y-43.3874 F35.00
G01 X11.9444 Y-43.3892 F35.00
G01 X11.9300 Y-43.3924 F35.00
G01 X11.9160 Y-43.3971 F35.00
G01 X11.9026 Y-43.4030 F35.00
G01 X11.8929 Y-43.4083 F35.00
G01 X11.8806 Y-43.4165 F35.00
G01 X11.8693 Y-43.4259 F35.00
G01 X11.8589 Y-43.4363 F35.00
G01 X11.8517 Y-43.4447 F35.00
G01 X11.8433 Y-43.4568 F35.00
G01 X11.8360 Y-43.4696 F35.00
G01 X11.8301 Y-43.4830 F35.00
G01 X11.8254 Y-43.4970 F35.00
G01 X11.8229 Y-43.5077 F35.00
G01 X11.8207 Y-43.5223 F35.00
G01 X11.8200 Y-43.5370 F35.00
G00 Z2.0000
G00 X14.2600 Y-48.4170
G01 F45.00
G01 Z-0.0900
G01 F35.00
G01 X14.2600 Y-47.9973 F35.00
G01 X21.7217 Y-47.9972 F35.00
G01 X21.7817 Y-47.9941 F35.00
G01 X21.8449 Y-47.9848 F35.00
G01 X21.9068 Y-47.9693 F35.00
G01 X21.9600 Y-47.9504 F35.00
G01 X21.9702 Y-47.9463 F35.00
G01 X22.0245 Y-47.9205 F35.00
G01 X22.0730 Y-47.8916 F35.00
G01 X22.0823 Y-47.8856 F35.00
G01 X22.1305 Y-47.8497 F35.00
G01 X22.1725 Y-47.8119 F35.00
G01 X22.1873 Y-47.7973 F35.00
G01 X22.6858 Y-47.7973 F35.00
G01 X22.6858 Y-48.2170 F35.00
G01 X22.6865 Y-48.2317 F35.00
G01 X22.6874 Y-48.2390 F35.00
G01 X22.6894 Y-48.2499 F35.00
G01 X22.6922 Y-48.2605 F35.00
G01 X22.6958 Y-48.2710 F35.00
G01 X22.7002 Y-48.2811 F35.00
G01 X22.7052 Y-48.2909 F35.00
G01 X22.7110 Y-48.3003 F35.00
G01 X22.7175 Y-48.3093 F35.00
G01 X22.7246 Y-48.3177 F35.00
G01 X22.7323 Y-48.3256 F35.00
G01 X22.7406 Y-48.3330 F35.00
G01 X22.7494 Y-48.3396 F35.00
G01 X22.7586 Y-48.3457 F35.00
G01 X22.7683 Y-48.3510 F35.00
G01 X22.7783 Y-48.3556 F35.00
G01 X22.7887 Y-48.3594 F35.00
G01 X22.7993 Y-48.3625 F35.00
G01 X22.8065 Y-48.3641 F35.00
G01 X22.8210 Y-48.3663 F35.00
G01 X22.8358 Y-48.3670 F35.00
G01 X24.9758 Y-48.3670 F35.00
G01 X24.9905 Y-48.3663 F35.00
G01 X25.0014 Y-48.3648 F35.00
G01 X25.0086 Y-48.3634 F35.00
G01 X25.0228 Y-48.3594 F35.00
G01 X25.0332 Y-48.3556 F35.00
G01 X25.0432 Y-48.3510 F35.00
G01 X25.0529 Y-48.3457 F35.00
G01 X25.0651 Y-48.3375 F35.00
G01 X25.0737 Y-48.3306 F35.00
G01 X25.0818 Y-48.3231 F35.00
G01 X25.0917 Y-48.3122 F35.00
G01 X25.0984 Y-48.3034 F35.00
G01 X25.1063 Y-48.2909 F35.00
G01 X25.1113 Y-48.2811 F35.00
G01 X25.1157 Y-48.2710 F35.00
G01 X25.1193 Y-48.2605 F35.00
G01 X25.1221 Y-48.2499 F35.00
G01 X25.1241 Y-48.2390 F35.00
G01 X25.1256 Y-48.2244 F35.00
G01 X25.1258 Y-46.0770 F35.00
G01 X25.1250 Y-46.0623 F35.00
G01 X25.1241 Y-46.0550 F35.00
G01 X25.1221 Y-46.0441 F35.00
G01 X25.1193 Y-46.0335 F35.00
G01 X25.1143 Y-46.0196 F35.00
G01 X25.1097 Y-46.0096 F35.00
G01 X25.1044 Y-45.9999 F35.00
G01 X25.0984 Y-45.9906 F35.00
G01 X25.0917 Y-45.9818 F35.00
G01 X25.0818 Y-45.9709 F35.00
G01 X25.0737 Y-45.9634 F35.00
G01 X25.0651 Y-45.9565 F35.00
G01 X25.0529 Y-45.9483 F35.00
G01 X25.0432 Y-45.9430 F35.00
G01 X25.0332 Y-45.9384 F35.00
G01 X25.0228 Y-45.9346 F35.00
G01 X25.0086 Y-45.9306 F35.00
G01 X24.9941 Y-45.9281 F35.00
G01 X24.9831 Y-45.9272 F35.00
G01 X22.8358 Y-45.9270 F35.00
G01 X22.8247 Y-45.9274 F35.00
G01 X22.8101 Y-45.9292 F35.00
G01 X22.7993 Y-45.9315 F35.00
G01 X22.7887 Y-45.9346 F35.00
G01 X22.7783 Y-45.9384 F35.00
G01 X22.7683 Y-45.9430 F35.00
G01 X22.7586 Y-45.9483 F35.00
G01 X22.7494 Y-45.9544 F35.00
G01 X22.7406 Y-45.9610 F35.00
G01 X22.7323 Y-45.9684 F35.00
G01 X22.7246 Y-45.9763 F35.00
G01 X22.7175 Y-45.9847 F35.00
G01 X22.7110 Y-45.9937 F35.00
G01 X22.7052 Y-46.0031 F35.00
G01 X22.7002 Y-46.0129 F35.00
G01 X22.6958 Y-46.0230 F35.00
G01 X22.6922 Y-46.0335 F35.00
G01 X22.6894 Y-46.0441 F35.00
G01 X22.6869 Y-46.0586 F35.00
G01 X22.6859 Y-46.0696 F35.00
G01 X22.6858 Y-46.0770 F35.00
G01 X22.6858 Y-46.4968 F35.00
G01 X21.9143 Y-46.4968 F35.00
G01 X21.8543 Y-46.4999 F35.00
G01 X21.7948 Y-46.5086 F35.00
G01 X21.7840 Y-46.5109 F35.00
G01 X21.7363 Y-46.5228 F35.00
G01 X21.7223 Y-46.5271 F35.00
G01 X21.6692 Y-46.5462 F35.00
G01 X21.6115 Y-46.5735 F35.00
G01 X21.5567 Y-46.6063 F35.00
G01 X21.5113 Y-46.6398 F35.00
G01 X21.4999 Y-46.6492 F35.00
G01 X21.4635 Y-46.6821 F35.00
G01 X21.4487 Y-46.6967 F35.00
G01 X14.2600 Y-46.6967 F35.00
G01 X14.2600 Y-46.2770 F35.00
G01 X14.2593 Y-46.2623 F35.00
G01 X14.2571 Y-46.2477 F35.00
G01 X14.2546 Y-46.2370 F35.00
G01 X14.2512 Y-46.2265 F35.00
G01 X14.2471 Y-46.2162 F35.00
G01 X14.2423 Y-46.2063 F35.00
G01 X14.2367 Y-46.1968 F35.00
G01 X14.2305 Y-46.1876 F35.00
G01 X14.2236 Y-46.1790 F35.00
G01 X14.2161 Y-46.1709 F35.00
G01 X14.2080 Y-46.1634 F35.00
G01 X14.1994 Y-46.1565 F35.00
G01 X14.1933 Y-46.1523 F35.00
G01 X14.1839 Y-46.1465 F35.00
G01 X14.1741 Y-46.1414 F35.00
G01 X14.1640 Y-46.1371 F35.00
G01 X14.1535 Y-46.1335 F35.00
G01 X14.1429 Y-46.1306 F35.00
G01 X14.1356 Y-46.1292 F35.00
G01 X14.1247 Y-46.1277 F35.00
G01 X14.1100 Y-46.1270 F35.00
G01 X11.9663 Y-46.1270 F35.00
G01 X11.9516 Y-46.1281 F35.00
G01 X11.9371 Y-46.1306 F35.00
G01 X11.9229 Y-46.1346 F35.00
G01 X11.9092 Y-46.1399 F35.00
G01 X11.8961 Y-46.1465 F35.00
G01 X11.8836 Y-46.1544 F35.00
G01 X11.8720 Y-46.1634 F35.00
G01 X11.8614 Y-46.1736 F35.00
G01 X11.8517 Y-46.1847 F35.00
G01 X11.8433 Y-46.1968 F35.00
G01 X11.8360 Y-46.2096 F35.00
G01 X11.8314 Y-46.2196 F35.00
G01 X11.8265 Y-46.2335 F35.00
G01 X11.8229 Y-46.2477 F35.00
G01 X11.8207 Y-46.2623 F35.00
G01 X11.8200 Y-46.2733 F35.00
G01 X11.8200 Y-48.4170 F35.00
G01 X11.8207 Y-48.4317 F35.00
G01 X11.8229 Y-48.4463 F35.00
G01 X11.8265 Y-48.4605 F35.00
G01 X11.8314 Y-48.4744 F35.00
G01 X11.8377 Y-48.4877 F35.00
G01 X11.8453 Y-48.5003 F35.00
G01 X11.8540 Y-48.5122 F35.00
G01 X11.8589 Y-48.5177 F35.00
G01 X11.8666 Y-48.5256 F35.00
G01 X11.8748 Y-48.5330 F35.00
G01 X11.8867 Y-48.5417 F35.00
G01 X11.8993 Y-48.5493 F35.00
G01 X11.9126 Y-48.5556 F35.00
G01 X11.9265 Y-48.5605 F35.00
G01 X11.9407 Y-48.5641 F35.00
G01 X11.9553 Y-48.5663 F35.00
G01 X11.9663 Y-48.5670 F35.00
G01 X14.1174 Y-48.5668 F35.00
G01 X14.1320 Y-48.5654 F35.00
G01 X14.1464 Y-48.5625 F35.00
G01 X14.1605 Y-48.5582 F35.00
G01 X14.1741 Y-48.5526 F35.00
G01 X14.1871 Y-48.5457 F35.00
G01 X14.1964 Y-48.5396 F35.00
G01 X14.2080 Y-48.5306 F35.00
G01 X14.2186 Y-48.5204 F35.00
G01 X14.2283 Y-48.5093 F35.00
G01 X14.2367 Y-48.4972 F35.00
G01 X14.2440 Y-48.4844 F35.00
G01 X14.2499 Y-48.4710 F35.00
G01 X14.2546 Y-48.4570 F35.00
G01 X14.2578 Y-48.4426 F35.00
G01 X14.2596 Y-48.4280 F35.00
G01 X14.2600 Y-48.4170 F35.00
G00 Z2.0000
G00 X14.2600 Y-51.1570
G01 F45.00
G01 Z-0.0900
G01 F35.00
G01 X14.2600 Y-50.7373 F35.00
G01 X21.5688 Y-50.7373 F35.00
G01 X21.6252 Y-50.7347 F35.00
G01 X21.6398 Y-50.7332 F35.00
G01 X21.6957 Y-50.7248 F35.00
G01 X21.7505 Y-50.7112 F35.00
G01 X21.7645 Y-50.7069 F35.00
G01 X21.8176 Y-50.6878 F35.00
G01 X21.8687 Y-50.6638 F35.00
G01 X21.8817 Y-50.6568 F35.00
G01 X21.9270 Y-50.6297 F35.00
G01 X21.9361 Y-50.6234 F35.00
G01 X21.9813 Y-50.5897 F35.00
G01 X22.0260 Y-50.5494 F35.00
G01 X22.2381 Y-50.3373 F35.00
G01 X22.6858 Y-50.3373 F35.00
G01 X22.6858 Y-50.7570 F35.00
G01 X22.6865 Y-50.7717 F35.00
G01 X22.6874 Y-50.7790 F35.00
G01 X22.6894 Y-50.7899 F35.00
G01 X22.6922 Y-50.8005 F35.00
G01 X22.6958 Y-50.8110 F35.00
G01 X22.7002 Y-50.8211 F35.00
G01 X22.7052 Y-50.8309 F35.00
G01 X22.7110 Y-50.8403 F35.00
G01 X22.7175 Y-50.8493 F35.00
G01 X22.7246 Y-50.8577 F35.00
G01 X22.7323 Y-50.8656 F35.00
G01 X22.7406 Y-50.8730 F35.00
G01 X22.7494 Y-50.8796 F35.00
G01 X22.7586 Y-50.8857 F35.00
G01 X22.7683 Y-50.8910 F35.00
G01 X22.7783 Y-50.8956 F35.00
G01 X22.7887 Y-50.8994 F35.00
G01 X22.7993 Y-50.9025 F35.00
G01 X22.8065 Y-50.9041 F35.00
G01 X22.8210 Y-50.9063 F35.00
G01 X22.8358 Y-50.9070 F35.00
G01 X24.9758 Y-50.9070 F35.00
G01 X24.9905 Y-50.9063 F35.00
G01 X25.0014 Y-50.9048 F35.00
G01 X25.0086 Y-50.9034 F35.00
G01 X25.0228 Y-50.8994 F35.00
G01 X25.0332 Y-50.8956 F35.00
G01 X25.0432 Y-50.8910 F35.00
G01 X25.0529 Y-50.8857 F35.00
G01 X25.0651 Y-50.8775 F35.00
G01 X25.0737 Y-50.8706 F35.00
G01 X25.0818 Y-50.8631 F35.00
G01 X25.0917 Y-50.8522 F35.00
G01 X25.0984 Y-50.8434 F35.00
G01 X25.1063 Y-50.8309 F35.00
G01 X25.1113 Y-50.8211 F35.00
G01 X25.1157 Y-50.8110 F35.00
G01 X25.1193 Y-50.8005 F35.00
G01 X25.1221 Y-50.7899 F35.00
G01 X25.1241 Y-50.7790 F35.00
G01 X25.1256 Y-50.7644 F35.00
G01 X25.1258 Y-48.6170 F35.00
G01 X25.1250 Y-48.6023 F35.00
G01 X25.1241 Y-48.5950 F35.00
G01 X25.1221 Y-48.5841 F35.00
G01 X25.1193 Y-48.5735 F35.00
G01 X25.1143 Y-48.5596 F35.00
G01 X25.1097 Y-48.5496 F35.00
G01 X25.1044 Y-48.5399 F35.00
G01 X25.0984 Y-48.5306 F35.00
G01 X25.0917 Y-48.5218 F35.00
G01 X25.0818 Y-48.5109 F35.00
G01 X25.0737 Y-48.5034 F35.00
G01 X25.0651 Y-48.4965 F35.00
G01 X25.0529 Y-48.4883 F35.00
G01 X25.0432 Y-48.4830 F35.00
G01 X25.0332 Y-48.4784 F35.00
G01 X25.0228 Y-48.4746 F35.00
G01 X25.0086 Y-48.4706 F35.00
G01 X24.9941 Y-48.4681 F35.00
G01 X24.9831 Y-48.4672 F35.00
G01 X22.8358 Y-48.4670 F35.00
G01 X22.8284 Y-48.4672 F35.00
G01 X22.8174 Y-48.4681 F35.00
G01 X22.8029 Y-48.4706 F35.00
G01 X22.7957 Y-48.4724 F35.00
G01 X22.7852 Y-48.4758 F35.00
G01 X22.7750 Y-48.4799 F35.00
G01 X22.7650 Y-48.4847 F35.00
G01 X22.7555 Y-48.4903 F35.00
G01 X22.7464 Y-48.4965 F35.00
G01 X22.7378 Y-48.5034 F35.00
G01 X22.7297 Y-48.5109 F35.00
G01 X22.7222 Y-48.5190 F35.00
G01 X22.7153 Y-48.5276 F35.00
G01 X22.7090 Y-48.5368 F35.00
G01 X22.7035 Y-48.5463 F35.00
G01 X22.6986 Y-48.5562 F35.00
G01 X22.6945 Y-48.5665 F35.00
G01 X22.6912 Y-48.5770 F35.00
G01 X22.6886 Y-48.5877 F35.00
G01 X22.6865 Y-48.6023 F35.00
G01 X22.6858 Y-48.6170 F35.00
G01 X22.6858 Y-49.0368 F35.00
G01 X21.9651 Y-49.0368 F35.00
G01 X21.9051 Y-49.0399 F35.00
G01 X21.8492 Y-49.0480 F35.00
G01 X21.8348 Y-49.0509 F35.00
G01 X21.7836 Y-49.0637 F35.00
G01 X21.7731 Y-49.0671 F35.00
G01 X21.7200 Y-49.0862 F35.00
G01 X21.6623 Y-49.1135 F35.00
G01 X21.6075 Y-49.1463 F35.00
G01 X21.5592 Y-49.1821 F35.00
G01 X21.5507 Y-49.1892 F35.00
G01 X21.5090 Y-49.2272 F35.00
G01 X21.2995 Y-49.4367 F35.00
G01 X14.2600 Y-49.4367 F35.00
G01 X14.2600 Y-49.0170 F35.00
G01 X14.2593 Y-49.0023 F35.00
G01 X14.2571 Y-48.9877 F35.00
G01 X14.2546 Y-48.9770 F35.00
G01 X14.2512 Y-48.9665 F35.00
G01 X14.2471 Y-48.9562 F35.00
G01 X14.2423 Y-48.9463 F35.00
G01 X14.2367 Y-48.9368 F35.00
G01 X14.2305 Y-48.9276 F35.00
G01 X14.2236 Y-48.9190 F35.00
G01 X14.2161 Y-48.9109 F35.00
G01 X14.2080 Y-48.9034 F35.00
G01 X14.1994 Y-48.8965 F35.00
G01 X14.1933 Y-48.8923 F35.00
G01 X14.1839 Y-48.8865 F35.00
G01 X14.1741 Y-48.8814 F35.00
G01 X14.1640 Y-48.8771 F35.00
G01 X14.1535 Y-48.8735 F35.00
G01 X14.1429 Y-48.8706 F35.00
G01 X14.1356 Y-48.8692 F35.00
G01 X14.1247 Y-48.8677 F35.00
G01 X14.1100 Y-48.8670 F35.00
G01 X11.9663 Y-48.8670 F35.00
G01 X11.9516 Y-48.8681 F35.00
G01 X11.9371 Y-48.8706 F35.00
G01 X11.9229 Y-48.8746 F35.00
G01 X11.9092 Y-48.8799 F35.00
G01 X11.8961 Y-48.8865 F35.00
G01 X11.8836 Y-48.8944 F35.00
G01 X11.8720 Y-48.9034 F35.00
G01 X11.8614 Y-48.9136 F35.00
G01 X11.8517 Y-48.9247 F35.00
G01 X11.8433 Y-48.9368 F35.00
G01 X11.8360 Y-48.9496 F35.00
G01 X11.8314 Y-48.9596 F35.00
G01 X11.8265 Y-48.9735 F35.00
G01 X11.8229 Y-48.9877 F35.00
G01 X11.8207 Y-49.0023 F35.00
G01 X11.8200 Y-49.0133 F35.00
G01 X11.8200 Y-51.1570 F35.00
G01 X11.8207 Y-51.1717 F35.00
G01 X11.8229 Y-51.1863 F35.00
G01 X11.8265 Y-51.2005 F35.00
G01 X11.8314 Y-51.2144 F35.00
G01 X11.8377 Y-51.2277 F35.00
G01 X11.8453 Y-51.2403 F35.00
G01 X11.8540 Y-51.2522 F35.00
G01 X11.8589 Y-51.2577 F35.00
G01 X11.8666 Y-51.2656 F35.00
G01 X11.8748 Y-51.2730 F35.00
G01 X11.8867 Y-51.2817 F35.00
G01 X11.8993 Y-51.2893 F35.00
G01 X11.9126 Y-51.2956 F35.00
G01 X11.9265 Y-51.3005 F35.00
G01 X11.9407 Y-51.3041 F35.00
G01 X11.9553 Y-51.3063 F35.00
G01 X11.9663 Y-51.3070 F35.00
G01 X14.1174 Y-51.3068 F35.00
G01 X14.1320 Y-51.3054 F35.00
G01 X14.1464 Y-51.3025 F35.00
G01 X14.1605 Y-51.2982 F35.00
G01 X14.1741 Y-51.2926 F35.00
G01 X14.1871 Y-51.2857 F35.00
G01 X14.1964 Y-51.2796 F35.00
G01 X14.2080 Y-51.2706 F35.00
G01 X14.2186 Y-51.2604 F35.00
G01 X14.2283 Y-51.2493 F35.00
G01 X14.2367 Y-51.2372 F35.00
G01 X14.2440 Y-51.2244 F35.00
G01 X14.2499 Y-51.2110 F35.00
G01 X14.2546 Y-51.1970 F35.00
G01 X14.2578 Y-51.1826 F35.00
G01 X14.2596 Y-51.1680 F35.00
G01 X14.2600 Y-51.1570 F35.00
G00 Z2.0000
G00 X14.2600 Y-53.8970
G01 F45.00
G01 Z-0.0900
G01 F35.00
G01 X14.2600 Y-53.4773 F35.00
G01 X21.3688 Y-53.4773 F35.00
G01 X21.4252 Y-53.4747 F35.00
G01 X21.4362 Y-53.4737 F35.00
G01 X21.4957 Y-53.4648 F35.00
G01 X21.5505 Y-53.4512 F35.00
G01 X21.5645 Y-53.4469 F35.00
G01 X21.6176 Y-53.4278 F35.00
G01 X21.6687 Y-53.4038 F35.00
G01 X21.6817 Y-53.3968 F35.00
G01 X21.7301 Y-53.3677 F35.00
G01 X21.7755 Y-53.3342 F35.00
G01 X21.7869 Y-53.3248 F35.00
G01 X21.8286 Y-53.2868 F35.00
G01 X22.2381 Y-52.8773 F35.00
G01 X22.6858 Y-52.8773 F35.00
G01 X22.6858 Y-53.2970 F35.00
G01 X22.6865 Y-53.3117 F35.00
G01 X22.6874 Y-53.3190 F35.00
G01 X22.6894 Y-53.3299 F35.00
G01 X22.6922 Y-53.3405 F35.00
G01 X22.6958 Y-53.3510 F35.00
G01 X22.7002 Y-53.3611 F35.00
G01 X22.7052 Y-53.3709 F35.00
G01 X22.7110 Y-53.3803 F35.00
G01 X22.7175 Y-53.3893 F35.00
G01 X22.7246 Y-53.3977 F35.00
G01 X22.7323 Y-53.4056 F35.00
G01 X22.7406 Y-53.4130 F35.00
G01 X22.7494 Y-53.4196 F35.00
G01 X22.7586 Y-53.4257 F35.00
G01 X22.7683 Y-53.4310 F35.00
G01 X22.7783 Y-53.4356 F35.00
G01 X22.7887 Y-53.4394 F35.00
G01 X22.7993 Y-53.4425 F35.00
G01 X22.8065 Y-53.4441 F35.00
G01 X22.8210 Y-53.4463 F35.00
G01 X22.8358 Y-53.4470 F35.00
G01 X24.9758 Y-53.4470 F35.00
G01 X24.9831 Y-53.4468 F35.00
G01 X24.9941 Y-53.4459 F35.00
G01 X25.0014 Y-53.4448 F35.00
G01 X25.0122 Y-53.4425 F35.00
G01 X25.0228 Y-53.4394 F35.00
G01 X25.0365 Y-53.4341 F35.00
G01 X25.0465 Y-53.4293 F35.00
G01 X25.0560 Y-53.4237 F35.00
G01 X25.0651 Y-53.4175 F35.00
G01 X25.0765 Y-53.4081 F35.00
G01 X25.0844 Y-53.4004 F35.00
G01 X25.0917 Y-53.3922 F35.00
G01 X25.0984 Y-53.3834 F35.00
G01 X25.1063 Y-53.3709 F35.00
G01 X25.1113 Y-53.3611 F35.00
G01 X25.1157 Y-53.3510 F35.00
G01 X25.1193 Y-53.3405 F35.00
G01 X25.1221 Y-53.3299 F35.00
G01 X25.1241 Y-53.3190 F35.00
G01 X25.1256 Y-53.3044 F35.00
G01 X25.1258 Y-51.1570 F35.00
G01 X25.1256 Y-51.1496 F35.00
G01 X25.1246 Y-51.1386 F35.00
G01 X25.1235 Y-51.1314 F35.00
G01 X25.1213 Y-51.1206 F35.00
G01 X25.1182 Y-51.1099 F35.00
G01 X25.1143 Y-51.0996 F35.00
G01 X25.1097 Y-51.0896 F35.00
G01 X25.1025 Y-51.0768 F35.00
G01 X25.0962 Y-51.0676 F35.00
G01 X25.0893 Y-51.0590 F35.00
G01 X25.0792 Y-51.0484 F35.00
G01 X25.0709 Y-51.0410 F35.00
G01 X25.0621 Y-51.0344 F35.00
G01 X25.0529 Y-51.0283 F35.00
G01 X25.0432 Y-51.0230 F35.00
G01 X25.0297 Y-51.0171 F35.00
G01 X25.0158 Y-51.0124 F35.00
G01 X25.0050 Y-51.0099 F35.00
G01 X24.9941 Y-51.0081 F35.00
G01 X24.9831 Y-51.0072 F35.00
G01 X22.8358 Y-51.0070 F35.00
G01 X22.8284 Y-51.0072 F35.00
G01 X22.8174 Y-51.0081 F35.00
G01 X22.8065 Y-51.0099 F35.00
G01 X22.7993 Y-51.0115 F35.00
G01 X22.7887 Y-51.0146 F35.00
G01 X22.7783 Y-51.0184 F35.00
G01 X22.7683 Y-51.0230 F35.00
G01 X22.7586 Y-51.0283 F35.00
G01 X22.7524 Y-51.0323 F35.00
G01 X22.7435 Y-51.0387 F35.00
G01 X22.7350 Y-51.0459 F35.00
G01 X22.7271 Y-51.0536 F35.00
G01 X22.7198 Y-51.0618 F35.00
G01 X22.7131 Y-51.0706 F35.00
G01 X22.7071 Y-51.0799 F35.00
G01 X22.7018 Y-51.0896 F35.00
G01 X22.6972 Y-51.0996 F35.00
G01 X22.6945 Y-51.1065 F35.00
G01 X22.6912 Y-51.1170 F35.00
G01 X22.6886 Y-51.1277 F35.00
G01 X22.6865 Y-51.1423 F35.00
G01 X22.6858 Y-51.1570 F35.00
G01 X22.6858 Y-51.5768 F35.00
G01 X21.9688 Y-51.5768 F35.00
G01 X21.9124 Y-51.5793 F35.00
G01 X21.8978 Y-51.5808 F35.00
G01 X21.8492 Y-51.5880 F35.00
G01 X21.8348 Y-51.5909 F35.00
G01 X21.7800 Y-51.6048 F35.00
G01 X21.7234 Y-51.6249 F35.00
G01 X21.7132 Y-51.6292 F35.00
G01 X21.6623 Y-51.6535 F35.00
G01 X21.6138 Y-51.6824 F35.00
G01 X21.6015 Y-51.6906 F35.00
G01 X21.5621 Y-51.7198 F35.00
G01 X21.5507 Y-51.7292 F35.00
G01 X21.5090 Y-51.7672 F35.00
G01 X21.0995 Y-52.1767 F35.00
G01 X14.2600 Y-52.1767 F35.00
G01 X14.2600 Y-51.7570 F35.00
G01 X14.2593 Y-51.7423 F35.00
G01 X14.2571 Y-51.7277 F35.00
G01 X14.2546 Y-51.7170 F35.00
G01 X14.2512 Y-51.7065 F35.00
G01 X14.2471 Y-51.6962 F35.00
G01 X14.2423 Y-51.6863 F35.00
G01 X14.2367 Y-51.6768 F35.00
G01 X14.2305 Y-51.6676 F35.00
G01 X14.2236 Y-51.6590 F35.00
G01 X14.2161 Y-51.6509 F35.00
G01 X14.2080 Y-51.6434 F35.00
G01 X14.1994 Y-51.6365 F35.00
G01 X14.1933 Y-51.6323 F35.00
G01 X14.1839 Y-51.6265 F35.00
G01 X14.1741 Y-51.6214 F35.00
G01 X14.1640 Y-51.6171 F35.00
G01 X14.1535 Y-51.6135 F35.00
G01 X14.1429 Y-51.6106 F35.00
G01 X14.1356 Y-51.6092 F35.00
G01 X14.1247 Y-51.6077 F35.00
G01 X14.1100 Y-51.6070 F35.00
G01 X11.9663 Y-51.6070 F35.00
G01 X11.9516 Y-51.6081 F35.00
G01 X11.9371 Y-51.6106 F35.00
G01 X11.9229 Y-51.6146 F35.00
G01 X11.9092 Y-51.6199 F35.00
G01 X11.8961 Y-51.6265 F35.00
G01 X11.8836 Y-51.6344 F35.00
G01 X11.8720 Y-51.6434 F35.00
G01 X11.8614 Y-51.6536 F35.00
G01 X11.8517 Y-51.6647 F35.00
G01 X11.8433 Y-51.6768 F35.00
G01 X11.8360 Y-51.6896 F35.00
G01 X11.8314 Y-51.6996 F35.00
G01 X11.8265 Y-51.7135 F35.00
G01 X11.8229 Y-51.7277 F35.00
G01 X11.8207 Y-51.7423 F35.00
G01 X11.8200 Y-51.7533 F35.00
G01 X11.8200 Y-53.8970 F35.00
G01 X11.8207 Y-53.9117 F35.00
G01 X11.8229 Y-53.9263 F35.00
G01 X11.8265 Y-53.9405 F35.00
G01 X11.8314 Y-53.9544 F35.00
G01 X11.8377 Y-53.9677 F35.00
G01 X11.8453 Y-53.9803 F35.00
G01 X11.8540 Y-53.9922 F35.00
G01 X11.8589 Y-53.9977 F35.00
G01 X11.8666 Y-54.0056 F35.00
G01 X11.8748 Y-54.0130 F35.00
G01 X11.8867 Y-54.0217 F35.00
G01 X11.8993 Y-54.0293 F35.00
G01 X11.9126 Y-54.0356 F35.00
G01 X11.9265 Y-54.0405 F35.00
G01 X11.9407 Y-54.0441 F35.00
G01 X11.9553 Y-54.0463 F35.00
G01 X11.9663 Y-54.0470 F35.00
G01 X14.1174 Y-54.0468 F35.00
G01 X14.1320 Y-54.0454 F35.00
G01 X14.1464 Y-54.0425 F35.00
G01 X14.1605 Y-54.0382 F35.00
G01 X14.1741 Y-54.0326 F35.00
G01 X14.1871 Y-54.0257 F35.00
G01 X14.1964 Y-54.0196 F35.00
G01 X14.2080 Y-54.0106 F35.00
G01 X14.2186 Y-54.0004 F35.00
G01 X14.2283 Y-53.9893 F35.00
G01 X14.2367 Y-53.9772 F35.00
G01 X14.2440 Y-53.9644 F35.00
G01 X14.2499 Y-53.9510 F35.00
G01 X14.2546 Y-53.9370 F35.00
G01 X14.2578 Y-53.9226 F35.00
G01 X14.2596 Y-53.9080 F35.00
G01 X14.2600 Y-53.8970 F35.00
G00 Z2.0000
G00 X11.9700 Y-56.7870
G01 F45.00
G01 Z-0.0900
G01 F35.00
G01 X14.1100 Y-56.7870 F35.00
G01 X14.1174 Y-56.7868 F35.00
G01 X14.1284 Y-56.7859 F35.00
G01 X14.1356 Y-56.7848 F35.00
G01 X14.1464 Y-56.7825 F35.00
G01 X14.1571 Y-56.7794 F35.00
G01 X14.1674 Y-56.7756 F35.00
G01 X14.1774 Y-56.7710 F35.00
G01 X14.1871 Y-56.7657 F35.00
G01 X14.1933 Y-56.7617 F35.00
G01 X14.2023 Y-56.7553 F35.00
G01 X14.2107 Y-56.7481 F35.00
G01 X14.2186 Y-56.7404 F35.00
G01 X14.2260 Y-56.7322 F35.00
G01 X14.2326 Y-56.7234 F35.00
G01 X14.2387 Y-56.7141 F35.00
G01 X14.2440 Y-56.7044 F35.00
G01 X14.2486 Y-56.6944 F35.00
G01 X14.2524 Y-56.6841 F35.00
G01 X14.2555 Y-56.6734 F35.00
G01 X14.2571 Y-56.6663 F35.00
G01 X14.2593 Y-56.6517 F35.00
G01 X14.2600 Y-56.6370 F35.00
G01 X14.2600 Y-56.2172 F35.00
G01 X21.1688 Y-56.2172 F35.00
G01 X21.2252 Y-56.2147 F35.00
G01 X21.2362 Y-56.2137 F35.00
G01 X21.2957 Y-56.2048 F35.00
G01 X21.3505 Y-56.1912 F35.00
G01 X21.3645 Y-56.1869 F35.00
G01 X21.4176 Y-56.1678 F35.00
G01 X21.4688 Y-56.1438 F35.00
G01 X21.4817 Y-56.1368 F35.00
G01 X21.5301 Y-56.1077 F35.00
G01 X21.5784 Y-56.0719 F35.00
G01 X21.5869 Y-56.0648 F35.00
G01 X21.6286 Y-56.0268 F35.00
G01 X22.2381 Y-55.4173 F35.00
G01 X22.6858 Y-55.4173 F35.00
G01 X22.6858 Y-55.8370 F35.00
G01 X22.6865 Y-55.8517 F35.00
G01 X22.6874 Y-55.8590 F35.00
G01 X22.6894 Y-55.8699 F35.00
G01 X22.6922 Y-55.8805 F35.00
G01 X22.6958 Y-55.8910 F35.00
G01 X22.7002 Y-55.9011 F35.00
G01 X22.7052 Y-55.9109 F35.00
G01 X22.7110 Y-55.9203 F35.00
G01 X22.7175 Y-55.9293 F35.00
G01 X22.7246 Y-55.9377 F35.00
G01 X22.7323 Y-55.9456 F35.00
G01 X22.7406 Y-55.9530 F35.00
G01 X22.7494 Y-55.9596 F35.00
G01 X22.7586 Y-55.9657 F35.00
G01 X22.7683 Y-55.9710 F35.00
G01 X22.7783 Y-55.9756 F35.00
G01 X22.7887 Y-55.9794 F35.00
G01 X22.7993 Y-55.9825 F35.00
G01 X22.8065 Y-55.9841 F35.00
G01 X22.8210 Y-55.9863 F35.00
G01 X22.8358 Y-55.9870 F35.00
G01 X24.9758 Y-55.9870 F35.00
G01 X24.9831 Y-55.9868 F35.00
G01 X24.9941 Y-55.9859 F35.00
G01 X25.0014 Y-55.9848 F35.00
G01 X25.0122 Y-55.9825 F35.00
G01 X25.0228 Y-55.9794 F35.00
G01 X25.0365 Y-55.9741 F35.00
G01 X25.0465 Y-55.9693 F35.00
G01 X25.0560 Y-55.9637 F35.00
G01 X25.0651 Y-55.9575 F35.00
G01 X25.0765 Y-55.9481 F35.00
G01 X25.0844 Y-55.9404 F35.00
G01 X25.0917 Y-55.9322 F35.00
G01 X25.0984 Y-55.9234 F35.00
G01 X25.1063 Y-55.9109 F35.00
G01 X25.1113 Y-55.9011 F35.00
G01 X25.1157 Y-55.8910 F35.00
G01 X25.1193 Y-55.8805 F35.00
G01 X25.1221 Y-55.8699 F35.00
G01 X25.1241 Y-55.8590 F35.00
G01 X25.1256 Y-55.8444 F35.00
G01 X25.1258 Y-53.6970 F35.00
G01 X25.1256 Y-53.6896 F35.00
G01 X25.1246 Y-53.6786 F35.00
G01 X25.1235 Y-53.6714 F35.00
G01 X25.1213 Y-53.6606 F35.00
G01 X25.1182 Y-53.6499 F35.00
G01 X25.1143 Y-53.6396 F35.00
G01 X25.1097 Y-53.6296 F35.00
G01 X25.1025 Y-53.6168 F35.00
G01 X25.0962 Y-53.6076 F35.00
G01 X25.0893 Y-53.5990 F35.00
G01 X25.0792 Y-53.5884 F35.00
G01 X25.0709 Y-53.5810 F35.00
G01 X25.0621 Y-53.5744 F35.00
G01 X25.0529 Y-53.5683 F35.00
G01 X25.0432 Y-53.5630 F35.00
G01 X25.0297 Y-53.5571 F35.00
G01 X25.0158 Y-53.5524 F35.00
G01 X25.0050 Y-53.5499 F35.00
G01 X24.9941 Y-53.5481 F35.00
G01 X24.9831 Y-53.5472 F35.00
G01 X22.8358 Y-53.5470 F35.00
G01 X22.8247 Y-53.5474 F35.00
G01 X22.8137 Y-53.5486 F35.00
G01 X22.8029 Y-53.5506 F35.00
G01 X22.7922 Y-53.5535 F35.00
G01 X22.7818 Y-53.5571 F35.00
G01 X22.7716 Y-53.5614 F35.00
G01 X22.7650 Y-53.5647 F35.00
G01 X22.7555 Y-53.5703 F35.00
G01 X22.7494 Y-53.5744 F35.00
G01 X22.7406 Y-53.5810 F35.00
G01 X22.7323 Y-53.5884 F35.00
G01 X22.7246 Y-53.5963 F35.00
G01 X22.7175 Y-53.6047 F35.00
G01 X22.7131 Y-53.6106 F35.00
G01 X22.7071 Y-53.6199 F35.00
G01 X22.7018 Y-53.6296 F35.00
G01 X22.6972 Y-53.6396 F35.00
G01 X22.6945 Y-53.6465 F35.00
G01 X22.6912 Y-53.6570 F35.00
G01 X22.6886 Y-53.6677 F35.00
G01 X22.6865 Y-53.6823 F35.00
G01 X22.6858 Y-53.6970 F35.00
G01 X22.6858 Y-54.1168 F35.00
G01 X21.9688 Y-54.1168 F35.00
G01 X21.9124 Y-54.1193 F35.00
G01 X21.8978 Y-54.1208 F35.00
G01 X21.8492 Y-54.1280 F35.00
G01 X21.8348 Y-54.1309 F35.00
G01 X21.7800 Y-54.1448 F35.00
G01 X21.7268 Y-54.1636 F35.00
G01 X21.7166 Y-54.1677 F35.00
G01 X21.6623 Y-54.1935 F35.00
G01 X21.6075 Y-54.2263 F35.00
G01 X21.5563 Y-54.2644 F35.00
G01 X21.5143 Y-54.3021 F35.00
G01 X20.8995 Y-54.9167 F35.00
G01 X14.2600 Y-54.9167 F35.00
G01 X14.2600 Y-54.4970 F35.00
G01 X14.2593 Y-54.4823 F35.00
G01 X14.2571 Y-54.4677 F35.00
G01 X14.2546 Y-54.4570 F35.00
G01 X14.2512 Y-54.4465 F35.00
G01 X14.2486 Y-54.4396 F35.00
G01 X14.2440 Y-54.4296 F35.00
G01 X14.2387 Y-54.4199 F35.00
G01 X14.2326 Y-54.4106 F35.00
G01 X14.2260 Y-54.4018 F35.00
G01 X14.2186 Y-54.3936 F35.00
G01 X14.2107 Y-54.3859 F35.00
G01 X14.2052 Y-54.3810 F35.00
G01 X14.1964 Y-54.3744 F35.00
G01 X14.1871 Y-54.3683 F35.00
G01 X14.1774 Y-54.3630 F35.00
G01 X14.1674 Y-54.3584 F35.00
G01 X14.1571 Y-54.3546 F35.00
G01 X14.1464 Y-54.3515 F35.00
G01 X14.1356 Y-54.3492 F35.00
G01 X14.1284 Y-54.3481 F35.00
G01 X14.1174 Y-54.3472 F35.00
G01 X14.1100 Y-54.3470 F35.00
G01 X11.9700 Y-54.3470 F35.00
G01 X11.9626 Y-54.3472 F35.00
G01 X11.9516 Y-54.3481 F35.00
G01 X11.9444 Y-54.3492 F35.00
G01 X11.9336 Y-54.3515 F35.00
G01 X11.9229 Y-54.3546 F35.00
G01 X11.9092 Y-54.3599 F35.00
G01 X11.8993 Y-54.3647 F35.00
G01 X11.8898 Y-54.3703 F35.00
G01 X11.8806 Y-54.3765 F35.00
G01 X11.8693 Y-54.3859 F35.00
G01 X11.8614 Y-54.3936 F35.00
G01 X11.8540 Y-54.4018 F35.00
G01 X11.8474 Y-54.4106 F35.00
G01 X11.8413 Y-54.4199 F35.00
G01 X11.8360 Y-54.4296 F35.00
G01 X11.8301 Y-54.4430 F35.00
G01 X11.8254 Y-54.4570 F35.00
G01 X11.8229 Y-54.4677 F35.00
G01 X11.8211 Y-54.4786 F35.00
G01 X11.8202 Y-54.4896 F35.00
G01 X11.8200 Y-56.6407 F35.00
G01 X11.8207 Y-56.6517 F35.00
G01 X11.8229 Y-56.6663 F35.00
G01 X11.8265 Y-56.6805 F35.00
G01 X11.8314 Y-56.6944 F35.00
G01 X11.8377 Y-56.7077 F35.00
G01 X11.8453 Y-56.7203 F35.00
G01 X11.8540 Y-56.7322 F35.00
G01 X11.8639 Y-56.7431 F35.00
G01 X11.8748 Y-56.7530 F35.00
G01 X11.8867 Y-56.7617 F35.00
G01 X11.8993 Y-56.7693 F35.00
G01 X11.9126 Y-56.7756 F35.00
G01 X11.9265 Y-56.7805 F35.00
G01 X11.9407 Y-56.7841 F35.00
G01 X11.9553 Y-56.7863 F35.00
G01 X11.9700 Y-56.7870 F35.00
G00 Z2.0000
G00 X9.4300 Y-55.4170
G01 F45.00
G01 Z-0.0900
G01 F35.00
G01 X9.8497 Y-55.4170 F35.00
G01 X9.8497 Y-56.4705 F35.00
G01 X9.8526 Y-56.5306 F35.00
G01 X9.8538 Y-56.5415 F35.00
G01 X9.8610 Y-56.5901 F35.00
G01 X9.8639 Y-56.6045 F35.00
G01 X9.8777 Y-56.6593 F35.00
G01 X9.8966 Y-56.7125 F35.00
G01 X9.9022 Y-56.7261 F35.00
G01 X9.9265 Y-56.7770 F35.00
G01 X9.9554 Y-56.8255 F35.00
G01 X9.9636 Y-56.8378 F35.00
G01 X9.9973 Y-56.8830 F35.00
G01 X10.0402 Y-56.9303 F35.00
G01 X11.1817 Y-58.0715 F35.00
G01 X11.2236 Y-58.1093 F35.00
G01 X11.2689 Y-58.1431 F35.00
G01 X11.2811 Y-58.1513 F35.00
G01 X11.3296 Y-58.1801 F35.00
G01 X11.3806 Y-58.2044 F35.00
G01 X11.3942 Y-58.2101 F35.00
G01 X11.4474 Y-58.2289 F35.00
G01 X11.5093 Y-58.2444 F35.00
G01 X11.5724 Y-58.2538 F35.00
G01 X11.6362 Y-58.2569 F35.00
G01 X21.6728 Y-58.2569 F35.00
G01 X21.7255 Y-58.2543 F35.00
G01 X21.7402 Y-58.2529 F35.00
G01 X21.7960 Y-58.2444 F35.00
G01 X21.8508 Y-58.2309 F35.00
G01 X21.8649 Y-58.2266 F35.00
G01 X21.9180 Y-58.2074 F35.00
G01 X21.9757 Y-58.1801 F35.00
G01 X22.0304 Y-58.1473 F35.00
G01 X22.0759 Y-58.1138 F35.00
G01 X22.0845 Y-58.1069 F35.00
G01 X22.1263 Y-58.0690 F35.00
G01 X22.2381 Y-57.9573 F35.00
G01 X22.6858 Y-57.9573 F35.00
G01 X22.6858 Y-58.3770 F35.00
G01 X22.6865 Y-58.3917 F35.00
G01 X22.6874 Y-58.3990 F35.00
G01 X22.6894 Y-58.4099 F35.00
G01 X22.6922 Y-58.4205 F35.00
G01 X22.6958 Y-58.4310 F35.00
G01 X22.7002 Y-58.4411 F35.00
G01 X22.7052 Y-58.4509 F35.00
G01 X22.7110 Y-58.4603 F35.00
G01 X22.7175 Y-58.4693 F35.00
G01 X22.7246 Y-58.4777 F35.00
G01 X22.7323 Y-58.4856 F35.00
G01 X22.7406 Y-58.4930 F35.00
G01 X22.7494 Y-58.4996 F35.00
G01 X22.7586 Y-58.5057 F35.00
G01 X22.7683 Y-58.5110 F35.00
G01 X22.7783 Y-58.5156 F35.00
G01 X22.7887 Y-58.5194 F35.00
G01 X22.7993 Y-58.5225 F35.00
G01 X22.8101 Y-58.5248 F35.00
G01 X22.8210 Y-58.5263 F35.00
G01 X22.8358 Y-58.5270 F35.00
G01 X24.9831 Y-58.5268 F35.00
G01 X24.9941 Y-58.5259 F35.00
G01 X25.0086 Y-58.5234 F35.00
G01 X25.0228 Y-58.5194 F35.00
G01 X25.0332 Y-58.5156 F35.00
G01 X25.0432 Y-58.5110 F35.00
G01 X25.0529 Y-58.5057 F35.00
G01 X25.0651 Y-58.4975 F35.00
G01 X25.0737 Y-58.4906 F35.00
G01 X25.0818 Y-58.4831 F35.00
G01 X25.0917 Y-58.4722 F35.00
G01 X25.0984 Y-58.4634 F35.00
G01 X25.1063 Y-58.4509 F35.00
G01 X25.1113 Y-58.4411 F35.00
G01 X25.1170 Y-58.4275 F35.00
G01 X25.1203 Y-58.4170 F35.00
G01 X25.1229 Y-58.4063 F35.00
G01 X25.1250 Y-58.3917 F35.00
G01 X25.1258 Y-58.3770 F35.00
G01 X25.1256 Y-56.2296 F35.00
G01 X25.1241 Y-56.2150 F35.00
G01 X25.1221 Y-56.2041 F35.00
G01 X25.1193 Y-56.1935 F35.00
G01 X25.1143 Y-56.1796 F35.00
G01 X25.1080 Y-56.1663 F35.00
G01 X25.1005 Y-56.1537 F35.00
G01 X25.0940 Y-56.1447 F35.00
G01 X25.0844 Y-56.1336 F35.00
G01 X25.0765 Y-56.1259 F35.00
G01 X25.0651 Y-56.1165 F35.00
G01 X25.0529 Y-56.1083 F35.00
G01 X25.0432 Y-56.1030 F35.00
G01 X25.0297 Y-56.0971 F35.00
G01 X25.0158 Y-56.0924 F35.00
G01 X25.0014 Y-56.0892 F35.00
G01 X24.9905 Y-56.0877 F35.00
G01 X24.9758 Y-56.0870 F35.00
G01 X22.8358 Y-56.0870 F35.00
G01 X22.8284 Y-56.0872 F35.00
G01 X22.8174 Y-56.0881 F35.00
G01 X22.8065 Y-56.0899 F35.00
G01 X22.7993 Y-56.0915 F35.00
G01 X22.7887 Y-56.0946 F35.00
G01 X22.7783 Y-56.0984 F35.00
G01 X22.7683 Y-56.1030 F35.00
G01 X22.7586 Y-56.1083 F35.00
G01 X22.7524 Y-56.1123 F35.00
G01 X22.7435 Y-56.1187 F35.00
G01 X22.7350 Y-56.1259 F35.00
G01 X22.7271 Y-56.1336 F35.00
G01 X22.7198 Y-56.1418 F35.00
G01 X22.7131 Y-56.1506 F35.00
G01 X22.7071 Y-56.1599 F35.00
G01 X22.7018 Y-56.1696 F35.00
G01 X22.6972 Y-56.1796 F35.00
G01 X22.6945 Y-56.1865 F35.00
G01 X22.6912 Y-56.1970 F35.00
G01 X22.6886 Y-56.2077 F35.00
G01 X22.6865 Y-56.2223 F35.00
G01 X22.6858 Y-56.2370 F35.00
G01 X22.6858 Y-56.6568 F35.00
G01 X21.9651 Y-56.6568 F35.00
G01 X21.9051 Y-56.6599 F35.00
G01 X21.8492 Y-56.6680 F35.00
G01 X21.8383 Y-56.6700 F35.00
G01 X21.7800 Y-56.6848 F35.00
G01 X21.7200 Y-56.7062 F35.00
G01 X21.6623 Y-56.7335 F35.00
G01 X21.6075 Y-56.7663 F35.00
G01 X21.5563 Y-56.8044 F35.00
G01 X21.5143 Y-56.8421 F35.00
G01 X21.3998 Y-56.9564 F35.00
G01 X11.9055 Y-56.9564 F35.00
G01 X11.1503 Y-56.2012 F35.00
G01 X11.1503 Y-55.4170 F35.00
G01 X11.5700 Y-55.4170 F35.00
G01 X11.5847 Y-55.4163 F35.00
G01 X11.5956 Y-55.4148 F35.00
G01 X11.6029 Y-55.4134 F35.00
G01 X11.6171 Y-55.4094 F35.00
G01 X11.6274 Y-55.4056 F35.00
G01 X11.6374 Y-55.4010 F35.00
G01 X11.6471 Y-55.3957 F35.00
G01 X11.6564 Y-55.3896 F35.00
G01 X11.6652 Y-55.3830 F35.00
G01 X11.6734 Y-55.3756 F35.00
G01 X11.6811 Y-55.3677 F35.00
G01 X11.6883 Y-55.3593 F35.00
G01 X11.6947 Y-55.3503 F35.00
G01 X11.7005 Y-55.3409 F35.00
G01 X11.7056 Y-55.3311 F35.00
G01 X11.7099 Y-55.3210 F35.00
G01 X11.7135 Y-55.3105 F35.00
G01 X11.7164 Y-55.2999 F35.00
G01 X11.7184 Y-55.2890 F35.00
G01 X11.7196 Y-55.2780 F35.00
G01 X11.7200 Y-55.2670 F35.00
G01 X11.7198 Y-53.1196 F35.00
G01 X11.7184 Y-53.1050 F35.00
G01 X11.7164 Y-53.0941 F35.00
G01 X11.7135 Y-53.0835 F35.00
G01 X11.7086 Y-53.0696 F35.00
G01 X11.7040 Y-53.0596 F35.00
G01 X11.6967 Y-53.0467 F35.00
G01 X11.6905 Y-53.0376 F35.00
G01 X11.6836 Y-53.0290 F35.00
G01 X11.6761 Y-53.0209 F35.00
G01 X11.6680 Y-53.0134 F35.00
G01 X11.6594 Y-53.0065 F35.00
G01 X11.6471 Y-52.9983 F35.00
G01 X11.6374 Y-52.9930 F35.00
G01 X11.6240 Y-52.9871 F35.00
G01 X11.6100 Y-52.9824 F35.00
G01 X11.5993 Y-52.9799 F35.00
G01 X11.5847 Y-52.9777 F35.00
G01 X11.5700 Y-52.9770 F35.00
G01 X9.4263 Y-52.9770 F35.00
G01 X9.4116 Y-52.9781 F35.00
G01 X9.3971 Y-52.9806 F35.00
G01 X9.3829 Y-52.9846 F35.00
G01 X9.3692 Y-52.9899 F35.00
G01 X9.3626 Y-52.9930 F35.00
G01 X9.3529 Y-52.9983 F35.00
G01 X9.3406 Y-53.0065 F35.00
G01 X9.3293 Y-53.0159 F35.00
G01 X9.3189 Y-53.0263 F35.00
G01 X9.3117 Y-53.0347 F35.00
G01 X9.3033 Y-53.0467 F35.00
G01 X9.2960 Y-53.0596 F35.00
G01 X9.2914 Y-53.0696 F35.00
G01 X9.2865 Y-53.0835 F35.00
G01 X9.2829 Y-53.0977 F35.00
G01 X9.2807 Y-53.1123 F35.00
G01 X9.2800 Y-53.1233 F35.00
G01 X9.2802 Y-55.2744 F35.00
G01 X9.2816 Y-55.2890 F35.00
G01 X9.2845 Y-55.3034 F35.00
G01 X9.2888 Y-55.3175 F35.00
G01 X9.2944 Y-55.3311 F35.00
G01 X9.2995 Y-55.3409 F35.00
G01 X9.3074 Y-55.3534 F35.00
G01 X9.3164 Y-55.3650 F35.00
G01 X9.3266 Y-55.3756 F35.00
G01 X9.3348 Y-55.3830 F35.00
G01 X9.3467 Y-55.3917 F35.00
G01 X9.3593 Y-55.3993 F35.00
G01 X9.3726 Y-55.4056 F35.00
G01 X9.3865 Y-55.4105 F35.00
G01 X9.4007 Y-55.4141 F35.00
G01 X9.4153 Y-55.4163 F35.00
G01 X9.4300 Y-55.4170 F35.00
G00 Z2.0000
G00 X10.1201 Y-62.7056
G01 F45.00
G01 Z-0.0900
G01 F35.00
G01 X10.1570 Y-62.9502 F35.00
G01 X10.2298 Y-63.1865 F35.00
G01 X10.3371 Y-63.4093 F35.00
G01 X10.4764 Y-63.6136 F35.00
G01 X10.6446 Y-63.7949 F35.00
G01 X10.8380 Y-63.9490 F35.00
G01 X11.0521 Y-64.0727 F35.00
G01 X11.2823 Y-64.1630 F35.00
G01 X11.5234 Y-64.2180 F35.00
G01 X11.7083 Y-64.2319 F35.00
G01 X11.8317 Y-64.2319 F35.00
G01 X12.0166 Y-64.2180 F35.00
G01 X12.2577 Y-64.1630 F35.00
G01 X12.4879 Y-64.0727 F35.00
G01 X12.7020 Y-63.9490 F35.00
G01 X12.8954 Y-63.7949 F35.00
G01 X13.0636 Y-63.6136 F35.00
G01 X13.2029 Y-63.4093 F35.00
G01 X13.3102 Y-63.1865 F35.00
G01 X13.3830 Y-62.9502 F35.00
G01 X13.4199 Y-62.7056 F35.00
G01 X13.4199 Y-62.4584 F35.00
G01 X13.3830 Y-62.2138 F35.00
G01 X13.3102 Y-61.9775 F35.00
G01 X13.2029 Y-61.7547 F35.00
G01 X13.0636 Y-61.5504 F35.00
G01 X12.8954 Y-61.3691 F35.00
G01 X12.7020 Y-61.2150 F35.00
G01 X12.4879 Y-61.0913 F35.00
G01 X12.2577 Y-61.0010 F35.00
G01 X12.0166 Y-60.9460 F35.00
G01 X11.8317 Y-60.9321 F35.00
G01 X11.7083 Y-60.9321 F35.00
G01 X11.6761 Y-60.9345 F35.00
G01 X11.5234 Y-60.9460 F35.00
G01 X11.2823 Y-61.0010 F35.00
G01 X11.0521 Y-61.0913 F35.00
G01 X10.8380 Y-61.2150 F35.00
G01 X10.6446 Y-61.3691 F35.00
G01 X10.4764 Y-61.5504 F35.00
G01 X10.3371 Y-61.7547 F35.00
G01 X10.2298 Y-61.9775 F35.00
G01 X10.1570 Y-62.2138 F35.00
G01 X10.1201 Y-62.4584 F35.00
G01 X10.1201 Y-62.7056 F35.00
G00 Z2.0000
G00 X6.0679 Y-48.7244
G01 F45.00
G01 Z-0.0900
G01 F35.00
G01 X6.0709 Y-48.7808 F35.00
G01 X6.0802 Y-48.8439 F35.00
G01 X6.0957 Y-48.9058 F35.00
G01 X6.1172 Y-48.9659 F35.00
G01 X6.1445 Y-49.0236 F35.00
G01 X6.1773 Y-49.0783 F35.00
G01 X6.2153 Y-49.1296 F35.00
G01 X6.2556 Y-49.1742 F35.00
G01 X9.0008 Y-51.9194 F35.00
G01 X9.0399 Y-51.9548 F35.00
G01 X9.0512 Y-51.9642 F35.00
G01 X9.0967 Y-51.9977 F35.00
G01 X9.1450 Y-52.0268 F35.00
G01 X9.1580 Y-52.0338 F35.00
G01 X9.2091 Y-52.0578 F35.00
G01 X9.2622 Y-52.0769 F35.00
G01 X9.2692 Y-52.0793 F35.00
G01 X9.2800 Y-52.0821 F35.00
G01 X9.2800 Y-52.5270 F35.00
G01 X9.2804 Y-52.5380 F35.00
G01 X9.2811 Y-52.5454 F35.00
G01 X9.2836 Y-52.5599 F35.00
G01 X9.2865 Y-52.5705 F35.00
G01 X9.2888 Y-52.5775 F35.00
G01 X9.2944 Y-52.5911 F35.00
G01 X9.3013 Y-52.6041 F35.00
G01 X9.3095 Y-52.6164 F35.00
G01 X9.3189 Y-52.6277 F35.00
G01 X9.3293 Y-52.6381 F35.00
G01 X9.3348 Y-52.6430 F35.00
G01 X9.3436 Y-52.6496 F35.00
G01 X9.3529 Y-52.6557 F35.00
G01 X9.3626 Y-52.6610 F35.00
G01 X9.3726 Y-52.6656 F35.00
G01 X9.3829 Y-52.6694 F35.00
G01 X9.3936 Y-52.6725 F35.00
G01 X9.4044 Y-52.6748 F35.00
G01 X9.4153 Y-52.6763 F35.00
G01 X9.4300 Y-52.6770 F35.00
G01 X11.5737 Y-52.6770 F35.00
G01 X11.5884 Y-52.6759 F35.00
G01 X11.5956 Y-52.6748 F35.00
G01 X11.6064 Y-52.6725 F35.00
G01 X11.6171 Y-52.6694 F35.00
G01 X11.6240 Y-52.6669 F35.00
G01 X11.6308 Y-52.6641 F35.00
G01 X11.6407 Y-52.6593 F35.00
G01 X11.6471 Y-52.6557 F35.00
G01 X11.6564 Y-52.6496 F35.00
G01 X11.6652 Y-52.6430 F35.00
G01 X11.6707 Y-52.6381 F35.00
G01 X11.6761 Y-52.6331 F35.00
G01 X11.6836 Y-52.6250 F35.00
G01 X11.6926 Y-52.6134 F35.00
G01 X11.6987 Y-52.6041 F35.00
G01 X11.7040 Y-52.5944 F35.00
G01 X11.7086 Y-52.5844 F35.00
G01 X11.7124 Y-52.5741 F35.00
G01 X11.7155 Y-52.5634 F35.00
G01 X11.7178 Y-52.5526 F35.00
G01 X11.7193 Y-52.5417 F35.00
G01 X11.7200 Y-52.5307 F35.00
G01 X11.7200 Y-50.3870 F35.00
G01 X11.7193 Y-50.3723 F35.00
G01 X11.7171 Y-50.3577 F35.00
G01 X11.7135 Y-50.3435 F35.00
G01 X11.7086 Y-50.3296 F35.00
G01 X11.7023 Y-50.3163 F35.00
G01 X11.6947 Y-50.3037 F35.00
G01 X11.6860 Y-50.2918 F35.00
G01 X11.6811 Y-50.2863 F35.00
G01 X11.6734 Y-50.2784 F35.00
G01 X11.6652 Y-50.2710 F35.00
G01 X11.6533 Y-50.2623 F35.00
G01 X11.6407 Y-50.2547 F35.00
G01 X11.6274 Y-50.2484 F35.00
G01 X11.6135 Y-50.2435 F35.00
G01 X11.5993 Y-50.2399 F35.00
G01 X11.5847 Y-50.2377 F35.00
G01 X11.5737 Y-50.2370 F35.00
G01 X9.4263 Y-50.2370 F35.00
G01 X9.4116 Y-50.2381 F35.00
G01 X9.4007 Y-50.2399 F35.00
G01 X9.3900 Y-50.2424 F35.00
G01 X9.3760 Y-50.2471 F35.00
G01 X9.3626 Y-50.2530 F35.00
G01 X9.3529 Y-50.2583 F35.00
G01 X9.3436 Y-50.2644 F35.00
G01 X9.3320 Y-50.2734 F35.00
G01 X9.3214 Y-50.2836 F35.00
G01 X9.3140 Y-50.2918 F35.00
G01 X9.3074 Y-50.3006 F35.00
G01 X9.2995 Y-50.3131 F35.00
G01 X9.2929 Y-50.3262 F35.00
G01 X9.2888 Y-50.3365 F35.00
G01 X9.2845 Y-50.3506 F35.00
G01 X9.2822 Y-50.3616 F35.00
G01 X7.3683 Y-48.4477 F35.00
G01 X7.3683 Y-35.9693 F35.00
G01 X9.6673 Y-33.6703 F35.00
G01 X17.6674 Y-33.6703 F35.00
G01 X18.4948 Y-34.4976 F35.00
G01 X18.4949 Y-35.8754 F35.00
G01 X18.4964 Y-35.8900 F35.00
G01 X18.4984 Y-35.9009 F35.00
G01 X18.5002 Y-35.9080 F35.00
G01 X18.5035 Y-35.9185 F35.00
G01 X18.5062 Y-35.9254 F35.00
G01 X18.5108 Y-35.9354 F35.00
G01 X18.5142 Y-35.9419 F35.00
G01 X18.5200 Y-35.9513 F35.00
G01 X18.5243 Y-35.9574 F35.00
G01 X18.5288 Y-35.9632 F35.00
G01 X18.5361 Y-35.9714 F35.00
G01 X18.5468 Y-35.9816 F35.00
G01 X18.5554 Y-35.9885 F35.00
G01 X18.5614 Y-35.9927 F35.00
G01 X18.5708 Y-35.9985 F35.00
G01 X18.5806 Y-36.0036 F35.00
G01 X18.5908 Y-36.0079 F35.00
G01 X18.6012 Y-36.0115 F35.00
G01 X18.6119 Y-36.0144 F35.00
G01 X18.6227 Y-36.0164 F35.00
G01 X18.6337 Y-36.0176 F35.00
G01 X18.6448 Y-36.0180 F35.00
G01 X20.7921 Y-36.0178 F35.00
G01 X20.8031 Y-36.0169 F35.00
G01 X20.8176 Y-36.0144 F35.00
G01 X20.8318 Y-36.0104 F35.00
G01 X20.8422 Y-36.0066 F35.00
G01 X20.8522 Y-36.0020 F35.00
G01 X20.8650 Y-35.9947 F35.00
G01 X20.8741 Y-35.9885 F35.00
G01 X20.8855 Y-35.9791 F35.00
G01 X20.8934 Y-35.9714 F35.00
G01 X20.9030 Y-35.9603 F35.00
G01 X20.9115 Y-35.9482 F35.00
G01 X20.9170 Y-35.9387 F35.00
G01 X20.9233 Y-35.9254 F35.00
G01 X20.9272 Y-35.9151 F35.00
G01 X20.9303 Y-35.9044 F35.00
G01 X20.9331 Y-35.8900 F35.00
G01 X20.9343 Y-35.8790 F35.00
G01 X20.9348 Y-35.8680 F35.00
G01 X20.9347 Y-33.7243 F35.00
G01 X20.9336 Y-33.7096 F35.00
G01 X20.9319 Y-33.6987 F35.00
G01 X20.9293 Y-33.6880 F35.00
G01 X20.9260 Y-33.6775 F35.00
G01 X20.9219 Y-33.6672 F35.00
G01 X20.9170 Y-33.6573 F35.00
G01 X20.9115 Y-33.6478 F35.00
G01 X20.9052 Y-33.6386 F35.00
G01 X20.8959 Y-33.6273 F35.00
G01 X20.8908 Y-33.6219 F35.00
G01 X20.8827 Y-33.6144 F35.00
G01 X20.8711 Y-33.6054 F35.00
G01 X20.8650 Y-33.6013 F35.00
G01 X20.8555 Y-33.5957 F35.00
G01 X20.8455 Y-33.5909 F35.00
G01 X20.8387 Y-33.5881 F35.00
G01 X20.8248 Y-33.5834 F35.00
G01 X20.8104 Y-33.5802 F35.00
G01 X20.7995 Y-33.5787 F35.00
G01 X20.7921 Y-33.5782 F35.00
G01 X19.4143 Y-33.5780 F35.00
G01 X18.8563 Y-33.0200 F35.00
G01 X19.4143 Y-32.4620 F35.00
G01 X20.7921 Y-32.4618 F35.00
G01 X20.7995 Y-32.4613 F35.00
G01 X20.8104 Y-32.4598 F35.00
G01 X20.8248 Y-32.4566 F35.00
G01 X20.8318 Y-32.4544 F35.00
G01 X20.8422 Y-32.4506 F35.00
G01 X20.8522 Y-32.4460 F35.00
G01 X20.8587 Y-32.4425 F35.00
G01 X20.8711 Y-32.4346 F35.00
G01 X20.8799 Y-32.4280 F35.00
G01 X20.8855 Y-32.4231 F35.00
G01 X20.8908 Y-32.4181 F35.00
G01 X20.8983 Y-32.4100 F35.00
G01 X20.9030 Y-32.4043 F35.00
G01 X20.9095 Y-32.3953 F35.00
G01 X20.9153 Y-32.3859 F35.00
G01 X20.9203 Y-32.3761 F35.00
G01 X20.9247 Y-32.3660 F35.00
G01 X20.9283 Y-32.3555 F35.00
G01 X20.9311 Y-32.3449 F35.00
G01 X20.9331 Y-32.3340 F35.00
G01 X20.9343 Y-32.3230 F35.00
G01 X20.9348 Y-32.3120 F35.00
G01 X20.9347 Y-30.1683 F35.00
G01 X20.9343 Y-30.1610 F35.00
G01 X20.9331 Y-30.1500 F35.00
G01 X20.9311 Y-30.1391 F35.00
G01 X20.9283 Y-30.1285 F35.00
G01 X20.9247 Y-30.1180 F35.00
G01 X20.9203 Y-30.1079 F35.00
G01 X20.9153 Y-30.0981 F35.00
G01 X20.9095 Y-30.0887 F35.00
G01 X20.9052 Y-30.0826 F35.00
G01 X20.8983 Y-30.0740 F35.00
G01 X20.8908 Y-30.0659 F35.00
G01 X20.8827 Y-30.0584 F35.00
G01 X20.8741 Y-30.0515 F35.00
G01 X20.8650 Y-30.0453 F35.00
G01 X20.8555 Y-30.0397 F35.00
G01 X20.8455 Y-30.0349 F35.00
G01 X20.8318 Y-30.0296 F35.00
G01 X20.8176 Y-30.0256 F35.00
G01 X20.8068 Y-30.0236 F35.00
G01 X20.7995 Y-30.0227 F35.00
G01 X20.7848 Y-30.0220 F35.00
G01 X18.6448 Y-30.0220 F35.00
G01 X18.6337 Y-30.0224 F35.00
G01 X18.6191 Y-30.0242 F35.00
G01 X18.6083 Y-30.0265 F35.00
G01 X18.5977 Y-30.0296 F35.00
G01 X18.5873 Y-30.0334 F35.00
G01 X18.5773 Y-30.0380 F35.00
G01 X18.5676 Y-30.0433 F35.00
G01 X18.5554 Y-30.0515 F35.00
G01 X18.5440 Y-30.0609 F35.00
G01 X18.5361 Y-30.0686 F35.00
G01 X18.5312 Y-30.0740 F35.00
G01 X18.5221 Y-30.0856 F35.00
G01 X18.5180 Y-30.0918 F35.00
G01 X18.5125 Y-30.1013 F35.00
G01 X18.5092 Y-30.1079 F35.00
G01 X18.5048 Y-30.1180 F35.00
G01 X18.5002 Y-30.1320 F35.00
G01 X18.4970 Y-30.1464 F35.00
G01 X18.4959 Y-30.1536 F35.00
G01 X18.4949 Y-30.1646 F35.00
G01 X18.4948 Y-31.5424 F35.00
G01 X17.6674 Y-32.3697 F35.00
G01 X9.6673 Y-32.3697 F35.00
G01 X7.3683 Y-30.0707 F35.00
G01 X7.3683 Y-16.3621 F35.00
G01 X8.6993 Y-15.0310 F35.00
G01 X9.2800 Y-15.0310 F35.00
G01 X9.2800 Y-15.4507 F35.00
G01 X9.2804 Y-15.4618 F35.00
G01 X9.2811 Y-15.4691 F35.00
G01 X9.2836 Y-15.4836 F35.00
G01 X9.2865 Y-15.4943 F35.00
G01 X9.2901 Y-15.5047 F35.00
G01 X9.2944 Y-15.5149 F35.00
G01 X9.2995 Y-15.5247 F35.00
G01 X9.3053 Y-15.5341 F35.00
G01 X9.3117 Y-15.5430 F35.00
G01 X9.3189 Y-15.5515 F35.00
G01 X9.3266 Y-15.5594 F35.00
G01 X9.3348 Y-15.5667 F35.00
G01 X9.3436 Y-15.5734 F35.00
G01 X9.3529 Y-15.5794 F35.00
G01 X9.3626 Y-15.5847 F35.00
G01 X9.3726 Y-15.5893 F35.00
G01 X9.3829 Y-15.5932 F35.00
G01 X9.3936 Y-15.5963 F35.00
G01 X9.4044 Y-15.5985 F35.00
G01 X9.4190 Y-15.6003 F35.00
G01 X9.4300 Y-15.6007 F35.00
G01 X11.5700 Y-15.6007 F35.00
G01 X11.5810 Y-15.6003 F35.00
G01 X11.5920 Y-15.5991 F35.00
G01 X11.6029 Y-15.5971 F35.00
G01 X11.6171 Y-15.5932 F35.00
G01 X11.6274 Y-15.5893 F35.00
G01 X11.6374 Y-15.5847 F35.00
G01 X11.6502 Y-15.5775 F35.00
G01 X11.6594 Y-15.5712 F35.00
G01 X11.6707 Y-15.5619 F35.00
G01 X11.6786 Y-15.5542 F35.00
G01 X11.6836 Y-15.5487 F35.00
G01 X11.6883 Y-15.5430 F35.00
G01 X11.6947 Y-15.5341 F35.00
G01 X11.6987 Y-15.5279 F35.00
G01 X11.7040 Y-15.5182 F35.00
G01 X11.7086 Y-15.5082 F35.00
G01 X11.7112 Y-15.5013 F35.00
G01 X11.7155 Y-15.4872 F35.00
G01 X11.7184 Y-15.4728 F35.00
G01 X11.7196 Y-15.4618 F35.00
G01 X11.7200 Y-15.4544 F35.00
G01 X11.7200 Y-13.3071 F35.00
G01 X11.7189 Y-13.2924 F35.00
G01 X11.7171 Y-13.2815 F35.00
G01 X11.7135 Y-13.2672 F35.00
G01 X11.7086 Y-13.2533 F35.00
G01 X11.7040 Y-13.2433 F35.00
G01 X11.6967 Y-13.2305 F35.00
G01 X11.6883 Y-13.2185 F35.00
G01 X11.6811 Y-13.2100 F35.00
G01 X11.6707 Y-13.1996 F35.00
G01 X11.6623 Y-13.1925 F35.00
G01 X11.6502 Y-13.1840 F35.00
G01 X11.6407 Y-13.1785 F35.00
G01 X11.6274 Y-13.1722 F35.00
G01 X11.6171 Y-13.1683 F35.00
G01 X11.6029 Y-13.1644 F35.00
G01 X11.5920 Y-13.1624 F35.00
G01 X11.5810 Y-13.1612 F35.00
G01 X11.5700 Y-13.1608 F35.00
G01 X9.4300 Y-13.1608 F35.00
G01 X9.4153 Y-13.1615 F35.00
G01 X9.4044 Y-13.1630 F35.00
G01 X9.3936 Y-13.1652 F35.00
G01 X9.3829 Y-13.1683 F35.00
G01 X9.3726 Y-13.1722 F35.00
G01 X9.3626 Y-13.1768 F35.00
G01 X9.3529 Y-13.1821 F35.00
G01 X9.3436 Y-13.1881 F35.00
G01 X9.3348 Y-13.1948 F35.00
G01 X9.3266 Y-13.2021 F35.00
G01 X9.3189 Y-13.2100 F35.00
G01 X9.3117 Y-13.2185 F35.00
G01 X9.3053 Y-13.2274 F35.00
G01 X9.2995 Y-13.2368 F35.00
G01 X9.2944 Y-13.2466 F35.00
G01 X9.2901 Y-13.2568 F35.00
G01 X9.2865 Y-13.2672 F35.00
G01 X9.2836 Y-13.2779 F35.00
G01 X9.2811 Y-13.2924 F35.00
G01 X9.2804 Y-13.2997 F35.00
G01 X9.2800 Y-13.3108 F35.00
G01 X9.2800 Y-13.7305 F35.00
G01 X8.4300 Y-13.7305 F35.00
G01 X8.3699 Y-13.7333 F35.00
G01 X8.3590 Y-13.7345 F35.00
G01 X8.3031 Y-13.7430 F35.00
G01 X8.2412 Y-13.7585 F35.00
G01 X8.1812 Y-13.7800 F35.00
G01 X8.1267 Y-13.8056 F35.00
G01 X8.1171 Y-13.8109 F35.00
G01 X8.0750 Y-13.8361 F35.00
G01 X8.0627 Y-13.8443 F35.00
G01 X8.0175 Y-13.8781 F35.00
G01 X7.9702 Y-13.9210 F35.00
G01 X6.2556 Y-15.6356 F35.00
G01 X6.2153 Y-15.6802 F35.00
G01 X6.1816 Y-15.7255 F35.00
G01 X6.1734 Y-15.7377 F35.00
G01 X6.1445 Y-15.7862 F35.00
G01 X6.1172 Y-15.8439 F35.00
G01 X6.0981 Y-15.8970 F35.00
G01 X6.0938 Y-15.9111 F35.00
G01 X6.0819 Y-15.9587 F35.00
G01 X6.0790 Y-15.9731 F35.00
G01 X6.0709 Y-16.0290 F35.00
G01 X6.0677 Y-16.0928 F35.00
G01 X6.0677 Y-30.3400 F35.00
G01 X6.0703 Y-30.3964 F35.00
G01 X6.0718 Y-30.4110 F35.00
G01 X6.0802 Y-30.4669 F35.00
G01 X6.0938 Y-30.5217 F35.00
G01 X6.0981 Y-30.5357 F35.00
G01 X6.1146 Y-30.5820 F35.00
G01 X6.1202 Y-30.5956 F35.00
G01 X6.1445 Y-30.6465 F35.00
G01 X6.1773 Y-30.7013 F35.00
G01 X6.2153 Y-30.7525 F35.00
G01 X6.2531 Y-30.7945 F35.00
G01 X8.4784 Y-33.0200 F35.00
G01 X6.2556 Y-35.2428 F35.00
G01 X6.2153 Y-35.2875 F35.00
G01 X6.1816 Y-35.3327 F35.00
G01 X6.1734 Y-35.3450 F35.00
G01 X6.1445 Y-35.3935 F35.00
G01 X6.1172 Y-35.4512 F35.00
G01 X6.0981 Y-35.5043 F35.00
G01 X6.0938 Y-35.5183 F35.00
G01 X6.0819 Y-35.5660 F35.00
G01 X6.0790 Y-35.5804 F35.00
G01 X6.0709 Y-35.6363 F35.00
G01 X6.0677 Y-35.7000 F35.00
G01 X6.0679 Y-48.7244 F35.00
G00 Z2.0000
G00 X7.4779 Y-48.1404
G01 F45.00
G01 Z-0.0900
G01 F35.00
G01 X7.4809 Y-48.1967 F35.00
G01 X7.4902 Y-48.2599 F35.00
G01 X7.5057 Y-48.3218 F35.00
G01 X7.5246 Y-48.3750 F35.00
G01 X7.5302 Y-48.3886 F35.00
G01 X7.5512 Y-48.4329 F35.00
G01 X7.5582 Y-48.4459 F35.00
G01 X7.5873 Y-48.4943 F35.00
G01 X7.6230 Y-48.5426 F35.00
G01 X7.6302 Y-48.5511 F35.00
G01 X7.6682 Y-48.5928 F35.00
G01 X8.2522 Y-49.1768 F35.00
G01 X8.2995 Y-49.2197 F35.00
G01 X8.3507 Y-49.2577 F35.00
G01 X8.4055 Y-49.2905 F35.00
G01 X8.4564 Y-49.3148 F35.00
G01 X8.4700 Y-49.3204 F35.00
G01 X8.5232 Y-49.3393 F35.00
G01 X8.5780 Y-49.3531 F35.00
G01 X8.5924 Y-49.3560 F35.00
G01 X8.6446 Y-49.3637 F35.00
G01 X8.6556 Y-49.3647 F35.00
G01 X8.7120 Y-49.3673 F35.00
G01 X9.2800 Y-49.3673 F35.00
G01 X9.2800 Y-49.7870 F35.00
G01 X9.2804 Y-49.7980 F35.00
G01 X9.2822 Y-49.8126 F35.00
G01 X9.2836 Y-49.8199 F35.00
G01 X9.2865 Y-49.8305 F35.00
G01 X9.2901 Y-49.8410 F35.00
G01 X9.2944 Y-49.8511 F35.00
G01 X9.2995 Y-49.8609 F35.00
G01 X9.3033 Y-49.8672 F35.00
G01 X9.3095 Y-49.8764 F35.00
G01 X9.3140 Y-49.8822 F35.00
G01 X9.3189 Y-49.8877 F35.00
G01 X9.3266 Y-49.8956 F35.00
G01 X9.3320 Y-49.9006 F35.00
G01 X9.3406 Y-49.9075 F35.00
G01 X9.3467 Y-49.9117 F35.00
G01 X9.3561 Y-49.9175 F35.00
G01 X9.3626 Y-49.9210 F35.00
G01 X9.3726 Y-49.9256 F35.00
G01 X9.3865 Y-49.9305 F35.00
G01 X9.4007 Y-49.9341 F35.00
G01 X9.4153 Y-49.9363 F35.00
G01 X9.4300 Y-49.9370 F35.00
G01 X11.5737 Y-49.9370 F35.00
G01 X11.5847 Y-49.9363 F35.00
G01 X11.5956 Y-49.9348 F35.00
G01 X11.6064 Y-49.9325 F35.00
G01 X11.6171 Y-49.9294 F35.00
G01 X11.6274 Y-49.9256 F35.00
G01 X11.6374 Y-49.9210 F35.00
G01 X11.6471 Y-49.9157 F35.00
G01 X11.6533 Y-49.9117 F35.00
G01 X11.6623 Y-49.9053 F35.00
G01 X11.6707 Y-49.8981 F35.00
G01 X11.6786 Y-49.8904 F35.00
G01 X11.6860 Y-49.8822 F35.00
G01 X11.6926 Y-49.8734 F35.00
G01 X11.6987 Y-49.8641 F35.00
G01 X11.7040 Y-49.8544 F35.00
G01 X11.7086 Y-49.8444 F35.00
G01 X11.7135 Y-49.8305 F35.00
G01 X11.7171 Y-49.8163 F35.00
G01 X11.7193 Y-49.8017 F35.00
G01 X11.7200 Y-49.7870 F35.00
G01 X11.7200 Y-47.6433 F35.00
G01 X11.7196 Y-47.6360 F35.00
G01 X11.7184 Y-47.6250 F35.00
G01 X11.7171 Y-47.6177 F35.00
G01 X11.7146 Y-47.6070 F35.00
G01 X11.7112 Y-47.5965 F35.00
G01 X11.7086 Y-47.5896 F35.00
G01 X11.7040 Y-47.5796 F35.00
G01 X11.7005 Y-47.5731 F35.00
G01 X11.6967 Y-47.5668 F35.00
G01 X11.6905 Y-47.5576 F35.00
G01 X11.6811 Y-47.5463 F35.00
G01 X11.6734 Y-47.5384 F35.00
G01 X11.6680 Y-47.5334 F35.00
G01 X11.6594 Y-47.5265 F35.00
G01 X11.6533 Y-47.5223 F35.00
G01 X11.6439 Y-47.5165 F35.00
G01 X11.6341 Y-47.5114 F35.00
G01 X11.6240 Y-47.5071 F35.00
G01 X11.6135 Y-47.5035 F35.00
G01 X11.6029 Y-47.5006 F35.00
G01 X11.5920 Y-47.4986 F35.00
G01 X11.5810 Y-47.4974 F35.00
G01 X11.5700 Y-47.4970 F35.00
G01 X9.4300 Y-47.4970 F35.00
G01 X9.4226 Y-47.4972 F35.00
G01 X9.4116 Y-47.4981 F35.00
G01 X9.4007 Y-47.4999 F35.00
G01 X9.3900 Y-47.5024 F35.00
G01 X9.3795 Y-47.5058 F35.00
G01 X9.3659 Y-47.5114 F35.00
G01 X9.3561 Y-47.5165 F35.00
G01 X9.3467 Y-47.5223 F35.00
G01 X9.3377 Y-47.5287 F35.00
G01 X9.3293 Y-47.5359 F35.00
G01 X9.3214 Y-47.5436 F35.00
G01 X9.3140 Y-47.5518 F35.00
G01 X9.3074 Y-47.5606 F35.00
G01 X9.3013 Y-47.5699 F35.00
G01 X9.2944 Y-47.5829 F35.00
G01 X9.2901 Y-47.5930 F35.00
G01 X9.2865 Y-47.6035 F35.00
G01 X9.2836 Y-47.6141 F35.00
G01 X9.2822 Y-47.6214 F35.00
G01 X9.2807 Y-47.6323 F35.00
G01 X9.2800 Y-47.6470 F35.00
G01 X9.2800 Y-48.0667 F35.00
G01 X8.9813 Y-48.0667 F35.00
G01 X8.7783 Y-47.8637 F35.00
G01 X8.7783 Y-37.6073 F35.00
G01 X10.6833 Y-35.7023 F35.00
G01 X15.4787 Y-35.7023 F35.00
G01 X17.5742 Y-37.7978 F35.00
G01 X17.6159 Y-37.8358 F35.00
G01 X17.6273 Y-37.8452 F35.00
G01 X17.6667 Y-37.8744 F35.00
G01 X17.6790 Y-37.8826 F35.00
G01 X17.7275 Y-37.9115 F35.00
G01 X17.7784 Y-37.9358 F35.00
G01 X17.7920 Y-37.9414 F35.00
G01 X17.8452 Y-37.9603 F35.00
G01 X17.9071 Y-37.9758 F35.00
G01 X17.9703 Y-37.9851 F35.00
G01 X18.0303 Y-37.9882 F35.00
G01 X21.5937 Y-37.9882 F35.00
G01 X21.6537 Y-37.9851 F35.00
G01 X21.7169 Y-37.9758 F35.00
G01 X21.7788 Y-37.9603 F35.00
G01 X21.8354 Y-37.9401 F35.00
G01 X21.8456 Y-37.9358 F35.00
G01 X21.8965 Y-37.9115 F35.00
G01 X21.9513 Y-37.8787 F35.00
G01 X22.0025 Y-37.8407 F35.00
G01 X22.0472 Y-37.8004 F35.00
G01 X22.7171 Y-37.1304 F35.00
G01 X22.7526 Y-37.0913 F35.00
G01 X22.7619 Y-37.0800 F35.00
G01 X22.7954 Y-37.0345 F35.00
G01 X22.8264 Y-36.9830 F35.00
G01 X22.8315 Y-36.9732 F35.00
G01 X22.8555 Y-36.9221 F35.00
G01 X22.8770 Y-36.8620 F35.00
G01 X22.8925 Y-36.8001 F35.00
G01 X22.9010 Y-36.7443 F35.00
G01 X22.9022 Y-36.7333 F35.00
G01 X22.9050 Y-36.6732 F35.00
G01 X22.9050 Y-36.0180 F35.00
G01 X23.3248 Y-36.0180 F35.00
G01 X23.3395 Y-36.0173 F35.00
G01 X23.3504 Y-36.0158 F35.00
G01 X23.3576 Y-36.0144 F35.00
G01 X23.3718 Y-36.0104 F35.00
G01 X23.3822 Y-36.0066 F35.00
G01 X23.3922 Y-36.0020 F35.00
G01 X23.4019 Y-35.9967 F35.00
G01 X23.4111 Y-35.9906 F35.00
G01 X23.4199 Y-35.9840 F35.00
G01 X23.4282 Y-35.9766 F35.00
G01 X23.4359 Y-35.9687 F35.00
G01 X23.4430 Y-35.9603 F35.00
G01 X23.4495 Y-35.9513 F35.00
G01 X23.4553 Y-35.9419 F35.00
G01 X23.4603 Y-35.9321 F35.00
G01 X23.4660 Y-35.9185 F35.00
G01 X23.4693 Y-35.9080 F35.00
G01 X23.4719 Y-35.8973 F35.00
G01 X23.4736 Y-35.8864 F35.00
G01 X23.4746 Y-35.8754 F35.00
G01 X23.4748 Y-35.8680 F35.00
G01 X23.4748 Y-33.7280 F35.00
G01 X23.4746 Y-33.7206 F35.00
G01 X23.4736 Y-33.7096 F35.00
G01 X23.4725 Y-33.7024 F35.00
G01 X23.4703 Y-33.6916 F35.00
G01 X23.4672 Y-33.6809 F35.00
G01 X23.4647 Y-33.6740 F35.00
G01 X23.4603 Y-33.6639 F35.00
G01 X23.4553 Y-33.6541 F35.00
G01 X23.4495 Y-33.6447 F35.00
G01 X23.4430 Y-33.6357 F35.00
G01 X23.4359 Y-33.6273 F35.00
G01 X23.4282 Y-33.6194 F35.00
G01 X23.4199 Y-33.6120 F35.00
G01 X23.4111 Y-33.6054 F35.00
G01 X23.4019 Y-33.5993 F35.00
G01 X23.3922 Y-33.5940 F35.00
G01 X23.3822 Y-33.5894 F35.00
G01 X23.3718 Y-33.5856 F35.00
G01 X23.3648 Y-33.5834 F35.00
G01 X23.3540 Y-33.5809 F35.00
G01 X23.3395 Y-33.5787 F35.00
G01 X23.3248 Y-33.5780 F35.00
G01 X22.9050 Y-33.5780 F35.00
G01 X22.9050 Y-32.4620 F35.00
G01 X23.3248 Y-32.4620 F35.00
G01 X23.3395 Y-32.4613 F35.00
G01 X23.3504 Y-32.4598 F35.00
G01 X23.3576 Y-32.4584 F35.00
G01 X23.3683 Y-32.4555 F35.00
G01 X23.3787 Y-32.4519 F35.00
G01 X23.3889 Y-32.4476 F35.00
G01 X23.3987 Y-32.4425 F35.00
G01 X23.4081 Y-32.4367 F35.00
G01 X23.4170 Y-32.4303 F35.00
G01 X23.4255 Y-32.4231 F35.00
G01 X23.4334 Y-32.4154 F35.00
G01 X23.4407 Y-32.4072 F35.00
G01 X23.4474 Y-32.3984 F35.00
G01 X23.4534 Y-32.3891 F35.00
G01 X23.4587 Y-32.3794 F35.00
G01 X23.4633 Y-32.3694 F35.00
G01 X23.4672 Y-32.3591 F35.00
G01 X23.4703 Y-32.3484 F35.00
G01 X23.4725 Y-32.3376 F35.00
G01 X23.4740 Y-32.3267 F35.00
G01 X23.4748 Y-32.3120 F35.00
G01 X23.4748 Y-30.1720 F35.00
G01 X23.4740 Y-30.1573 F35.00
G01 X23.4719 Y-30.1427 F35.00
G01 X23.4693 Y-30.1320 F35.00
G01 X23.4660 Y-30.1215 F35.00
G01 X23.4619 Y-30.1112 F35.00
G01 X23.4570 Y-30.1013 F35.00
G01 X23.4515 Y-30.0918 F35.00
G01 X23.4452 Y-30.0826 F35.00
G01 X23.4383 Y-30.0740 F35.00
G01 X23.4308 Y-30.0659 F35.00
G01 X23.4227 Y-30.0584 F35.00
G01 X23.4141 Y-30.0515 F35.00
G01 X23.4050 Y-30.0453 F35.00
G01 X23.3955 Y-30.0397 F35.00
G01 X23.3855 Y-30.0349 F35.00
G01 X23.3753 Y-30.0308 F35.00
G01 X23.3648 Y-30.0274 F35.00
G01 X23.3576 Y-30.0256 F35.00
G01 X23.3431 Y-30.0231 F35.00
G01 X23.3321 Y-30.0222 F35.00
G01 X23.3248 Y-30.0220 F35.00
G01 X22.9050 Y-30.0220 F35.00
G01 X22.9050 Y-29.3668 F35.00
G01 X22.9022 Y-29.3067 F35.00
G01 X22.9010 Y-29.2957 F35.00
G01 X22.8925 Y-29.2399 F35.00
G01 X22.8770 Y-29.1780 F35.00
G01 X22.8555 Y-29.1179 F35.00
G01 X22.8282 Y-29.0602 F35.00
G01 X22.7994 Y-29.0117 F35.00
G01 X22.7912 Y-28.9995 F35.00
G01 X22.7574 Y-28.9542 F35.00
G01 X22.7171 Y-28.9096 F35.00
G01 X22.0498 Y-28.2422 F35.00
G01 X22.0025 Y-28.1993 F35.00
G01 X21.9573 Y-28.1656 F35.00
G01 X21.9450 Y-28.1574 F35.00
G01 X21.9029 Y-28.1322 F35.00
G01 X21.8933 Y-28.1268 F35.00
G01 X21.8456 Y-28.1042 F35.00
G01 X21.8320 Y-28.0986 F35.00
G01 X21.7788 Y-28.0797 F35.00
G01 X21.7240 Y-28.0659 F35.00
G01 X21.7096 Y-28.0630 F35.00
G01 X21.6537 Y-28.0549 F35.00
G01 X21.5900 Y-28.0517 F35.00
G01 X18.0340 Y-28.0517 F35.00
G01 X17.9703 Y-28.0549 F35.00
G01 X17.9144 Y-28.0630 F35.00
G01 X17.9000 Y-28.0659 F35.00
G01 X17.8523 Y-28.0778 F35.00
G01 X17.8417 Y-28.0809 F35.00
G01 X17.7852 Y-28.1012 F35.00
G01 X17.7341 Y-28.1252 F35.00
G01 X17.7211 Y-28.1322 F35.00
G01 X17.6727 Y-28.1613 F35.00
G01 X17.6273 Y-28.1948 F35.00
G01 X17.6159 Y-28.2042 F35.00
G01 X17.5768 Y-28.2396 F35.00
G01 X15.7327 Y-30.0837 F35.00
G01 X10.4293 Y-30.0837 F35.00
G01 X8.7783 Y-28.4327 F35.00
G01 X8.7783 Y-18.0493 F35.00
G01 X9.0566 Y-17.7710 F35.00
G01 X9.2800 Y-17.7710 F35.00
G01 X9.2800 Y-18.1907 F35.00
G01 X9.2807 Y-18.2055 F35.00
G01 X9.2829 Y-18.2200 F35.00
G01 X9.2854 Y-18.2308 F35.00
G01 X9.2888 Y-18.2413 F35.00
G01 X9.2929 Y-18.2515 F35.00
G01 X9.2977 Y-18.2615 F35.00
G01 X9.3033 Y-18.2710 F35.00
G01 X9.3095 Y-18.2801 F35.00
G01 X9.3164 Y-18.2887 F35.00
G01 X9.3239 Y-18.2968 F35.00
G01 X9.3320 Y-18.3043 F35.00
G01 X9.3406 Y-18.3112 F35.00
G01 X9.3498 Y-18.3175 F35.00
G01 X9.3561 Y-18.3213 F35.00
G01 X9.3659 Y-18.3263 F35.00
G01 X9.3760 Y-18.3307 F35.00
