(G-CODE GENERATED BY FLATCAM v8.994 - www.flatcam.org - Version Date: 2020/11/7)

(Name: Electrode_Breakout-F_Cu.gbr_iso_combined_cnc)
(Type: G-code from Geometry)
(Units: MM)

(Created on Wednesday, 03 April 2024 at 22:31)

(This preprocessor is used with a motion controller loaded with GRBL firmware.)
(It is configured to be compatible with almost any version of GRBL firmware.)

(TOOL DIAMETER: 0.4 mm)
(Feedrate_XY: 75.0 mm/min)
(Feedrate_Z: 45.0 mm/min)
(Feedrate rapids 1500.0 mm/min)

(Z_Cut: -0.09 mm)
(Z_Move: 2.0 mm)
(Z Start: None mm)
(Z End: 15.0 mm)
(X,Y End: None mm)
(Steps per circle: 64)
(Steps per circle: 64)
(Preprocessor Geometry: GRBL_11_no_M6)

(X range:   -0.1995 ...   30.4495  mm)
(Y range:  -65.9495 ...    0.1995  mm)

(Spindle Speed: 0.0 RPM)
G21
G90
G17
G94


G01 F75.00

M5             
G00 Z15.0000
G00 X0.0000 Y0.0000                
T2
(MSG, Change to Tool Dia = 0.4000)
M0
G00 Z15.0000
        
M03
G01 F75.00
G00 X-0.1995 Y-0.2045
G01 F45.00
G01 Z-0.0900
G01 F75.00
G01 X-0.1995 Y-65.5455 F75.00
G01 X-0.1990 Y-65.5590 F75.00
G01 X-0.1982 Y-65.5679 F75.00
G01 X-0.1931 Y-65.6133 F75.00
G01 X-0.1910 Y-65.6276 F75.00
G01 X-0.1878 Y-65.6416 F75.00
G01 X-0.1852 Y-65.6509 F75.00
G01 X-0.1804 Y-65.6645 F75.00
G01 X-0.1766 Y-65.6733 F75.00
G01 X-0.1330 Y-65.7639 F75.00
G01 X-0.1230 Y-65.7812 F75.00
G01 X-0.1114 Y-65.7974 F75.00
G01 X-0.0982 Y-65.8123 F75.00
G01 X-0.0836 Y-65.8259 F75.00
G01 X-0.0008 Y-65.8917 F75.00
G01 X0.0160 Y-65.9025 F75.00
G01 X0.0292 Y-65.9095 F75.00
G01 X0.0429 Y-65.9155 F75.00
G01 X0.0618 Y-65.9218 F75.00
G01 X0.1649 Y-65.9455 F75.00
G01 X0.1846 Y-65.9485 F75.00
G01 X0.2045 Y-65.9495 F75.00
G01 X30.0455 Y-65.9495 F75.00
G01 X30.0590 Y-65.9490 F75.00
G01 X30.0679 Y-65.9482 F75.00
G01 X30.1133 Y-65.9431 F75.00
G01 X30.1276 Y-65.9410 F75.00
G01 X30.1370 Y-65.9390 F75.00
G01 X30.1509 Y-65.9352 F75.00
G01 X30.1600 Y-65.9321 F75.00
G01 X30.1733 Y-65.9266 F75.00
G01 X30.2639 Y-65.8830 F75.00
G01 X30.2812 Y-65.8730 F75.00
G01 X30.2974 Y-65.8614 F75.00
G01 X30.3123 Y-65.8482 F75.00
G01 X30.3259 Y-65.8336 F75.00
G01 X30.3917 Y-65.7508 F75.00
G01 X30.4025 Y-65.7340 F75.00
G01 X30.4095 Y-65.7208 F75.00
G01 X30.4155 Y-65.7071 F75.00
G01 X30.4218 Y-65.6882 F75.00
G01 X30.4455 Y-65.5851 F75.00
G01 X30.4485 Y-65.5654 F75.00
G01 X30.4495 Y-65.5455 F75.00
G01 X30.4495 Y-0.2045 F75.00
G01 X30.4490 Y-0.1910 F75.00
G01 X30.4482 Y-0.1821 F75.00
G01 X30.4431 Y-0.1367 F75.00
G01 X30.4410 Y-0.1224 F75.00
G01 X30.4390 Y-0.1130 F75.00
G01 X30.4352 Y-0.0991 F75.00
G01 X30.4304 Y-0.0855 F75.00
G01 X30.4266 Y-0.0767 F75.00
G01 X30.3830 Y0.0139 F75.00
G01 X30.3730 Y0.0312 F75.00
G01 X30.3614 Y0.0474 F75.00
G01 X30.3482 Y0.0623 F75.00
G01 X30.3336 Y0.0759 F75.00
G01 X30.2508 Y0.1417 F75.00
G01 X30.2340 Y0.1525 F75.00
G01 X30.2208 Y0.1595 F75.00
G01 X30.2024 Y0.1672 F75.00
G01 X30.1882 Y0.1718 F75.00
G01 X30.0851 Y0.1955 F75.00
G01 X30.0654 Y0.1985 F75.00
G01 X30.0455 Y0.1995 F75.00
G01 X0.2045 Y0.1995 F75.00
G01 X0.1866 Y0.1987 F75.00
G01 X0.1272 Y0.1918 F75.00
G01 X0.1177 Y0.1901 F75.00
G01 X0.1037 Y0.1866 F75.00
G01 X0.0855 Y0.1804 F75.00
G01 X0.0723 Y0.1746 F75.00
G01 X-0.0095 Y0.1352 F75.00
G01 X-0.0227 Y0.1282 F75.00
G01 X-0.0354 Y0.1202 F75.00
G01 X-0.0435 Y0.1144 F75.00
G01 X-0.0550 Y0.1050 F75.00
G01 X-0.0659 Y0.0946 F75.00
G01 X-0.0791 Y0.0797 F75.00
G01 X-0.1387 Y0.0048 F75.00
G01 X-0.1445 Y-0.0033 F75.00
G01 X-0.1525 Y-0.0160 F75.00
G01 X-0.1616 Y-0.0337 F75.00
G01 X-0.1672 Y-0.0476 F75.00
G01 X-0.1731 Y-0.0666 F75.00
G01 X-0.1945 Y-0.1600 F75.00
G01 X-0.1973 Y-0.1747 F75.00
G01 X-0.1985 Y-0.1846 F75.00
G01 X-0.1995 Y-0.2045 F75.00
G00 Z2.0000
G00 X10.1701 Y-3.3756
G01 F45.00
G01 Z-0.0900
G01 F75.00
G01 X10.2058 Y-3.6128 F75.00
G01 X10.2765 Y-3.8419 F75.00
G01 X10.3806 Y-4.0579 F75.00
G01 X10.5156 Y-4.2561 F75.00
G01 X10.6787 Y-4.4319 F75.00
G01 X10.8662 Y-4.5814 F75.00
G01 X11.0739 Y-4.7013 F75.00
G01 X11.2971 Y-4.7889 F75.00
G01 X11.5309 Y-4.8422 F75.00
G01 X11.7101 Y-4.8557 F75.00
G01 X11.8299 Y-4.8557 F75.00
G01 X12.0091 Y-4.8422 F75.00
G01 X12.2429 Y-4.7889 F75.00
G01 X12.4661 Y-4.7013 F75.00
G01 X12.6738 Y-4.5814 F75.00
G01 X12.8613 Y-4.4319 F75.00
G01 X13.0244 Y-4.2561 F75.00
G01 X13.1594 Y-4.0579 F75.00
G01 X13.2635 Y-3.8419 F75.00
G01 X13.3342 Y-3.6128 F75.00
G01 X13.3699 Y-3.3756 F75.00
G01 X13.3699 Y-3.1359 F75.00
G01 X13.3342 Y-2.8987 F75.00
G01 X13.2635 Y-2.6696 F75.00
G01 X13.1594 Y-2.4536 F75.00
G01 X13.0244 Y-2.2554 F75.00
G01 X12.8613 Y-2.0796 F75.00
G01 X12.6738 Y-1.9301 F75.00
G01 X12.4661 Y-1.8102 F75.00
G01 X12.2429 Y-1.7226 F75.00
G01 X12.0091 Y-1.6693 F75.00
G01 X11.8299 Y-1.6558 F75.00
G01 X11.7101 Y-1.6558 F75.00
G01 X11.6799 Y-1.6581 F75.00
G01 X11.5309 Y-1.6693 F75.00
G01 X11.2971 Y-1.7226 F75.00
G01 X11.0739 Y-1.8102 F75.00
G01 X10.8662 Y-1.9301 F75.00
G01 X10.6787 Y-2.0796 F75.00
G01 X10.5156 Y-2.2554 F75.00
G01 X10.3806 Y-2.4536 F75.00
G01 X10.2765 Y-2.6696 F75.00
G01 X10.2058 Y-2.8987 F75.00
G01 X10.1701 Y-3.1359 F75.00
G01 X10.1701 Y-3.3756 F75.00
G00 Z2.0000
G00 X14.3100 Y-11.3408
G01 F45.00
G01 Z-0.0900
G01 F75.00
G01 X14.3100 Y-10.9710 F75.00
G01 X20.1450 Y-10.9710 F75.00
G01 X20.7436 Y-11.5696 F75.00
G01 X20.7908 Y-11.6125 F75.00
G01 X20.8023 Y-11.6217 F75.00
G01 X20.8497 Y-11.6566 F75.00
G01 X20.9087 Y-11.6920 F75.00
G01 X20.9708 Y-11.7213 F75.00
G01 X21.0308 Y-11.7430 F75.00
G01 X21.0449 Y-11.7471 F75.00
G01 X21.0926 Y-11.7590 F75.00
G01 X21.1118 Y-11.7629 F75.00
G01 X21.1701 Y-11.7713 F75.00
G01 X21.2338 Y-11.7746 F75.00
G01 X22.6358 Y-11.7747 F75.00
G01 X22.6358 Y-12.1493 F75.00
G01 X22.6373 Y-12.1689 F75.00
G01 X22.6396 Y-12.1834 F75.00
G01 X22.6417 Y-12.1930 F75.00
G01 X22.6444 Y-12.2025 F75.00
G01 X22.6492 Y-12.2164 F75.00
G01 X22.6550 Y-12.2299 F75.00
G01 X22.6617 Y-12.2430 F75.00
G01 X22.6695 Y-12.2555 F75.00
G01 X22.6751 Y-12.2635 F75.00
G01 X22.6843 Y-12.2750 F75.00
G01 X22.6943 Y-12.2858 F75.00
G01 X22.7051 Y-12.2958 F75.00
G01 X22.7127 Y-12.3021 F75.00
G01 X22.7206 Y-12.3079 F75.00
G01 X22.7329 Y-12.3159 F75.00
G01 X22.7458 Y-12.3230 F75.00
G01 X22.7592 Y-12.3292 F75.00
G01 X22.7684 Y-12.3327 F75.00
G01 X22.7824 Y-12.3372 F75.00
G01 X22.7967 Y-12.3406 F75.00
G01 X22.8113 Y-12.3429 F75.00
G01 X22.8210 Y-12.3439 F75.00
G01 X22.8358 Y-12.3444 F75.00
G01 X24.9758 Y-12.3444 F75.00
G01 X24.9856 Y-12.3442 F75.00
G01 X25.0002 Y-12.3429 F75.00
G01 X25.0196 Y-12.3395 F75.00
G01 X25.0338 Y-12.3358 F75.00
G01 X25.0477 Y-12.3310 F75.00
G01 X25.0657 Y-12.3230 F75.00
G01 X25.0828 Y-12.3134 F75.00
G01 X25.0949 Y-12.3050 F75.00
G01 X25.1101 Y-12.2926 F75.00
G01 X25.1206 Y-12.2823 F75.00
G01 X25.1334 Y-12.2674 F75.00
G01 X25.1420 Y-12.2555 F75.00
G01 X25.1521 Y-12.2387 F75.00
G01 X25.1586 Y-12.2254 F75.00
G01 X25.1641 Y-12.2118 F75.00
G01 X25.1698 Y-12.1930 F75.00
G01 X25.1728 Y-12.1786 F75.00
G01 X25.1752 Y-12.1591 F75.00
G01 X25.1758 Y-12.1444 F75.00
G01 X25.1758 Y-10.0044 F75.00
G01 X25.1752 Y-9.9897 F75.00
G01 X25.1742 Y-9.9799 F75.00
G01 X25.1719 Y-9.9654 F75.00
G01 X25.1671 Y-9.9463 F75.00
G01 X25.1605 Y-9.9279 F75.00
G01 X25.1544 Y-9.9145 F75.00
G01 X25.1473 Y-9.9016 F75.00
G01 X25.1364 Y-9.8853 F75.00
G01 X25.1272 Y-9.8738 F75.00
G01 X25.1137 Y-9.8596 F75.00
G01 X25.1026 Y-9.8498 F75.00
G01 X25.0869 Y-9.8381 F75.00
G01 X25.0743 Y-9.8304 F75.00
G01 X25.0568 Y-9.8216 F75.00
G01 X25.0431 Y-9.8161 F75.00
G01 X25.0243 Y-9.8104 F75.00
G01 X25.0099 Y-9.8073 F75.00
G01 X24.9905 Y-9.8049 F75.00
G01 X24.9758 Y-9.8044 F75.00
G01 X22.8358 Y-9.8044 F75.00
G01 X22.8161 Y-9.8054 F75.00
G01 X22.8016 Y-9.8073 F75.00
G01 X22.7872 Y-9.8104 F75.00
G01 X22.7730 Y-9.8145 F75.00
G01 X22.7592 Y-9.8196 F75.00
G01 X22.7458 Y-9.8258 F75.00
G01 X22.7329 Y-9.8329 F75.00
G01 X22.7206 Y-9.8409 F75.00
G01 X22.7089 Y-9.8498 F75.00
G01 X22.6978 Y-9.8596 F75.00
G01 X22.6876 Y-9.8701 F75.00
G01 X22.6781 Y-9.8814 F75.00
G01 X22.6695 Y-9.8933 F75.00
G01 X22.6617 Y-9.9058 F75.00
G01 X22.6550 Y-9.9189 F75.00
G01 X22.6492 Y-9.9324 F75.00
G01 X22.6458 Y-9.9417 F75.00
G01 X22.6417 Y-9.9558 F75.00
G01 X22.6387 Y-9.9702 F75.00
G01 X22.6367 Y-9.9848 F75.00
G01 X22.6358 Y-9.9995 F75.00
G01 X22.6358 Y-10.3741 F75.00
G01 X21.5288 Y-10.3741 F75.00
G01 X20.9303 Y-9.7756 F75.00
G01 X20.8868 Y-9.7359 F75.00
G01 X20.8755 Y-9.7264 F75.00
G01 X20.8241 Y-9.6885 F75.00
G01 X20.7737 Y-9.6580 F75.00
G01 X20.7564 Y-9.6488 F75.00
G01 X20.7031 Y-9.6238 F75.00
G01 X20.6477 Y-9.6037 F75.00
G01 X20.6289 Y-9.5980 F75.00
G01 X20.5717 Y-9.5840 F75.00
G01 X20.5086 Y-9.5744 F75.00
G01 X20.4939 Y-9.5732 F75.00
G01 X20.4351 Y-9.5705 F75.00
G01 X14.3100 Y-9.5705 F75.00
G01 X14.3099 Y-9.1958 F75.00
G01 X14.3095 Y-9.1860 F75.00
G01 X14.3078 Y-9.1714 F75.00
G01 X14.3051 Y-9.1569 F75.00
G01 X14.3028 Y-9.1474 F75.00
G01 X14.2983 Y-9.1334 F75.00
G01 X14.2928 Y-9.1197 F75.00
G01 X14.2864 Y-9.1065 F75.00
G01 X14.2790 Y-9.0938 F75.00
G01 X14.2706 Y-9.0816 F75.00
G01 X14.2614 Y-9.0701 F75.00
G01 X14.2548 Y-9.0628 F75.00
G01 X14.2443 Y-9.0526 F75.00
G01 X14.2369 Y-9.0461 F75.00
G01 X14.2252 Y-9.0372 F75.00
G01 X14.2128 Y-9.0292 F75.00
G01 X14.1999 Y-9.0221 F75.00
G01 X14.1865 Y-9.0160 F75.00
G01 X14.1774 Y-9.0124 F75.00
G01 X14.1633 Y-9.0080 F75.00
G01 X14.1490 Y-9.0046 F75.00
G01 X14.1296 Y-9.0017 F75.00
G01 X14.1100 Y-9.0008 F75.00
G01 X11.9651 Y-9.0008 F75.00
G01 X11.9455 Y-9.0023 F75.00
G01 X11.9262 Y-9.0056 F75.00
G01 X11.9073 Y-9.0108 F75.00
G01 X11.8890 Y-9.0179 F75.00
G01 X11.8714 Y-9.0267 F75.00
G01 X11.8630 Y-9.0318 F75.00
G01 X11.8509 Y-9.0401 F75.00
G01 X11.8357 Y-9.0526 F75.00
G01 X11.8218 Y-9.0664 F75.00
G01 X11.8123 Y-9.0777 F75.00
G01 X11.8010 Y-9.0938 F75.00
G01 X11.7914 Y-9.1108 F75.00
G01 X11.7834 Y-9.1288 F75.00
G01 X11.7772 Y-9.1474 F75.00
G01 X11.7738 Y-9.1617 F75.00
G01 X11.7715 Y-9.1763 F75.00
G01 X11.7701 Y-9.1958 F75.00
G01 X11.7700 Y-11.3408 F75.00
G01 X11.7705 Y-11.3555 F75.00
G01 X11.7715 Y-11.3652 F75.00
G01 X11.7749 Y-11.3846 F75.00
G01 X11.7801 Y-11.4035 F75.00
G01 X11.7872 Y-11.4218 F75.00
G01 X11.7960 Y-11.4393 F75.00
G01 X11.8010 Y-11.4478 F75.00
G01 X11.8094 Y-11.4599 F75.00
G01 X11.8218 Y-11.4751 F75.00
G01 X11.8357 Y-11.4889 F75.00
G01 X11.8509 Y-11.5014 F75.00
G01 X11.8630 Y-11.5097 F75.00
G01 X11.8801 Y-11.5194 F75.00
G01 X11.8980 Y-11.5273 F75.00
G01 X11.9167 Y-11.5335 F75.00
G01 X11.9310 Y-11.5369 F75.00
G01 X11.9455 Y-11.5392 F75.00
G01 X11.9651 Y-11.5407 F75.00
G01 X14.1198 Y-11.5405 F75.00
G01 X14.1393 Y-11.5386 F75.00
G01 X14.1586 Y-11.5348 F75.00
G01 X14.1774 Y-11.5291 F75.00
G01 X14.1955 Y-11.5215 F75.00
G01 X14.2128 Y-11.5123 F75.00
G01 X14.2291 Y-11.5014 F75.00
G01 X14.2406 Y-11.4922 F75.00
G01 X14.2548 Y-11.4787 F75.00
G01 X14.2677 Y-11.4638 F75.00
G01 X14.2763 Y-11.4519 F75.00
G01 X14.2864 Y-11.4350 F75.00
G01 X14.2948 Y-11.4173 F75.00
G01 X14.3014 Y-11.3988 F75.00
G01 X14.3062 Y-11.3798 F75.00
G01 X14.3090 Y-11.3604 F75.00
G01 X14.3100 Y-11.3408 F75.00
G00 Z2.0000
G00 X11.9700 Y-14.2807
G01 F45.00
G01 Z-0.0900
G01 F75.00
G01 X14.1100 Y-14.2807 F75.00
G01 X14.1198 Y-14.2805 F75.00
G01 X14.1345 Y-14.2792 F75.00
G01 X14.1442 Y-14.2778 F75.00
G01 X14.1586 Y-14.2748 F75.00
G01 X14.1727 Y-14.2707 F75.00
G01 X14.1865 Y-14.2655 F75.00
G01 X14.1955 Y-14.2615 F75.00
G01 X14.2086 Y-14.2548 F75.00
G01 X14.2211 Y-14.2470 F75.00
G01 X14.2291 Y-14.2414 F75.00
G01 X14.2406 Y-14.2322 F75.00
G01 X14.2514 Y-14.2222 F75.00
G01 X14.2582 Y-14.2151 F75.00
G01 X14.2677 Y-14.2038 F75.00
G01 X14.2763 Y-14.1919 F75.00
G01 X14.2840 Y-14.1793 F75.00
G01 X14.2908 Y-14.1663 F75.00
G01 X14.2948 Y-14.1573 F75.00
G01 X14.2983 Y-14.1481 F75.00
G01 X14.3028 Y-14.1341 F75.00
G01 X14.3062 Y-14.1198 F75.00
G01 X14.3078 Y-14.1101 F75.00
G01 X14.3090 Y-14.1004 F75.00
G01 X14.3099 Y-14.0857 F75.00
G01 X14.3100 Y-13.7110 F75.00
G01 X20.2942 Y-13.7110 F75.00
G01 X20.6928 Y-14.1096 F75.00
G01 X20.7437 Y-14.1557 F75.00
G01 X20.7989 Y-14.1966 F75.00
G01 X20.8579 Y-14.2320 F75.00
G01 X20.9200 Y-14.2613 F75.00
G01 X20.9754 Y-14.2814 F75.00
G01 X20.9941 Y-14.2871 F75.00
G01 X21.0513 Y-14.3012 F75.00
G01 X21.1096 Y-14.3101 F75.00
G01 X21.1291 Y-14.3120 F75.00
G01 X21.1830 Y-14.3146 F75.00
G01 X22.6358 Y-14.3147 F75.00
G01 X22.6358 Y-14.6893 F75.00
G01 X22.6367 Y-14.7040 F75.00
G01 X22.6379 Y-14.7137 F75.00
G01 X22.6396 Y-14.7234 F75.00
G01 X22.6430 Y-14.7377 F75.00
G01 X22.6474 Y-14.7518 F75.00
G01 X22.6510 Y-14.7609 F75.00
G01 X22.6571 Y-14.7743 F75.00
G01 X22.6642 Y-14.7872 F75.00
G01 X22.6695 Y-14.7955 F75.00
G01 X22.6781 Y-14.8074 F75.00
G01 X22.6876 Y-14.8187 F75.00
G01 X22.6943 Y-14.8258 F75.00
G01 X22.7051 Y-14.8358 F75.00
G01 X22.7127 Y-14.8421 F75.00
G01 X22.7246 Y-14.8507 F75.00
G01 X22.7372 Y-14.8584 F75.00
G01 X22.7502 Y-14.8652 F75.00
G01 X22.7638 Y-14.8710 F75.00
G01 X22.7777 Y-14.8758 F75.00
G01 X22.7872 Y-14.8784 F75.00
G01 X22.8016 Y-14.8815 F75.00
G01 X22.8113 Y-14.8829 F75.00
G01 X22.8210 Y-14.8839 F75.00
G01 X22.8358 Y-14.8844 F75.00
G01 X24.9758 Y-14.8844 F75.00
G01 X24.9856 Y-14.8842 F75.00
G01 X25.0002 Y-14.8829 F75.00
G01 X25.0196 Y-14.8795 F75.00
G01 X25.0338 Y-14.8758 F75.00
G01 X25.0477 Y-14.8710 F75.00
G01 X25.0657 Y-14.8630 F75.00
G01 X25.0828 Y-14.8534 F75.00
G01 X25.0949 Y-14.8450 F75.00
G01 X25.1101 Y-14.8326 F75.00
G01 X25.1206 Y-14.8223 F75.00
G01 X25.1334 Y-14.8074 F75.00
G01 X25.1420 Y-14.7955 F75.00
G01 X25.1521 Y-14.7787 F75.00
G01 X25.1586 Y-14.7654 F75.00
G01 X25.1641 Y-14.7518 F75.00
G01 X25.1698 Y-14.7330 F75.00
G01 X25.1728 Y-14.7186 F75.00
G01 X25.1752 Y-14.6991 F75.00
G01 X25.1758 Y-14.6844 F75.00
G01 X25.1758 Y-12.5444 F75.00
G01 X25.1752 Y-12.5297 F75.00
G01 X25.1742 Y-12.5199 F75.00
G01 X25.1719 Y-12.5054 F75.00
G01 X25.1671 Y-12.4863 F75.00
G01 X25.1605 Y-12.4679 F75.00
G01 X25.1544 Y-12.4545 F75.00
G01 X25.1473 Y-12.4416 F75.00
G01 X25.1364 Y-12.4253 F75.00
G01 X25.1272 Y-12.4138 F75.00
G01 X25.1137 Y-12.3996 F75.00
G01 X25.1026 Y-12.3898 F75.00
G01 X25.0869 Y-12.3781 F75.00
G01 X25.0743 Y-12.3704 F75.00
G01 X25.0568 Y-12.3616 F75.00
G01 X25.0431 Y-12.3561 F75.00
G01 X25.0243 Y-12.3504 F75.00
G01 X25.0099 Y-12.3473 F75.00
G01 X24.9905 Y-12.3449 F75.00
G01 X24.9758 Y-12.3444 F75.00
G01 X22.8358 Y-12.3444 F75.00
G01 X22.8161 Y-12.3454 F75.00
G01 X22.8016 Y-12.3473 F75.00
G01 X22.7872 Y-12.3504 F75.00
G01 X22.7730 Y-12.3545 F75.00
G01 X22.7592 Y-12.3596 F75.00
G01 X22.7458 Y-12.3658 F75.00
G01 X22.7329 Y-12.3729 F75.00
G01 X22.7206 Y-12.3809 F75.00
G01 X22.7089 Y-12.3898 F75.00
G01 X22.6978 Y-12.3996 F75.00
G01 X22.6876 Y-12.4101 F75.00
G01 X22.6781 Y-12.4214 F75.00
G01 X22.6695 Y-12.4333 F75.00
G01 X22.6617 Y-12.4458 F75.00
G01 X22.6550 Y-12.4589 F75.00
G01 X22.6492 Y-12.4724 F75.00
G01 X22.6458 Y-12.4817 F75.00
G01 X22.6417 Y-12.4958 F75.00
G01 X22.6387 Y-12.5102 F75.00
G01 X22.6367 Y-12.5248 F75.00
G01 X22.6358 Y-12.5395 F75.00
G01 X22.6358 Y-12.9141 F75.00
G01 X21.4780 Y-12.9141 F75.00
G01 X21.0759 Y-12.5122 F75.00
G01 X21.0285 Y-12.4694 F75.00
G01 X20.9814 Y-12.4342 F75.00
G01 X20.9650 Y-12.4233 F75.00
G01 X20.9144 Y-12.3932 F75.00
G01 X20.8612 Y-12.3678 F75.00
G01 X20.8431 Y-12.3603 F75.00
G01 X20.7876 Y-12.3407 F75.00
G01 X20.7305 Y-12.3261 F75.00
G01 X20.7112 Y-12.3223 F75.00
G01 X20.6578 Y-12.3144 F75.00
G01 X20.6431 Y-12.3131 F75.00
G01 X20.5843 Y-12.3105 F75.00
G01 X14.3100 Y-12.3105 F75.00
G01 X14.3099 Y-11.9358 F75.00
G01 X14.3095 Y-11.9260 F75.00
G01 X14.3078 Y-11.9114 F75.00
G01 X14.3051 Y-11.8969 F75.00
G01 X14.3028 Y-11.8874 F75.00
G01 X14.2983 Y-11.8734 F75.00
G01 X14.2948 Y-11.8642 F75.00
G01 X14.2886 Y-11.8508 F75.00
G01 X14.2815 Y-11.8379 F75.00
G01 X14.2763 Y-11.8296 F75.00
G01 X14.2677 Y-11.8177 F75.00
G01 X14.2582 Y-11.8064 F75.00
G01 X14.2479 Y-11.7959 F75.00
G01 X14.2406 Y-11.7893 F75.00
G01 X14.2291 Y-11.7801 F75.00
G01 X14.2170 Y-11.7718 F75.00
G01 X14.2086 Y-11.7667 F75.00
G01 X14.1955 Y-11.7600 F75.00
G01 X14.1820 Y-11.7542 F75.00
G01 X14.1681 Y-11.7494 F75.00
G01 X14.1586 Y-11.7467 F75.00
G01 X14.1442 Y-11.7437 F75.00
G01 X14.1345 Y-11.7423 F75.00
G01 X14.1247 Y-11.7413 F75.00
G01 X14.1100 Y-11.7408 F75.00
G01 X11.9700 Y-11.7408 F75.00
G01 X11.9553 Y-11.7413 F75.00
G01 X11.9455 Y-11.7423 F75.00
G01 X11.9262 Y-11.7456 F75.00
G01 X11.9119 Y-11.7494 F75.00
G01 X11.8980 Y-11.7542 F75.00
G01 X11.8801 Y-11.7621 F75.00
G01 X11.8630 Y-11.7718 F75.00
G01 X11.8509 Y-11.7801 F75.00
G01 X11.8394 Y-11.7893 F75.00
G01 X11.8252 Y-11.8028 F75.00
G01 X11.8123 Y-11.8177 F75.00
G01 X11.8037 Y-11.8296 F75.00
G01 X11.7960 Y-11.8422 F75.00
G01 X11.7872 Y-11.8597 F75.00
G01 X11.7817 Y-11.8734 F75.00
G01 X11.7760 Y-11.8922 F75.00
G01 X11.7729 Y-11.9066 F75.00
G01 X11.7705 Y-11.9260 F75.00
G01 X11.7700 Y-11.9408 F75.00
G01 X11.7700 Y-14.0807 F75.00
G01 X11.7710 Y-14.1004 F75.00
G01 X11.7738 Y-14.1198 F75.00
G01 X11.7786 Y-14.1388 F75.00
G01 X11.7852 Y-14.1573 F75.00
G01 X11.7936 Y-14.1750 F75.00
G01 X11.8037 Y-14.1919 F75.00
G01 X11.8154 Y-14.2076 F75.00
G01 X11.8286 Y-14.2222 F75.00
G01 X11.8431 Y-14.2354 F75.00
G01 X11.8589 Y-14.2470 F75.00
G01 X11.8757 Y-14.2571 F75.00
G01 X11.8935 Y-14.2655 F75.00
G01 X11.9119 Y-14.2721 F75.00
G01 X11.9310 Y-14.2769 F75.00
G01 X11.9504 Y-14.2798 F75.00
G01 X11.9700 Y-14.2807 F75.00
G00 Z2.0000
G00 X11.7700 Y-14.6808
G01 F45.00
G01 Z-0.0900
G01 F75.00
G01 X11.7700 Y-16.8207 F75.00
G01 X11.7705 Y-16.8355 F75.00
G01 X11.7722 Y-16.8501 F75.00
G01 X11.7760 Y-16.8693 F75.00
G01 X11.7801 Y-16.8835 F75.00
G01 X11.7872 Y-16.9018 F75.00
G01 X11.7936 Y-16.9150 F75.00
G01 X11.8010 Y-16.9277 F75.00
G01 X11.8094 Y-16.9399 F75.00
G01 X11.8218 Y-16.9551 F75.00
G01 X11.8321 Y-16.9656 F75.00
G01 X11.8470 Y-16.9784 F75.00
G01 X11.8589 Y-16.9870 F75.00
G01 X11.8714 Y-16.9948 F75.00
G01 X11.8845 Y-17.0015 F75.00
G01 X11.9026 Y-17.0091 F75.00
G01 X11.9167 Y-17.0135 F75.00
G01 X11.9310 Y-17.0169 F75.00
G01 X11.9504 Y-17.0198 F75.00
G01 X11.9700 Y-17.0207 F75.00
G01 X14.1100 Y-17.0207 F75.00
G01 X14.1247 Y-17.0202 F75.00
G01 X14.1345 Y-17.0192 F75.00
G01 X14.1490 Y-17.0169 F75.00
G01 X14.1586 Y-17.0148 F75.00
G01 X14.1727 Y-17.0107 F75.00
G01 X14.1865 Y-17.0055 F75.00
G01 X14.1999 Y-16.9994 F75.00
G01 X14.2086 Y-16.9948 F75.00
G01 X14.2211 Y-16.9870 F75.00
G01 X14.2291 Y-16.9814 F75.00
G01 X14.2406 Y-16.9722 F75.00
G01 X14.2514 Y-16.9622 F75.00
G01 X14.2582 Y-16.9551 F75.00
G01 X14.2677 Y-16.9438 F75.00
G01 X14.2763 Y-16.9319 F75.00
G01 X14.2840 Y-16.9193 F75.00
G01 X14.2908 Y-16.9063 F75.00
G01 X14.2948 Y-16.8973 F75.00
G01 X14.2983 Y-16.8881 F75.00
G01 X14.3028 Y-16.8741 F75.00
G01 X14.3062 Y-16.8598 F75.00
G01 X14.3078 Y-16.8501 F75.00
G01 X14.3090 Y-16.8404 F75.00
G01 X14.3099 Y-16.8257 F75.00
G01 X14.3100 Y-16.4510 F75.00
G01 X20.4434 Y-16.4510 F75.00
G01 X20.6455 Y-16.6530 F75.00
G01 X20.6929 Y-16.6957 F75.00
G01 X20.7441 Y-16.7339 F75.00
G01 X20.7564 Y-16.7419 F75.00
G01 X20.8071 Y-16.7720 F75.00
G01 X20.8692 Y-16.8013 F75.00
G01 X20.9339 Y-16.8245 F75.00
G01 X20.9910 Y-16.8390 F75.00
G01 X21.0054 Y-16.8421 F75.00
G01 X21.0685 Y-16.8513 F75.00
G01 X21.1372 Y-16.8547 F75.00
G01 X22.6358 Y-16.8547 F75.00
G01 X22.6358 Y-17.2293 F75.00
G01 X22.6367 Y-17.2440 F75.00
G01 X22.6387 Y-17.2586 F75.00
G01 X22.6406 Y-17.2682 F75.00
G01 X22.6444 Y-17.2825 F75.00
G01 X22.6492 Y-17.2964 F75.00
G01 X22.6550 Y-17.3099 F75.00
G01 X22.6617 Y-17.3230 F75.00
G01 X22.6695 Y-17.3355 F75.00
G01 X22.6781 Y-17.3474 F75.00
G01 X22.6876 Y-17.3587 F75.00
G01 X22.6978 Y-17.3692 F75.00
G01 X22.7051 Y-17.3758 F75.00
G01 X22.7127 Y-17.3821 F75.00
G01 X22.7246 Y-17.3907 F75.00
G01 X22.7372 Y-17.3984 F75.00
G01 X22.7502 Y-17.4052 F75.00
G01 X22.7638 Y-17.4110 F75.00
G01 X22.7777 Y-17.4158 F75.00
G01 X22.7919 Y-17.4195 F75.00
G01 X22.8016 Y-17.4215 F75.00
G01 X22.8161 Y-17.4234 F75.00
G01 X22.8358 Y-17.4244 F75.00
G01 X24.9758 Y-17.4244 F75.00
G01 X24.9905 Y-17.4239 F75.00
G01 X25.0051 Y-17.4222 F75.00
G01 X25.0196 Y-17.4195 F75.00
G01 X25.0338 Y-17.4158 F75.00
G01 X25.0523 Y-17.4092 F75.00
G01 X25.0657 Y-17.4030 F75.00
G01 X25.0786 Y-17.3959 F75.00
G01 X25.0949 Y-17.3850 F75.00
G01 X25.1064 Y-17.3758 F75.00
G01 X25.1172 Y-17.3658 F75.00
G01 X25.1304 Y-17.3513 F75.00
G01 X25.1393 Y-17.3396 F75.00
G01 X25.1473 Y-17.3272 F75.00
G01 X25.1565 Y-17.3099 F75.00
G01 X25.1623 Y-17.2964 F75.00
G01 X25.1685 Y-17.2777 F75.00
G01 X25.1719 Y-17.2634 F75.00
G01 X25.1748 Y-17.2440 F75.00
G01 X25.1758 Y-17.2244 F75.00
G01 X25.1758 Y-15.0844 F75.00
G01 X25.1752 Y-15.0697 F75.00
G01 X25.1736 Y-15.0551 F75.00
G01 X25.1709 Y-15.0406 F75.00
G01 X25.1671 Y-15.0263 F75.00
G01 X25.1605 Y-15.0079 F75.00
G01 X25.1544 Y-14.9945 F75.00
G01 X25.1473 Y-14.9816 F75.00
G01 X25.1364 Y-14.9653 F75.00
G01 X25.1272 Y-14.9538 F75.00
G01 X25.1172 Y-14.9430 F75.00
G01 X25.1026 Y-14.9298 F75.00
G01 X25.0909 Y-14.9209 F75.00
G01 X25.0743 Y-14.9104 F75.00
G01 X25.0613 Y-14.9036 F75.00
G01 X25.0477 Y-14.8978 F75.00
G01 X25.0291 Y-14.8916 F75.00
G01 X25.0148 Y-14.8882 F75.00
G01 X24.9954 Y-14.8854 F75.00
G01 X24.9758 Y-14.8844 F75.00
G01 X22.8358 Y-14.8844 F75.00
G01 X22.8210 Y-14.8849 F75.00
G01 X22.8064 Y-14.8866 F75.00
G01 X22.7919 Y-14.8893 F75.00
G01 X22.7777 Y-14.8930 F75.00
G01 X22.7638 Y-14.8978 F75.00
G01 X22.7502 Y-14.9036 F75.00
G01 X22.7372 Y-14.9104 F75.00
G01 X22.7246 Y-14.9181 F75.00
G01 X22.7127 Y-14.9267 F75.00
G01 X22.7051 Y-14.9330 F75.00
G01 X22.6943 Y-14.9430 F75.00
G01 X22.6843 Y-14.9538 F75.00
G01 X22.6751 Y-14.9653 F75.00
G01 X22.6668 Y-14.9774 F75.00
G01 X22.6594 Y-14.9901 F75.00
G01 X22.6529 Y-15.0034 F75.00
G01 X22.6492 Y-15.0124 F75.00
G01 X22.6444 Y-15.0263 F75.00
G01 X22.6406 Y-15.0406 F75.00
G01 X22.6379 Y-15.0551 F75.00
G01 X22.6363 Y-15.0697 F75.00
G01 X22.6358 Y-15.0795 F75.00
G01 X22.6358 Y-15.4541 F75.00
G01 X21.4272 Y-15.4541 F75.00
G01 X21.2251 Y-15.2522 F75.00
G01 X21.1777 Y-15.2094 F75.00
G01 X21.1306 Y-15.1742 F75.00
G01 X21.1184 Y-15.1658 F75.00
G01 X21.0721 Y-15.1380 F75.00
G01 X21.0548 Y-15.1288 F75.00
G01 X21.0015 Y-15.1038 F75.00
G01 X20.9461 Y-15.0837 F75.00
G01 X20.9273 Y-15.0780 F75.00
G01 X20.8701 Y-15.0640 F75.00
G01 X20.8119 Y-15.0551 F75.00
G01 X20.7923 Y-15.0531 F75.00
G01 X20.7335 Y-15.0505 F75.00
G01 X14.3100 Y-15.0505 F75.00
G01 X14.3099 Y-14.6758 F75.00
G01 X14.3090 Y-14.6611 F75.00
G01 X14.3071 Y-14.6466 F75.00
G01 X14.3040 Y-14.6322 F75.00
G01 X14.2999 Y-14.6180 F75.00
G01 X14.2948 Y-14.6042 F75.00
G01 X14.2886 Y-14.5908 F75.00
G01 X14.2815 Y-14.5779 F75.00
G01 X14.2735 Y-14.5656 F75.00
G01 X14.2646 Y-14.5539 F75.00
G01 X14.2548 Y-14.5428 F75.00
G01 X14.2443 Y-14.5326 F75.00
G01 X14.2330 Y-14.5231 F75.00
G01 X14.2211 Y-14.5145 F75.00
G01 X14.2086 Y-14.5067 F75.00
G01 X14.1955 Y-14.5000 F75.00
G01 X14.1820 Y-14.4942 F75.00
G01 X14.1681 Y-14.4894 F75.00
G01 X14.1538 Y-14.4856 F75.00
G01 X14.1393 Y-14.4829 F75.00
G01 X14.1247 Y-14.4813 F75.00
G01 X14.1100 Y-14.4808 F75.00
G01 X11.9700 Y-14.4808 F75.00
G01 X11.9553 Y-14.4813 F75.00
G01 X11.9358 Y-14.4837 F75.00
G01 X11.9167 Y-14.4880 F75.00
G01 X11.8980 Y-14.4942 F75.00
G01 X11.8801 Y-14.5021 F75.00
G01 X11.8630 Y-14.5118 F75.00
G01 X11.8470 Y-14.5231 F75.00
G01 X11.8321 Y-14.5359 F75.00
G01 X11.8218 Y-14.5464 F75.00
G01 X11.8123 Y-14.5577 F75.00
G01 X11.8010 Y-14.5738 F75.00
G01 X11.7914 Y-14.5908 F75.00
G01 X11.7834 Y-14.6088 F75.00
G01 X11.7772 Y-14.6274 F75.00
G01 X11.7729 Y-14.6466 F75.00
G01 X11.7705 Y-14.6660 F75.00
G01 X11.7700 Y-14.6808 F75.00
G00 Z2.0000
G00 X9.4300 Y-12.9108
G01 F45.00
G01 Z-0.0900
G01 F75.00
G01 X11.5798 Y-12.9105 F75.00
G01 X11.5945 Y-12.9092 F75.00
G01 X11.6042 Y-12.9078 F75.00
G01 X11.6138 Y-12.9059 F75.00
G01 X11.6281 Y-12.9021 F75.00
G01 X11.6420 Y-12.8973 F75.00
G01 X11.6510 Y-12.8936 F75.00
G01 X11.6643 Y-12.8871 F75.00
G01 X11.6770 Y-12.8797 F75.00
G01 X11.6891 Y-12.8714 F75.00
G01 X11.6969 Y-12.8654 F75.00
G01 X11.7079 Y-12.8556 F75.00
G01 X11.7148 Y-12.8487 F75.00
G01 X11.7214 Y-12.8414 F75.00
G01 X11.7306 Y-12.8299 F75.00
G01 X11.7390 Y-12.8178 F75.00
G01 X11.7440 Y-12.8093 F75.00
G01 X11.7508 Y-12.7963 F75.00
G01 X11.7566 Y-12.7827 F75.00
G01 X11.7614 Y-12.7688 F75.00
G01 X11.7640 Y-12.7593 F75.00
G01 X11.7671 Y-12.7449 F75.00
G01 X11.7685 Y-12.7352 F75.00
G01 X11.7695 Y-12.7255 F75.00
G01 X11.7700 Y-12.7108 F75.00
G01 X11.7700 Y-10.5708 F75.00
G01 X11.7698 Y-10.5609 F75.00
G01 X11.7685 Y-10.5463 F75.00
G01 X11.7651 Y-10.5269 F75.00
G01 X11.7614 Y-10.5127 F75.00
G01 X11.7583 Y-10.5034 F75.00
G01 X11.7528 Y-10.4897 F75.00
G01 X11.7464 Y-10.4765 F75.00
G01 X11.7390 Y-10.4638 F75.00
G01 X11.7306 Y-10.4516 F75.00
G01 X11.7214 Y-10.4401 F75.00
G01 X11.7148 Y-10.4328 F75.00
G01 X11.7079 Y-10.4259 F75.00
G01 X11.6969 Y-10.4161 F75.00
G01 X11.6852 Y-10.4072 F75.00
G01 X11.6728 Y-10.3992 F75.00
G01 X11.6599 Y-10.3921 F75.00
G01 X11.6465 Y-10.3860 F75.00
G01 X11.6374 Y-10.3824 F75.00
G01 X11.6233 Y-10.3780 F75.00
G01 X11.6090 Y-10.3746 F75.00
G01 X11.5993 Y-10.3729 F75.00
G01 X11.5896 Y-10.3717 F75.00
G01 X11.5749 Y-10.3708 F75.00
G01 X11.2003 Y-10.3708 F75.00
G01 X11.2003 Y-9.3708 F75.00
G01 X11.6666 Y-8.9045 F75.00
G01 X21.4141 Y-8.9045 F75.00
G01 X21.5464 Y-9.0363 F75.00
G01 X21.5902 Y-9.0757 F75.00
G01 X21.6413 Y-9.1139 F75.00
G01 X21.6537 Y-9.1219 F75.00
G01 X21.7043 Y-9.1520 F75.00
G01 X21.7575 Y-9.1774 F75.00
G01 X21.7756 Y-9.1849 F75.00
G01 X21.8218 Y-9.2014 F75.00
G01 X21.8358 Y-9.2059 F75.00
G01 X21.8882 Y-9.2190 F75.00
G01 X21.9075 Y-9.2229 F75.00
G01 X21.9658 Y-9.2313 F75.00
G01 X22.0295 Y-9.2346 F75.00
G01 X22.6358 Y-9.2347 F75.00
G01 X22.6358 Y-9.6093 F75.00
G01 X22.6367 Y-9.6240 F75.00
G01 X22.6379 Y-9.6337 F75.00
G01 X22.6396 Y-9.6434 F75.00
G01 X22.6430 Y-9.6577 F75.00
G01 X22.6474 Y-9.6718 F75.00
G01 X22.6510 Y-9.6809 F75.00
G01 X22.6571 Y-9.6943 F75.00
G01 X22.6642 Y-9.7072 F75.00
G01 X22.6695 Y-9.7155 F75.00
G01 X22.6781 Y-9.7274 F75.00
G01 X22.6876 Y-9.7387 F75.00
G01 X22.6943 Y-9.7458 F75.00
G01 X22.7051 Y-9.7558 F75.00
G01 X22.7127 Y-9.7621 F75.00
G01 X22.7246 Y-9.7707 F75.00
G01 X22.7372 Y-9.7784 F75.00
G01 X22.7502 Y-9.7852 F75.00
G01 X22.7638 Y-9.7910 F75.00
G01 X22.7777 Y-9.7958 F75.00
G01 X22.7872 Y-9.7984 F75.00
G01 X22.8016 Y-9.8015 F75.00
G01 X22.8113 Y-9.8029 F75.00
G01 X22.8210 Y-9.8039 F75.00
G01 X22.8358 Y-9.8044 F75.00
G01 X24.9758 Y-9.8044 F75.00
G01 X24.9856 Y-9.8042 F75.00
G01 X25.0002 Y-9.8029 F75.00
G01 X25.0196 Y-9.7995 F75.00
G01 X25.0338 Y-9.7958 F75.00
G01 X25.0477 Y-9.7910 F75.00
G01 X25.0657 Y-9.7830 F75.00
G01 X25.0828 Y-9.7734 F75.00
G01 X25.0949 Y-9.7650 F75.00
G01 X25.1101 Y-9.7526 F75.00
G01 X25.1206 Y-9.7423 F75.00
G01 X25.1334 Y-9.7274 F75.00
G01 X25.1420 Y-9.7155 F75.00
G01 X25.1521 Y-9.6987 F75.00
G01 X25.1586 Y-9.6854 F75.00
G01 X25.1641 Y-9.6718 F75.00
G01 X25.1698 Y-9.6530 F75.00
G01 X25.1728 Y-9.6386 F75.00
G01 X25.1752 Y-9.6191 F75.00
G01 X25.1758 Y-9.6044 F75.00
G01 X25.1758 Y-7.4644 F75.00
G01 X25.1748 Y-7.4448 F75.00
G01 X25.1728 Y-7.4302 F75.00
G01 X25.1685 Y-7.4111 F75.00
G01 X25.1641 Y-7.3970 F75.00
G01 X25.1586 Y-7.3834 F75.00
G01 X25.1521 Y-7.3701 F75.00
G01 X25.1447 Y-7.3574 F75.00
G01 X25.1364 Y-7.3453 F75.00
G01 X25.1272 Y-7.3338 F75.00
G01 X25.1172 Y-7.3230 F75.00
G01 X25.1064 Y-7.3130 F75.00
G01 X25.0949 Y-7.3038 F75.00
G01 X25.0828 Y-7.2954 F75.00
G01 X25.0700 Y-7.2880 F75.00
G01 X25.0568 Y-7.2816 F75.00
G01 X25.0431 Y-7.2761 F75.00
G01 X25.0291 Y-7.2716 F75.00
G01 X25.0148 Y-7.2682 F75.00
G01 X25.0002 Y-7.2659 F75.00
G01 X24.9856 Y-7.2646 F75.00
G01 X22.8358 Y-7.2644 F75.00
G01 X22.8210 Y-7.2649 F75.00
G01 X22.8016 Y-7.2673 F75.00
G01 X22.7919 Y-7.2693 F75.00
G01 X22.7777 Y-7.2730 F75.00
G01 X22.7638 Y-7.2778 F75.00
G01 X22.7502 Y-7.2836 F75.00
G01 X22.7372 Y-7.2904 F75.00
G01 X22.7246 Y-7.2981 F75.00
G01 X22.7127 Y-7.3067 F75.00
G01 X22.7051 Y-7.3130 F75.00
G01 X22.6943 Y-7.3230 F75.00
G01 X22.6843 Y-7.3338 F75.00
G01 X22.6751 Y-7.3453 F75.00
G01 X22.6668 Y-7.3574 F75.00
G01 X22.6594 Y-7.3701 F75.00
G01 X22.6529 Y-7.3834 F75.00
G01 X22.6492 Y-7.3924 F75.00
G01 X22.6444 Y-7.4063 F75.00
G01 X22.6406 Y-7.4206 F75.00
G01 X22.6379 Y-7.4351 F75.00
G01 X22.6363 Y-7.4497 F75.00
G01 X22.6358 Y-7.4595 F75.00
G01 X22.6358 Y-7.8341 F75.00
G01 X22.3245 Y-7.8341 F75.00
G01 X22.1994 Y-7.7090 F75.00
G01 X22.1522 Y-7.6661 F75.00
G01 X22.1407 Y-7.6569 F75.00
G01 X22.0932 Y-7.6220 F75.00
G01 X22.0343 Y-7.5866 F75.00
G01 X21.9722 Y-7.5573 F75.00
G01 X21.9168 Y-7.5372 F75.00
G01 X21.8980 Y-7.5315 F75.00
G01 X21.8408 Y-7.5174 F75.00
G01 X21.7826 Y-7.5085 F75.00
G01 X21.7630 Y-7.5066 F75.00
G01 X21.7091 Y-7.5040 F75.00
G01 X11.3766 Y-7.5039 F75.00
G01 X11.3079 Y-7.5073 F75.00
G01 X11.2496 Y-7.5157 F75.00
G01 X11.2304 Y-7.5196 F75.00
G01 X11.1780 Y-7.5327 F75.00
G01 X11.1640 Y-7.5372 F75.00
G01 X11.1177 Y-7.5537 F75.00
G01 X11.1041 Y-7.5592 F75.00
G01 X11.0552 Y-7.5822 F75.00
G01 X11.0379 Y-7.5915 F75.00
G01 X10.9875 Y-7.6220 F75.00
G01 X10.9401 Y-7.6569 F75.00
G01 X10.9286 Y-7.6661 F75.00
G01 X10.8885 Y-7.7023 F75.00
G01 X10.0048 Y-8.5856 F75.00
G01 X9.9587 Y-8.6365 F75.00
G01 X9.9234 Y-8.6837 F75.00
G01 X9.9151 Y-8.6958 F75.00
G01 X9.8873 Y-8.7421 F75.00
G01 X9.8780 Y-8.7594 F75.00
G01 X9.8531 Y-8.8128 F75.00
G01 X9.8330 Y-8.8682 F75.00
G01 X9.8273 Y-8.8869 F75.00
G01 X9.8132 Y-8.9441 F75.00
G01 X9.8043 Y-9.0024 F75.00
G01 X9.8027 Y-9.0170 F75.00
G01 X9.7997 Y-9.0808 F75.00
G01 X9.7997 Y-10.3708 F75.00
G01 X9.4251 Y-10.3708 F75.00
G01 X9.4055 Y-10.3723 F75.00
G01 X9.3958 Y-10.3737 F75.00
G01 X9.3814 Y-10.3767 F75.00
G01 X9.3719 Y-10.3794 F75.00
G01 X9.3580 Y-10.3842 F75.00
G01 X9.3445 Y-10.3900 F75.00
G01 X9.3314 Y-10.3967 F75.00
G01 X9.3230 Y-10.4018 F75.00
G01 X9.3109 Y-10.4101 F75.00
G01 X9.2994 Y-10.4193 F75.00
G01 X9.2921 Y-10.4259 F75.00
G01 X9.2818 Y-10.4364 F75.00
G01 X9.2754 Y-10.4439 F75.00
G01 X9.2694 Y-10.4516 F75.00
G01 X9.2610 Y-10.4638 F75.00
G01 X9.2560 Y-10.4722 F75.00
G01 X9.2492 Y-10.4852 F75.00
G01 X9.2434 Y-10.4988 F75.00
G01 X9.2401 Y-10.5080 F75.00
G01 X9.2360 Y-10.5222 F75.00
G01 X9.2329 Y-10.5366 F75.00
G01 X9.2305 Y-10.5560 F75.00
G01 X9.2300 Y-10.5708 F75.00
G01 X9.2300 Y-12.7108 F75.00
G01 X9.2305 Y-12.7255 F75.00
G01 X9.2322 Y-12.7401 F75.00
G01 X9.2360 Y-12.7593 F75.00
G01 X9.2417 Y-12.7781 F75.00
G01 X9.2492 Y-12.7963 F75.00
G01 X9.2585 Y-12.8136 F75.00
G01 X9.2694 Y-12.8299 F75.00
G01 X9.2818 Y-12.8451 F75.00
G01 X9.2957 Y-12.8589 F75.00
G01 X9.3109 Y-12.8714 F75.00
G01 X9.3230 Y-12.8797 F75.00
G01 X9.3401 Y-12.8894 F75.00
G01 X9.3580 Y-12.8973 F75.00
G01 X9.3767 Y-12.9035 F75.00
G01 X9.3958 Y-12.9078 F75.00
G01 X9.4153 Y-12.9102 F75.00
G01 X9.4300 Y-12.9108 F75.00
G00 Z2.0000
G00 X14.3100 Y-19.5607
G01 F45.00
G01 Z-0.0900
G01 F75.00
G01 X14.3100 Y-19.1910 F75.00
G01 X20.3895 Y-19.1910 F75.00
G01 X20.4389 Y-19.2357 F75.00
G01 X20.4941 Y-19.2766 F75.00
G01 X20.5531 Y-19.3120 F75.00
G01 X20.6062 Y-19.3374 F75.00
G01 X20.6243 Y-19.3449 F75.00
G01 X20.6752 Y-19.3630 F75.00
G01 X20.6893 Y-19.3671 F75.00
G01 X20.7465 Y-19.3812 F75.00
G01 X20.8145 Y-19.3913 F75.00
G01 X20.8832 Y-19.3947 F75.00
G01 X22.6358 Y-19.3947 F75.00
G01 X22.6358 Y-19.7693 F75.00
G01 X22.6367 Y-19.7840 F75.00
G01 X22.6387 Y-19.7986 F75.00
G01 X22.6406 Y-19.8082 F75.00
G01 X22.6444 Y-19.8225 F75.00
G01 X22.6492 Y-19.8364 F75.00
G01 X22.6550 Y-19.8499 F75.00
G01 X22.6617 Y-19.8630 F75.00
G01 X22.6695 Y-19.8755 F75.00
G01 X22.6781 Y-19.8874 F75.00
G01 X22.6876 Y-19.8987 F75.00
G01 X22.6978 Y-19.9092 F75.00
G01 X22.7051 Y-19.9158 F75.00
G01 X22.7127 Y-19.9221 F75.00
G01 X22.7246 Y-19.9307 F75.00
G01 X22.7372 Y-19.9384 F75.00
G01 X22.7502 Y-19.9452 F75.00
G01 X22.7638 Y-19.9510 F75.00
G01 X22.7777 Y-19.9558 F75.00
G01 X22.7919 Y-19.9595 F75.00
G01 X22.8016 Y-19.9615 F75.00
G01 X22.8161 Y-19.9634 F75.00
G01 X22.8358 Y-19.9644 F75.00
G01 X24.9758 Y-19.9644 F75.00
G01 X24.9954 Y-19.9634 F75.00
G01 X25.0099 Y-19.9615 F75.00
G01 X25.0291 Y-19.9572 F75.00
G01 X25.0431 Y-19.9527 F75.00
G01 X25.0568 Y-19.9472 F75.00
G01 X25.0700 Y-19.9408 F75.00
G01 X25.0869 Y-19.9307 F75.00
G01 X25.0988 Y-19.9221 F75.00
G01 X25.1137 Y-19.9092 F75.00
G01 X25.1239 Y-19.8987 F75.00
G01 X25.1334 Y-19.8874 F75.00
G01 X25.1420 Y-19.8755 F75.00
G01 X25.1521 Y-19.8587 F75.00
G01 X25.1586 Y-19.8454 F75.00
G01 X25.1641 Y-19.8318 F75.00
G01 X25.1698 Y-19.8130 F75.00
G01 X25.1728 Y-19.7986 F75.00
G01 X25.1752 Y-19.7791 F75.00
G01 X25.1758 Y-19.7644 F75.00
G01 X25.1758 Y-17.6244 F75.00
G01 X25.1748 Y-17.6048 F75.00
G01 X25.1728 Y-17.5902 F75.00
G01 X25.1685 Y-17.5711 F75.00
G01 X25.1641 Y-17.5570 F75.00
G01 X25.1586 Y-17.5434 F75.00
G01 X25.1521 Y-17.5301 F75.00
G01 X25.1420 Y-17.5133 F75.00
G01 X25.1334 Y-17.5014 F75.00
G01 X25.1206 Y-17.4865 F75.00
G01 X25.1101 Y-17.4762 F75.00
G01 X25.0988 Y-17.4667 F75.00
G01 X25.0869 Y-17.4581 F75.00
G01 X25.0700 Y-17.4480 F75.00
G01 X25.0568 Y-17.4416 F75.00
G01 X25.0431 Y-17.4361 F75.00
G01 X25.0243 Y-17.4304 F75.00
G01 X25.0099 Y-17.4273 F75.00
G01 X24.9905 Y-17.4249 F75.00
G01 X24.9758 Y-17.4244 F75.00
G01 X22.8358 Y-17.4244 F75.00
G01 X22.8161 Y-17.4254 F75.00
G01 X22.8016 Y-17.4273 F75.00
G01 X22.7872 Y-17.4304 F75.00
G01 X22.7730 Y-17.4345 F75.00
G01 X22.7592 Y-17.4396 F75.00
G01 X22.7502 Y-17.4436 F75.00
G01 X22.7372 Y-17.4504 F75.00
G01 X22.7246 Y-17.4581 F75.00
G01 X22.7127 Y-17.4667 F75.00
G01 X22.7014 Y-17.4762 F75.00
G01 X22.6909 Y-17.4865 F75.00
G01 X22.6811 Y-17.4975 F75.00
G01 X22.6722 Y-17.5092 F75.00
G01 X22.6642 Y-17.5216 F75.00
G01 X22.6571 Y-17.5345 F75.00
G01 X22.6510 Y-17.5479 F75.00
G01 X22.6458 Y-17.5617 F75.00
G01 X22.6417 Y-17.5758 F75.00
G01 X22.6387 Y-17.5902 F75.00
G01 X22.6367 Y-17.6048 F75.00
G01 X22.6358 Y-17.6195 F75.00
G01 X22.6358 Y-17.9941 F75.00
G01 X21.1732 Y-17.9941 F75.00
G01 X21.1237 Y-17.9494 F75.00
G01 X21.0685 Y-17.9085 F75.00
G01 X21.0096 Y-17.8732 F75.00
G01 X20.9475 Y-17.8438 F75.00
G01 X20.8828 Y-17.8207 F75.00
G01 X20.8161 Y-17.8040 F75.00
G01 X20.7481 Y-17.7939 F75.00
G01 X20.6844 Y-17.7906 F75.00
G01 X14.3100 Y-17.7905 F75.00
G01 X14.3099 Y-17.4158 F75.00
G01 X14.3095 Y-17.4060 F75.00
G01 X14.3078 Y-17.3914 F75.00
G01 X14.3051 Y-17.3769 F75.00
G01 X14.3028 Y-17.3674 F75.00
G01 X14.2983 Y-17.3534 F75.00
G01 X14.2928 Y-17.3397 F75.00
G01 X14.2864 Y-17.3265 F75.00
G01 X14.2815 Y-17.3179 F75.00
G01 X14.2735 Y-17.3056 F75.00
G01 X14.2677 Y-17.2977 F75.00
G01 X14.2582 Y-17.2864 F75.00
G01 X14.2479 Y-17.2759 F75.00
G01 X14.2406 Y-17.2693 F75.00
G01 X14.2291 Y-17.2601 F75.00
G01 X14.2170 Y-17.2518 F75.00
G01 X14.2043 Y-17.2444 F75.00
G01 X14.1910 Y-17.2379 F75.00
G01 X14.1774 Y-17.2324 F75.00
G01 X14.1633 Y-17.2280 F75.00
G01 X14.1490 Y-17.2246 F75.00
G01 X14.1296 Y-17.2217 F75.00
G01 X14.1100 Y-17.2208 F75.00
G01 X11.9651 Y-17.2208 F75.00
G01 X11.9455 Y-17.2223 F75.00
G01 X11.9262 Y-17.2256 F75.00
G01 X11.9073 Y-17.2308 F75.00
G01 X11.8890 Y-17.2379 F75.00
G01 X11.8714 Y-17.2467 F75.00
G01 X11.8589 Y-17.2545 F75.00
G01 X11.8509 Y-17.2601 F75.00
G01 X11.8357 Y-17.2726 F75.00
G01 X11.8218 Y-17.2864 F75.00
G01 X11.8094 Y-17.3016 F75.00
G01 X11.8010 Y-17.3138 F75.00
G01 X11.7914 Y-17.3308 F75.00
G01 X11.7834 Y-17.3488 F75.00
G01 X11.7772 Y-17.3674 F75.00
G01 X11.7738 Y-17.3817 F75.00
G01 X11.7715 Y-17.3963 F75.00
G01 X11.7701 Y-17.4158 F75.00
G01 X11.7700 Y-19.5607 F75.00
G01 X11.7702 Y-19.5706 F75.00
G01 X11.7715 Y-19.5852 F75.00
G01 X11.7749 Y-19.6046 F75.00
G01 X11.7801 Y-19.6235 F75.00
G01 X11.7872 Y-19.6418 F75.00
G01 X11.7960 Y-19.6593 F75.00
G01 X11.8065 Y-19.6759 F75.00
G01 X11.8123 Y-19.6838 F75.00
G01 X11.8218 Y-19.6951 F75.00
G01 X11.8357 Y-19.7089 F75.00
G01 X11.8470 Y-19.7184 F75.00
G01 X11.8630 Y-19.7297 F75.00
G01 X11.8801 Y-19.7394 F75.00
G01 X11.8935 Y-19.7455 F75.00
G01 X11.9119 Y-19.7521 F75.00
G01 X11.9310 Y-19.7569 F75.00
G01 X11.9504 Y-19.7598 F75.00
G01 X11.9651 Y-19.7607 F75.00
G01 X14.1198 Y-19.7605 F75.00
G01 X14.1393 Y-19.7586 F75.00
G01 X14.1586 Y-19.7548 F75.00
G01 X14.1774 Y-19.7491 F75.00
G01 X14.1910 Y-19.7436 F75.00
G01 X14.2086 Y-19.7348 F75.00
G01 X14.2252 Y-19.7243 F75.00
G01 X14.2406 Y-19.7122 F75.00
G01 X14.2548 Y-19.6987 F75.00
G01 X14.2677 Y-19.6838 F75.00
G01 X14.2790 Y-19.6677 F75.00
G01 X14.2886 Y-19.6507 F75.00
G01 X14.2948 Y-19.6373 F75.00
G01 X14.3014 Y-19.6188 F75.00
G01 X14.3062 Y-19.5998 F75.00
G01 X14.3090 Y-19.5804 F75.00
G01 X14.3100 Y-19.5607 F75.00
G00 Z2.0000
G00 X14.3100 Y-22.3007
G01 F45.00
G01 Z-0.0900
G01 F75.00
G01 X14.3100 Y-21.9310 F75.00
G01 X22.6358 Y-21.9310 F75.00
G01 X22.6358 Y-22.3093 F75.00
G01 X22.6367 Y-22.3240 F75.00
G01 X22.6379 Y-22.3337 F75.00
G01 X22.6396 Y-22.3434 F75.00
G01 X22.6430 Y-22.3577 F75.00
G01 X22.6474 Y-22.3718 F75.00
G01 X22.6529 Y-22.3854 F75.00
G01 X22.6594 Y-22.3987 F75.00
G01 X22.6642 Y-22.4072 F75.00
G01 X22.6695 Y-22.4155 F75.00
G01 X22.6781 Y-22.4274 F75.00
G01 X22.6876 Y-22.4387 F75.00
G01 X22.6978 Y-22.4492 F75.00
G01 X22.7051 Y-22.4558 F75.00
G01 X22.7166 Y-22.4650 F75.00
G01 X22.7246 Y-22.4707 F75.00
G01 X22.7372 Y-22.4784 F75.00
G01 X22.7502 Y-22.4852 F75.00
G01 X22.7592 Y-22.4892 F75.00
G01 X22.7730 Y-22.4943 F75.00
G01 X22.7872 Y-22.4984 F75.00
G01 X22.8016 Y-22.5015 F75.00
G01 X22.8113 Y-22.5029 F75.00
G01 X22.8210 Y-22.5039 F75.00
G01 X22.8358 Y-22.5044 F75.00
G01 X24.9758 Y-22.5044 F75.00
G01 X24.9954 Y-22.5034 F75.00
G01 X25.0148 Y-22.5006 F75.00
G01 X25.0291 Y-22.4972 F75.00
G01 X25.0477 Y-22.4910 F75.00
G01 X25.0613 Y-22.4852 F75.00
G01 X25.0786 Y-22.4759 F75.00
G01 X25.0949 Y-22.4650 F75.00
G01 X25.1064 Y-22.4558 F75.00
G01 X25.1172 Y-22.4458 F75.00
G01 X25.1272 Y-22.4350 F75.00
G01 X25.1364 Y-22.4235 F75.00
G01 X25.1473 Y-22.4072 F75.00
G01 X25.1544 Y-22.3943 F75.00
G01 X25.1605 Y-22.3809 F75.00
G01 X25.1671 Y-22.3625 F75.00
G01 X25.1709 Y-22.3482 F75.00
G01 X25.1736 Y-22.3337 F75.00
G01 X25.1752 Y-22.3191 F75.00
G01 X25.1758 Y-22.3044 F75.00
G01 X25.1758 Y-20.1644 F75.00
G01 X25.1748 Y-20.1448 F75.00
G01 X25.1719 Y-20.1254 F75.00
G01 X25.1685 Y-20.1111 F75.00
G01 X25.1623 Y-20.0924 F75.00
G01 X25.1565 Y-20.0789 F75.00
G01 X25.1473 Y-20.0616 F75.00
G01 X25.1364 Y-20.0453 F75.00
G01 X25.1272 Y-20.0338 F75.00
G01 X25.1172 Y-20.0230 F75.00
G01 X25.1064 Y-20.0130 F75.00
G01 X25.0949 Y-20.0038 F75.00
G01 X25.0786 Y-19.9929 F75.00
G01 X25.0657 Y-19.9858 F75.00
G01 X25.0523 Y-19.9796 F75.00
G01 X25.0338 Y-19.9730 F75.00
G01 X25.0196 Y-19.9693 F75.00
G01 X25.0051 Y-19.9666 F75.00
G01 X24.9905 Y-19.9649 F75.00
G01 X24.9758 Y-19.9644 F75.00
G01 X22.8358 Y-19.9644 F75.00
G01 X22.8210 Y-19.9649 F75.00
G01 X22.8064 Y-19.9666 F75.00
G01 X22.7919 Y-19.9693 F75.00
G01 X22.7777 Y-19.9730 F75.00
G01 X22.7638 Y-19.9778 F75.00
G01 X22.7502 Y-19.9836 F75.00
G01 X22.7372 Y-19.9904 F75.00
G01 X22.7288 Y-19.9954 F75.00
G01 X22.7166 Y-20.0038 F75.00
G01 X22.7051 Y-20.0130 F75.00
G01 X22.6943 Y-20.0230 F75.00
G01 X22.6843 Y-20.0338 F75.00
G01 X22.6751 Y-20.0453 F75.00
G01 X22.6668 Y-20.0574 F75.00
G01 X22.6594 Y-20.0701 F75.00
G01 X22.6529 Y-20.0834 F75.00
G01 X22.6492 Y-20.0924 F75.00
G01 X22.6444 Y-20.1063 F75.00
G01 X22.6406 Y-20.1206 F75.00
G01 X22.6379 Y-20.1351 F75.00
G01 X22.6367 Y-20.1448 F75.00
G01 X22.6358 Y-20.1595 F75.00
G01 X22.6358 Y-20.5305 F75.00
G01 X14.3100 Y-20.5305 F75.00
G01 X14.3099 Y-20.1558 F75.00
G01 X14.3095 Y-20.1460 F75.00
G01 X14.3078 Y-20.1314 F75.00
G01 X14.3051 Y-20.1169 F75.00
G01 X14.3028 Y-20.1074 F75.00
G01 X14.2983 Y-20.0934 F75.00
G01 X14.2928 Y-20.0797 F75.00
G01 X14.2864 Y-20.0665 F75.00
G01 X14.2815 Y-20.0579 F75.00
G01 X14.2735 Y-20.0456 F75.00
G01 X14.2677 Y-20.0377 F75.00
G01 X14.2582 Y-20.0264 F75.00
G01 X14.2479 Y-20.0159 F75.00
G01 X14.2406 Y-20.0093 F75.00
G01 X14.2291 Y-20.0001 F75.00
G01 X14.2170 Y-19.9918 F75.00
G01 X14.2043 Y-19.9844 F75.00
G01 X14.1910 Y-19.9779 F75.00
G01 X14.1774 Y-19.9724 F75.00
G01 X14.1633 Y-19.9680 F75.00
G01 X14.1490 Y-19.9646 F75.00
G01 X14.1296 Y-19.9617 F75.00
G01 X14.1100 Y-19.9607 F75.00
G01 X11.9651 Y-19.9608 F75.00
G01 X11.9455 Y-19.9623 F75.00
G01 X11.9262 Y-19.9656 F75.00
G01 X11.9073 Y-19.9708 F75.00
G01 X11.8890 Y-19.9779 F75.00
G01 X11.8714 Y-19.9867 F75.00
G01 X11.8589 Y-19.9945 F75.00
G01 X11.8509 Y-20.0001 F75.00
G01 X11.8357 Y-20.0126 F75.00
G01 X11.8218 Y-20.0264 F75.00
G01 X11.8094 Y-20.0416 F75.00
G01 X11.8010 Y-20.0537 F75.00
G01 X11.7914 Y-20.0708 F75.00
G01 X11.7834 Y-20.0888 F75.00
G01 X11.7772 Y-20.1074 F75.00
G01 X11.7738 Y-20.1217 F75.00
G01 X11.7715 Y-20.1363 F75.00
G01 X11.7701 Y-20.1558 F75.00
G01 X11.7700 Y-22.3007 F75.00
G01 X11.7702 Y-22.3106 F75.00
G01 X11.7715 Y-22.3252 F75.00
G01 X11.7749 Y-22.3446 F75.00
G01 X11.7801 Y-22.3635 F75.00
G01 X11.7872 Y-22.3818 F75.00
G01 X11.7960 Y-22.3993 F75.00
G01 X11.8065 Y-22.4159 F75.00
G01 X11.8123 Y-22.4238 F75.00
G01 X11.8218 Y-22.4351 F75.00
G01 X11.8357 Y-22.4489 F75.00
G01 X11.8470 Y-22.4584 F75.00
G01 X11.8630 Y-22.4697 F75.00
G01 X11.8801 Y-22.4794 F75.00
G01 X11.8935 Y-22.4855 F75.00
G01 X11.9119 Y-22.4921 F75.00
G01 X11.9310 Y-22.4969 F75.00
G01 X11.9504 Y-22.4998 F75.00
G01 X11.9651 Y-22.5007 F75.00
G01 X14.1198 Y-22.5005 F75.00
G01 X14.1393 Y-22.4986 F75.00
G01 X14.1586 Y-22.4948 F75.00
G01 X14.1774 Y-22.4891 F75.00
G01 X14.1910 Y-22.4836 F75.00
G01 X14.2086 Y-22.4748 F75.00
G01 X14.2252 Y-22.4643 F75.00
G01 X14.2406 Y-22.4522 F75.00
G01 X14.2548 Y-22.4387 F75.00
G01 X14.2677 Y-22.4238 F75.00
G01 X14.2790 Y-22.4077 F75.00
G01 X14.2886 Y-22.3907 F75.00
G01 X14.2948 Y-22.3773 F75.00
G01 X14.3014 Y-22.3588 F75.00
G01 X14.3062 Y-22.3398 F75.00
G01 X14.3090 Y-22.3204 F75.00
G01 X14.3100 Y-22.3007 F75.00
G00 Z2.0000
G00 X25.4948 Y-29.9720
G01 F45.00
G01 Z-0.0900
G01 F75.00
G01 X25.8648 Y-29.9720 F75.00
G01 X25.8746 Y-29.9722 F75.00
G01 X25.8892 Y-29.9735 F75.00
G01 X25.9086 Y-29.9769 F75.00
G01 X25.9228 Y-29.9806 F75.00
G01 X25.9413 Y-29.9872 F75.00
G01 X25.9547 Y-29.9934 F75.00
G01 X25.9718 Y-30.0030 F75.00
G01 X25.9839 Y-30.0114 F75.00
G01 X25.9954 Y-30.0206 F75.00
G01 X26.0062 Y-30.0306 F75.00
G01 X26.0162 Y-30.0414 F75.00
G01 X26.0283 Y-30.0568 F75.00
G01 X26.0363 Y-30.0692 F75.00
G01 X26.0455 Y-30.0865 F75.00
G01 X26.0531 Y-30.1046 F75.00
G01 X26.0575 Y-30.1187 F75.00
G01 X26.0609 Y-30.1330 F75.00
G01 X26.0632 Y-30.1475 F75.00
G01 X26.0642 Y-30.1573 F75.00
G01 X26.0648 Y-30.1720 F75.00
G01 X26.0648 Y-30.5420 F75.00
G01 X26.0748 Y-30.5420 F75.00
G01 X26.0748 Y-30.1555 F75.00
G01 X26.0670 Y-30.1063 F75.00
G01 X26.0368 Y-30.0470 F75.00
G01 X25.9897 Y-30.0000 F75.00
G01 X25.9305 Y-29.9698 F75.00
G01 X25.8813 Y-29.9620 F75.00
G01 X25.4948 Y-29.9620 F75.00
G01 X25.4948 Y-29.9720 F75.00
G00 Z2.0000
G00 X26.0648 Y-31.9420
G01 F45.00
G01 Z-0.0900
G01 F75.00
G01 X26.0648 Y-32.3120 F75.00
G01 X26.0645 Y-32.3218 F75.00
G01 X26.0632 Y-32.3365 F75.00
G01 X26.0609 Y-32.3510 F75.00
G01 X26.0561 Y-32.3701 F75.00
G01 X26.0495 Y-32.3885 F75.00
G01 X26.0434 Y-32.4019 F75.00
G01 X26.0363 Y-32.4148 F75.00
G01 X26.0254 Y-32.4311 F75.00
G01 X26.0162 Y-32.4426 F75.00
G01 X26.0062 Y-32.4534 F75.00
G01 X25.9954 Y-32.4634 F75.00
G01 X25.9799 Y-32.4755 F75.00
G01 X25.9676 Y-32.4835 F75.00
G01 X25.9547 Y-32.4906 F75.00
G01 X25.9413 Y-32.4968 F75.00
G01 X25.9228 Y-32.5034 F75.00
G01 X25.9038 Y-32.5082 F75.00
G01 X25.8892 Y-32.5105 F75.00
G01 X25.8795 Y-32.5115 F75.00
G01 X25.8648 Y-32.5120 F75.00
G01 X25.4948 Y-32.5120 F75.00
G01 X25.4948 Y-32.5220 F75.00
G01 X25.8813 Y-32.5220 F75.00
G01 X25.9305 Y-32.5142 F75.00
G01 X25.9897 Y-32.4840 F75.00
G01 X26.0368 Y-32.4370 F75.00
G01 X26.0670 Y-32.3777 F75.00
G01 X26.0748 Y-32.3285 F75.00
G01 X26.0748 Y-31.9420 F75.00
G01 X26.0648 Y-31.9420 F75.00
G00 Z2.0000
G00 X25.4948 Y-33.5280
G01 F45.00
G01 Z-0.0900
G01 F75.00
G01 X25.8648 Y-33.5280 F75.00
G01 X25.8795 Y-33.5285 F75.00
G01 X25.8892 Y-33.5295 F75.00
G01 X25.9086 Y-33.5329 F75.00
G01 X25.9228 Y-33.5366 F75.00
G01 X25.9367 Y-33.5414 F75.00
G01 X25.9503 Y-33.5472 F75.00
G01 X25.9633 Y-33.5540 F75.00
G01 X25.9799 Y-33.5645 F75.00
G01 X25.9916 Y-33.5734 F75.00
G01 X26.0062 Y-33.5866 F75.00
G01 X26.0162 Y-33.5974 F75.00
G01 X26.0283 Y-33.6128 F75.00
G01 X26.0363 Y-33.6252 F75.00
G01 X26.0455 Y-33.6425 F75.00
G01 X26.0513 Y-33.6560 F75.00
G01 X26.0575 Y-33.6747 F75.00
G01 X26.0609 Y-33.6890 F75.00
G01 X26.0632 Y-33.7035 F75.00
G01 X26.0642 Y-33.7133 F75.00
G01 X26.0648 Y-33.7280 F75.00
G01 X26.0648 Y-34.0980 F75.00
G01 X26.0748 Y-34.0980 F75.00
G01 X26.0748 Y-33.7115 F75.00
G01 X26.0670 Y-33.6623 F75.00
G01 X26.0368 Y-33.6030 F75.00
G01 X25.9897 Y-33.5560 F75.00
G01 X25.9305 Y-33.5258 F75.00
G01 X25.8813 Y-33.5180 F75.00
G01 X25.4948 Y-33.5180 F75.00
G01 X25.4948 Y-33.5280 F75.00
G00 Z2.0000
G00 X26.0648 Y-35.4980
G01 F45.00
G01 Z-0.0900
G01 F75.00
G01 X26.0648 Y-35.8680 F75.00
G01 X26.0645 Y-35.8778 F75.00
G01 X26.0632 Y-35.8925 F75.00
G01 X26.0609 Y-35.9070 F75.00
G01 X26.0561 Y-35.9261 F75.00
G01 X26.0495 Y-35.9445 F75.00
G01 X26.0434 Y-35.9579 F75.00
G01 X26.0363 Y-35.9708 F75.00
G01 X26.0254 Y-35.9871 F75.00
G01 X26.0162 Y-35.9986 F75.00
G01 X26.0062 Y-36.0094 F75.00
G01 X25.9954 Y-36.0194 F75.00
G01 X25.9799 Y-36.0315 F75.00
G01 X25.9676 Y-36.0395 F75.00
G01 X25.9547 Y-36.0466 F75.00
G01 X25.9413 Y-36.0528 F75.00
G01 X25.9228 Y-36.0594 F75.00
G01 X25.9038 Y-36.0642 F75.00
G01 X25.8892 Y-36.0665 F75.00
G01 X25.8795 Y-36.0675 F75.00
G01 X25.8648 Y-36.0680 F75.00
G01 X25.4948 Y-36.0680 F75.00
G01 X25.4948 Y-36.0780 F75.00
G01 X25.8813 Y-36.0780 F75.00
G01 X25.9305 Y-36.0702 F75.00
G01 X25.9897 Y-36.0400 F75.00
G01 X26.0368 Y-35.9930 F75.00
G01 X26.0670 Y-35.9337 F75.00
G01 X26.0748 Y-35.8845 F75.00
G01 X26.0748 Y-35.4980 F75.00
G01 X26.0648 Y-35.4980 F75.00
G00 Z2.0000
G00 X11.7700 Y-43.5370
G01 F45.00
G01 Z-0.0900
G01 F75.00
G01 X11.7700 Y-45.6770 F75.00
G01 X11.7705 Y-45.6917 F75.00
G01 X11.7722 Y-45.7063 F75.00
G01 X11.7760 Y-45.7256 F75.00
G01 X11.7801 Y-45.7397 F75.00
G01 X11.7872 Y-45.7580 F75.00
G01 X11.7960 Y-45.7756 F75.00
G01 X11.8037 Y-45.7881 F75.00
G01 X11.8123 Y-45.8000 F75.00
G01 X11.8218 Y-45.8113 F75.00
G01 X11.8321 Y-45.8219 F75.00
G01 X11.8470 Y-45.8347 F75.00
G01 X11.8630 Y-45.8460 F75.00
G01 X11.8757 Y-45.8534 F75.00
G01 X11.8890 Y-45.8598 F75.00
G01 X11.9073 Y-45.8669 F75.00
G01 X11.9214 Y-45.8710 F75.00
G01 X11.9358 Y-45.8741 F75.00
G01 X11.9504 Y-45.8760 F75.00
G01 X11.9700 Y-45.8770 F75.00
G01 X14.1100 Y-45.8770 F75.00
G01 X14.1198 Y-45.8768 F75.00
G01 X14.1345 Y-45.8755 F75.00
G01 X14.1442 Y-45.8741 F75.00
G01 X14.1586 Y-45.8710 F75.00
G01 X14.1681 Y-45.8684 F75.00
G01 X14.1820 Y-45.8636 F75.00
G01 X14.1955 Y-45.8578 F75.00
G01 X14.2086 Y-45.8510 F75.00
G01 X14.2211 Y-45.8433 F75.00
G01 X14.2291 Y-45.8376 F75.00
G01 X14.2406 Y-45.8284 F75.00
G01 X14.2479 Y-45.8219 F75.00
G01 X14.2582 Y-45.8113 F75.00
G01 X14.2646 Y-45.8039 F75.00
G01 X14.2735 Y-45.7922 F75.00
G01 X14.2815 Y-45.7798 F75.00
G01 X14.2886 Y-45.7669 F75.00
G01 X14.2948 Y-45.7535 F75.00
G01 X14.2999 Y-45.7397 F75.00
G01 X14.3028 Y-45.7303 F75.00
G01 X14.3051 Y-45.7208 F75.00
G01 X14.3078 Y-45.7063 F75.00
G01 X14.3090 Y-45.6966 F75.00
G01 X14.3099 Y-45.6819 F75.00
G01 X14.3100 Y-45.3073 F75.00
G01 X22.6358 Y-45.3073 F75.00
G01 X22.6358 Y-45.6819 F75.00
G01 X22.6367 Y-45.6966 F75.00
G01 X22.6387 Y-45.7112 F75.00
G01 X22.6417 Y-45.7256 F75.00
G01 X22.6444 Y-45.7351 F75.00
G01 X22.6492 Y-45.7490 F75.00
G01 X22.6550 Y-45.7625 F75.00
G01 X22.6617 Y-45.7756 F75.00
G01 X22.6695 Y-45.7881 F75.00
G01 X22.6781 Y-45.8000 F75.00
G01 X22.6843 Y-45.8076 F75.00
G01 X22.6943 Y-45.8184 F75.00
G01 X22.7051 Y-45.8284 F75.00
G01 X22.7166 Y-45.8376 F75.00
G01 X22.7288 Y-45.8460 F75.00
G01 X22.7415 Y-45.8534 F75.00
G01 X22.7502 Y-45.8578 F75.00
G01 X22.7638 Y-45.8636 F75.00
G01 X22.7777 Y-45.8684 F75.00
G01 X22.7919 Y-45.8721 F75.00
G01 X22.8064 Y-45.8748 F75.00
G01 X22.8210 Y-45.8765 F75.00
G01 X22.8358 Y-45.8770 F75.00
G01 X24.9758 Y-45.8770 F75.00
G01 X24.9905 Y-45.8765 F75.00
G01 X25.0099 Y-45.8741 F75.00
G01 X25.0243 Y-45.8710 F75.00
G01 X25.0385 Y-45.8669 F75.00
G01 X25.0568 Y-45.8598 F75.00
G01 X25.0700 Y-45.8534 F75.00
G01 X25.0828 Y-45.8460 F75.00
G01 X25.0949 Y-45.8376 F75.00
G01 X25.1101 Y-45.8252 F75.00
G01 X25.1206 Y-45.8149 F75.00
G01 X25.1334 Y-45.8000 F75.00
G01 X25.1447 Y-45.7840 F75.00
G01 X25.1521 Y-45.7713 F75.00
G01 X25.1586 Y-45.7580 F75.00
G01 X25.1641 Y-45.7444 F75.00
G01 X25.1685 Y-45.7303 F75.00
G01 X25.1728 Y-45.7112 F75.00
G01 X25.1748 Y-45.6966 F75.00
G01 X25.1758 Y-45.6770 F75.00
G01 X25.1758 Y-43.5370 F75.00
G01 X25.1752 Y-43.5223 F75.00
G01 X25.1728 Y-43.5028 F75.00
G01 X25.1698 Y-43.4884 F75.00
G01 X25.1641 Y-43.4696 F75.00
G01 X25.1586 Y-43.4560 F75.00
G01 X25.1521 Y-43.4427 F75.00
G01 X25.1447 Y-43.4300 F75.00
G01 X25.1334 Y-43.4140 F75.00
G01 X25.1239 Y-43.4027 F75.00
G01 X25.1101 Y-43.3888 F75.00
G01 X25.0988 Y-43.3793 F75.00
G01 X25.0828 Y-43.3680 F75.00
G01 X25.0700 Y-43.3606 F75.00
G01 X25.0568 Y-43.3542 F75.00
G01 X25.0385 Y-43.3471 F75.00
G01 X25.0243 Y-43.3430 F75.00
G01 X25.0099 Y-43.3399 F75.00
G01 X24.9954 Y-43.3380 F75.00
G01 X24.9758 Y-43.3370 F75.00
G01 X22.8358 Y-43.3370 F75.00
G01 X22.8259 Y-43.3372 F75.00
G01 X22.8113 Y-43.3385 F75.00
G01 X22.8016 Y-43.3399 F75.00
G01 X22.7872 Y-43.3430 F75.00
G01 X22.7777 Y-43.3456 F75.00
G01 X22.7638 Y-43.3504 F75.00
G01 X22.7502 Y-43.3562 F75.00
G01 X22.7372 Y-43.3630 F75.00
G01 X22.7246 Y-43.3707 F75.00
G01 X22.7166 Y-43.3764 F75.00
G01 X22.7051 Y-43.3856 F75.00
G01 X22.6978 Y-43.3922 F75.00
G01 X22.6876 Y-43.4027 F75.00
G01 X22.6811 Y-43.4101 F75.00
G01 X22.6722 Y-43.4218 F75.00
G01 X22.6642 Y-43.4342 F75.00
G01 X22.6571 Y-43.4471 F75.00
G01 X22.6529 Y-43.4560 F75.00
G01 X22.6474 Y-43.4696 F75.00
G01 X22.6430 Y-43.4837 F75.00
G01 X22.6406 Y-43.4932 F75.00
G01 X22.6379 Y-43.5077 F75.00
G01 X22.6363 Y-43.5223 F75.00
G01 X22.6358 Y-43.5321 F75.00
G01 X22.6358 Y-43.9068 F75.00
G01 X14.3100 Y-43.9068 F75.00
G01 X14.3099 Y-43.5321 F75.00
G01 X14.3090 Y-43.5174 F75.00
G01 X14.3071 Y-43.5028 F75.00
G01 X14.3051 Y-43.4932 F75.00
G01 X14.3014 Y-43.4789 F75.00
G01 X14.2983 Y-43.4696 F75.00
G01 X14.2928 Y-43.4560 F75.00
G01 X14.2864 Y-43.4427 F75.00
G01 X14.2790 Y-43.4300 F75.00
G01 X14.2706 Y-43.4179 F75.00
G01 X14.2614 Y-43.4064 F75.00
G01 X14.2514 Y-43.3956 F75.00
G01 X14.2406 Y-43.3856 F75.00
G01 X14.2291 Y-43.3764 F75.00
G01 X14.2170 Y-43.3680 F75.00
G01 X14.2043 Y-43.3606 F75.00
G01 X14.1955 Y-43.3562 F75.00
G01 X14.1820 Y-43.3504 F75.00
G01 X14.1681 Y-43.3456 F75.00
G01 X14.1538 Y-43.3419 F75.00
G01 X14.1393 Y-43.3392 F75.00
G01 X14.1247 Y-43.3375 F75.00
G01 X14.1100 Y-43.3370 F75.00
G01 X11.9700 Y-43.3370 F75.00
G01 X11.9553 Y-43.3375 F75.00
G01 X11.9358 Y-43.3399 F75.00
G01 X11.9167 Y-43.3442 F75.00
G01 X11.8980 Y-43.3504 F75.00
G01 X11.8801 Y-43.3584 F75.00
G01 X11.8630 Y-43.3680 F75.00
G01 X11.8509 Y-43.3764 F75.00
G01 X11.8357 Y-43.3888 F75.00
G01 X11.8218 Y-43.4027 F75.00
G01 X11.8123 Y-43.4140 F75.00
G01 X11.8010 Y-43.4300 F75.00
G01 X11.7914 Y-43.4471 F75.00
G01 X11.7834 Y-43.4650 F75.00
G01 X11.7772 Y-43.4837 F75.00
G01 X11.7729 Y-43.5028 F75.00
G01 X11.7705 Y-43.5223 F75.00
G01 X11.7700 Y-43.5370 F75.00
G00 Z2.0000
G00 X14.3100 Y-48.4170
G01 F45.00
G01 Z-0.0900
G01 F75.00
G01 X14.3100 Y-48.0473 F75.00
G01 X21.7229 Y-48.0472 F75.00
G01 X21.7866 Y-48.0439 F75.00
G01 X21.8546 Y-48.0338 F75.00
G01 X21.9213 Y-48.0171 F75.00
G01 X21.9860 Y-47.9939 F75.00
G01 X22.0481 Y-47.9646 F75.00
G01 X22.1070 Y-47.9292 F75.00
G01 X22.1622 Y-47.8883 F75.00
G01 X22.2078 Y-47.8473 F75.00
G01 X22.6358 Y-47.8473 F75.00
G01 X22.6358 Y-48.2219 F75.00
G01 X22.6367 Y-48.2366 F75.00
G01 X22.6379 Y-48.2463 F75.00
G01 X22.6396 Y-48.2560 F75.00
G01 X22.6430 Y-48.2703 F75.00
G01 X22.6474 Y-48.2844 F75.00
G01 X22.6529 Y-48.2980 F75.00
G01 X22.6594 Y-48.3113 F75.00
G01 X22.6642 Y-48.3198 F75.00
G01 X22.6722 Y-48.3322 F75.00
G01 X22.6811 Y-48.3439 F75.00
G01 X22.6909 Y-48.3549 F75.00
G01 X22.7014 Y-48.3652 F75.00
G01 X22.7127 Y-48.3747 F75.00
G01 X22.7246 Y-48.3833 F75.00
G01 X22.7329 Y-48.3885 F75.00
G01 X22.7458 Y-48.3956 F75.00
G01 X22.7592 Y-48.4018 F75.00
G01 X22.7730 Y-48.4069 F75.00
G01 X22.7872 Y-48.4110 F75.00
G01 X22.7967 Y-48.4132 F75.00
G01 X22.8161 Y-48.4160 F75.00
G01 X22.8358 Y-48.4170 F75.00
G01 X24.9758 Y-48.4170 F75.00
G01 X24.9905 Y-48.4165 F75.00
G01 X25.0002 Y-48.4155 F75.00
G01 X25.0196 Y-48.4121 F75.00
G01 X25.0385 Y-48.4069 F75.00
G01 X25.0523 Y-48.4018 F75.00
G01 X25.0657 Y-48.3956 F75.00
G01 X25.0786 Y-48.3885 F75.00
G01 X25.0909 Y-48.3805 F75.00
G01 X25.1026 Y-48.3716 F75.00
G01 X25.1172 Y-48.3584 F75.00
G01 X25.1272 Y-48.3476 F75.00
G01 X25.1364 Y-48.3361 F75.00
G01 X25.1447 Y-48.3240 F75.00
G01 X25.1521 Y-48.3113 F75.00
G01 X25.1605 Y-48.2935 F75.00
G01 X25.1671 Y-48.2751 F75.00
G01 X25.1709 Y-48.2608 F75.00
G01 X25.1736 Y-48.2463 F75.00
G01 X25.1752 Y-48.2317 F75.00
G01 X25.1758 Y-48.2170 F75.00
G01 X25.1758 Y-46.0770 F75.00
G01 X25.1752 Y-46.0623 F75.00
G01 X25.1742 Y-46.0525 F75.00
G01 X25.1709 Y-46.0332 F75.00
G01 X25.1671 Y-46.0189 F75.00
G01 X25.1605 Y-46.0005 F75.00
G01 X25.1544 Y-45.9871 F75.00
G01 X25.1473 Y-45.9742 F75.00
G01 X25.1364 Y-45.9579 F75.00
G01 X25.1272 Y-45.9464 F75.00
G01 X25.1172 Y-45.9356 F75.00
G01 X25.1064 Y-45.9256 F75.00
G01 X25.0949 Y-45.9164 F75.00
G01 X25.0828 Y-45.9080 F75.00
G01 X25.0657 Y-45.8984 F75.00
G01 X25.0523 Y-45.8922 F75.00
G01 X25.0385 Y-45.8871 F75.00
G01 X25.0196 Y-45.8819 F75.00
G01 X25.0051 Y-45.8792 F75.00
G01 X24.9905 Y-45.8775 F75.00
G01 X24.9758 Y-45.8770 F75.00
G01 X22.8358 Y-45.8770 F75.00
G01 X22.8161 Y-45.8780 F75.00
G01 X22.8016 Y-45.8799 F75.00
G01 X22.7919 Y-45.8819 F75.00
G01 X22.7777 Y-45.8856 F75.00
G01 X22.7638 Y-45.8904 F75.00
G01 X22.7502 Y-45.8962 F75.00
G01 X22.7372 Y-45.9030 F75.00
G01 X22.7246 Y-45.9107 F75.00
G01 X22.7127 Y-45.9193 F75.00
G01 X22.7051 Y-45.9256 F75.00
G01 X22.6943 Y-45.9356 F75.00
G01 X22.6843 Y-45.9464 F75.00
G01 X22.6751 Y-45.9579 F75.00
G01 X22.6668 Y-45.9700 F75.00
G01 X22.6594 Y-45.9827 F75.00
G01 X22.6529 Y-45.9960 F75.00
G01 X22.6474 Y-46.0096 F75.00
G01 X22.6444 Y-46.0189 F75.00
G01 X22.6406 Y-46.0332 F75.00
G01 X22.6379 Y-46.0477 F75.00
G01 X22.6363 Y-46.0623 F75.00
G01 X22.6358 Y-46.0721 F75.00
G01 X22.6358 Y-46.4468 F75.00
G01 X21.9131 Y-46.4468 F75.00
G01 X21.8494 Y-46.4501 F75.00
G01 X21.7862 Y-46.4593 F75.00
G01 X21.7718 Y-46.4624 F75.00
G01 X21.7242 Y-46.4743 F75.00
G01 X21.7054 Y-46.4800 F75.00
G01 X21.6500 Y-46.5001 F75.00
G01 X21.5879 Y-46.5294 F75.00
G01 X21.5373 Y-46.5595 F75.00
G01 X21.5209 Y-46.5704 F75.00
G01 X21.4738 Y-46.6057 F75.00
G01 X21.4282 Y-46.6467 F75.00
G01 X14.3100 Y-46.6467 F75.00
G01 X14.3099 Y-46.2721 F75.00
G01 X14.3095 Y-46.2623 F75.00
G01 X14.3078 Y-46.2477 F75.00
G01 X14.3051 Y-46.2332 F75.00
G01 X14.3028 Y-46.2237 F75.00
G01 X14.2983 Y-46.2096 F75.00
G01 X14.2928 Y-46.1960 F75.00
G01 X14.2864 Y-46.1827 F75.00
G01 X14.2790 Y-46.1700 F75.00
G01 X14.2706 Y-46.1579 F75.00
G01 X14.2614 Y-46.1464 F75.00
G01 X14.2514 Y-46.1356 F75.00
G01 X14.2443 Y-46.1288 F75.00
G01 X14.2369 Y-46.1224 F75.00
G01 X14.2252 Y-46.1135 F75.00
G01 X14.2128 Y-46.1055 F75.00
G01 X14.1999 Y-46.0984 F75.00
G01 X14.1865 Y-46.0922 F75.00
G01 X14.1727 Y-46.0871 F75.00
G01 X14.1586 Y-46.0830 F75.00
G01 X14.1490 Y-46.0808 F75.00
G01 X14.1296 Y-46.0780 F75.00
G01 X14.1100 Y-46.0770 F75.00
G01 X11.9651 Y-46.0771 F75.00
G01 X11.9455 Y-46.0785 F75.00
G01 X11.9262 Y-46.0819 F75.00
G01 X11.9073 Y-46.0871 F75.00
G01 X11.8935 Y-46.0922 F75.00
G01 X11.8845 Y-46.0962 F75.00
G01 X11.8672 Y-46.1055 F75.00
G01 X11.8509 Y-46.1164 F75.00
G01 X11.8357 Y-46.1288 F75.00
G01 X11.8218 Y-46.1427 F75.00
G01 X11.8123 Y-46.1540 F75.00
G01 X11.8010 Y-46.1700 F75.00
G01 X11.7936 Y-46.1827 F75.00
G01 X11.7852 Y-46.2005 F75.00
G01 X11.7786 Y-46.2189 F75.00
G01 X11.7749 Y-46.2332 F75.00
G01 X11.7715 Y-46.2525 F75.00
G01 X11.7701 Y-46.2721 F75.00
G01 X11.7700 Y-48.4170 F75.00
G01 X11.7705 Y-48.4317 F75.00
G01 X11.7715 Y-48.4415 F75.00
G01 X11.7749 Y-48.4608 F75.00
G01 X11.7801 Y-48.4797 F75.00
G01 X11.7872 Y-48.4980 F75.00
G01 X11.7936 Y-48.5113 F75.00
G01 X11.7985 Y-48.5198 F75.00
G01 X11.8094 Y-48.5361 F75.00
G01 X11.8218 Y-48.5513 F75.00
G01 X11.8357 Y-48.5652 F75.00
G01 X11.8509 Y-48.5776 F75.00
G01 X11.8630 Y-48.5860 F75.00
G01 X11.8801 Y-48.5956 F75.00
G01 X11.8935 Y-48.6018 F75.00
G01 X11.9073 Y-48.6069 F75.00
G01 X11.9262 Y-48.6121 F75.00
G01 X11.9455 Y-48.6155 F75.00
G01 X11.9651 Y-48.6169 F75.00
G01 X14.1198 Y-48.6168 F75.00
G01 X14.1393 Y-48.6148 F75.00
G01 X14.1586 Y-48.6110 F75.00
G01 X14.1774 Y-48.6053 F75.00
G01 X14.1955 Y-48.5978 F75.00
G01 X14.2128 Y-48.5885 F75.00
G01 X14.2291 Y-48.5776 F75.00
G01 X14.2406 Y-48.5684 F75.00
G01 X14.2548 Y-48.5549 F75.00
G01 X14.2677 Y-48.5400 F75.00
G01 X14.2790 Y-48.5240 F75.00
G01 X14.2886 Y-48.5069 F75.00
G01 X14.2948 Y-48.4935 F75.00
G01 X14.3014 Y-48.4751 F75.00
G01 X14.3062 Y-48.4560 F75.00
G01 X14.3090 Y-48.4366 F75.00
G01 X14.3100 Y-48.4170 F75.00
G00 Z2.0000
G00 X14.3100 Y-51.1570
G01 F45.00
G01 Z-0.0900
G01 F75.00
G01 X14.3100 Y-50.7873 F75.00
G01 X21.5688 Y-50.7873 F75.00
G01 X21.6276 Y-50.7846 F75.00
G01 X21.6472 Y-50.7827 F75.00
G01 X21.7054 Y-50.7738 F75.00
G01 X21.7626 Y-50.7597 F75.00
G01 X21.7814 Y-50.7540 F75.00
G01 X21.8368 Y-50.7339 F75.00
G01 X21.8901 Y-50.7090 F75.00
G01 X21.9074 Y-50.6997 F75.00
G01 X21.9537 Y-50.6719 F75.00
G01 X21.9659 Y-50.6636 F75.00
G01 X22.0130 Y-50.6283 F75.00
G01 X22.0604 Y-50.5856 F75.00
G01 X22.2589 Y-50.3873 F75.00
G01 X22.6358 Y-50.3873 F75.00
G01 X22.6358 Y-50.7619 F75.00
G01 X22.6367 Y-50.7766 F75.00
G01 X22.6379 Y-50.7863 F75.00
G01 X22.6396 Y-50.7960 F75.00
G01 X22.6430 Y-50.8103 F75.00
G01 X22.6474 Y-50.8244 F75.00
G01 X22.6529 Y-50.8380 F75.00
G01 X22.6594 Y-50.8513 F75.00
G01 X22.6642 Y-50.8598 F75.00
G01 X22.6722 Y-50.8722 F75.00
G01 X22.6811 Y-50.8839 F75.00
G01 X22.6909 Y-50.8949 F75.00
G01 X22.7014 Y-50.9052 F75.00
G01 X22.7127 Y-50.9147 F75.00
G01 X22.7246 Y-50.9233 F75.00
G01 X22.7329 Y-50.9285 F75.00
G01 X22.7458 Y-50.9356 F75.00
G01 X22.7592 Y-50.9418 F75.00
G01 X22.7730 Y-50.9469 F75.00
G01 X22.7872 Y-50.9510 F75.00
G01 X22.7967 Y-50.9532 F75.00
G01 X22.8161 Y-50.9560 F75.00
G01 X22.8358 Y-50.9570 F75.00
G01 X24.9758 Y-50.9570 F75.00
G01 X24.9905 Y-50.9565 F75.00
G01 X25.0002 Y-50.9555 F75.00
G01 X25.0099 Y-50.9541 F75.00
G01 X25.0243 Y-50.9510 F75.00
G01 X25.0385 Y-50.9469 F75.00
G01 X25.0568 Y-50.9398 F75.00
G01 X25.0700 Y-50.9334 F75.00
G01 X25.0828 Y-50.9260 F75.00
G01 X25.0949 Y-50.9176 F75.00
G01 X25.1064 Y-50.9084 F75.00
G01 X25.1172 Y-50.8984 F75.00
G01 X25.1304 Y-50.8839 F75.00
G01 X25.1420 Y-50.8681 F75.00
G01 X25.1498 Y-50.8556 F75.00
G01 X25.1565 Y-50.8425 F75.00
G01 X25.1623 Y-50.8290 F75.00
G01 X25.1671 Y-50.8151 F75.00
G01 X25.1719 Y-50.7960 F75.00
G01 X25.1742 Y-50.7815 F75.00
G01 X25.1755 Y-50.7668 F75.00
G01 X25.1758 Y-48.6170 F75.00
G01 X25.1752 Y-48.6023 F75.00
G01 X25.1742 Y-48.5925 F75.00
G01 X25.1719 Y-48.5780 F75.00
G01 X25.1698 Y-48.5684 F75.00
G01 X25.1641 Y-48.5496 F75.00
G01 X25.1586 Y-48.5360 F75.00
G01 X25.1521 Y-48.5227 F75.00
G01 X25.1447 Y-48.5100 F75.00
G01 X25.1364 Y-48.4979 F75.00
G01 X25.1272 Y-48.4864 F75.00
G01 X25.1172 Y-48.4756 F75.00
G01 X25.1026 Y-48.4624 F75.00
G01 X25.0909 Y-48.4535 F75.00
G01 X25.0786 Y-48.4455 F75.00
G01 X25.0657 Y-48.4384 F75.00
G01 X25.0523 Y-48.4322 F75.00
G01 X25.0385 Y-48.4271 F75.00
G01 X25.0196 Y-48.4219 F75.00
G01 X25.0051 Y-48.4192 F75.00
G01 X24.9905 Y-48.4175 F75.00
G01 X24.9758 Y-48.4170 F75.00
G01 X22.8358 Y-48.4170 F75.00
G01 X22.8161 Y-48.4180 F75.00
G01 X22.7967 Y-48.4208 F75.00
G01 X22.7824 Y-48.4242 F75.00
G01 X22.7684 Y-48.4287 F75.00
G01 X22.7592 Y-48.4322 F75.00
G01 X22.7458 Y-48.4384 F75.00
G01 X22.7329 Y-48.4455 F75.00
G01 X22.7206 Y-48.4535 F75.00
G01 X22.7089 Y-48.4624 F75.00
G01 X22.6978 Y-48.4722 F75.00
G01 X22.6876 Y-48.4827 F75.00
G01 X22.6811 Y-48.4901 F75.00
G01 X22.6722 Y-48.5018 F75.00
G01 X22.6642 Y-48.5142 F75.00
G01 X22.6571 Y-48.5271 F75.00
G01 X22.6529 Y-48.5360 F75.00
G01 X22.6474 Y-48.5496 F75.00
G01 X22.6430 Y-48.5637 F75.00
G01 X22.6406 Y-48.5732 F75.00
G01 X22.6379 Y-48.5877 F75.00
G01 X22.6363 Y-48.6023 F75.00
G01 X22.6358 Y-48.6121 F75.00
G01 X22.6358 Y-48.9868 F75.00
G01 X21.9639 Y-48.9868 F75.00
G01 X21.9002 Y-48.9901 F75.00
G01 X21.8419 Y-48.9985 F75.00
G01 X21.8226 Y-49.0024 F75.00
G01 X21.7655 Y-49.0169 F75.00
G01 X21.7008 Y-49.0401 F75.00
G01 X21.6387 Y-49.0694 F75.00
G01 X21.5798 Y-49.1048 F75.00
G01 X21.5323 Y-49.1397 F75.00
G01 X21.5171 Y-49.1521 F75.00
G01 X21.4772 Y-49.1884 F75.00
G01 X21.2787 Y-49.3867 F75.00
G01 X14.3100 Y-49.3867 F75.00
G01 X14.3099 Y-49.0121 F75.00
G01 X14.3095 Y-49.0023 F75.00
G01 X14.3078 Y-48.9877 F75.00
G01 X14.3051 Y-48.9732 F75.00
G01 X14.3028 Y-48.9637 F75.00
G01 X14.2983 Y-48.9496 F75.00
G01 X14.2928 Y-48.9360 F75.00
G01 X14.2864 Y-48.9227 F75.00
G01 X14.2790 Y-48.9100 F75.00
G01 X14.2706 Y-48.8979 F75.00
G01 X14.2614 Y-48.8864 F75.00
G01 X14.2514 Y-48.8756 F75.00
G01 X14.2443 Y-48.8688 F75.00
G01 X14.2369 Y-48.8624 F75.00
G01 X14.2252 Y-48.8535 F75.00
G01 X14.2128 Y-48.8455 F75.00
G01 X14.1999 Y-48.8384 F75.00
G01 X14.1865 Y-48.8322 F75.00
G01 X14.1727 Y-48.8271 F75.00
G01 X14.1586 Y-48.8230 F75.00
G01 X14.1490 Y-48.8208 F75.00
G01 X14.1296 Y-48.8180 F75.00
G01 X14.1100 Y-48.8170 F75.00
G01 X11.9651 Y-48.8171 F75.00
G01 X11.9455 Y-48.8185 F75.00
G01 X11.9262 Y-48.8219 F75.00
G01 X11.9073 Y-48.8271 F75.00
G01 X11.8935 Y-48.8322 F75.00
G01 X11.8845 Y-48.8362 F75.00
G01 X11.8672 Y-48.8455 F75.00
G01 X11.8509 Y-48.8564 F75.00
G01 X11.8357 Y-48.8688 F75.00
G01 X11.8218 Y-48.8827 F75.00
G01 X11.8123 Y-48.8940 F75.00
G01 X11.8010 Y-48.9100 F75.00
G01 X11.7936 Y-48.9227 F75.00
G01 X11.7852 Y-48.9405 F75.00
G01 X11.7786 Y-48.9589 F75.00
G01 X11.7749 Y-48.9732 F75.00
G01 X11.7715 Y-48.9925 F75.00
G01 X11.7701 Y-49.0121 F75.00
G01 X11.7700 Y-51.1570 F75.00
G01 X11.7705 Y-51.1717 F75.00
G01 X11.7715 Y-51.1815 F75.00
G01 X11.7749 Y-51.2008 F75.00
G01 X11.7801 Y-51.2197 F75.00
G01 X11.7872 Y-51.2380 F75.00
G01 X11.7936 Y-51.2513 F75.00
G01 X11.7985 Y-51.2598 F75.00
G01 X11.8094 Y-51.2761 F75.00
G01 X11.8218 Y-51.2913 F75.00
G01 X11.8357 Y-51.3052 F75.00
G01 X11.8509 Y-51.3176 F75.00
G01 X11.8630 Y-51.3260 F75.00
G01 X11.8801 Y-51.3356 F75.00
G01 X11.8935 Y-51.3418 F75.00
G01 X11.9073 Y-51.3469 F75.00
G01 X11.9262 Y-51.3521 F75.00
G01 X11.9455 Y-51.3555 F75.00
G01 X11.9651 Y-51.3569 F75.00
G01 X14.1198 Y-51.3568 F75.00
G01 X14.1393 Y-51.3548 F75.00
G01 X14.1586 Y-51.3510 F75.00
G01 X14.1774 Y-51.3453 F75.00
G01 X14.1955 Y-51.3378 F75.00
G01 X14.2128 Y-51.3285 F75.00
G01 X14.2291 Y-51.3176 F75.00
G01 X14.2406 Y-51.3084 F75.00
G01 X14.2548 Y-51.2949 F75.00
G01 X14.2677 Y-51.2800 F75.00
G01 X14.2790 Y-51.2640 F75.00
G01 X14.2886 Y-51.2469 F75.00
G01 X14.2948 Y-51.2335 F75.00
G01 X14.3014 Y-51.2151 F75.00
G01 X14.3062 Y-51.1960 F75.00
G01 X14.3090 Y-51.1766 F75.00
G01 X14.3100 Y-51.1570 F75.00
G00 Z2.0000
G00 X14.3100 Y-53.8970
G01 F45.00
G01 Z-0.0900
G01 F75.00
G01 X14.3100 Y-53.5273 F75.00
G01 X21.3688 Y-53.5273 F75.00
G01 X21.4276 Y-53.5246 F75.00
G01 X21.4423 Y-53.5233 F75.00
G01 X21.4957 Y-53.5155 F75.00
G01 X21.5150 Y-53.5116 F75.00
G01 X21.5721 Y-53.4971 F75.00
G01 X21.6276 Y-53.4775 F75.00
G01 X21.6457 Y-53.4700 F75.00
G01 X21.6989 Y-53.4446 F75.00
G01 X21.7495 Y-53.4145 F75.00
G01 X21.7659 Y-53.4036 F75.00
G01 X21.8130 Y-53.3683 F75.00
G01 X21.8604 Y-53.3256 F75.00
G01 X22.2589 Y-52.9273 F75.00
G01 X22.6358 Y-52.9273 F75.00
G01 X22.6358 Y-53.3019 F75.00
G01 X22.6367 Y-53.3166 F75.00
G01 X22.6379 Y-53.3263 F75.00
G01 X22.6396 Y-53.3360 F75.00
G01 X22.6430 Y-53.3503 F75.00
G01 X22.6474 Y-53.3644 F75.00
G01 X22.6529 Y-53.3780 F75.00
G01 X22.6594 Y-53.3913 F75.00
G01 X22.6642 Y-53.3998 F75.00
G01 X22.6722 Y-53.4122 F75.00
G01 X22.6811 Y-53.4239 F75.00
G01 X22.6909 Y-53.4349 F75.00
G01 X22.7014 Y-53.4452 F75.00
G01 X22.7127 Y-53.4547 F75.00
G01 X22.7246 Y-53.4633 F75.00
G01 X22.7329 Y-53.4685 F75.00
G01 X22.7458 Y-53.4756 F75.00
G01 X22.7592 Y-53.4818 F75.00
G01 X22.7730 Y-53.4869 F75.00
G01 X22.7872 Y-53.4910 F75.00
G01 X22.7967 Y-53.4932 F75.00
G01 X22.8161 Y-53.4960 F75.00
G01 X22.8358 Y-53.4970 F75.00
G01 X24.9758 Y-53.4970 F75.00
G01 X24.9905 Y-53.4965 F75.00
G01 X25.0002 Y-53.4955 F75.00
G01 X25.0099 Y-53.4941 F75.00
G01 X25.0243 Y-53.4910 F75.00
G01 X25.0385 Y-53.4869 F75.00
G01 X25.0568 Y-53.4798 F75.00
G01 X25.0700 Y-53.4734 F75.00
G01 X25.0828 Y-53.4660 F75.00
G01 X25.0949 Y-53.4576 F75.00
G01 X25.1064 Y-53.4484 F75.00
G01 X25.1172 Y-53.4384 F75.00
G01 X25.1304 Y-53.4239 F75.00
G01 X25.1420 Y-53.4081 F75.00
G01 X25.1498 Y-53.3956 F75.00
G01 X25.1565 Y-53.3825 F75.00
G01 X25.1623 Y-53.3690 F75.00
G01 X25.1671 Y-53.3551 F75.00
G01 X25.1719 Y-53.3360 F75.00
G01 X25.1742 Y-53.3215 F75.00
G01 X25.1755 Y-53.3068 F75.00
G01 X25.1758 Y-51.1570 F75.00
G01 X25.1752 Y-51.1423 F75.00
G01 X25.1742 Y-51.1325 F75.00
G01 X25.1719 Y-51.1180 F75.00
G01 X25.1698 Y-51.1084 F75.00
G01 X25.1641 Y-51.0896 F75.00
G01 X25.1586 Y-51.0760 F75.00
G01 X25.1521 Y-51.0627 F75.00
G01 X25.1447 Y-51.0500 F75.00
G01 X25.1364 Y-51.0379 F75.00
G01 X25.1272 Y-51.0264 F75.00
G01 X25.1172 Y-51.0156 F75.00
G01 X25.1026 Y-51.0024 F75.00
G01 X25.0909 Y-50.9935 F75.00
G01 X25.0743 Y-50.9830 F75.00
G01 X25.0613 Y-50.9762 F75.00
G01 X25.0477 Y-50.9704 F75.00
G01 X25.0338 Y-50.9656 F75.00
G01 X25.0196 Y-50.9619 F75.00
G01 X25.0002 Y-50.9585 F75.00
G01 X24.9856 Y-50.9572 F75.00
G01 X22.8358 Y-50.9570 F75.00
G01 X22.8259 Y-50.9572 F75.00
G01 X22.8113 Y-50.9585 F75.00
G01 X22.8016 Y-50.9599 F75.00
G01 X22.7872 Y-50.9630 F75.00
G01 X22.7777 Y-50.9656 F75.00
G01 X22.7638 Y-50.9704 F75.00
G01 X22.7502 Y-50.9762 F75.00
G01 X22.7372 Y-50.9830 F75.00
G01 X22.7246 Y-50.9907 F75.00
G01 X22.7166 Y-50.9964 F75.00
G01 X22.7051 Y-51.0056 F75.00
G01 X22.6978 Y-51.0122 F75.00
G01 X22.6876 Y-51.0227 F75.00
G01 X22.6811 Y-51.0301 F75.00
G01 X22.6722 Y-51.0418 F75.00
G01 X22.6642 Y-51.0542 F75.00
G01 X22.6571 Y-51.0671 F75.00
G01 X22.6529 Y-51.0760 F75.00
G01 X22.6474 Y-51.0896 F75.00
G01 X22.6430 Y-51.1037 F75.00
G01 X22.6406 Y-51.1132 F75.00
G01 X22.6379 Y-51.1277 F75.00
G01 X22.6363 Y-51.1423 F75.00
G01 X22.6358 Y-51.1521 F75.00
G01 X22.6358 Y-51.5268 F75.00
G01 X21.9688 Y-51.5268 F75.00
G01 X21.9100 Y-51.5294 F75.00
G01 X21.8953 Y-51.5307 F75.00
G01 X21.8419 Y-51.5385 F75.00
G01 X21.8226 Y-51.5424 F75.00
G01 X21.7655 Y-51.5569 F75.00
G01 X21.7054 Y-51.5782 F75.00
G01 X21.6919 Y-51.5840 F75.00
G01 X21.6387 Y-51.6094 F75.00
G01 X21.5881 Y-51.6395 F75.00
G01 X21.5717 Y-51.6504 F75.00
G01 X21.5323 Y-51.6797 F75.00
G01 X21.5208 Y-51.6889 F75.00
G01 X21.4736 Y-51.7318 F75.00
G01 X21.0787 Y-52.1267 F75.00
G01 X14.3100 Y-52.1267 F75.00
G01 X14.3099 Y-51.7521 F75.00
G01 X14.3095 Y-51.7423 F75.00
G01 X14.3078 Y-51.7277 F75.00
G01 X14.3051 Y-51.7132 F75.00
G01 X14.3028 Y-51.7037 F75.00
G01 X14.2983 Y-51.6896 F75.00
G01 X14.2928 Y-51.6760 F75.00
G01 X14.2864 Y-51.6627 F75.00
G01 X14.2790 Y-51.6500 F75.00
G01 X14.2706 Y-51.6379 F75.00
G01 X14.2614 Y-51.6264 F75.00
G01 X14.2514 Y-51.6156 F75.00
G01 X14.2443 Y-51.6088 F75.00
G01 X14.2369 Y-51.6024 F75.00
G01 X14.2252 Y-51.5935 F75.00
G01 X14.2128 Y-51.5855 F75.00
G01 X14.1999 Y-51.5784 F75.00
G01 X14.1865 Y-51.5722 F75.00
G01 X14.1727 Y-51.5671 F75.00
G01 X14.1586 Y-51.5630 F75.00
G01 X14.1490 Y-51.5608 F75.00
G01 X14.1296 Y-51.5580 F75.00
G01 X14.1100 Y-51.5570 F75.00
G01 X11.9651 Y-51.5571 F75.00
G01 X11.9455 Y-51.5585 F75.00
G01 X11.9262 Y-51.5619 F75.00
G01 X11.9073 Y-51.5671 F75.00
G01 X11.8935 Y-51.5722 F75.00
G01 X11.8845 Y-51.5762 F75.00
G01 X11.8672 Y-51.5855 F75.00
G01 X11.8509 Y-51.5964 F75.00
G01 X11.8357 Y-51.6088 F75.00
G01 X11.8218 Y-51.6227 F75.00
G01 X11.8123 Y-51.6340 F75.00
G01 X11.8010 Y-51.6500 F75.00
G01 X11.7936 Y-51.6627 F75.00
G01 X11.7852 Y-51.6805 F75.00
G01 X11.7786 Y-51.6989 F75.00
G01 X11.7749 Y-51.7132 F75.00
G01 X11.7715 Y-51.7325 F75.00
G01 X11.7701 Y-51.7521 F75.00
G01 X11.7700 Y-53.8970 F75.00
G01 X11.7705 Y-53.9117 F75.00
G01 X11.7715 Y-53.9215 F75.00
G01 X11.7749 Y-53.9408 F75.00
G01 X11.7801 Y-53.9597 F75.00
G01 X11.7872 Y-53.9780 F75.00
G01 X11.7936 Y-53.9913 F75.00
G01 X11.7985 Y-53.9998 F75.00
G01 X11.8094 Y-54.0161 F75.00
G01 X11.8218 Y-54.0313 F75.00
G01 X11.8357 Y-54.0452 F75.00
G01 X11.8509 Y-54.0576 F75.00
G01 X11.8630 Y-54.0660 F75.00
G01 X11.8801 Y-54.0756 F75.00
G01 X11.8935 Y-54.0818 F75.00
G01 X11.9073 Y-54.0869 F75.00
G01 X11.9262 Y-54.0921 F75.00
G01 X11.9455 Y-54.0955 F75.00
G01 X11.9651 Y-54.0969 F75.00
G01 X14.1198 Y-54.0968 F75.00
G01 X14.1393 Y-54.0948 F75.00
G01 X14.1586 Y-54.0910 F75.00
G01 X14.1774 Y-54.0853 F75.00
G01 X14.1955 Y-54.0778 F75.00
G01 X14.2128 Y-54.0685 F75.00
G01 X14.2291 Y-54.0576 F75.00
G01 X14.2406 Y-54.0484 F75.00
G01 X14.2548 Y-54.0349 F75.00
G01 X14.2677 Y-54.0200 F75.00
G01 X14.2790 Y-54.0040 F75.00
G01 X14.2886 Y-53.9869 F75.00
G01 X14.2948 Y-53.9735 F75.00
G01 X14.3014 Y-53.9551 F75.00
G01 X14.3062 Y-53.9360 F75.00
G01 X14.3090 Y-53.9166 F75.00
G01 X14.3100 Y-53.8970 F75.00
G00 Z2.0000
G00 X11.9700 Y-56.8370
G01 F45.00
G01 Z-0.0900
G01 F75.00
G01 X14.1100 Y-56.8370 F75.00
G01 X14.1198 Y-56.8368 F75.00
G01 X14.1345 Y-56.8355 F75.00
G01 X14.1442 Y-56.8341 F75.00
G01 X14.1586 Y-56.8310 F75.00
G01 X14.1681 Y-56.8284 F75.00
G01 X14.1820 Y-56.8236 F75.00
G01 X14.1955 Y-56.8178 F75.00
G01 X14.2086 Y-56.8110 F75.00
G01 X14.2211 Y-56.8033 F75.00
G01 X14.2291 Y-56.7976 F75.00
G01 X14.2406 Y-56.7884 F75.00
G01 X14.2479 Y-56.7818 F75.00
G01 X14.2582 Y-56.7713 F75.00
G01 X14.2646 Y-56.7639 F75.00
G01 X14.2735 Y-56.7522 F75.00
G01 X14.2815 Y-56.7398 F75.00
G01 X14.2886 Y-56.7269 F75.00
G01 X14.2948 Y-56.7135 F75.00
G01 X14.2999 Y-56.6997 F75.00
G01 X14.3028 Y-56.6903 F75.00
G01 X14.3051 Y-56.6808 F75.00
G01 X14.3078 Y-56.6663 F75.00
G01 X14.3090 Y-56.6566 F75.00
G01 X14.3099 Y-56.6419 F75.00
G01 X14.3100 Y-56.2672 F75.00
G01 X21.1688 Y-56.2672 F75.00
G01 X21.2276 Y-56.2646 F75.00
G01 X21.2423 Y-56.2633 F75.00
G01 X21.3054 Y-56.2538 F75.00
G01 X21.3626 Y-56.2397 F75.00
G01 X21.3814 Y-56.2340 F75.00
G01 X21.4368 Y-56.2139 F75.00
G01 X21.4901 Y-56.1890 F75.00
G01 X21.5074 Y-56.1797 F75.00
G01 X21.5578 Y-56.1492 F75.00
G01 X21.6092 Y-56.1114 F75.00
G01 X21.6205 Y-56.1019 F75.00
G01 X21.6640 Y-56.0622 F75.00
G01 X22.2589 Y-55.4673 F75.00
G01 X22.6358 Y-55.4673 F75.00
G01 X22.6358 Y-55.8419 F75.00
G01 X22.6367 Y-55.8566 F75.00
G01 X22.6379 Y-55.8663 F75.00
G01 X22.6396 Y-55.8760 F75.00
G01 X22.6430 Y-55.8903 F75.00
G01 X22.6474 Y-55.9044 F75.00
G01 X22.6529 Y-55.9180 F75.00
G01 X22.6594 Y-55.9313 F75.00
G01 X22.6642 Y-55.9398 F75.00
G01 X22.6722 Y-55.9522 F75.00
G01 X22.6811 Y-55.9639 F75.00
G01 X22.6909 Y-55.9749 F75.00
G01 X22.7014 Y-55.9852 F75.00
G01 X22.7127 Y-55.9947 F75.00
G01 X22.7246 Y-56.0033 F75.00
G01 X22.7329 Y-56.0085 F75.00
G01 X22.7458 Y-56.0156 F75.00
G01 X22.7592 Y-56.0218 F75.00
G01 X22.7730 Y-56.0269 F75.00
G01 X22.7872 Y-56.0310 F75.00
G01 X22.7967 Y-56.0332 F75.00
G01 X22.8161 Y-56.0360 F75.00
G01 X22.8358 Y-56.0370 F75.00
G01 X24.9758 Y-56.0370 F75.00
G01 X24.9905 Y-56.0365 F75.00
G01 X25.0002 Y-56.0355 F75.00
G01 X25.0099 Y-56.0341 F75.00
G01 X25.0243 Y-56.0310 F75.00
G01 X25.0385 Y-56.0269 F75.00
G01 X25.0568 Y-56.0198 F75.00
G01 X25.0700 Y-56.0134 F75.00
G01 X25.0828 Y-56.0060 F75.00
G01 X25.0949 Y-55.9976 F75.00
G01 X25.1064 Y-55.9884 F75.00
G01 X25.1172 Y-55.9784 F75.00
G01 X25.1304 Y-55.9639 F75.00
G01 X25.1420 Y-55.9481 F75.00
G01 X25.1498 Y-55.9356 F75.00
G01 X25.1565 Y-55.9225 F75.00
G01 X25.1623 Y-55.9090 F75.00
G01 X25.1671 Y-55.8951 F75.00
G01 X25.1719 Y-55.8760 F75.00
G01 X25.1742 Y-55.8615 F75.00
G01 X25.1755 Y-55.8468 F75.00
G01 X25.1758 Y-53.6970 F75.00
G01 X25.1752 Y-53.6823 F75.00
G01 X25.1742 Y-53.6725 F75.00
G01 X25.1719 Y-53.6580 F75.00
G01 X25.1698 Y-53.6484 F75.00
G01 X25.1641 Y-53.6296 F75.00
G01 X25.1586 Y-53.6160 F75.00
G01 X25.1521 Y-53.6027 F75.00
G01 X25.1447 Y-53.5900 F75.00
G01 X25.1364 Y-53.5779 F75.00
G01 X25.1272 Y-53.5664 F75.00
G01 X25.1172 Y-53.5556 F75.00
G01 X25.1026 Y-53.5424 F75.00
G01 X25.0909 Y-53.5335 F75.00
G01 X25.0743 Y-53.5230 F75.00
G01 X25.0613 Y-53.5162 F75.00
G01 X25.0477 Y-53.5104 F75.00
G01 X25.0338 Y-53.5056 F75.00
G01 X25.0196 Y-53.5019 F75.00
G01 X25.0002 Y-53.4985 F75.00
G01 X24.9856 Y-53.4972 F75.00
G01 X22.8358 Y-53.4970 F75.00
G01 X22.8259 Y-53.4972 F75.00
G01 X22.8113 Y-53.4985 F75.00
G01 X22.7967 Y-53.5008 F75.00
G01 X22.7824 Y-53.5042 F75.00
G01 X22.7684 Y-53.5087 F75.00
G01 X22.7592 Y-53.5122 F75.00
G01 X22.7502 Y-53.5162 F75.00
G01 X22.7372 Y-53.5230 F75.00
G01 X22.7246 Y-53.5307 F75.00
G01 X22.7127 Y-53.5393 F75.00
G01 X22.7051 Y-53.5456 F75.00
G01 X22.6943 Y-53.5556 F75.00
G01 X22.6876 Y-53.5627 F75.00
G01 X22.6781 Y-53.5740 F75.00
G01 X22.6695 Y-53.5859 F75.00
G01 X22.6617 Y-53.5984 F75.00
G01 X22.6550 Y-53.6115 F75.00
G01 X22.6492 Y-53.6250 F75.00
G01 X22.6444 Y-53.6389 F75.00
G01 X22.6417 Y-53.6484 F75.00
G01 X22.6379 Y-53.6677 F75.00
G01 X22.6363 Y-53.6823 F75.00
G01 X22.6358 Y-53.6921 F75.00
G01 X22.6358 Y-54.0668 F75.00
G01 X21.9688 Y-54.0668 F75.00
G01 X21.9100 Y-54.0694 F75.00
G01 X21.8953 Y-54.0707 F75.00
G01 X21.8419 Y-54.0785 F75.00
G01 X21.8226 Y-54.0824 F75.00
G01 X21.7655 Y-54.0969 F75.00
G01 X21.7100 Y-54.1165 F75.00
G01 X21.6963 Y-54.1220 F75.00
G01 X21.6387 Y-54.1494 F75.00
G01 X21.5798 Y-54.1848 F75.00
G01 X21.5246 Y-54.2257 F75.00
G01 X21.4808 Y-54.2651 F75.00
G01 X20.8787 Y-54.8667 F75.00
G01 X14.3100 Y-54.8667 F75.00
G01 X14.3099 Y-54.4921 F75.00
G01 X14.3095 Y-54.4823 F75.00
G01 X14.3078 Y-54.4677 F75.00
G01 X14.3051 Y-54.4532 F75.00
G01 X14.3028 Y-54.4437 F75.00
G01 X14.2983 Y-54.4296 F75.00
G01 X14.2928 Y-54.4160 F75.00
G01 X14.2864 Y-54.4027 F75.00
G01 X14.2815 Y-54.3942 F75.00
G01 X14.2763 Y-54.3859 F75.00
G01 X14.2677 Y-54.3740 F75.00
G01 X14.2582 Y-54.3627 F75.00
G01 X14.2479 Y-54.3521 F75.00
G01 X14.2369 Y-54.3424 F75.00
G01 X14.2252 Y-54.3335 F75.00
G01 X14.2170 Y-54.3280 F75.00
G01 X14.2043 Y-54.3206 F75.00
G01 X14.1955 Y-54.3162 F75.00
G01 X14.1820 Y-54.3104 F75.00
G01 X14.1681 Y-54.3056 F75.00
G01 X14.1538 Y-54.3019 F75.00
G01 X14.1345 Y-54.2985 F75.00
G01 X14.1247 Y-54.2975 F75.00
G01 X14.1100 Y-54.2970 F75.00
G01 X11.9700 Y-54.2970 F75.00
G01 X11.9553 Y-54.2975 F75.00
G01 X11.9455 Y-54.2985 F75.00
G01 X11.9358 Y-54.2999 F75.00
G01 X11.9214 Y-54.3030 F75.00
G01 X11.9073 Y-54.3071 F75.00
G01 X11.8890 Y-54.3142 F75.00
G01 X11.8757 Y-54.3206 F75.00
G01 X11.8630 Y-54.3280 F75.00
G01 X11.8509 Y-54.3364 F75.00
G01 X11.8394 Y-54.3456 F75.00
G01 X11.8286 Y-54.3556 F75.00
G01 X11.8186 Y-54.3664 F75.00
G01 X11.8094 Y-54.3779 F75.00
G01 X11.8010 Y-54.3900 F75.00
G01 X11.7936 Y-54.4027 F75.00
G01 X11.7852 Y-54.4205 F75.00
G01 X11.7786 Y-54.4389 F75.00
G01 X11.7749 Y-54.4532 F75.00
G01 X11.7722 Y-54.4677 F75.00
G01 X11.7705 Y-54.4823 F75.00
G01 X11.7700 Y-54.4970 F75.00
G01 X11.7701 Y-56.6419 F75.00
G01 X11.7715 Y-56.6615 F75.00
G01 X11.7749 Y-56.6808 F75.00
G01 X11.7801 Y-56.6997 F75.00
G01 X11.7872 Y-56.7180 F75.00
G01 X11.7960 Y-56.7356 F75.00
G01 X11.8037 Y-56.7481 F75.00
G01 X11.8154 Y-56.7639 F75.00
G01 X11.8286 Y-56.7784 F75.00
G01 X11.8431 Y-56.7916 F75.00
G01 X11.8589 Y-56.8033 F75.00
G01 X11.8757 Y-56.8134 F75.00
G01 X11.8935 Y-56.8218 F75.00
G01 X11.9119 Y-56.8284 F75.00
G01 X11.9310 Y-56.8332 F75.00
G01 X11.9504 Y-56.8360 F75.00
G01 X11.9700 Y-56.8370 F75.00
G00 Z2.0000
G00 X9.4300 Y-55.4670
G01 F45.00
G01 Z-0.0900
G01 F75.00
G01 X9.7997 Y-55.4670 F75.00
G01 X9.7997 Y-56.4705 F75.00
G01 X9.8031 Y-56.5391 F75.00
G01 X9.8115 Y-56.5974 F75.00
G01 X9.8154 Y-56.6167 F75.00
G01 X9.8299 Y-56.6738 F75.00
G01 X9.8495 Y-56.7293 F75.00
G01 X9.8570 Y-56.7474 F75.00
G01 X9.8824 Y-56.8006 F75.00
G01 X9.9125 Y-56.8512 F75.00
G01 X9.9234 Y-56.8676 F75.00
G01 X9.9587 Y-56.9147 F75.00
G01 X10.0048 Y-56.9657 F75.00
G01 X11.1410 Y-58.1018 F75.00
G01 X11.1845 Y-58.1415 F75.00
G01 X11.1997 Y-58.1540 F75.00
G01 X11.2471 Y-58.1889 F75.00
G01 X11.2975 Y-58.2194 F75.00
G01 X11.3148 Y-58.2286 F75.00
G01 X11.3682 Y-58.2536 F75.00
G01 X11.4236 Y-58.2737 F75.00
G01 X11.4423 Y-58.2794 F75.00
G01 X11.4995 Y-58.2934 F75.00
G01 X11.5675 Y-58.3035 F75.00
G01 X11.6362 Y-58.3069 F75.00
G01 X21.6741 Y-58.3068 F75.00
G01 X21.7378 Y-58.3035 F75.00
G01 X21.7961 Y-58.2951 F75.00
G01 X21.8153 Y-58.2913 F75.00
G01 X21.8724 Y-58.2767 F75.00
G01 X21.9280 Y-58.2571 F75.00
G01 X21.9461 Y-58.2496 F75.00
G01 X21.9949 Y-58.2265 F75.00
G01 X22.0078 Y-58.2194 F75.00
G01 X22.0582 Y-58.1889 F75.00
G01 X22.1134 Y-58.1480 F75.00
G01 X22.1608 Y-58.1052 F75.00
G01 X22.2589 Y-58.0073 F75.00
G01 X22.6358 Y-58.0073 F75.00
G01 X22.6358 Y-58.3819 F75.00
G01 X22.6367 Y-58.3966 F75.00
G01 X22.6387 Y-58.4112 F75.00
G01 X22.6417 Y-58.4256 F75.00
G01 X22.6444 Y-58.4351 F75.00
G01 X22.6492 Y-58.4490 F75.00
G01 X22.6550 Y-58.4625 F75.00
G01 X22.6617 Y-58.4756 F75.00
G01 X22.6695 Y-58.4881 F75.00
G01 X22.6781 Y-58.5000 F75.00
G01 X22.6843 Y-58.5076 F75.00
G01 X22.6943 Y-58.5184 F75.00
G01 X22.7051 Y-58.5284 F75.00
G01 X22.7166 Y-58.5376 F75.00
G01 X22.7288 Y-58.5460 F75.00
G01 X22.7415 Y-58.5534 F75.00
G01 X22.7502 Y-58.5578 F75.00
G01 X22.7592 Y-58.5618 F75.00
G01 X22.7730 Y-58.5669 F75.00
G01 X22.7872 Y-58.5710 F75.00
G01 X22.8016 Y-58.5741 F75.00
G01 X22.8161 Y-58.5760 F75.00
G01 X22.8358 Y-58.5770 F75.00
G01 X24.9758 Y-58.5770 F75.00
G01 X24.9905 Y-58.5765 F75.00
G01 X25.0051 Y-58.5748 F75.00
G01 X25.0196 Y-58.5721 F75.00
G01 X25.0385 Y-58.5669 F75.00
G01 X25.0523 Y-58.5618 F75.00
G01 X25.0657 Y-58.5556 F75.00
G01 X25.0828 Y-58.5460 F75.00
G01 X25.0949 Y-58.5376 F75.00
G01 X25.1064 Y-58.5284 F75.00
G01 X25.1172 Y-58.5184 F75.00
G01 X25.1272 Y-58.5076 F75.00
G01 X25.1364 Y-58.4961 F75.00
G01 X25.1473 Y-58.4798 F75.00
G01 X25.1565 Y-58.4625 F75.00
G01 X25.1623 Y-58.4490 F75.00
G01 X25.1671 Y-58.4351 F75.00
G01 X25.1719 Y-58.4160 F75.00
G01 X25.1748 Y-58.3966 F75.00
G01 X25.1758 Y-58.3770 F75.00
G01 X25.1758 Y-56.2370 F75.00
G01 X25.1752 Y-56.2223 F75.00
G01 X25.1728 Y-56.2028 F75.00
G01 X25.1698 Y-56.1884 F75.00
G01 X25.1641 Y-56.1696 F75.00
G01 X25.1586 Y-56.1560 F75.00
G01 X25.1521 Y-56.1427 F75.00
G01 X25.1420 Y-56.1259 F75.00
G01 X25.1334 Y-56.1140 F75.00
G01 X25.1206 Y-56.0991 F75.00
G01 X25.1064 Y-56.0856 F75.00
G01 X25.0949 Y-56.0764 F75.00
G01 X25.0828 Y-56.0680 F75.00
G01 X25.0657 Y-56.0584 F75.00
G01 X25.0523 Y-56.0522 F75.00
G01 X25.0338 Y-56.0456 F75.00
G01 X25.0196 Y-56.0419 F75.00
G01 X25.0002 Y-56.0385 F75.00
G01 X24.9905 Y-56.0375 F75.00
G01 X24.9758 Y-56.0370 F75.00
G01 X22.8358 Y-56.0370 F75.00
G01 X22.8259 Y-56.0372 F75.00
G01 X22.8113 Y-56.0385 F75.00
G01 X22.8016 Y-56.0399 F75.00
G01 X22.7872 Y-56.0430 F75.00
G01 X22.7777 Y-56.0456 F75.00
G01 X22.7638 Y-56.0504 F75.00
G01 X22.7502 Y-56.0562 F75.00
G01 X22.7372 Y-56.0630 F75.00
G01 X22.7246 Y-56.0707 F75.00
G01 X22.7166 Y-56.0764 F75.00
G01 X22.7051 Y-56.0856 F75.00
G01 X22.6978 Y-56.0922 F75.00
G01 X22.6876 Y-56.1027 F75.00
G01 X22.6811 Y-56.1101 F75.00
G01 X22.6722 Y-56.1218 F75.00
G01 X22.6642 Y-56.1342 F75.00
G01 X22.6571 Y-56.1471 F75.00
G01 X22.6529 Y-56.1560 F75.00
G01 X22.6474 Y-56.1696 F75.00
G01 X22.6430 Y-56.1837 F75.00
G01 X22.6406 Y-56.1932 F75.00
G01 X22.6379 Y-56.2077 F75.00
G01 X22.6363 Y-56.2223 F75.00
G01 X22.6358 Y-56.2321 F75.00
G01 X22.6358 Y-56.6068 F75.00
G01 X21.9639 Y-56.6068 F75.00
G01 X21.9002 Y-56.6101 F75.00
G01 X21.8419 Y-56.6185 F75.00
G01 X21.8226 Y-56.6224 F75.00
G01 X21.7655 Y-56.6369 F75.00
G01 X21.7008 Y-56.6601 F75.00
G01 X21.6387 Y-56.6894 F75.00
G01 X21.5839 Y-56.7221 F75.00
G01 X21.5717 Y-56.7304 F75.00
G01 X21.5323 Y-56.7597 F75.00
G01 X21.5171 Y-56.7721 F75.00
G01 X21.4772 Y-56.8084 F75.00
G01 X21.3791 Y-56.9064 F75.00
G01 X11.9262 Y-56.9064 F75.00
G01 X11.2003 Y-56.1804 F75.00
G01 X11.2003 Y-55.4670 F75.00
G01 X11.5749 Y-55.4669 F75.00
G01 X11.5896 Y-55.4660 F75.00
G01 X11.6042 Y-55.4641 F75.00
G01 X11.6186 Y-55.4610 F75.00
G01 X11.6281 Y-55.4584 F75.00
G01 X11.6420 Y-55.4536 F75.00
G01 X11.6555 Y-55.4478 F75.00
G01 X11.6643 Y-55.4434 F75.00
G01 X11.6770 Y-55.4360 F75.00
G01 X11.6891 Y-55.4276 F75.00
G01 X11.7006 Y-55.4184 F75.00
G01 X11.7114 Y-55.4084 F75.00
G01 X11.7214 Y-55.3976 F75.00
G01 X11.7306 Y-55.3861 F75.00
G01 X11.7390 Y-55.3740 F75.00
G01 X11.7464 Y-55.3613 F75.00
G01 X11.7528 Y-55.3480 F75.00
G01 X11.7583 Y-55.3344 F75.00
G01 X11.7628 Y-55.3203 F75.00
G01 X11.7662 Y-55.3060 F75.00
G01 X11.7685 Y-55.2915 F75.00
G01 X11.7695 Y-55.2817 F75.00
G01 X11.7700 Y-55.2670 F75.00
G01 X11.7700 Y-53.1270 F75.00
G01 X11.7695 Y-53.1123 F75.00
G01 X11.7671 Y-53.0928 F75.00
G01 X11.7640 Y-53.0784 F75.00
G01 X11.7583 Y-53.0596 F75.00
G01 X11.7528 Y-53.0460 F75.00
G01 X11.7464 Y-53.0327 F75.00
G01 X11.7390 Y-53.0200 F75.00
G01 X11.7277 Y-53.0040 F75.00
G01 X11.7182 Y-52.9927 F75.00
G01 X11.7079 Y-52.9821 F75.00
G01 X11.6969 Y-52.9724 F75.00
G01 X11.6852 Y-52.9635 F75.00
G01 X11.6686 Y-52.9530 F75.00
G01 X11.6555 Y-52.9462 F75.00
G01 X11.6420 Y-52.9404 F75.00
G01 X11.6233 Y-52.9342 F75.00
G01 X11.6090 Y-52.9308 F75.00
G01 X11.5896 Y-52.9280 F75.00
G01 X11.5700 Y-52.9270 F75.00
G01 X9.4251 Y-52.9271 F75.00
G01 X9.4055 Y-52.9285 F75.00
G01 X9.3862 Y-52.9319 F75.00
G01 X9.3673 Y-52.9371 F75.00
G01 X9.3535 Y-52.9422 F75.00
G01 X9.3445 Y-52.9462 F75.00
G01 X9.3272 Y-52.9555 F75.00
G01 X9.3109 Y-52.9664 F75.00
G01 X9.2957 Y-52.9788 F75.00
G01 X9.2886 Y-52.9856 F75.00
G01 X9.2786 Y-52.9964 F75.00
G01 X9.2694 Y-53.0079 F75.00
G01 X9.2585 Y-53.0242 F75.00
G01 X9.2492 Y-53.0415 F75.00
G01 X9.2434 Y-53.0550 F75.00
G01 X9.2386 Y-53.0689 F75.00
G01 X9.2338 Y-53.0880 F75.00
G01 X9.2315 Y-53.1025 F75.00
G01 X9.2301 Y-53.1221 F75.00
G01 X9.2302 Y-55.2768 F75.00
G01 X9.2322 Y-55.2963 F75.00
G01 X9.2360 Y-55.3156 F75.00
G01 X9.2417 Y-55.3344 F75.00
G01 X9.2472 Y-55.3480 F75.00
G01 X9.2560 Y-55.3656 F75.00
G01 X9.2665 Y-55.3822 F75.00
G01 X9.2786 Y-55.3976 F75.00
G01 X9.2921 Y-55.4118 F75.00
G01 X9.3070 Y-55.4247 F75.00
G01 X9.3230 Y-55.4360 F75.00
G01 X9.3401 Y-55.4456 F75.00
G01 X9.3580 Y-55.4536 F75.00
G01 X9.3767 Y-55.4598 F75.00
G01 X9.3958 Y-55.4641 F75.00
G01 X9.4153 Y-55.4665 F75.00
G01 X9.4300 Y-55.4670 F75.00
G00 Z2.0000
G00 X10.1701 Y-62.7019
G01 F45.00
G01 Z-0.0900
G01 F75.00
G01 X10.2058 Y-62.9390 F75.00
G01 X10.2765 Y-63.1681 F75.00
G01 X10.3806 Y-63.3842 F75.00
G01 X10.5156 Y-63.5823 F75.00
G01 X10.6787 Y-63.7581 F75.00
G01 X10.8662 Y-63.9076 F75.00
G01 X11.0739 Y-64.0275 F75.00
G01 X11.2971 Y-64.1151 F75.00
G01 X11.5309 Y-64.1685 F75.00
G01 X11.7101 Y-64.1819 F75.00
G01 X11.8299 Y-64.1819 F75.00
G01 X12.0091 Y-64.1685 F75.00
G01 X12.2429 Y-64.1151 F75.00
G01 X12.4661 Y-64.0275 F75.00
G01 X12.6738 Y-63.9076 F75.00
G01 X12.8613 Y-63.7581 F75.00
G01 X13.0244 Y-63.5823 F75.00
G01 X13.1594 Y-63.3842 F75.00
G01 X13.2635 Y-63.1681 F75.00
G01 X13.3342 Y-62.9390 F75.00
G01 X13.3699 Y-62.7019 F75.00
G01 X13.3699 Y-62.4621 F75.00
G01 X13.3342 Y-62.2250 F75.00
G01 X13.2635 Y-61.9959 F75.00
G01 X13.1594 Y-61.7798 F75.00
G01 X13.0244 Y-61.5817 F75.00
G01 X12.8613 Y-61.4059 F75.00
G01 X12.6738 Y-61.2564 F75.00
G01 X12.4661 Y-61.1365 F75.00
G01 X12.2429 Y-61.0489 F75.00
G01 X12.0091 Y-60.9955 F75.00
G01 X11.8299 Y-60.9821 F75.00
G01 X11.7101 Y-60.9821 F75.00
G01 X11.6799 Y-60.9844 F75.00
G01 X11.5309 Y-60.9955 F75.00
G01 X11.2971 Y-61.0489 F75.00
G01 X11.0739 Y-61.1365 F75.00
G01 X10.8662 Y-61.2564 F75.00
G01 X10.6787 Y-61.4059 F75.00
G01 X10.5156 Y-61.5817 F75.00
G01 X10.3806 Y-61.7798 F75.00
G01 X10.2765 Y-61.9959 F75.00
G01 X10.2058 Y-62.2250 F75.00
G01 X10.1701 Y-62.4621 F75.00
G01 X10.1701 Y-62.7019 F75.00
G00 Z2.0000
G00 X6.0180 Y-48.7269
G01 F45.00
G01 Z-0.0900
G01 F75.00
G01 X6.0211 Y-48.7857 F75.00
G01 X6.0312 Y-48.8537 F75.00
G01 X6.0479 Y-48.9203 F75.00
G01 X6.0711 Y-48.9850 F75.00
G01 X6.1004 Y-49.0471 F75.00
G01 X6.1358 Y-49.1061 F75.00
G01 X6.1767 Y-49.1613 F75.00
G01 X6.2194 Y-49.2087 F75.00
G01 X8.9663 Y-51.9556 F75.00
G01 X9.0137 Y-51.9983 F75.00
G01 X9.0609 Y-52.0336 F75.00
G01 X9.0730 Y-52.0419 F75.00
G01 X9.1193 Y-52.0697 F75.00
G01 X9.1366 Y-52.0790 F75.00
G01 X9.1900 Y-52.1039 F75.00
G01 X9.2300 Y-52.1185 F75.00
G01 X9.2300 Y-52.5270 F75.00
G01 X9.2305 Y-52.5417 F75.00
G01 X9.2322 Y-52.5563 F75.00
G01 X9.2360 Y-52.5756 F75.00
G01 X9.2417 Y-52.5944 F75.00
G01 X9.2492 Y-52.6125 F75.00
G01 X9.2560 Y-52.6256 F75.00
G01 X9.2610 Y-52.6340 F75.00
G01 X9.2723 Y-52.6500 F75.00
G01 X9.2852 Y-52.6649 F75.00
G01 X9.2994 Y-52.6784 F75.00
G01 X9.3109 Y-52.6876 F75.00
G01 X9.3189 Y-52.6933 F75.00
G01 X9.3272 Y-52.6985 F75.00
G01 X9.3401 Y-52.7056 F75.00
G01 X9.3535 Y-52.7118 F75.00
G01 X9.3673 Y-52.7169 F75.00
G01 X9.3814 Y-52.7210 F75.00
G01 X9.3958 Y-52.7241 F75.00
G01 X9.4104 Y-52.7260 F75.00
G01 X9.4251 Y-52.7269 F75.00
G01 X11.5749 Y-52.7269 F75.00
G01 X11.5896 Y-52.7260 F75.00
G01 X11.5993 Y-52.7248 F75.00
G01 X11.6138 Y-52.7221 F75.00
G01 X11.6233 Y-52.7198 F75.00
G01 X11.6327 Y-52.7169 F75.00
G01 X11.6465 Y-52.7118 F75.00
G01 X11.6643 Y-52.7034 F75.00
G01 X11.6770 Y-52.6960 F75.00
G01 X11.6852 Y-52.6905 F75.00
G01 X11.6969 Y-52.6816 F75.00
G01 X11.7043 Y-52.6752 F75.00
G01 X11.7114 Y-52.6684 F75.00
G01 X11.7214 Y-52.6576 F75.00
G01 X11.7306 Y-52.6461 F75.00
G01 X11.7363 Y-52.6381 F75.00
G01 X11.7440 Y-52.6256 F75.00
G01 X11.7508 Y-52.6125 F75.00
G01 X11.7566 Y-52.5990 F75.00
G01 X11.7614 Y-52.5851 F75.00
G01 X11.7651 Y-52.5708 F75.00
G01 X11.7671 Y-52.5612 F75.00
G01 X11.7690 Y-52.5466 F75.00
G01 X11.7699 Y-52.5319 F75.00
G01 X11.7700 Y-50.3870 F75.00
G01 X11.7695 Y-50.3723 F75.00
G01 X11.7685 Y-50.3625 F75.00
G01 X11.7651 Y-50.3432 F75.00
G01 X11.7599 Y-50.3243 F75.00
G01 X11.7528 Y-50.3060 F75.00
G01 X11.7440 Y-50.2884 F75.00
G01 X11.7335 Y-50.2718 F75.00
G01 X11.7214 Y-50.2564 F75.00
G01 X11.7079 Y-50.2422 F75.00
G01 X11.6930 Y-50.2293 F75.00
G01 X11.6770 Y-50.2180 F75.00
G01 X11.6599 Y-50.2084 F75.00
G01 X11.6465 Y-50.2022 F75.00
G01 X11.6327 Y-50.1971 F75.00
G01 X11.6138 Y-50.1919 F75.00
G01 X11.5945 Y-50.1885 F75.00
G01 X11.5749 Y-50.1871 F75.00
G01 X9.4251 Y-50.1871 F75.00
G01 X9.4104 Y-50.1880 F75.00
G01 X9.4007 Y-50.1892 F75.00
G01 X9.3814 Y-50.1930 F75.00
G01 X9.3719 Y-50.1956 F75.00
G01 X9.3580 Y-50.2004 F75.00
G01 X9.3490 Y-50.2042 F75.00
G01 X9.3357 Y-50.2106 F75.00
G01 X9.3230 Y-50.2180 F75.00
G01 X9.3148 Y-50.2235 F75.00
G01 X9.3070 Y-50.2293 F75.00
G01 X9.2957 Y-50.2388 F75.00
G01 X9.2852 Y-50.2491 F75.00
G01 X9.2786 Y-50.2564 F75.00
G01 X9.2723 Y-50.2640 F75.00
G01 X9.2651 Y-50.2738 F75.00
G01 X7.4183 Y-48.4270 F75.00
G01 X7.4183 Y-35.9901 F75.00
G01 X9.6881 Y-33.7203 F75.00
G01 X17.6467 Y-33.7203 F75.00
G01 X18.4448 Y-34.5183 F75.00
G01 X18.4450 Y-35.8778 F75.00
G01 X18.4463 Y-35.8925 F75.00
G01 X18.4477 Y-35.9022 F75.00
G01 X18.4507 Y-35.9166 F75.00
G01 X18.4534 Y-35.9261 F75.00
G01 X18.4564 Y-35.9354 F75.00
G01 X18.4619 Y-35.9490 F75.00
G01 X18.4707 Y-35.9666 F75.00
G01 X18.4785 Y-35.9791 F75.00
G01 X18.4841 Y-35.9871 F75.00
G01 X18.4933 Y-35.9986 F75.00
G01 X18.4999 Y-36.0059 F75.00
G01 X18.5141 Y-36.0194 F75.00
G01 X18.5256 Y-36.0286 F75.00
G01 X18.5336 Y-36.0343 F75.00
G01 X18.5462 Y-36.0420 F75.00
G01 X18.5592 Y-36.0488 F75.00
G01 X18.5682 Y-36.0528 F75.00
G01 X18.5820 Y-36.0579 F75.00
G01 X18.5962 Y-36.0620 F75.00
G01 X18.6106 Y-36.0651 F75.00
G01 X18.6251 Y-36.0670 F75.00
G01 X18.6398 Y-36.0679 F75.00
G01 X20.7946 Y-36.0678 F75.00
G01 X20.8092 Y-36.0665 F75.00
G01 X20.8286 Y-36.0631 F75.00
G01 X20.8475 Y-36.0579 F75.00
G01 X20.8613 Y-36.0528 F75.00
G01 X20.8747 Y-36.0466 F75.00
G01 X20.8918 Y-36.0370 F75.00
G01 X20.9039 Y-36.0286 F75.00
G01 X20.9191 Y-36.0162 F75.00
G01 X20.9296 Y-36.0059 F75.00
G01 X20.9424 Y-35.9910 F75.00
G01 X20.9537 Y-35.9750 F75.00
G01 X20.9611 Y-35.9623 F75.00
G01 X20.9676 Y-35.9490 F75.00
G01 X20.9747 Y-35.9307 F75.00
G01 X20.9799 Y-35.9118 F75.00
G01 X20.9826 Y-35.8973 F75.00
G01 X20.9842 Y-35.8827 F75.00
G01 X20.9848 Y-35.8680 F75.00
G01 X20.9847 Y-33.7231 F75.00
G01 X20.9838 Y-33.7084 F75.00
G01 X20.9818 Y-33.6938 F75.00
G01 X20.9788 Y-33.6794 F75.00
G01 X20.9747 Y-33.6653 F75.00
G01 X20.9695 Y-33.6515 F75.00
G01 X20.9634 Y-33.6381 F75.00
G01 X20.9563 Y-33.6252 F75.00
G01 X20.9483 Y-33.6128 F75.00
G01 X20.9424 Y-33.6050 F75.00
G01 X20.9329 Y-33.5937 F75.00
G01 X20.9191 Y-33.5798 F75.00
G01 X20.9116 Y-33.5734 F75.00
G01 X20.8999 Y-33.5645 F75.00
G01 X20.8833 Y-33.5540 F75.00
G01 X20.8658 Y-33.5452 F75.00
G01 X20.8521 Y-33.5397 F75.00
G01 X20.8428 Y-33.5366 F75.00
G01 X20.8333 Y-33.5340 F75.00
G01 X20.8189 Y-33.5309 F75.00
G01 X20.8092 Y-33.5295 F75.00
G01 X20.7946 Y-33.5282 F75.00
G01 X19.4351 Y-33.5280 F75.00
G01 X18.9271 Y-33.0200 F75.00
G01 X19.4351 Y-32.5120 F75.00
G01 X20.7946 Y-32.5118 F75.00
G01 X20.8044 Y-32.5110 F75.00
G01 X20.8189 Y-32.5091 F75.00
G01 X20.8381 Y-32.5048 F75.00
G01 X20.8475 Y-32.5019 F75.00
G01 X20.8613 Y-32.4968 F75.00
G01 X20.8703 Y-32.4928 F75.00
G01 X20.8833 Y-32.4860 F75.00
G01 X20.8918 Y-32.4810 F75.00
G01 X20.9039 Y-32.4726 F75.00
G01 X20.9116 Y-32.4666 F75.00
G01 X20.9227 Y-32.4568 F75.00
G01 X20.9296 Y-32.4499 F75.00
G01 X20.9394 Y-32.4389 F75.00
G01 X20.9454 Y-32.4311 F75.00
G01 X20.9537 Y-32.4190 F75.00
G01 X20.9611 Y-32.4063 F75.00
G01 X20.9676 Y-32.3930 F75.00
G01 X20.9731 Y-32.3794 F75.00
G01 X20.9761 Y-32.3701 F75.00
G01 X20.9799 Y-32.3558 F75.00
G01 X20.9818 Y-32.3462 F75.00
G01 X20.9838 Y-32.3316 F75.00
G01 X20.9847 Y-32.3169 F75.00
G01 X20.9847 Y-30.1671 F75.00
G01 X20.9838 Y-30.1524 F75.00
G01 X20.9818 Y-30.1378 F75.00
G01 X20.9799 Y-30.1282 F75.00
G01 X20.9761 Y-30.1139 F75.00
G01 X20.9713 Y-30.1000 F75.00
G01 X20.9655 Y-30.0865 F75.00
G01 X20.9588 Y-30.0734 F75.00
G01 X20.9510 Y-30.0609 F75.00
G01 X20.9424 Y-30.0490 F75.00
G01 X20.9329 Y-30.0377 F75.00
G01 X20.9227 Y-30.0272 F75.00
G01 X20.9116 Y-30.0174 F75.00
G01 X20.8999 Y-30.0085 F75.00
G01 X20.8876 Y-30.0005 F75.00
G01 X20.8790 Y-29.9956 F75.00
G01 X20.8658 Y-29.9892 F75.00
G01 X20.8521 Y-29.9837 F75.00
G01 X20.8428 Y-29.9806 F75.00
G01 X20.8238 Y-29.9758 F75.00
G01 X20.8044 Y-29.9730 F75.00
G01 X20.7848 Y-29.9720 F75.00
G01 X18.6448 Y-29.9720 F75.00
G01 X18.6300 Y-29.9725 F75.00
G01 X18.6154 Y-29.9742 F75.00
G01 X18.5962 Y-29.9780 F75.00
G01 X18.5820 Y-29.9821 F75.00
G01 X18.5682 Y-29.9872 F75.00
G01 X18.5548 Y-29.9934 F75.00
G01 X18.5378 Y-30.0030 F75.00
G01 X18.5256 Y-30.0114 F75.00
G01 X18.5179 Y-30.0174 F75.00
G01 X18.5068 Y-30.0272 F75.00
G01 X18.4933 Y-30.0414 F75.00
G01 X18.4871 Y-30.0490 F75.00
G01 X18.4785 Y-30.0609 F75.00
G01 X18.4684 Y-30.0777 F75.00
G01 X18.4600 Y-30.0955 F75.00
G01 X18.4564 Y-30.1046 F75.00
G01 X18.4520 Y-30.1187 F75.00
G01 X18.4486 Y-30.1330 F75.00
G01 X18.4469 Y-30.1427 F75.00
G01 X18.4450 Y-30.1622 F75.00
G01 X18.4448 Y-31.5217 F75.00
G01 X17.6467 Y-32.3197 F75.00
G01 X9.6881 Y-32.3197 F75.00
G01 X7.4183 Y-30.0499 F75.00
G01 X7.4183 Y-16.3828 F75.00
G01 X8.7201 Y-15.0810 F75.00
G01 X9.2300 Y-15.0810 F75.00
G01 X9.2301 Y-15.4557 F75.00
G01 X9.2305 Y-15.4655 F75.00
G01 X9.2322 Y-15.4801 F75.00
G01 X9.2349 Y-15.4946 F75.00
G01 X9.2386 Y-15.5088 F75.00
G01 X9.2434 Y-15.5227 F75.00
G01 X9.2492 Y-15.5363 F75.00
G01 X9.2560 Y-15.5493 F75.00
G01 X9.2610 Y-15.5577 F75.00
G01 X9.2694 Y-15.5699 F75.00
G01 X9.2754 Y-15.5776 F75.00
G01 X9.2852 Y-15.5887 F75.00
G01 X9.2957 Y-15.5989 F75.00
G01 X9.3031 Y-15.6054 F75.00
G01 X9.3148 Y-15.6143 F75.00
G01 X9.3272 Y-15.6223 F75.00
G01 X9.3401 Y-15.6294 F75.00
G01 X9.3535 Y-15.6355 F75.00
G01 X9.3673 Y-15.6407 F75.00
G01 X9.3814 Y-15.6448 F75.00
G01 X9.3958 Y-15.6478 F75.00
G01 X9.4153 Y-15.6502 F75.00
G01 X9.4300 Y-15.6507 F75.00
G01 X11.5749 Y-15.6507 F75.00
G01 X11.5896 Y-15.6498 F75.00
G01 X11.6042 Y-15.6478 F75.00
G01 X11.6233 Y-15.6435 F75.00
G01 X11.6374 Y-15.6391 F75.00
G01 X11.6510 Y-15.6336 F75.00
G01 X11.6686 Y-15.6248 F75.00
G01 X11.6811 Y-15.6170 F75.00
G01 X11.6930 Y-15.6084 F75.00
G01 X11.7079 Y-15.5956 F75.00
G01 X11.7182 Y-15.5851 F75.00
G01 X11.7246 Y-15.5776 F75.00
G01 X11.7306 Y-15.5699 F75.00
G01 X11.7390 Y-15.5577 F75.00
G01 X11.7486 Y-15.5407 F75.00
G01 X11.7566 Y-15.5227 F75.00
G01 X11.7614 Y-15.5088 F75.00
G01 X11.7640 Y-15.4993 F75.00
G01 X11.7671 Y-15.4849 F75.00
G01 X11.7685 Y-15.4752 F75.00
G01 X11.7699 Y-15.4557 F75.00
G01 X11.7698 Y-13.3009 F75.00
G01 X11.7685 Y-13.2863 F75.00
G01 X11.7651 Y-13.2669 F75.00
G01 X11.7614 Y-13.2527 F75.00
G01 X11.7548 Y-13.2342 F75.00
G01 X11.7464 Y-13.2165 F75.00
G01 X11.7390 Y-13.2038 F75.00
G01 X11.7277 Y-13.1877 F75.00
G01 X11.7182 Y-13.1764 F75.00
G01 X11.7043 Y-13.1626 F75.00
G01 X11.6930 Y-13.1531 F75.00
G01 X11.6770 Y-13.1418 F75.00
G01 X11.6643 Y-13.1344 F75.00
G01 X11.6465 Y-13.1260 F75.00
G01 X11.6327 Y-13.1208 F75.00
G01 X11.6138 Y-13.1156 F75.00
G01 X11.5993 Y-13.1129 F75.00
G01 X11.5847 Y-13.1113 F75.00
G01 X11.5700 Y-13.1108 F75.00
G01 X9.4300 Y-13.1108 F75.00
G01 X9.4104 Y-13.1117 F75.00
G01 X9.3958 Y-13.1137 F75.00
G01 X9.3814 Y-13.1167 F75.00
G01 X9.3719 Y-13.1194 F75.00
G01 X9.3580 Y-13.1242 F75.00
G01 X9.3445 Y-13.1300 F75.00
G01 X9.3314 Y-13.1367 F75.00
G01 X9.3189 Y-13.1445 F75.00
G01 X9.3109 Y-13.1501 F75.00
G01 X9.2994 Y-13.1593 F75.00
G01 X9.2886 Y-13.1693 F75.00
G01 X9.2818 Y-13.1764 F75.00
G01 X9.2723 Y-13.1877 F75.00
G01 X9.2637 Y-13.1996 F75.00
G01 X9.2560 Y-13.2122 F75.00
G01 X9.2492 Y-13.2252 F75.00
G01 X9.2434 Y-13.2388 F75.00
G01 X9.2386 Y-13.2527 F75.00
G01 X9.2349 Y-13.2669 F75.00
G01 X9.2322 Y-13.2814 F75.00
G01 X9.2310 Y-13.2911 F75.00
G01 X9.2301 Y-13.3058 F75.00
G01 X9.2300 Y-13.6805 F75.00
G01 X8.4300 Y-13.6805 F75.00
G01 X8.3663 Y-13.6835 F75.00
G01 X8.3516 Y-13.6851 F75.00
G01 X8.2934 Y-13.6940 F75.00
G01 X8.2267 Y-13.7107 F75.00
G01 X8.1620 Y-13.7338 F75.00
G01 X8.1043 Y-13.7609 F75.00
G01 X8.0914 Y-13.7680 F75.00
G01 X8.0493 Y-13.7933 F75.00
G01 X8.0329 Y-13.8042 F75.00
G01 X7.9858 Y-13.8394 F75.00
G01 X7.9348 Y-13.8856 F75.00
G01 X6.2194 Y-15.6011 F75.00
G01 X6.1767 Y-15.6485 F75.00
G01 X6.1414 Y-15.6957 F75.00
G01 X6.1305 Y-15.7120 F75.00
G01 X6.1004 Y-15.7627 F75.00
G01 X6.0711 Y-15.8248 F75.00
G01 X6.0510 Y-15.8802 F75.00
G01 X6.0465 Y-15.8942 F75.00
G01 X6.0334 Y-15.9466 F75.00
G01 X6.0295 Y-15.9658 F75.00
G01 X6.0211 Y-16.0241 F75.00
G01 X6.0177 Y-16.0928 F75.00
G01 X6.0177 Y-30.3400 F75.00
G01 X6.0204 Y-30.3988 F75.00
G01 X6.0223 Y-30.4184 F75.00
G01 X6.0312 Y-30.4766 F75.00
G01 X6.0465 Y-30.5386 F75.00
G01 X6.0510 Y-30.5526 F75.00
G01 X6.0675 Y-30.5988 F75.00
G01 X6.0750 Y-30.6169 F75.00
G01 X6.1004 Y-30.6701 F75.00
G01 X6.1358 Y-30.7290 F75.00
G01 X6.1767 Y-30.7842 F75.00
G01 X6.2161 Y-30.8280 F75.00
G01 X8.4077 Y-33.0200 F75.00
G01 X6.2194 Y-35.2084 F75.00
G01 X6.1767 Y-35.2558 F75.00
G01 X6.1414 Y-35.3029 F75.00
G01 X6.1305 Y-35.3193 F75.00
G01 X6.1004 Y-35.3699 F75.00
G01 X6.0711 Y-35.4320 F75.00
G01 X6.0510 Y-35.4874 F75.00
G01 X6.0465 Y-35.5014 F75.00
G01 X6.0334 Y-35.5538 F75.00
G01 X6.0295 Y-35.5731 F75.00
G01 X6.0211 Y-35.6314 F75.00
G01 X6.0177 Y-35.7000 F75.00
G01 X6.0180 Y-48.7269 F75.00
G00 Z2.0000
G00 X7.4280 Y-48.1428
G01 F45.00
G01 Z-0.0900
G01 F75.00
G01 X7.4311 Y-48.2016 F75.00
G01 X7.4412 Y-48.2696 F75.00
G01 X7.4579 Y-48.3363 F75.00
G01 X7.4775 Y-48.3918 F75.00
G01 X7.4850 Y-48.4099 F75.00
G01 X7.5082 Y-48.4587 F75.00
G01 X7.5153 Y-48.4716 F75.00
G01 X7.5458 Y-48.5220 F75.00
G01 X7.5836 Y-48.5734 F75.00
G01 X7.5931 Y-48.5847 F75.00
G01 X7.6328 Y-48.6282 F75.00
G01 X8.2168 Y-49.2122 F75.00
G01 X8.2678 Y-49.2583 F75.00
G01 X8.3189 Y-49.2965 F75.00
G01 X8.3313 Y-49.3045 F75.00
G01 X8.3819 Y-49.3346 F75.00
G01 X8.4351 Y-49.3600 F75.00
G01 X8.4532 Y-49.3675 F75.00
G01 X8.5087 Y-49.3871 F75.00
G01 X8.5658 Y-49.4016 F75.00
G01 X8.5851 Y-49.4055 F75.00
G01 X8.6385 Y-49.4133 F75.00
G01 X8.6532 Y-49.4146 F75.00
G01 X8.7120 Y-49.4173 F75.00
G01 X9.2300 Y-49.4173 F75.00
G01 X9.2300 Y-49.7870 F75.00
G01 X9.2305 Y-49.8017 F75.00
G01 X9.2315 Y-49.8115 F75.00
G01 X9.2349 Y-49.8308 F75.00
G01 X9.2386 Y-49.8451 F75.00
G01 X9.2417 Y-49.8544 F75.00
G01 X9.2472 Y-49.8680 F75.00
G01 X9.2514 Y-49.8769 F75.00
G01 X9.2585 Y-49.8898 F75.00
G01 X9.2637 Y-49.8981 F75.00
G01 X9.2723 Y-49.9100 F75.00
G01 X9.2786 Y-49.9176 F75.00
G01 X9.2886 Y-49.9284 F75.00
G01 X9.2957 Y-49.9352 F75.00
G01 X9.3070 Y-49.9447 F75.00
G01 X9.3148 Y-49.9505 F75.00
G01 X9.3230 Y-49.9560 F75.00
G01 X9.3357 Y-49.9634 F75.00
G01 X9.3445 Y-49.9678 F75.00
G01 X9.3580 Y-49.9736 F75.00
G01 X9.3767 Y-49.9798 F75.00
G01 X9.3958 Y-49.9841 F75.00
G01 X9.4104 Y-49.9860 F75.00
G01 X9.4300 Y-49.9870 F75.00
G01 X11.5798 Y-49.9868 F75.00
G01 X11.5896 Y-49.9860 F75.00
G01 X11.6042 Y-49.9841 F75.00
G01 X11.6186 Y-49.9810 F75.00
G01 X11.6327 Y-49.9769 F75.00
G01 X11.6465 Y-49.9718 F75.00
G01 X11.6599 Y-49.9656 F75.00
G01 X11.6728 Y-49.9585 F75.00
G01 X11.6852 Y-49.9505 F75.00
G01 X11.6969 Y-49.9416 F75.00
G01 X11.7079 Y-49.9318 F75.00
G01 X11.7182 Y-49.9213 F75.00
G01 X11.7277 Y-49.9100 F75.00
G01 X11.7363 Y-49.8981 F75.00
G01 X11.7440 Y-49.8856 F75.00
G01 X11.7508 Y-49.8725 F75.00
G01 X11.7566 Y-49.8590 F75.00
G01 X11.7628 Y-49.8403 F75.00
G01 X11.7671 Y-49.8212 F75.00
G01 X11.7695 Y-49.8017 F75.00
G01 X11.7700 Y-49.7870 F75.00
G01 X11.7699 Y-47.6421 F75.00
G01 X11.7685 Y-47.6225 F75.00
G01 X11.7671 Y-47.6128 F75.00
G01 X11.7640 Y-47.5984 F75.00
G01 X11.7614 Y-47.5889 F75.00
G01 X11.7566 Y-47.5750 F75.00
G01 X11.7528 Y-47.5660 F75.00
G01 X11.7464 Y-47.5527 F75.00
G01 X11.7390 Y-47.5400 F75.00
G01 X11.7335 Y-47.5318 F75.00
G01 X11.7277 Y-47.5240 F75.00
G01 X11.7182 Y-47.5127 F75.00
G01 X11.7114 Y-47.5056 F75.00
G01 X11.7006 Y-47.4956 F75.00
G01 X11.6852 Y-47.4835 F75.00
G01 X11.6728 Y-47.4755 F75.00
G01 X11.6599 Y-47.4684 F75.00
G01 X11.6465 Y-47.4622 F75.00
G01 X11.6327 Y-47.4571 F75.00
G01 X11.6186 Y-47.4530 F75.00
G01 X11.6042 Y-47.4499 F75.00
G01 X11.5896 Y-47.4480 F75.00
G01 X11.5749 Y-47.4471 F75.00
G01 X9.4300 Y-47.4470 F75.00
G01 X9.4202 Y-47.4472 F75.00
G01 X9.4055 Y-47.4485 F75.00
G01 X9.3910 Y-47.4508 F75.00
G01 X9.3767 Y-47.4542 F75.00
G01 X9.3626 Y-47.4587 F75.00
G01 X9.3490 Y-47.4642 F75.00
G01 X9.3357 Y-47.4706 F75.00
G01 X9.3230 Y-47.4780 F75.00
G01 X9.3109 Y-47.4864 F75.00
G01 X9.2994 Y-47.4956 F75.00
G01 X9.2886 Y-47.5056 F75.00
G01 X9.2786 Y-47.5164 F75.00
G01 X9.2694 Y-47.5279 F75.00
G01 X9.2610 Y-47.5400 F75.00
G01 X9.2560 Y-47.5484 F75.00
G01 X9.2492 Y-47.5615 F75.00
G01 X9.2434 Y-47.5750 F75.00
G01 X9.2386 Y-47.5889 F75.00
G01 X9.2349 Y-47.6032 F75.00
G01 X9.2322 Y-47.6177 F75.00
G01 X9.2310 Y-47.6274 F75.00
G01 X9.2301 Y-47.6421 F75.00
G01 X9.2300 Y-48.0167 F75.00
G01 X9.0021 Y-48.0167 F75.00
G01 X8.8283 Y-47.8429 F75.00
G01 X8.8283 Y-37.6281 F75.00
G01 X10.7041 Y-35.7523 F75.00
G01 X15.4579 Y-35.7523 F75.00
G01 X17.5388 Y-37.8332 F75.00
G01 X17.5823 Y-37.8729 F75.00
G01 X17.5975 Y-37.8853 F75.00
G01 X17.6409 Y-37.9175 F75.00
G01 X17.6533 Y-37.9255 F75.00
G01 X17.6954 Y-37.9507 F75.00
G01 X17.7083 Y-37.9578 F75.00
G01 X17.7571 Y-37.9810 F75.00
G01 X17.7752 Y-37.9885 F75.00
G01 X17.8307 Y-38.0081 F75.00
G01 X17.8974 Y-38.0248 F75.00
G01 X17.9654 Y-38.0349 F75.00
G01 X18.0340 Y-38.0383 F75.00
G01 X21.5949 Y-38.0382 F75.00
G01 X21.6586 Y-38.0349 F75.00
G01 X21.7266 Y-38.0248 F75.00
G01 X21.7933 Y-38.0081 F75.00
G01 X21.8534 Y-37.9868 F75.00
G01 X21.8669 Y-37.9810 F75.00
G01 X21.9201 Y-37.9556 F75.00
G01 X21.9790 Y-37.9202 F75.00
G01 X22.0342 Y-37.8793 F75.00
G01 X22.0816 Y-37.8366 F75.00
G01 X22.7533 Y-37.1649 F75.00
G01 X22.7896 Y-37.1249 F75.00
G01 X22.8021 Y-37.1097 F75.00
G01 X22.8370 Y-37.0623 F75.00
G01 X22.8699 Y-37.0076 F75.00
G01 X22.8767 Y-36.9946 F75.00
G01 X22.9017 Y-36.9412 F75.00
G01 X22.9248 Y-36.8765 F75.00
G01 X22.9415 Y-36.8099 F75.00
G01 X22.9516 Y-36.7419 F75.00
G01 X22.9550 Y-36.6732 F75.00
G01 X22.9550 Y-36.0680 F75.00
G01 X23.3297 Y-36.0679 F75.00
G01 X23.3444 Y-36.0670 F75.00
G01 X23.3589 Y-36.0651 F75.00
G01 X23.3733 Y-36.0620 F75.00
G01 X23.3828 Y-36.0594 F75.00
G01 X23.3967 Y-36.0546 F75.00
G01 X23.4103 Y-36.0488 F75.00
G01 X23.4190 Y-36.0444 F75.00
G01 X23.4318 Y-36.0370 F75.00
G01 X23.4439 Y-36.0286 F75.00
G01 X23.4554 Y-36.0194 F75.00
G01 X23.4662 Y-36.0094 F75.00
G01 X23.4762 Y-35.9986 F75.00
G01 X23.4854 Y-35.9871 F75.00
G01 X23.4937 Y-35.9750 F75.00
G01 X23.5011 Y-35.9623 F75.00
G01 X23.5076 Y-35.9490 F75.00
G01 X23.5131 Y-35.9354 F75.00
G01 X23.5175 Y-35.9213 F75.00
G01 X23.5209 Y-35.9070 F75.00
G01 X23.5232 Y-35.8925 F75.00
G01 X23.5242 Y-35.8827 F75.00
G01 X23.5248 Y-35.8680 F75.00
G01 X23.5248 Y-33.7280 F75.00
G01 X23.5245 Y-33.7182 F75.00
G01 X23.5232 Y-33.7035 F75.00
G01 X23.5209 Y-33.6890 F75.00
G01 X23.5188 Y-33.6794 F75.00
G01 X23.5147 Y-33.6653 F75.00
G01 X23.5113 Y-33.6560 F75.00
G01 X23.5055 Y-33.6425 F75.00
G01 X23.4988 Y-33.6294 F75.00
G01 X23.4937 Y-33.6210 F75.00
G01 X23.4854 Y-33.6089 F75.00
G01 X23.4762 Y-33.5974 F75.00
G01 X23.4662 Y-33.5866 F75.00
G01 X23.4591 Y-33.5798 F75.00
G01 X23.4478 Y-33.5703 F75.00
G01 X23.4359 Y-33.5617 F75.00
G01 X23.4233 Y-33.5540 F75.00
G01 X23.4103 Y-33.5472 F75.00
G01 X23.4013 Y-33.5432 F75.00
G01 X23.3921 Y-33.5397 F75.00
G01 X23.3781 Y-33.5352 F75.00
G01 X23.3686 Y-33.5329 F75.00
G01 X23.3541 Y-33.5302 F75.00
G01 X23.3395 Y-33.5285 F75.00
G01 X23.3297 Y-33.5281 F75.00
G01 X22.9550 Y-33.5280 F75.00
