(G-CODE GENERATED BY FLATCAM v8.994 - www.flatcam.org - Version Date: 2020/11/7)

(Name: Combo_Gerber_iso_combined_cnc)
(Type: G-code from Geometry)
(Units: MM)

(Created on Tuesday, 02 April 2024 at 21:28)

(This preprocessor is used with a motion controller loaded with GRBL firmware.)
(It is configured to be compatible with almost any version of GRBL firmware.)

(TOOL DIAMETER: 0.3 mm)
(Feedrate_XY: 35.0 mm/min)
(Feedrate_Z: 45.0 mm/min)
(Feedrate rapids 1500.0 mm/min)

(Z_Cut: -0.09 mm)
(Z_Move: 2.0 mm)
(Z Start: None mm)
(Z End: 15.0 mm)
(X,Y End: 0.0000, 0.0000 mm)
(Steps per circle: 64)
(Steps per circle: 64)
(Preprocessor Geometry: GRBL_11_no_M6)

(X range:   -0.1495 ...   91.3995  mm)
(Y range:  -65.8995 ...    0.1495  mm)

(Spindle Speed: 0.0 RPM)
G21
G90
G17
G94


G01 F35.00

M5             
G00 Z15.0000
G00 X0.0000 Y0.0000                
T1
(MSG, Change to Tool Dia = 0.3000)
M0
G00 Z15.0000
        
M03
G01 F35.00
G00 X-0.1495 Y-0.2045
G01 F45.00
G01 Z-0.0900
G01 F35.00
G01 X-0.1495 Y-65.5455 F35.00
G01 X-0.1489 Y-65.5589 F35.00
G01 X-0.1430 Y-65.6113 F35.00
G01 X-0.1411 Y-65.6219 F35.00
G01 X-0.1375 Y-65.6359 F35.00
G01 X-0.1339 Y-65.6461 F35.00
G01 X-0.1295 Y-65.6560 F35.00
G01 X-0.0901 Y-65.7378 F35.00
G01 X-0.0849 Y-65.7477 F35.00
G01 X-0.0789 Y-65.7572 F35.00
G01 X-0.0723 Y-65.7662 F35.00
G01 X-0.0650 Y-65.7747 F35.00
G01 X-0.0570 Y-65.7826 F35.00
G01 X-0.0485 Y-65.7900 F35.00
G01 X0.0284 Y-65.8511 F35.00
G01 X0.0410 Y-65.8592 F35.00
G01 X0.0509 Y-65.8644 F35.00
G01 X0.0612 Y-65.8689 F35.00
G01 X0.0754 Y-65.8737 F35.00
G01 X0.1748 Y-65.8965 F35.00
G01 X0.1896 Y-65.8988 F35.00
G01 X0.2045 Y-65.8995 F35.00
G01 X30.0455 Y-65.8995 F35.00
G01 X30.0589 Y-65.8989 F35.00
G01 X30.1113 Y-65.8930 F35.00
G01 X30.1254 Y-65.8904 F35.00
G01 X30.1393 Y-65.8864 F35.00
G01 X30.1461 Y-65.8839 F35.00
G01 X30.1560 Y-65.8795 F35.00
G01 X30.2378 Y-65.8401 F35.00
G01 X30.2509 Y-65.8330 F35.00
G01 X30.2603 Y-65.8268 F35.00
G01 X30.2691 Y-65.8199 F35.00
G01 X30.2747 Y-65.8150 F35.00
G01 X30.2852 Y-65.8042 F35.00
G01 X30.3511 Y-65.7216 F35.00
G01 X30.3592 Y-65.7090 F35.00
G01 X30.3660 Y-65.6957 F35.00
G01 X30.3715 Y-65.6818 F35.00
G01 X30.3757 Y-65.6668 F35.00
G01 X30.4133 Y-65.7444 F35.00
G01 X30.4211 Y-65.7572 F35.00
G01 X30.4301 Y-65.7691 F35.00
G01 X30.4376 Y-65.7774 F35.00
G01 X30.4486 Y-65.7876 F35.00
G01 X30.5284 Y-65.8511 F35.00
G01 X30.5410 Y-65.8592 F35.00
G01 X30.5509 Y-65.8644 F35.00
G01 X30.5612 Y-65.8689 F35.00
G01 X30.5754 Y-65.8737 F35.00
G01 X30.6748 Y-65.8965 F35.00
G01 X30.6896 Y-65.8988 F35.00
G01 X30.7045 Y-65.8995 F35.00
G01 X60.5455 Y-65.8995 F35.00
G01 X60.5589 Y-65.8989 F35.00
G01 X60.6113 Y-65.8930 F35.00
G01 X60.6254 Y-65.8904 F35.00
G01 X60.6393 Y-65.8864 F35.00
G01 X60.6494 Y-65.8825 F35.00
G01 X60.6560 Y-65.8795 F35.00
G01 X60.7378 Y-65.8401 F35.00
G01 X60.7509 Y-65.8330 F35.00
G01 X60.7603 Y-65.8268 F35.00
G01 X60.7662 Y-65.8223 F35.00
G01 X60.7747 Y-65.8150 F35.00
G01 X60.7852 Y-65.8042 F35.00
G01 X60.8511 Y-65.7216 F35.00
G01 X60.8592 Y-65.7090 F35.00
G01 X60.8660 Y-65.6957 F35.00
G01 X60.8715 Y-65.6818 F35.00
G01 X60.8757 Y-65.6668 F35.00
G01 X60.9133 Y-65.7444 F35.00
G01 X60.9211 Y-65.7572 F35.00
G01 X60.9301 Y-65.7691 F35.00
G01 X60.9376 Y-65.7774 F35.00
G01 X60.9486 Y-65.7876 F35.00
G01 X61.0284 Y-65.8511 F35.00
G01 X61.0410 Y-65.8592 F35.00
G01 X61.0509 Y-65.8644 F35.00
G01 X61.0612 Y-65.8689 F35.00
G01 X61.0754 Y-65.8737 F35.00
G01 X61.1748 Y-65.8965 F35.00
G01 X61.1896 Y-65.8988 F35.00
G01 X61.2045 Y-65.8995 F35.00
G01 X91.0455 Y-65.8995 F35.00
G01 X91.0589 Y-65.8989 F35.00
G01 X91.1113 Y-65.8930 F35.00
G01 X91.1254 Y-65.8904 F35.00
G01 X91.1359 Y-65.8875 F35.00
G01 X91.1461 Y-65.8839 F35.00
G01 X91.1560 Y-65.8795 F35.00
G01 X91.2378 Y-65.8401 F35.00
G01 X91.2477 Y-65.8349 F35.00
G01 X91.2572 Y-65.8289 F35.00
G01 X91.2662 Y-65.8223 F35.00
G01 X91.2747 Y-65.8150 F35.00
G01 X91.2826 Y-65.8070 F35.00
G01 X91.2900 Y-65.7985 F35.00
G01 X91.3511 Y-65.7216 F35.00
G01 X91.3573 Y-65.7122 F35.00
G01 X91.3644 Y-65.6991 F35.00
G01 X91.3703 Y-65.6853 F35.00
G01 X91.3737 Y-65.6746 F35.00
G01 X91.3965 Y-65.5752 F35.00
G01 X91.3988 Y-65.5604 F35.00
G01 X91.3995 Y-65.5455 F35.00
G01 X91.3995 Y-0.2045 F35.00
G01 X91.3989 Y-0.1911 F35.00
G01 X91.3930 Y-0.1387 F35.00
G01 X91.3911 Y-0.1281 F35.00
G01 X91.3875 Y-0.1141 F35.00
G01 X91.3839 Y-0.1039 F35.00
G01 X91.3795 Y-0.0940 F35.00
G01 X91.3401 Y-0.0122 F35.00
G01 X91.3349 Y-0.0023 F35.00
G01 X91.3289 Y0.0072 F35.00
G01 X91.3223 Y0.0162 F35.00
G01 X91.3150 Y0.0247 F35.00
G01 X91.3070 Y0.0326 F35.00
G01 X91.2985 Y0.0400 F35.00
G01 X91.2216 Y0.1011 F35.00
G01 X91.2122 Y0.1073 F35.00
G01 X91.1991 Y0.1144 F35.00
G01 X91.1853 Y0.1203 F35.00
G01 X91.1746 Y0.1237 F35.00
G01 X91.0752 Y0.1465 F35.00
G01 X91.0604 Y0.1488 F35.00
G01 X91.0455 Y0.1495 F35.00
G01 X61.2045 Y0.1495 F35.00
G01 X61.1911 Y0.1489 F35.00
G01 X61.1387 Y0.1430 F35.00
G01 X61.1246 Y0.1404 F35.00
G01 X61.1107 Y0.1364 F35.00
G01 X61.1039 Y0.1339 F35.00
G01 X61.0940 Y0.1295 F35.00
G01 X61.0122 Y0.0901 F35.00
G01 X61.0023 Y0.0849 F35.00
G01 X60.9897 Y0.0768 F35.00
G01 X60.9781 Y0.0675 F35.00
G01 X60.9726 Y0.0624 F35.00
G01 X60.9648 Y0.0542 F35.00
G01 X60.8989 Y-0.0284 F35.00
G01 X60.8908 Y-0.0410 F35.00
G01 X60.8840 Y-0.0543 F35.00
G01 X60.8785 Y-0.0682 F35.00
G01 X60.8743 Y-0.0832 F35.00
G01 X60.8367 Y-0.0056 F35.00
G01 X60.8289 Y0.0072 F35.00
G01 X60.8199 Y0.0191 F35.00
G01 X60.8124 Y0.0274 F35.00
G01 X60.8014 Y0.0376 F35.00
G01 X60.7216 Y0.1011 F35.00
G01 X60.7090 Y0.1092 F35.00
G01 X60.6991 Y0.1144 F35.00
G01 X60.6853 Y0.1203 F35.00
G01 X60.6746 Y0.1237 F35.00
G01 X60.5752 Y0.1465 F35.00
G01 X60.5604 Y0.1488 F35.00
G01 X60.5455 Y0.1495 F35.00
G01 X30.7045 Y0.1495 F35.00
G01 X30.6911 Y0.1489 F35.00
G01 X30.6387 Y0.1430 F35.00
G01 X30.6246 Y0.1404 F35.00
G01 X30.6107 Y0.1364 F35.00
G01 X30.6006 Y0.1325 F35.00
G01 X30.5940 Y0.1295 F35.00
G01 X30.5122 Y0.0901 F35.00
G01 X30.5023 Y0.0849 F35.00
G01 X30.4897 Y0.0768 F35.00
G01 X30.4781 Y0.0675 F35.00
G01 X30.4699 Y0.0597 F35.00
G01 X30.4648 Y0.0542 F35.00
G01 X30.3989 Y-0.0284 F35.00
G01 X30.3908 Y-0.0410 F35.00
G01 X30.3840 Y-0.0543 F35.00
G01 X30.3785 Y-0.0682 F35.00
G01 X30.3743 Y-0.0832 F35.00
G01 X30.3367 Y-0.0056 F35.00
G01 X30.3289 Y0.0072 F35.00
G01 X30.3199 Y0.0191 F35.00
G01 X30.3124 Y0.0274 F35.00
G01 X30.3014 Y0.0376 F35.00
G01 X30.2216 Y0.1011 F35.00
G01 X30.2090 Y0.1092 F35.00
G01 X30.1991 Y0.1144 F35.00
G01 X30.1853 Y0.1203 F35.00
G01 X30.1746 Y0.1237 F35.00
G01 X30.0752 Y0.1465 F35.00
G01 X30.0604 Y0.1488 F35.00
G01 X30.0455 Y0.1495 F35.00
G01 X0.2045 Y0.1495 F35.00
G01 X0.1877 Y0.1486 F35.00
G01 X0.1352 Y0.1425 F35.00
G01 X0.1281 Y0.1411 F35.00
G01 X0.1176 Y0.1385 F35.00
G01 X0.1039 Y0.1339 F35.00
G01 X0.0940 Y0.1295 F35.00
G01 X0.0056 Y0.0867 F35.00
G01 X-0.0041 Y0.0810 F35.00
G01 X-0.0133 Y0.0746 F35.00
G01 X-0.0219 Y0.0675 F35.00
G01 X-0.0301 Y0.0597 F35.00
G01 X-0.0400 Y0.0485 F35.00
G01 X-0.0989 Y-0.0254 F35.00
G01 X-0.1073 Y-0.0378 F35.00
G01 X-0.1128 Y-0.0476 F35.00
G01 X-0.1160 Y-0.0543 F35.00
G01 X-0.1203 Y-0.0647 F35.00
G01 X-0.1247 Y-0.0790 F35.00
G01 X-0.1457 Y-0.1711 F35.00
G01 X-0.1483 Y-0.1858 F35.00
G01 X-0.1493 Y-0.1970 F35.00
G01 X-0.1495 Y-0.2045 F35.00
G00 Z2.0000
G00 X10.1201 Y-3.3794
G01 F45.00
G01 Z-0.0900
G01 F35.00
G01 X10.1570 Y-3.6239 F35.00
G01 X10.2298 Y-3.8602 F35.00
G01 X10.3371 Y-4.0830 F35.00
G01 X10.4764 Y-4.2873 F35.00
G01 X10.6446 Y-4.4686 F35.00
G01 X10.8380 Y-4.6228 F35.00
G01 X11.0521 Y-4.7464 F35.00
G01 X11.2823 Y-4.8368 F35.00
G01 X11.5234 Y-4.8918 F35.00
G01 X11.7083 Y-4.9057 F35.00
G01 X11.8317 Y-4.9057 F35.00
G01 X12.0166 Y-4.8918 F35.00
G01 X12.2577 Y-4.8368 F35.00
G01 X12.4879 Y-4.7464 F35.00
G01 X12.7020 Y-4.6228 F35.00
G01 X12.8954 Y-4.4686 F35.00
G01 X13.0636 Y-4.2873 F35.00
G01 X13.2029 Y-4.0830 F35.00
G01 X13.3102 Y-3.8602 F35.00
G01 X13.3830 Y-3.6239 F35.00
G01 X13.4199 Y-3.3794 F35.00
G01 X13.4199 Y-3.1321 F35.00
G01 X13.3830 Y-2.8876 F35.00
G01 X13.3102 Y-2.6513 F35.00
G01 X13.2029 Y-2.4285 F35.00
G01 X13.0636 Y-2.2242 F35.00
G01 X12.8954 Y-2.0429 F35.00
G01 X12.7020 Y-1.8887 F35.00
G01 X12.4879 Y-1.7651 F35.00
G01 X12.2577 Y-1.6747 F35.00
G01 X12.0166 Y-1.6197 F35.00
G01 X11.8317 Y-1.6058 F35.00
G01 X11.7083 Y-1.6058 F35.00
G01 X11.6761 Y-1.6083 F35.00
G01 X11.5234 Y-1.6197 F35.00
G01 X11.2823 Y-1.6747 F35.00
G01 X11.0521 Y-1.7651 F35.00
G01 X10.8380 Y-1.8887 F35.00
G01 X10.6446 Y-2.0429 F35.00
G01 X10.4764 Y-2.2242 F35.00
G01 X10.3371 Y-2.4285 F35.00
G01 X10.2298 Y-2.6513 F35.00
G01 X10.1570 Y-2.8876 F35.00
G01 X10.1201 Y-3.1321 F35.00
G01 X10.1201 Y-3.3794 F35.00
G00 Z2.0000
G00 X14.2600 Y-11.3408
G01 F45.00
G01 Z-0.0900
G01 F35.00
G01 X14.2600 Y-10.9210 F35.00
G01 X20.1658 Y-10.9210 F35.00
G01 X20.7790 Y-11.5342 F35.00
G01 X20.8234 Y-11.5747 F35.00
G01 X20.8320 Y-11.5816 F35.00
G01 X20.8775 Y-11.6151 F35.00
G01 X20.9322 Y-11.6479 F35.00
G01 X20.9899 Y-11.6752 F35.00
G01 X21.0465 Y-11.6955 F35.00
G01 X21.0571 Y-11.6986 F35.00
G01 X21.1047 Y-11.7105 F35.00
G01 X21.1191 Y-11.7134 F35.00
G01 X21.1750 Y-11.7215 F35.00
G01 X21.2351 Y-11.7246 F35.00
G01 X22.6858 Y-11.7247 F35.00
G01 X22.6858 Y-12.1444 F35.00
G01 X22.6865 Y-12.1591 F35.00
G01 X22.6886 Y-12.1737 F35.00
G01 X22.6912 Y-12.1844 F35.00
G01 X22.6945 Y-12.1949 F35.00
G01 X22.6972 Y-12.2018 F35.00
G01 X22.7018 Y-12.2118 F35.00
G01 X22.7071 Y-12.2215 F35.00
G01 X22.7131 Y-12.2308 F35.00
G01 X22.7198 Y-12.2396 F35.00
G01 X22.7271 Y-12.2478 F35.00
G01 X22.7323 Y-12.2530 F35.00
G01 X22.7406 Y-12.2604 F35.00
G01 X22.7494 Y-12.2670 F35.00
G01 X22.7586 Y-12.2731 F35.00
G01 X22.7683 Y-12.2784 F35.00
G01 X22.7750 Y-12.2815 F35.00
G01 X22.7852 Y-12.2856 F35.00
G01 X22.7957 Y-12.2890 F35.00
G01 X22.8029 Y-12.2908 F35.00
G01 X22.8137 Y-12.2928 F35.00
G01 X22.8247 Y-12.2940 F35.00
G01 X22.8358 Y-12.2944 F35.00
G01 X24.9758 Y-12.2944 F35.00
G01 X24.9868 Y-12.2940 F35.00
G01 X24.9941 Y-12.2933 F35.00
G01 X25.0050 Y-12.2915 F35.00
G01 X25.0193 Y-12.2879 F35.00
G01 X25.0332 Y-12.2830 F35.00
G01 X25.0432 Y-12.2784 F35.00
G01 X25.0529 Y-12.2731 F35.00
G01 X25.0651 Y-12.2649 F35.00
G01 X25.0737 Y-12.2580 F35.00
G01 X25.0844 Y-12.2478 F35.00
G01 X25.0940 Y-12.2367 F35.00
G01 X25.1025 Y-12.2246 F35.00
G01 X25.1097 Y-12.2118 F35.00
G01 X25.1143 Y-12.2018 F35.00
G01 X25.1193 Y-12.1879 F35.00
G01 X25.1221 Y-12.1773 F35.00
G01 X25.1241 Y-12.1664 F35.00
G01 X25.1256 Y-12.1518 F35.00
G01 X25.1258 Y-10.0044 F35.00
G01 X25.1256 Y-9.9970 F35.00
G01 X25.1246 Y-9.9860 F35.00
G01 X25.1221 Y-9.9715 F35.00
G01 X25.1193 Y-9.9609 F35.00
G01 X25.1143 Y-9.9470 F35.00
G01 X25.1097 Y-9.9370 F35.00
G01 X25.1025 Y-9.9242 F35.00
G01 X25.0962 Y-9.9150 F35.00
G01 X25.0869 Y-9.9037 F35.00
G01 X25.0765 Y-9.8933 F35.00
G01 X25.0680 Y-9.8861 F35.00
G01 X25.0560 Y-9.8777 F35.00
G01 X25.0432 Y-9.8704 F35.00
G01 X25.0332 Y-9.8658 F35.00
G01 X25.0228 Y-9.8620 F35.00
G01 X25.0086 Y-9.8580 F35.00
G01 X24.9978 Y-9.8560 F35.00
G01 X24.9831 Y-9.8546 F35.00
G01 X22.8358 Y-9.8544 F35.00
G01 X22.8284 Y-9.8546 F35.00
G01 X22.8174 Y-9.8555 F35.00
G01 X22.8029 Y-9.8580 F35.00
G01 X22.7922 Y-9.8609 F35.00
G01 X22.7818 Y-9.8645 F35.00
G01 X22.7716 Y-9.8688 F35.00
G01 X22.7618 Y-9.8739 F35.00
G01 X22.7524 Y-9.8797 F35.00
G01 X22.7435 Y-9.8861 F35.00
G01 X22.7350 Y-9.8933 F35.00
G01 X22.7271 Y-9.9010 F35.00
G01 X22.7198 Y-9.9092 F35.00
G01 X22.7131 Y-9.9180 F35.00
G01 X22.7071 Y-9.9273 F35.00
G01 X22.7018 Y-9.9370 F35.00
G01 X22.6972 Y-9.9470 F35.00
G01 X22.6933 Y-9.9573 F35.00
G01 X22.6894 Y-9.9715 F35.00
G01 X22.6869 Y-9.9860 F35.00
G01 X22.6859 Y-9.9970 F35.00
G01 X22.6858 Y-10.0044 F35.00
G01 X22.6858 Y-10.4241 F35.00
G01 X21.5081 Y-10.4241 F35.00
G01 X20.8949 Y-9.8110 F35.00
G01 X20.8532 Y-9.7729 F35.00
G01 X20.8447 Y-9.7658 F35.00
G01 X20.7964 Y-9.7301 F35.00
G01 X20.7480 Y-9.7009 F35.00
G01 X20.7351 Y-9.6940 F35.00
G01 X20.6839 Y-9.6700 F35.00
G01 X20.6309 Y-9.6508 F35.00
G01 X20.6168 Y-9.6465 F35.00
G01 X20.5620 Y-9.6330 F35.00
G01 X20.5061 Y-9.6245 F35.00
G01 X20.4915 Y-9.6231 F35.00
G01 X20.4351 Y-9.6205 F35.00
G01 X14.2600 Y-9.6205 F35.00
G01 X14.2600 Y-9.2008 F35.00
G01 X14.2593 Y-9.1860 F35.00
G01 X14.2571 Y-9.1715 F35.00
G01 X14.2546 Y-9.1607 F35.00
G01 X14.2512 Y-9.1502 F35.00
G01 X14.2486 Y-9.1433 F35.00
G01 X14.2440 Y-9.1333 F35.00
G01 X14.2387 Y-9.1236 F35.00
G01 X14.2326 Y-9.1144 F35.00
G01 X14.2260 Y-9.1056 F35.00
G01 X14.2186 Y-9.0973 F35.00
G01 X14.2107 Y-9.0896 F35.00
G01 X14.2023 Y-9.0825 F35.00
G01 X14.1933 Y-9.0760 F35.00
G01 X14.1839 Y-9.0702 F35.00
G01 X14.1741 Y-9.0652 F35.00
G01 X14.1640 Y-9.0608 F35.00
G01 X14.1535 Y-9.0572 F35.00
G01 X14.1429 Y-9.0544 F35.00
G01 X14.1320 Y-9.0524 F35.00
G01 X14.1247 Y-9.0515 F35.00
G01 X14.1100 Y-9.0508 F35.00
G01 X11.9663 Y-9.0508 F35.00
G01 X11.9516 Y-9.0519 F35.00
G01 X11.9371 Y-9.0544 F35.00
G01 X11.9229 Y-9.0583 F35.00
G01 X11.9092 Y-9.0636 F35.00
G01 X11.8961 Y-9.0702 F35.00
G01 X11.8836 Y-9.0781 F35.00
G01 X11.8720 Y-9.0872 F35.00
G01 X11.8614 Y-9.0973 F35.00
G01 X11.8517 Y-9.1085 F35.00
G01 X11.8433 Y-9.1205 F35.00
G01 X11.8360 Y-9.1333 F35.00
G01 X11.8314 Y-9.1433 F35.00
G01 X11.8265 Y-9.1572 F35.00
G01 X11.8229 Y-9.1715 F35.00
G01 X11.8211 Y-9.1824 F35.00
G01 X11.8200 Y-9.1971 F35.00
G01 X11.8200 Y-11.3408 F35.00
G01 X11.8207 Y-11.3555 F35.00
G01 X11.8229 Y-11.3700 F35.00
G01 X11.8265 Y-11.3843 F35.00
G01 X11.8314 Y-11.3982 F35.00
G01 X11.8360 Y-11.4082 F35.00
G01 X11.8395 Y-11.4147 F35.00
G01 X11.8474 Y-11.4271 F35.00
G01 X11.8564 Y-11.4387 F35.00
G01 X11.8666 Y-11.4494 F35.00
G01 X11.8748 Y-11.4567 F35.00
G01 X11.8867 Y-11.4655 F35.00
G01 X11.8993 Y-11.4730 F35.00
G01 X11.9126 Y-11.4793 F35.00
G01 X11.9229 Y-11.4832 F35.00
G01 X11.9371 Y-11.4871 F35.00
G01 X11.9516 Y-11.4896 F35.00
G01 X11.9663 Y-11.4907 F35.00
G01 X14.1174 Y-11.4906 F35.00
G01 X14.1284 Y-11.4896 F35.00
G01 X14.1429 Y-11.4871 F35.00
G01 X14.1571 Y-11.4832 F35.00
G01 X14.1708 Y-11.4779 F35.00
G01 X14.1839 Y-11.4713 F35.00
G01 X14.1964 Y-11.4634 F35.00
G01 X14.2080 Y-11.4543 F35.00
G01 X14.2186 Y-11.4442 F35.00
G01 X14.2283 Y-11.4330 F35.00
G01 X14.2347 Y-11.4241 F35.00
G01 X14.2423 Y-11.4115 F35.00
G01 X14.2486 Y-11.3982 F35.00
G01 X14.2535 Y-11.3843 F35.00
G01 X14.2571 Y-11.3700 F35.00
G01 X14.2593 Y-11.3555 F35.00
G01 X14.2600 Y-11.3408 F35.00
G00 Z2.0000
G00 X11.9700 Y-14.2307
G01 F45.00
G01 Z-0.0900
G01 F35.00
G01 X14.1100 Y-14.2307 F35.00
G01 X14.1174 Y-14.2306 F35.00
G01 X14.1284 Y-14.2296 F35.00
G01 X14.1393 Y-14.2279 F35.00
G01 X14.1464 Y-14.2263 F35.00
G01 X14.1535 Y-14.2243 F35.00
G01 X14.1640 Y-14.2207 F35.00
G01 X14.1741 Y-14.2163 F35.00
G01 X14.1839 Y-14.2113 F35.00
G01 X14.1933 Y-14.2055 F35.00
G01 X14.2023 Y-14.1990 F35.00
G01 X14.2107 Y-14.1919 F35.00
G01 X14.2186 Y-14.1842 F35.00
G01 X14.2236 Y-14.1787 F35.00
G01 X14.2305 Y-14.1701 F35.00
G01 X14.2367 Y-14.1610 F35.00
G01 X14.2423 Y-14.1515 F35.00
G01 X14.2471 Y-14.1415 F35.00
G01 X14.2512 Y-14.1313 F35.00
G01 X14.2546 Y-14.1208 F35.00
G01 X14.2571 Y-14.1100 F35.00
G01 X14.2593 Y-14.0955 F35.00
G01 X14.2600 Y-14.0807 F35.00
G01 X14.2600 Y-13.6610 F35.00
G01 X20.3150 Y-13.6610 F35.00
G01 X20.7282 Y-14.0742 F35.00
G01 X20.7754 Y-14.1171 F35.00
G01 X20.8267 Y-14.1551 F35.00
G01 X20.8814 Y-14.1879 F35.00
G01 X20.9391 Y-14.2152 F35.00
G01 X20.9922 Y-14.2343 F35.00
G01 X21.0063 Y-14.2386 F35.00
G01 X21.0611 Y-14.2522 F35.00
G01 X21.1169 Y-14.2606 F35.00
G01 X21.1316 Y-14.2621 F35.00
G01 X21.1843 Y-14.2646 F35.00
G01 X22.6858 Y-14.2647 F35.00
G01 X22.6858 Y-14.6844 F35.00
G01 X22.6865 Y-14.6991 F35.00
G01 X22.6886 Y-14.7137 F35.00
G01 X22.6912 Y-14.7244 F35.00
G01 X22.6945 Y-14.7349 F35.00
G01 X22.6972 Y-14.7418 F35.00
G01 X22.7018 Y-14.7518 F35.00
G01 X22.7071 Y-14.7615 F35.00
G01 X22.7131 Y-14.7708 F35.00
G01 X22.7198 Y-14.7796 F35.00
G01 X22.7271 Y-14.7878 F35.00
G01 X22.7323 Y-14.7930 F35.00
G01 X22.7406 Y-14.8004 F35.00
G01 X22.7494 Y-14.8070 F35.00
G01 X22.7586 Y-14.8131 F35.00
G01 X22.7683 Y-14.8184 F35.00
G01 X22.7783 Y-14.8230 F35.00
G01 X22.7887 Y-14.8268 F35.00
G01 X22.7993 Y-14.8299 F35.00
G01 X22.8101 Y-14.8322 F35.00
G01 X22.8174 Y-14.8333 F35.00
G01 X22.8247 Y-14.8340 F35.00
G01 X22.8358 Y-14.8344 F35.00
G01 X24.9758 Y-14.8344 F35.00
G01 X24.9868 Y-14.8340 F35.00
G01 X24.9941 Y-14.8333 F35.00
G01 X25.0050 Y-14.8315 F35.00
G01 X25.0193 Y-14.8279 F35.00
G01 X25.0332 Y-14.8230 F35.00
G01 X25.0432 Y-14.8184 F35.00
G01 X25.0529 Y-14.8131 F35.00
G01 X25.0651 Y-14.8049 F35.00
G01 X25.0737 Y-14.7980 F35.00
G01 X25.0844 Y-14.7878 F35.00
G01 X25.0940 Y-14.7767 F35.00
G01 X25.1025 Y-14.7646 F35.00
G01 X25.1097 Y-14.7518 F35.00
G01 X25.1143 Y-14.7418 F35.00
G01 X25.1193 Y-14.7279 F35.00
G01 X25.1221 Y-14.7173 F35.00
G01 X25.1241 Y-14.7064 F35.00
G01 X25.1256 Y-14.6918 F35.00
G01 X25.1258 Y-12.5444 F35.00
G01 X25.1256 Y-12.5370 F35.00
G01 X25.1246 Y-12.5260 F35.00
G01 X25.1221 Y-12.5115 F35.00
G01 X25.1193 Y-12.5009 F35.00
G01 X25.1143 Y-12.4870 F35.00
G01 X25.1097 Y-12.4770 F35.00
G01 X25.1025 Y-12.4642 F35.00
G01 X25.0962 Y-12.4550 F35.00
G01 X25.0869 Y-12.4437 F35.00
G01 X25.0765 Y-12.4333 F35.00
G01 X25.0680 Y-12.4261 F35.00
G01 X25.0560 Y-12.4177 F35.00
G01 X25.0432 Y-12.4104 F35.00
G01 X25.0332 Y-12.4058 F35.00
G01 X25.0228 Y-12.4020 F35.00
G01 X25.0086 Y-12.3980 F35.00
G01 X24.9978 Y-12.3960 F35.00
G01 X24.9831 Y-12.3946 F35.00
G01 X22.8358 Y-12.3944 F35.00
G01 X22.8284 Y-12.3946 F35.00
G01 X22.8174 Y-12.3955 F35.00
G01 X22.8029 Y-12.3980 F35.00
G01 X22.7922 Y-12.4009 F35.00
G01 X22.7818 Y-12.4045 F35.00
G01 X22.7716 Y-12.4088 F35.00
G01 X22.7618 Y-12.4139 F35.00
G01 X22.7524 Y-12.4197 F35.00
G01 X22.7435 Y-12.4261 F35.00
G01 X22.7350 Y-12.4333 F35.00
G01 X22.7271 Y-12.4410 F35.00
G01 X22.7198 Y-12.4492 F35.00
G01 X22.7131 Y-12.4580 F35.00
G01 X22.7071 Y-12.4673 F35.00
G01 X22.7018 Y-12.4770 F35.00
G01 X22.6972 Y-12.4870 F35.00
G01 X22.6933 Y-12.4973 F35.00
G01 X22.6894 Y-12.5115 F35.00
G01 X22.6869 Y-12.5260 F35.00
G01 X22.6859 Y-12.5370 F35.00
G01 X22.6858 Y-12.5444 F35.00
G01 X22.6858 Y-12.9641 F35.00
G01 X21.4573 Y-12.9641 F35.00
G01 X21.0441 Y-12.5510 F35.00
G01 X21.0024 Y-12.5129 F35.00
G01 X20.9910 Y-12.5036 F35.00
G01 X20.9456 Y-12.4701 F35.00
G01 X20.8972 Y-12.4409 F35.00
G01 X20.8843 Y-12.4340 F35.00
G01 X20.8331 Y-12.4100 F35.00
G01 X20.7800 Y-12.3908 F35.00
G01 X20.7660 Y-12.3865 F35.00
G01 X20.7112 Y-12.3730 F35.00
G01 X20.6517 Y-12.3640 F35.00
G01 X20.6407 Y-12.3631 F35.00
G01 X20.5843 Y-12.3605 F35.00
G01 X14.2600 Y-12.3605 F35.00
G01 X14.2600 Y-11.9408 F35.00
G01 X14.2593 Y-11.9260 F35.00
G01 X14.2571 Y-11.9115 F35.00
G01 X14.2546 Y-11.9007 F35.00
G01 X14.2512 Y-11.8902 F35.00
G01 X14.2486 Y-11.8833 F35.00
G01 X14.2440 Y-11.8733 F35.00
G01 X14.2387 Y-11.8636 F35.00
G01 X14.2326 Y-11.8544 F35.00
G01 X14.2260 Y-11.8456 F35.00
G01 X14.2186 Y-11.8373 F35.00
G01 X14.2107 Y-11.8296 F35.00
G01 X14.2023 Y-11.8225 F35.00
G01 X14.1964 Y-11.8181 F35.00
G01 X14.1871 Y-11.8121 F35.00
G01 X14.1774 Y-11.8068 F35.00
G01 X14.1674 Y-11.8022 F35.00
G01 X14.1571 Y-11.7983 F35.00
G01 X14.1464 Y-11.7952 F35.00
G01 X14.1393 Y-11.7936 F35.00
G01 X14.1284 Y-11.7919 F35.00
G01 X14.1210 Y-11.7912 F35.00
G01 X14.1100 Y-11.7908 F35.00
G01 X11.9700 Y-11.7908 F35.00
G01 X11.9590 Y-11.7912 F35.00
G01 X11.9516 Y-11.7919 F35.00
G01 X11.9407 Y-11.7936 F35.00
G01 X11.9265 Y-11.7972 F35.00
G01 X11.9126 Y-11.8022 F35.00
G01 X11.9026 Y-11.8068 F35.00
G01 X11.8898 Y-11.8140 F35.00
G01 X11.8777 Y-11.8225 F35.00
G01 X11.8693 Y-11.8296 F35.00
G01 X11.8589 Y-11.8400 F35.00
G01 X11.8517 Y-11.8485 F35.00
G01 X11.8433 Y-11.8605 F35.00
G01 X11.8360 Y-11.8733 F35.00
G01 X11.8314 Y-11.8833 F35.00
G01 X11.8276 Y-11.8937 F35.00
G01 X11.8236 Y-11.9079 F35.00
G01 X11.8216 Y-11.9187 F35.00
G01 X11.8202 Y-11.9334 F35.00
G01 X11.8200 Y-14.0807 F35.00
G01 X11.8207 Y-14.0955 F35.00
G01 X11.8229 Y-14.1100 F35.00
G01 X11.8265 Y-14.1243 F35.00
G01 X11.8314 Y-14.1382 F35.00
G01 X11.8377 Y-14.1515 F35.00
G01 X11.8453 Y-14.1641 F35.00
G01 X11.8540 Y-14.1759 F35.00
G01 X11.8639 Y-14.1868 F35.00
G01 X11.8748 Y-14.1967 F35.00
G01 X11.8867 Y-14.2055 F35.00
G01 X11.8993 Y-14.2130 F35.00
G01 X11.9126 Y-14.2193 F35.00
G01 X11.9265 Y-14.2243 F35.00
G01 X11.9407 Y-14.2279 F35.00
G01 X11.9553 Y-14.2300 F35.00
G01 X11.9700 Y-14.2307 F35.00
G00 Z2.0000
G00 X11.8200 Y-14.6808
G01 F45.00
G01 Z-0.0900
G01 F35.00
G01 X11.8202 Y-16.8281 F35.00
G01 X11.8216 Y-16.8428 F35.00
G01 X11.8236 Y-16.8536 F35.00
G01 X11.8276 Y-16.8678 F35.00
G01 X11.8314 Y-16.8782 F35.00
G01 X11.8360 Y-16.8882 F35.00
G01 X11.8413 Y-16.8979 F35.00
G01 X11.8495 Y-16.9101 F35.00
G01 X11.8564 Y-16.9187 F35.00
G01 X11.8639 Y-16.9268 F35.00
G01 X11.8748 Y-16.9367 F35.00
G01 X11.8836 Y-16.9434 F35.00
G01 X11.8961 Y-16.9513 F35.00
G01 X11.9059 Y-16.9563 F35.00
G01 X11.9160 Y-16.9607 F35.00
G01 X11.9300 Y-16.9653 F35.00
G01 X11.9407 Y-16.9679 F35.00
G01 X11.9553 Y-16.9700 F35.00
G01 X11.9700 Y-16.9707 F35.00
G01 X14.1100 Y-16.9707 F35.00
G01 X14.1174 Y-16.9706 F35.00
G01 X14.1284 Y-16.9696 F35.00
G01 X14.1356 Y-16.9685 F35.00
G01 X14.1464 Y-16.9663 F35.00
G01 X14.1571 Y-16.9632 F35.00
G01 X14.1640 Y-16.9607 F35.00
G01 X14.1741 Y-16.9563 F35.00
G01 X14.1839 Y-16.9513 F35.00
G01 X14.1933 Y-16.9455 F35.00
G01 X14.2023 Y-16.9390 F35.00
G01 X14.2107 Y-16.9319 F35.00
G01 X14.2186 Y-16.9242 F35.00
G01 X14.2260 Y-16.9159 F35.00
G01 X14.2326 Y-16.9071 F35.00
G01 X14.2387 Y-16.8979 F35.00
G01 X14.2440 Y-16.8882 F35.00
G01 X14.2486 Y-16.8782 F35.00
G01 X14.2524 Y-16.8678 F35.00
G01 X14.2555 Y-16.8572 F35.00
G01 X14.2571 Y-16.8500 F35.00
G01 X14.2593 Y-16.8355 F35.00
G01 X14.2600 Y-16.8207 F35.00
G01 X14.2600 Y-16.4010 F35.00
G01 X20.4642 Y-16.4010 F35.00
G01 X20.6800 Y-16.6168 F35.00
G01 X20.7246 Y-16.6571 F35.00
G01 X20.7729 Y-16.6930 F35.00
G01 X20.7821 Y-16.6990 F35.00
G01 X20.8306 Y-16.7279 F35.00
G01 X20.8883 Y-16.7552 F35.00
G01 X20.9484 Y-16.7767 F35.00
G01 X21.0031 Y-16.7905 F35.00
G01 X21.0139 Y-16.7928 F35.00
G01 X21.0734 Y-16.8015 F35.00
G01 X21.1372 Y-16.8047 F35.00
G01 X22.6858 Y-16.8047 F35.00
G01 X22.6858 Y-17.2244 F35.00
G01 X22.6865 Y-17.2391 F35.00
G01 X22.6874 Y-17.2464 F35.00
G01 X22.6894 Y-17.2573 F35.00
G01 X22.6922 Y-17.2679 F35.00
G01 X22.6958 Y-17.2784 F35.00
G01 X22.7002 Y-17.2885 F35.00
G01 X22.7052 Y-17.2983 F35.00
G01 X22.7110 Y-17.3077 F35.00
G01 X22.7175 Y-17.3167 F35.00
G01 X22.7246 Y-17.3251 F35.00
G01 X22.7323 Y-17.3330 F35.00
G01 X22.7406 Y-17.3404 F35.00
G01 X22.7494 Y-17.3470 F35.00
G01 X22.7586 Y-17.3531 F35.00
G01 X22.7683 Y-17.3584 F35.00
G01 X22.7783 Y-17.3630 F35.00
G01 X22.7887 Y-17.3668 F35.00
G01 X22.7993 Y-17.3699 F35.00
G01 X22.8101 Y-17.3722 F35.00
G01 X22.8210 Y-17.3737 F35.00
G01 X22.8358 Y-17.3744 F35.00
G01 X24.9831 Y-17.3742 F35.00
G01 X24.9978 Y-17.3728 F35.00
G01 X25.0086 Y-17.3708 F35.00
G01 X25.0193 Y-17.3679 F35.00
G01 X25.0332 Y-17.3630 F35.00
G01 X25.0432 Y-17.3584 F35.00
G01 X25.0529 Y-17.3531 F35.00
G01 X25.0621 Y-17.3470 F35.00
G01 X25.0737 Y-17.3380 F35.00
G01 X25.0844 Y-17.3278 F35.00
G01 X25.0917 Y-17.3196 F35.00
G01 X25.0984 Y-17.3108 F35.00
G01 X25.1063 Y-17.2983 F35.00
G01 X25.1113 Y-17.2885 F35.00
G01 X25.1157 Y-17.2784 F35.00
G01 X25.1203 Y-17.2644 F35.00
G01 X25.1229 Y-17.2537 F35.00
G01 X25.1250 Y-17.2391 F35.00
G01 X25.1258 Y-17.2244 F35.00
G01 X25.1256 Y-15.0770 F35.00
G01 X25.1241 Y-15.0624 F35.00
G01 X25.1221 Y-15.0515 F35.00
G01 X25.1193 Y-15.0409 F35.00
G01 X25.1143 Y-15.0270 F35.00
G01 X25.1097 Y-15.0170 F35.00
G01 X25.1025 Y-15.0042 F35.00
G01 X25.0962 Y-14.9950 F35.00
G01 X25.0893 Y-14.9864 F35.00
G01 X25.0818 Y-14.9783 F35.00
G01 X25.0737 Y-14.9708 F35.00
G01 X25.0621 Y-14.9618 F35.00
G01 X25.0529 Y-14.9557 F35.00
G01 X25.0432 Y-14.9504 F35.00
G01 X25.0297 Y-14.9445 F35.00
G01 X25.0193 Y-14.9409 F35.00
G01 X25.0050 Y-14.9373 F35.00
G01 X24.9905 Y-14.9351 F35.00
G01 X24.9758 Y-14.9344 F35.00
G01 X22.8358 Y-14.9344 F35.00
G01 X22.8247 Y-14.9348 F35.00
G01 X22.8137 Y-14.9360 F35.00
G01 X22.8029 Y-14.9380 F35.00
G01 X22.7922 Y-14.9409 F35.00
G01 X22.7818 Y-14.9445 F35.00
G01 X22.7716 Y-14.9488 F35.00
G01 X22.7618 Y-14.9539 F35.00
G01 X22.7524 Y-14.9597 F35.00
G01 X22.7435 Y-14.9661 F35.00
G01 X22.7350 Y-14.9733 F35.00
G01 X22.7271 Y-14.9810 F35.00
G01 X22.7198 Y-14.9892 F35.00
G01 X22.7131 Y-14.9980 F35.00
G01 X22.7071 Y-15.0073 F35.00
G01 X22.7018 Y-15.0170 F35.00
G01 X22.6972 Y-15.0270 F35.00
G01 X22.6933 Y-15.0373 F35.00
G01 X22.6894 Y-15.0515 F35.00
G01 X22.6869 Y-15.0660 F35.00
G01 X22.6859 Y-15.0770 F35.00
G01 X22.6858 Y-15.0844 F35.00
G01 X22.6858 Y-15.5041 F35.00
G01 X21.4065 Y-15.5041 F35.00
G01 X21.1907 Y-15.2884 F35.00
G01 X21.1460 Y-15.2481 F35.00
G01 X21.0948 Y-15.2101 F35.00
G01 X21.0464 Y-15.1809 F35.00
G01 X21.0335 Y-15.1740 F35.00
G01 X20.9823 Y-15.1500 F35.00
G01 X20.9292 Y-15.1308 F35.00
G01 X20.9152 Y-15.1265 F35.00
G01 X20.8604 Y-15.1130 F35.00
G01 X20.8045 Y-15.1045 F35.00
G01 X20.7936 Y-15.1033 F35.00
G01 X20.7335 Y-15.1005 F35.00
G01 X14.2600 Y-15.1005 F35.00
G01 X14.2600 Y-14.6808 F35.00
G01 X14.2593 Y-14.6660 F35.00
G01 X14.2584 Y-14.6587 F35.00
G01 X14.2564 Y-14.6479 F35.00
G01 X14.2535 Y-14.6372 F35.00
G01 X14.2499 Y-14.6268 F35.00
G01 X14.2456 Y-14.6166 F35.00
G01 X14.2405 Y-14.6068 F35.00
G01 X14.2347 Y-14.5974 F35.00
G01 X14.2283 Y-14.5885 F35.00
G01 X14.2211 Y-14.5800 F35.00
G01 X14.2134 Y-14.5721 F35.00
G01 X14.2052 Y-14.5648 F35.00
G01 X14.1964 Y-14.5581 F35.00
G01 X14.1871 Y-14.5521 F35.00
G01 X14.1774 Y-14.5468 F35.00
G01 X14.1674 Y-14.5422 F35.00
G01 X14.1571 Y-14.5383 F35.00
G01 X14.1464 Y-14.5352 F35.00
G01 X14.1356 Y-14.5330 F35.00
G01 X14.1210 Y-14.5312 F35.00
G01 X14.1100 Y-14.5308 F35.00
G01 X11.9700 Y-14.5308 F35.00
G01 X11.9590 Y-14.5312 F35.00
G01 X11.9444 Y-14.5330 F35.00
G01 X11.9300 Y-14.5362 F35.00
G01 X11.9160 Y-14.5408 F35.00
G01 X11.9026 Y-14.5468 F35.00
G01 X11.8898 Y-14.5540 F35.00
G01 X11.8777 Y-14.5625 F35.00
G01 X11.8693 Y-14.5696 F35.00
G01 X11.8589 Y-14.5800 F35.00
G01 X11.8517 Y-14.5885 F35.00
G01 X11.8433 Y-14.6005 F35.00
G01 X11.8360 Y-14.6133 F35.00
G01 X11.8301 Y-14.6268 F35.00
G01 X11.8265 Y-14.6372 F35.00
G01 X11.8229 Y-14.6515 F35.00
G01 X11.8207 Y-14.6660 F35.00
G01 X11.8200 Y-14.6808 F35.00
G00 Z2.0000
G00 X9.4300 Y-12.8608
G01 F45.00
G01 Z-0.0900
G01 F35.00
G01 X11.5737 Y-12.8607 F35.00
G01 X11.5810 Y-12.8603 F35.00
G01 X11.5920 Y-12.8591 F35.00
G01 X11.6029 Y-12.8571 F35.00
G01 X11.6135 Y-12.8543 F35.00
G01 X11.6240 Y-12.8507 F35.00
G01 X11.6308 Y-12.8479 F35.00
G01 X11.6374 Y-12.8447 F35.00
G01 X11.6471 Y-12.8394 F35.00
G01 X11.6564 Y-12.8334 F35.00
G01 X11.6623 Y-12.8290 F35.00
G01 X11.6707 Y-12.8219 F35.00
G01 X11.6786 Y-12.8142 F35.00
G01 X11.6836 Y-12.8087 F35.00
G01 X11.6905 Y-12.8001 F35.00
G01 X11.6967 Y-12.7910 F35.00
G01 X11.7005 Y-12.7847 F35.00
G01 X11.7056 Y-12.7749 F35.00
G01 X11.7086 Y-12.7682 F35.00
G01 X11.7124 Y-12.7578 F35.00
G01 X11.7155 Y-12.7472 F35.00
G01 X11.7171 Y-12.7400 F35.00
G01 X11.7189 Y-12.7291 F35.00
G01 X11.7196 Y-12.7218 F35.00
G01 X11.7200 Y-12.7108 F35.00
G01 X11.7200 Y-10.5708 F35.00
G01 X11.7193 Y-10.5560 F35.00
G01 X11.7178 Y-10.5451 F35.00
G01 X11.7164 Y-10.5379 F35.00
G01 X11.7135 Y-10.5272 F35.00
G01 X11.7099 Y-10.5168 F35.00
G01 X11.7056 Y-10.5066 F35.00
G01 X11.7005 Y-10.4968 F35.00
G01 X11.6947 Y-10.4874 F35.00
G01 X11.6883 Y-10.4785 F35.00
G01 X11.6811 Y-10.4700 F35.00
G01 X11.6734 Y-10.4621 F35.00
G01 X11.6652 Y-10.4548 F35.00
G01 X11.6564 Y-10.4481 F35.00
G01 X11.6471 Y-10.4421 F35.00
G01 X11.6407 Y-10.4385 F35.00
G01 X11.6308 Y-10.4336 F35.00
G01 X11.6205 Y-10.4295 F35.00
G01 X11.6100 Y-10.4262 F35.00
G01 X11.5993 Y-10.4236 F35.00
G01 X11.5847 Y-10.4215 F35.00
G01 X11.5700 Y-10.4208 F35.00
G01 X11.1503 Y-10.4208 F35.00
G01 X11.1503 Y-9.3501 F35.00
G01 X11.6459 Y-8.8545 F35.00
G01 X21.4349 Y-8.8545 F35.00
G01 X21.5772 Y-8.9968 F35.00
G01 X21.6219 Y-9.0371 F35.00
G01 X21.6671 Y-9.0708 F35.00
G01 X21.6794 Y-9.0790 F35.00
G01 X21.7215 Y-9.1042 F35.00
G01 X21.7345 Y-9.1112 F35.00
G01 X21.7856 Y-9.1352 F35.00
G01 X21.8387 Y-9.1543 F35.00
G01 X21.8492 Y-9.1577 F35.00
G01 X21.9004 Y-9.1705 F35.00
G01 X21.9148 Y-9.1734 F35.00
G01 X21.9707 Y-9.1815 F35.00
G01 X22.0307 Y-9.1846 F35.00
G01 X22.6858 Y-9.1847 F35.00
G01 X22.6858 Y-9.6044 F35.00
G01 X22.6865 Y-9.6191 F35.00
G01 X22.6886 Y-9.6337 F35.00
G01 X22.6912 Y-9.6444 F35.00
G01 X22.6945 Y-9.6549 F35.00
G01 X22.6972 Y-9.6618 F35.00
G01 X22.7018 Y-9.6718 F35.00
G01 X22.7071 Y-9.6815 F35.00
G01 X22.7131 Y-9.6908 F35.00
G01 X22.7198 Y-9.6996 F35.00
G01 X22.7271 Y-9.7078 F35.00
G01 X22.7323 Y-9.7130 F35.00
G01 X22.7406 Y-9.7204 F35.00
G01 X22.7494 Y-9.7270 F35.00
G01 X22.7586 Y-9.7331 F35.00
G01 X22.7683 Y-9.7384 F35.00
G01 X22.7783 Y-9.7430 F35.00
G01 X22.7887 Y-9.7468 F35.00
G01 X22.7993 Y-9.7499 F35.00
G01 X22.8101 Y-9.7522 F35.00
G01 X22.8174 Y-9.7533 F35.00
G01 X22.8247 Y-9.7540 F35.00
G01 X22.8358 Y-9.7544 F35.00
G01 X24.9758 Y-9.7544 F35.00
G01 X24.9905 Y-9.7537 F35.00
G01 X25.0050 Y-9.7515 F35.00
G01 X25.0193 Y-9.7479 F35.00
G01 X25.0332 Y-9.7430 F35.00
G01 X25.0432 Y-9.7384 F35.00
G01 X25.0529 Y-9.7331 F35.00
G01 X25.0651 Y-9.7249 F35.00
G01 X25.0737 Y-9.7180 F35.00
G01 X25.0844 Y-9.7078 F35.00
G01 X25.0940 Y-9.6967 F35.00
G01 X25.1025 Y-9.6846 F35.00
G01 X25.1097 Y-9.6718 F35.00
G01 X25.1143 Y-9.6618 F35.00
G01 X25.1193 Y-9.6479 F35.00
G01 X25.1221 Y-9.6373 F35.00
G01 X25.1241 Y-9.6264 F35.00
G01 X25.1256 Y-9.6118 F35.00
G01 X25.1258 Y-7.4644 F35.00
G01 X25.1250 Y-7.4497 F35.00
G01 X25.1235 Y-7.4388 F35.00
G01 X25.1203 Y-7.4244 F35.00
G01 X25.1170 Y-7.4139 F35.00
G01 X25.1129 Y-7.4036 F35.00
G01 X25.1080 Y-7.3937 F35.00
G01 X25.1025 Y-7.3842 F35.00
G01 X25.0962 Y-7.3750 F35.00
G01 X25.0893 Y-7.3664 F35.00
G01 X25.0818 Y-7.3583 F35.00
G01 X25.0737 Y-7.3508 F35.00
G01 X25.0651 Y-7.3439 F35.00
G01 X25.0560 Y-7.3377 F35.00
G01 X25.0465 Y-7.3321 F35.00
G01 X25.0365 Y-7.3273 F35.00
G01 X25.0263 Y-7.3232 F35.00
G01 X25.0158 Y-7.3198 F35.00
G01 X25.0050 Y-7.3173 F35.00
G01 X24.9941 Y-7.3155 F35.00
G01 X24.9831 Y-7.3146 F35.00
G01 X22.8358 Y-7.3144 F35.00
G01 X22.8210 Y-7.3151 F35.00
G01 X22.8065 Y-7.3173 F35.00
G01 X22.7957 Y-7.3198 F35.00
G01 X22.7852 Y-7.3232 F35.00
G01 X22.7750 Y-7.3273 F35.00
G01 X22.7650 Y-7.3321 F35.00
G01 X22.7555 Y-7.3377 F35.00
G01 X22.7464 Y-7.3439 F35.00
G01 X22.7378 Y-7.3508 F35.00
G01 X22.7297 Y-7.3583 F35.00
G01 X22.7222 Y-7.3664 F35.00
G01 X22.7175 Y-7.3721 F35.00
G01 X22.7110 Y-7.3811 F35.00
G01 X22.7052 Y-7.3905 F35.00
G01 X22.7002 Y-7.4003 F35.00
G01 X22.6958 Y-7.4104 F35.00
G01 X22.6922 Y-7.4209 F35.00
G01 X22.6894 Y-7.4315 F35.00
G01 X22.6869 Y-7.4460 F35.00
G01 X22.6859 Y-7.4570 F35.00
G01 X22.6858 Y-7.4644 F35.00
G01 X22.6858 Y-7.8841 F35.00
G01 X22.3037 Y-7.8841 F35.00
G01 X22.1640 Y-7.7444 F35.00
G01 X22.1195 Y-7.7039 F35.00
G01 X22.1109 Y-7.6970 F35.00
G01 X22.0655 Y-7.6635 F35.00
G01 X22.0140 Y-7.6325 F35.00
G01 X22.0041 Y-7.6274 F35.00
G01 X21.9530 Y-7.6034 F35.00
G01 X21.8999 Y-7.5843 F35.00
G01 X21.8859 Y-7.5800 F35.00
G01 X21.8311 Y-7.5664 F35.00
G01 X21.7752 Y-7.5580 F35.00
G01 X21.7606 Y-7.5565 F35.00
G01 X21.7079 Y-7.5540 F35.00
G01 X11.3766 Y-7.5539 F35.00
G01 X11.3128 Y-7.5571 F35.00
G01 X11.2569 Y-7.5652 F35.00
G01 X11.2425 Y-7.5681 F35.00
G01 X11.1949 Y-7.5800 F35.00
G01 X11.1808 Y-7.5843 F35.00
G01 X11.1346 Y-7.6008 F35.00
G01 X11.1210 Y-7.6064 F35.00
G01 X11.0700 Y-7.6307 F35.00
G01 X11.0215 Y-7.6596 F35.00
G01 X11.0093 Y-7.6678 F35.00
G01 X10.9640 Y-7.7015 F35.00
G01 X10.9194 Y-7.7418 F35.00
G01 X10.0376 Y-8.6236 F35.00
G01 X9.9973 Y-8.6682 F35.00
G01 X9.9593 Y-8.7195 F35.00
G01 X9.9265 Y-8.7742 F35.00
G01 X9.9022 Y-8.8252 F35.00
G01 X9.8966 Y-8.8388 F35.00
G01 X9.8777 Y-8.8920 F35.00
G01 X9.8622 Y-8.9539 F35.00
G01 X9.8529 Y-9.0170 F35.00
G01 X9.8498 Y-9.0771 F35.00
G01 X9.8497 Y-10.4208 F35.00
G01 X9.4300 Y-10.4208 F35.00
G01 X9.4190 Y-10.4212 F35.00
G01 X9.4044 Y-10.4230 F35.00
G01 X9.3936 Y-10.4252 F35.00
G01 X9.3829 Y-10.4283 F35.00
G01 X9.3726 Y-10.4322 F35.00
G01 X9.3659 Y-10.4352 F35.00
G01 X9.3561 Y-10.4402 F35.00
G01 X9.3498 Y-10.4440 F35.00
G01 X9.3406 Y-10.4503 F35.00
G01 X9.3320 Y-10.4572 F35.00
G01 X9.3266 Y-10.4621 F35.00
G01 X9.3189 Y-10.4700 F35.00
G01 X9.3117 Y-10.4785 F35.00
G01 X9.3053 Y-10.4874 F35.00
G01 X9.2995 Y-10.4968 F35.00
G01 X9.2944 Y-10.5066 F35.00
G01 X9.2914 Y-10.5133 F35.00
G01 X9.2876 Y-10.5237 F35.00
G01 X9.2836 Y-10.5379 F35.00
G01 X9.2816 Y-10.5487 F35.00
G01 X9.2804 Y-10.5597 F35.00
G01 X9.2800 Y-10.5708 F35.00
G01 X9.2802 Y-12.7181 F35.00
G01 X9.2816 Y-12.7328 F35.00
G01 X9.2845 Y-12.7472 F35.00
G01 X9.2888 Y-12.7613 F35.00
G01 X9.2944 Y-12.7749 F35.00
G01 X9.2995 Y-12.7847 F35.00
G01 X9.3074 Y-12.7971 F35.00
G01 X9.3164 Y-12.8087 F35.00
G01 X9.3266 Y-12.8194 F35.00
G01 X9.3377 Y-12.8290 F35.00
G01 X9.3498 Y-12.8375 F35.00
G01 X9.3626 Y-12.8447 F35.00
G01 X9.3760 Y-12.8507 F35.00
G01 X9.3900 Y-12.8553 F35.00
G01 X9.4044 Y-12.8585 F35.00
G01 X9.4190 Y-12.8603 F35.00
G01 X9.4300 Y-12.8608 F35.00
G00 Z2.0000
G00 X14.2600 Y-19.5607
G01 F45.00
G01 Z-0.0900
G01 F35.00
G01 X14.2600 Y-19.1410 F35.00
G01 X20.4102 Y-19.1410 F35.00
G01 X20.4287 Y-19.1593 F35.00
G01 X20.4651 Y-19.1922 F35.00
G01 X20.4764 Y-19.2016 F35.00
G01 X20.5219 Y-19.2351 F35.00
G01 X20.5702 Y-19.2642 F35.00
G01 X20.5799 Y-19.2696 F35.00
G01 X20.6343 Y-19.2952 F35.00
G01 X20.6944 Y-19.3167 F35.00
G01 X20.7563 Y-19.3322 F35.00
G01 X20.8194 Y-19.3415 F35.00
G01 X20.8832 Y-19.3447 F35.00
G01 X22.6858 Y-19.3447 F35.00
G01 X22.6858 Y-19.7644 F35.00
G01 X22.6865 Y-19.7791 F35.00
G01 X22.6874 Y-19.7864 F35.00
G01 X22.6894 Y-19.7973 F35.00
G01 X22.6922 Y-19.8079 F35.00
G01 X22.6958 Y-19.8184 F35.00
G01 X22.7002 Y-19.8285 F35.00
G01 X22.7052 Y-19.8383 F35.00
G01 X22.7110 Y-19.8477 F35.00
G01 X22.7175 Y-19.8567 F35.00
G01 X22.7246 Y-19.8651 F35.00
G01 X22.7323 Y-19.8730 F35.00
G01 X22.7406 Y-19.8804 F35.00
G01 X22.7494 Y-19.8870 F35.00
G01 X22.7586 Y-19.8931 F35.00
G01 X22.7683 Y-19.8984 F35.00
G01 X22.7783 Y-19.9030 F35.00
G01 X22.7887 Y-19.9068 F35.00
G01 X22.7993 Y-19.9099 F35.00
G01 X22.8101 Y-19.9122 F35.00
G01 X22.8210 Y-19.9137 F35.00
G01 X22.8358 Y-19.9144 F35.00
G01 X24.9758 Y-19.9144 F35.00
G01 X24.9905 Y-19.9137 F35.00
G01 X25.0014 Y-19.9122 F35.00
G01 X25.0158 Y-19.9090 F35.00
G01 X25.0263 Y-19.9056 F35.00
G01 X25.0399 Y-19.9000 F35.00
G01 X25.0497 Y-19.8949 F35.00
G01 X25.0591 Y-19.8891 F35.00
G01 X25.0709 Y-19.8804 F35.00
G01 X25.0792 Y-19.8730 F35.00
G01 X25.0893 Y-19.8624 F35.00
G01 X25.0984 Y-19.8508 F35.00
G01 X25.1044 Y-19.8415 F35.00
G01 X25.1097 Y-19.8318 F35.00
G01 X25.1143 Y-19.8218 F35.00
G01 X25.1193 Y-19.8079 F35.00
G01 X25.1221 Y-19.7973 F35.00
G01 X25.1241 Y-19.7864 F35.00
G01 X25.1256 Y-19.7718 F35.00
G01 X25.1258 Y-17.6244 F35.00
G01 X25.1250 Y-17.6097 F35.00
G01 X25.1235 Y-17.5988 F35.00
G01 X25.1203 Y-17.5844 F35.00
G01 X25.1170 Y-17.5739 F35.00
G01 X25.1113 Y-17.5603 F35.00
G01 X25.1063 Y-17.5505 F35.00
G01 X25.1005 Y-17.5411 F35.00
G01 X25.0917 Y-17.5292 F35.00
G01 X25.0844 Y-17.5210 F35.00
G01 X25.0737 Y-17.5108 F35.00
G01 X25.0621 Y-17.5018 F35.00
G01 X25.0529 Y-17.4957 F35.00
G01 X25.0432 Y-17.4904 F35.00
G01 X25.0332 Y-17.4858 F35.00
G01 X25.0193 Y-17.4809 F35.00
G01 X25.0086 Y-17.4780 F35.00
G01 X24.9978 Y-17.4760 F35.00
G01 X24.9831 Y-17.4746 F35.00
G01 X22.8358 Y-17.4744 F35.00
G01 X22.8284 Y-17.4746 F35.00
G01 X22.8174 Y-17.4755 F35.00
G01 X22.8065 Y-17.4773 F35.00
G01 X22.7957 Y-17.4798 F35.00
G01 X22.7852 Y-17.4832 F35.00
G01 X22.7750 Y-17.4873 F35.00
G01 X22.7650 Y-17.4921 F35.00
G01 X22.7555 Y-17.4977 F35.00
G01 X22.7464 Y-17.5039 F35.00
G01 X22.7350 Y-17.5133 F35.00
G01 X22.7271 Y-17.5210 F35.00
G01 X22.7198 Y-17.5292 F35.00
G01 X22.7131 Y-17.5380 F35.00
G01 X22.7071 Y-17.5473 F35.00
G01 X22.7018 Y-17.5570 F35.00
G01 X22.6972 Y-17.5670 F35.00
G01 X22.6922 Y-17.5809 F35.00
G01 X22.6894 Y-17.5915 F35.00
G01 X22.6869 Y-17.6060 F35.00
G01 X22.6859 Y-17.6170 F35.00
G01 X22.6858 Y-17.6244 F35.00
G01 X22.6858 Y-18.0441 F35.00
G01 X21.1525 Y-18.0441 F35.00
G01 X21.1367 Y-18.0284 F35.00
G01 X21.0948 Y-17.9905 F35.00
G01 X21.0862 Y-17.9836 F35.00
G01 X21.0438 Y-17.9522 F35.00
G01 X21.0345 Y-17.9461 F35.00
G01 X20.9860 Y-17.9173 F35.00
G01 X20.9317 Y-17.8914 F35.00
G01 X20.9215 Y-17.8873 F35.00
G01 X20.8683 Y-17.8685 F35.00
G01 X20.8064 Y-17.8530 F35.00
G01 X20.7432 Y-17.8436 F35.00
G01 X20.6832 Y-17.8405 F35.00
G01 X14.2600 Y-17.8405 F35.00
G01 X14.2600 Y-17.4208 F35.00
G01 X14.2593 Y-17.4060 F35.00
G01 X14.2571 Y-17.3915 F35.00
G01 X14.2555 Y-17.3843 F35.00
G01 X14.2524 Y-17.3737 F35.00
G01 X14.2486 Y-17.3633 F35.00
G01 X14.2440 Y-17.3533 F35.00
G01 X14.2387 Y-17.3436 F35.00
G01 X14.2326 Y-17.3344 F35.00
G01 X14.2260 Y-17.3256 F35.00
G01 X14.2186 Y-17.3173 F35.00
G01 X14.2107 Y-17.3096 F35.00
G01 X14.2023 Y-17.3025 F35.00
G01 X14.1933 Y-17.2960 F35.00
G01 X14.1839 Y-17.2902 F35.00
G01 X14.1741 Y-17.2852 F35.00
G01 X14.1640 Y-17.2808 F35.00
G01 X14.1535 Y-17.2772 F35.00
G01 X14.1429 Y-17.2744 F35.00
G01 X14.1320 Y-17.2724 F35.00
G01 X14.1247 Y-17.2715 F35.00
G01 X14.1100 Y-17.2708 F35.00
G01 X11.9663 Y-17.2708 F35.00
G01 X11.9516 Y-17.2719 F35.00
G01 X11.9371 Y-17.2744 F35.00
G01 X11.9229 Y-17.2783 F35.00
G01 X11.9092 Y-17.2836 F35.00
G01 X11.8961 Y-17.2902 F35.00
G01 X11.8836 Y-17.2981 F35.00
G01 X11.8720 Y-17.3072 F35.00
G01 X11.8614 Y-17.3173 F35.00
G01 X11.8540 Y-17.3256 F35.00
G01 X11.8453 Y-17.3374 F35.00
G01 X11.8377 Y-17.3500 F35.00
G01 X11.8314 Y-17.3633 F35.00
G01 X11.8265 Y-17.3772 F35.00
G01 X11.8229 Y-17.3915 F35.00
G01 X11.8211 Y-17.4024 F35.00
G01 X11.8200 Y-17.4171 F35.00
G01 X11.8200 Y-19.5607 F35.00
G01 X11.8207 Y-19.5755 F35.00
G01 X11.8229 Y-19.5900 F35.00
G01 X11.8265 Y-19.6043 F35.00
G01 X11.8314 Y-19.6182 F35.00
G01 X11.8377 Y-19.6315 F35.00
G01 X11.8453 Y-19.6441 F35.00
G01 X11.8540 Y-19.6559 F35.00
G01 X11.8589 Y-19.6615 F35.00
G01 X11.8666 Y-19.6694 F35.00
G01 X11.8777 Y-19.6790 F35.00
G01 X11.8898 Y-19.6875 F35.00
G01 X11.9026 Y-19.6947 F35.00
G01 X11.9126 Y-19.6993 F35.00
G01 X11.9265 Y-19.7043 F35.00
G01 X11.9371 Y-19.7071 F35.00
G01 X11.9516 Y-19.7096 F35.00
G01 X11.9663 Y-19.7107 F35.00
G01 X14.1174 Y-19.7106 F35.00
G01 X14.1320 Y-19.7091 F35.00
G01 X14.1464 Y-19.7063 F35.00
G01 X14.1571 Y-19.7032 F35.00
G01 X14.1708 Y-19.6979 F35.00
G01 X14.1839 Y-19.6913 F35.00
G01 X14.1964 Y-19.6834 F35.00
G01 X14.2080 Y-19.6743 F35.00
G01 X14.2186 Y-19.6642 F35.00
G01 X14.2283 Y-19.6530 F35.00
G01 X14.2367 Y-19.6410 F35.00
G01 X14.2440 Y-19.6282 F35.00
G01 X14.2499 Y-19.6147 F35.00
G01 X14.2546 Y-19.6008 F35.00
G01 X14.2578 Y-19.5864 F35.00
G01 X14.2596 Y-19.5718 F35.00
G01 X14.2600 Y-19.5607 F35.00
G00 Z2.0000
G00 X14.2600 Y-22.3007
G01 F45.00
G01 Z-0.0900
G01 F35.00
G01 X14.2600 Y-21.8810 F35.00
G01 X22.6858 Y-21.8810 F35.00
G01 X22.6858 Y-22.3044 F35.00
G01 X22.6865 Y-22.3191 F35.00
G01 X22.6886 Y-22.3337 F35.00
G01 X22.6912 Y-22.3444 F35.00
G01 X22.6945 Y-22.3549 F35.00
G01 X22.6972 Y-22.3618 F35.00
G01 X22.7018 Y-22.3718 F35.00
G01 X22.7071 Y-22.3815 F35.00
G01 X22.7131 Y-22.3908 F35.00
G01 X22.7198 Y-22.3996 F35.00
G01 X22.7271 Y-22.4078 F35.00
G01 X22.7350 Y-22.4155 F35.00
G01 X22.7435 Y-22.4227 F35.00
G01 X22.7524 Y-22.4291 F35.00
G01 X22.7618 Y-22.4349 F35.00
G01 X22.7683 Y-22.4384 F35.00
G01 X22.7783 Y-22.4430 F35.00
G01 X22.7887 Y-22.4468 F35.00
G01 X22.7993 Y-22.4499 F35.00
G01 X22.8101 Y-22.4522 F35.00
G01 X22.8174 Y-22.4533 F35.00
G01 X22.8284 Y-22.4542 F35.00
G01 X22.8358 Y-22.4544 F35.00
G01 X24.9758 Y-22.4544 F35.00
G01 X24.9905 Y-22.4537 F35.00
G01 X25.0050 Y-22.4515 F35.00
G01 X25.0158 Y-22.4490 F35.00
G01 X25.0297 Y-22.4443 F35.00
G01 X25.0399 Y-22.4400 F35.00
G01 X25.0497 Y-22.4349 F35.00
G01 X25.0591 Y-22.4291 F35.00
G01 X25.0709 Y-22.4204 F35.00
G01 X25.0792 Y-22.4130 F35.00
G01 X25.0893 Y-22.4024 F35.00
G01 X25.0984 Y-22.3908 F35.00
G01 X25.1044 Y-22.3815 F35.00
G01 X25.1097 Y-22.3718 F35.00
G01 X25.1143 Y-22.3618 F35.00
G01 X25.1193 Y-22.3479 F35.00
G01 X25.1221 Y-22.3373 F35.00
G01 X25.1241 Y-22.3264 F35.00
G01 X25.1256 Y-22.3118 F35.00
G01 X25.1258 Y-20.1644 F35.00
G01 X25.1250 Y-20.1497 F35.00
G01 X25.1229 Y-20.1351 F35.00
G01 X25.1203 Y-20.1244 F35.00
G01 X25.1157 Y-20.1104 F35.00
G01 X25.1113 Y-20.1003 F35.00
G01 X25.1063 Y-20.0905 F35.00
G01 X25.1005 Y-20.0811 F35.00
G01 X25.0917 Y-20.0692 F35.00
G01 X25.0844 Y-20.0610 F35.00
G01 X25.0737 Y-20.0508 F35.00
G01 X25.0621 Y-20.0418 F35.00
G01 X25.0529 Y-20.0357 F35.00
G01 X25.0432 Y-20.0304 F35.00
G01 X25.0332 Y-20.0258 F35.00
G01 X25.0193 Y-20.0209 F35.00
G01 X25.0086 Y-20.0180 F35.00
G01 X24.9978 Y-20.0160 F35.00
G01 X24.9831 Y-20.0146 F35.00
G01 X22.8358 Y-20.0144 F35.00
G01 X22.8247 Y-20.0148 F35.00
G01 X22.8101 Y-20.0166 F35.00
G01 X22.7993 Y-20.0189 F35.00
G01 X22.7887 Y-20.0220 F35.00
G01 X22.7783 Y-20.0258 F35.00
G01 X22.7683 Y-20.0304 F35.00
G01 X22.7586 Y-20.0357 F35.00
G01 X22.7494 Y-20.0418 F35.00
G01 X22.7406 Y-20.0484 F35.00
G01 X22.7323 Y-20.0558 F35.00
G01 X22.7246 Y-20.0637 F35.00
G01 X22.7175 Y-20.0721 F35.00
G01 X22.7110 Y-20.0811 F35.00
G01 X22.7052 Y-20.0905 F35.00
G01 X22.7002 Y-20.1003 F35.00
G01 X22.6958 Y-20.1104 F35.00
G01 X22.6922 Y-20.1209 F35.00
G01 X22.6894 Y-20.1315 F35.00
G01 X22.6880 Y-20.1388 F35.00
G01 X22.6865 Y-20.1497 F35.00
G01 X22.6858 Y-20.1644 F35.00
G01 X22.6858 Y-20.5805 F35.00
G01 X14.2600 Y-20.5805 F35.00
G01 X14.2600 Y-20.1607 F35.00
G01 X14.2593 Y-20.1460 F35.00
G01 X14.2571 Y-20.1315 F35.00
G01 X14.2555 Y-20.1243 F35.00
G01 X14.2524 Y-20.1137 F35.00
G01 X14.2486 Y-20.1033 F35.00
G01 X14.2440 Y-20.0933 F35.00
G01 X14.2387 Y-20.0836 F35.00
G01 X14.2326 Y-20.0744 F35.00
G01 X14.2260 Y-20.0656 F35.00
G01 X14.2186 Y-20.0573 F35.00
G01 X14.2107 Y-20.0496 F35.00
G01 X14.2023 Y-20.0425 F35.00
G01 X14.1933 Y-20.0360 F35.00
G01 X14.1839 Y-20.0302 F35.00
G01 X14.1741 Y-20.0252 F35.00
G01 X14.1640 Y-20.0208 F35.00
G01 X14.1535 Y-20.0172 F35.00
G01 X14.1429 Y-20.0144 F35.00
G01 X14.1320 Y-20.0124 F35.00
G01 X14.1247 Y-20.0115 F35.00
G01 X14.1100 Y-20.0107 F35.00
G01 X11.9663 Y-20.0108 F35.00
G01 X11.9516 Y-20.0119 F35.00
G01 X11.9371 Y-20.0144 F35.00
G01 X11.9229 Y-20.0183 F35.00
G01 X11.9092 Y-20.0236 F35.00
G01 X11.8961 Y-20.0302 F35.00
G01 X11.8836 Y-20.0381 F35.00
G01 X11.8720 Y-20.0472 F35.00
G01 X11.8614 Y-20.0573 F35.00
G01 X11.8540 Y-20.0656 F35.00
G01 X11.8453 Y-20.0774 F35.00
G01 X11.8377 Y-20.0900 F35.00
G01 X11.8314 Y-20.1033 F35.00
G01 X11.8265 Y-20.1172 F35.00
G01 X11.8229 Y-20.1315 F35.00
G01 X11.8211 Y-20.1424 F35.00
G01 X11.8200 Y-20.1571 F35.00
G01 X11.8200 Y-22.3007 F35.00
G01 X11.8207 Y-22.3155 F35.00
G01 X11.8229 Y-22.3300 F35.00
G01 X11.8265 Y-22.3443 F35.00
G01 X11.8314 Y-22.3582 F35.00
G01 X11.8377 Y-22.3715 F35.00
G01 X11.8453 Y-22.3841 F35.00
G01 X11.8540 Y-22.3959 F35.00
G01 X11.8589 Y-22.4015 F35.00
G01 X11.8666 Y-22.4094 F35.00
G01 X11.8777 Y-22.4190 F35.00
G01 X11.8898 Y-22.4275 F35.00
G01 X11.9026 Y-22.4347 F35.00
G01 X11.9126 Y-22.4393 F35.00
G01 X11.9265 Y-22.4443 F35.00
G01 X11.9371 Y-22.4471 F35.00
G01 X11.9516 Y-22.4496 F35.00
G01 X11.9663 Y-22.4507 F35.00
G01 X14.1174 Y-22.4506 F35.00
G01 X14.1320 Y-22.4491 F35.00
G01 X14.1464 Y-22.4463 F35.00
G01 X14.1571 Y-22.4432 F35.00
G01 X14.1708 Y-22.4379 F35.00
G01 X14.1839 Y-22.4313 F35.00
G01 X14.1964 Y-22.4234 F35.00
G01 X14.2080 Y-22.4143 F35.00
G01 X14.2186 Y-22.4042 F35.00
G01 X14.2283 Y-22.3930 F35.00
G01 X14.2367 Y-22.3810 F35.00
G01 X14.2440 Y-22.3682 F35.00
G01 X14.2499 Y-22.3547 F35.00
G01 X14.2546 Y-22.3408 F35.00
G01 X14.2578 Y-22.3264 F35.00
G01 X14.2596 Y-22.3118 F35.00
G01 X14.2600 Y-22.3007 F35.00
G00 Z2.0000
G00 X25.4448 Y-30.0220
G01 F45.00
G01 Z-0.0900
G01 F35.00
G01 X25.8648 Y-30.0220 F35.00
G01 X25.8758 Y-30.0224 F35.00
G01 X25.8868 Y-30.0236 F35.00
G01 X25.8976 Y-30.0256 F35.00
G01 X25.9083 Y-30.0285 F35.00
G01 X25.9187 Y-30.0321 F35.00
G01 X25.9322 Y-30.0380 F35.00
G01 X25.9419 Y-30.0433 F35.00
G01 X25.9511 Y-30.0494 F35.00
G01 X25.9599 Y-30.0560 F35.00
G01 X25.9708 Y-30.0659 F35.00
G01 X25.9807 Y-30.0768 F35.00
G01 X25.9895 Y-30.0887 F35.00
G01 X25.9970 Y-30.1013 F35.00
G01 X26.0033 Y-30.1146 F35.00
G01 X26.0083 Y-30.1285 F35.00
G01 X26.0119 Y-30.1427 F35.00
G01 X26.0140 Y-30.1573 F35.00
G01 X26.0148 Y-30.1720 F35.00
G01 X26.0148 Y-30.5920 F35.00
G01 X26.1248 Y-30.5920 F35.00
G01 X26.1248 Y-30.1515 F35.00
G01 X26.1151 Y-30.0906 F35.00
G01 X26.0777 Y-30.0173 F35.00
G01 X26.0195 Y-29.9590 F35.00
G01 X25.9461 Y-29.9216 F35.00
G01 X25.8852 Y-29.9120 F35.00
G01 X25.4448 Y-29.9120 F35.00
G01 X25.4448 Y-30.0220 F35.00
G00 Z2.0000
G00 X26.0148 Y-31.8920
G01 F45.00
G01 Z-0.0900
G01 F35.00
G01 X26.0148 Y-32.3120 F35.00
G01 X26.0143 Y-32.3230 F35.00
G01 X26.0131 Y-32.3340 F35.00
G01 X26.0111 Y-32.3449 F35.00
G01 X26.0083 Y-32.3555 F35.00
G01 X26.0047 Y-32.3660 F35.00
G01 X26.0003 Y-32.3761 F35.00
G01 X25.9953 Y-32.3859 F35.00
G01 X25.9874 Y-32.3984 F35.00
G01 X25.9807 Y-32.4072 F35.00
G01 X25.9708 Y-32.4181 F35.00
G01 X25.9599 Y-32.4280 F35.00
G01 X25.9481 Y-32.4367 F35.00
G01 X25.9355 Y-32.4443 F35.00
G01 X25.9222 Y-32.4506 F35.00
G01 X25.9083 Y-32.4555 F35.00
G01 X25.8940 Y-32.4591 F35.00
G01 X25.8795 Y-32.4613 F35.00
G01 X25.8648 Y-32.4620 F35.00
G01 X25.4448 Y-32.4620 F35.00
G01 X25.4448 Y-32.5720 F35.00
G01 X25.8852 Y-32.5720 F35.00
G01 X25.9461 Y-32.5624 F35.00
G01 X26.0195 Y-32.5250 F35.00
G01 X26.0777 Y-32.4667 F35.00
G01 X26.1151 Y-32.3933 F35.00
G01 X26.1248 Y-32.3325 F35.00
G01 X26.1248 Y-31.8920 F35.00
G01 X26.0148 Y-31.8920 F35.00
G00 Z2.0000
G00 X25.4448 Y-33.5780
G01 F45.00
G01 Z-0.0900
G01 F35.00
G01 X25.8648 Y-33.5780 F35.00
G01 X25.8758 Y-33.5784 F35.00
G01 X25.8868 Y-33.5796 F35.00
G01 X25.8976 Y-33.5816 F35.00
G01 X25.9083 Y-33.5845 F35.00
G01 X25.9187 Y-33.5881 F35.00
G01 X25.9289 Y-33.5924 F35.00
G01 X25.9387 Y-33.5975 F35.00
G01 X25.9511 Y-33.6054 F35.00
G01 X25.9599 Y-33.6120 F35.00
G01 X25.9708 Y-33.6219 F35.00
G01 X25.9807 Y-33.6328 F35.00
G01 X25.9895 Y-33.6447 F35.00
G01 X25.9970 Y-33.6573 F35.00
G01 X26.0033 Y-33.6706 F35.00
G01 X26.0083 Y-33.6845 F35.00
G01 X26.0119 Y-33.6987 F35.00
G01 X26.0140 Y-33.7133 F35.00
G01 X26.0148 Y-33.7280 F35.00
G01 X26.0148 Y-34.1480 F35.00
G01 X26.1248 Y-34.1480 F35.00
G01 X26.1248 Y-33.7075 F35.00
G01 X26.1151 Y-33.6466 F35.00
G01 X26.0777 Y-33.5733 F35.00
G01 X26.0195 Y-33.5150 F35.00
G01 X25.9461 Y-33.4776 F35.00
G01 X25.8852 Y-33.4680 F35.00
G01 X25.4448 Y-33.4680 F35.00
G01 X25.4448 Y-33.5780 F35.00
G00 Z2.0000
G00 X26.0148 Y-35.4480
G01 F45.00
G01 Z-0.0900
G01 F35.00
G01 X26.0148 Y-35.8680 F35.00
G01 X26.0143 Y-35.8790 F35.00
G01 X26.0131 Y-35.8900 F35.00
G01 X26.0111 Y-35.9009 F35.00
G01 X26.0083 Y-35.9115 F35.00
G01 X26.0047 Y-35.9220 F35.00
G01 X26.0003 Y-35.9321 F35.00
G01 X25.9953 Y-35.9419 F35.00
G01 X25.9874 Y-35.9544 F35.00
G01 X25.9807 Y-35.9632 F35.00
G01 X25.9708 Y-35.9741 F35.00
G01 X25.9599 Y-35.9840 F35.00
G01 X25.9481 Y-35.9927 F35.00
G01 X25.9355 Y-36.0003 F35.00
G01 X25.9222 Y-36.0066 F35.00
G01 X25.9083 Y-36.0115 F35.00
G01 X25.8940 Y-36.0151 F35.00
G01 X25.8795 Y-36.0173 F35.00
G01 X25.8648 Y-36.0180 F35.00
G01 X25.4448 Y-36.0180 F35.00
G01 X25.4448 Y-36.1280 F35.00
G01 X25.8852 Y-36.1280 F35.00
G01 X25.9461 Y-36.1184 F35.00
G01 X26.0195 Y-36.0810 F35.00
G01 X26.0777 Y-36.0227 F35.00
G01 X26.1151 Y-35.9493 F35.00
G01 X26.1248 Y-35.8885 F35.00
G01 X26.1248 Y-35.4480 F35.00
G01 X26.0148 Y-35.4480 F35.00
G00 Z2.0000
G00 X36.4543 Y-35.7414
G01 F45.00
G01 Z-0.0900
G01 F35.00
G01 X36.4570 Y-35.7759 F35.00
G01 X36.4575 Y-35.7877 F35.00
G01 X36.4575 Y-48.6293 F35.00
G01 X36.4570 Y-48.6411 F35.00
G01 X36.4543 Y-48.6756 F35.00
G01 X36.4570 Y-48.7277 F35.00
G01 X36.4575 Y-48.7569 F35.00
G01 X36.4601 Y-48.7860 F35.00
G01 X36.4628 Y-48.8381 F35.00
G01 X36.4696 Y-48.8747 F35.00
G01 X36.4869 Y-48.9281 F35.00
G01 X36.4910 Y-48.9421 F35.00
G01 X36.5045 Y-48.9924 F35.00
G01 X36.5187 Y-49.0269 F35.00
G01 X36.5467 Y-49.0754 F35.00
G01 X36.5536 Y-49.0883 F35.00
G01 X36.5773 Y-49.1348 F35.00
G01 X36.5984 Y-49.1655 F35.00
G01 X36.6333 Y-49.2042 F35.00
G01 X36.6521 Y-49.2266 F35.00
G01 X36.6724 Y-49.2476 F35.00
G01 X36.7073 Y-49.2864 F35.00
G01 X36.7336 Y-49.3088 F35.00
G01 X36.7423 Y-49.3168 F35.00
G01 X39.3582 Y-51.9327 F35.00
G01 X39.3662 Y-51.9414 F35.00
G01 X39.3886 Y-51.9677 F35.00
G01 X39.4274 Y-52.0026 F35.00
G01 X39.4484 Y-52.0229 F35.00
G01 X39.4708 Y-52.0417 F35.00
G01 X39.5144 Y-52.0809 F35.00
G01 X39.5225 Y-52.0871 F35.00
G01 X39.5308 Y-52.0943 F35.00
G01 X39.5386 Y-52.1021 F35.00
G01 X39.5465 Y-52.1114 F35.00
G01 X39.5888 Y-52.1507 F35.00
G01 X39.5989 Y-52.1616 F35.00
G01 X39.6058 Y-52.1705 F35.00
G01 X39.6120 Y-52.1798 F35.00
G01 X39.6192 Y-52.1930 F35.00
G01 X39.6237 Y-52.2033 F35.00
G01 X39.6582 Y-52.2913 F35.00
G01 X39.6626 Y-52.3056 F35.00
G01 X39.6655 Y-52.3202 F35.00
G01 X39.6668 Y-52.3314 F35.00
G01 X39.6695 Y-52.3692 F35.00
G01 X39.6695 Y-52.5475 F35.00
G01 X39.6792 Y-52.6085 F35.00
G01 X39.7103 Y-52.6696 F35.00
G01 X39.7133 Y-52.6765 F35.00
G01 X39.7173 Y-52.6870 F35.00
G01 X39.7204 Y-52.6977 F35.00
G01 X39.7435 Y-52.7894 F35.00
G01 X39.7460 Y-52.8041 F35.00
G01 X39.7471 Y-52.8191 F35.00
G01 X39.7467 Y-52.8340 F35.00
G01 X39.7448 Y-52.8488 F35.00
G01 X39.7259 Y-52.9415 F35.00
G01 X39.7232 Y-52.9522 F35.00
G01 X39.7185 Y-52.9663 F35.00
G01 X39.7141 Y-52.9764 F35.00
G01 X39.6792 Y-53.0455 F35.00
G01 X39.6695 Y-53.1065 F35.00
G01 X39.6695 Y-55.2875 F35.00
G01 X39.6792 Y-55.3485 F35.00
G01 X39.7166 Y-55.4220 F35.00
G01 X39.7750 Y-55.4804 F35.00
G01 X39.8485 Y-55.5178 F35.00
G01 X39.9157 Y-55.5285 F35.00
G01 X39.9244 Y-55.5296 F35.00
G01 X39.9437 Y-55.5337 F35.00
G01 X40.0370 Y-55.5630 F35.00
G01 X40.0507 Y-55.5686 F35.00
G01 X40.0607 Y-55.5736 F35.00
G01 X40.0733 Y-55.5814 F35.00
G01 X40.0822 Y-55.5880 F35.00
G01 X40.0879 Y-55.5928 F35.00
G01 X40.1623 Y-55.6626 F35.00
G01 X40.1697 Y-55.6709 F35.00
G01 X40.1787 Y-55.6829 F35.00
G01 X40.1847 Y-55.6924 F35.00
G01 X40.1914 Y-55.7057 F35.00
G01 X40.2272 Y-55.7972 F35.00
G01 X40.2319 Y-55.8113 F35.00
G01 X40.2344 Y-55.8222 F35.00
G01 X40.2362 Y-55.8332 F35.00
G01 X40.2393 Y-55.8739 F35.00
G01 X40.2395 Y-56.3828 F35.00
G01 X40.2390 Y-56.3946 F35.00
G01 X40.2363 Y-56.4291 F35.00
G01 X40.2390 Y-56.4811 F35.00
G01 X40.2395 Y-56.5104 F35.00
G01 X40.2421 Y-56.5394 F35.00
G01 X40.2448 Y-56.5915 F35.00
G01 X40.2516 Y-56.6282 F35.00
G01 X40.2689 Y-56.6815 F35.00
G01 X40.2730 Y-56.6955 F35.00
G01 X40.2865 Y-56.7459 F35.00
G01 X40.3007 Y-56.7803 F35.00
G01 X40.3287 Y-56.8289 F35.00
G01 X40.3356 Y-56.8418 F35.00
G01 X40.3593 Y-56.8882 F35.00
G01 X40.3804 Y-56.9189 F35.00
G01 X40.4153 Y-56.9577 F35.00
G01 X40.4341 Y-56.9801 F35.00
G01 X40.4544 Y-57.0011 F35.00
G01 X40.4893 Y-57.0398 F35.00
G01 X40.5156 Y-57.0623 F35.00
G01 X40.5243 Y-57.0703 F35.00
G01 X41.5364 Y-58.0824 F35.00
G01 X41.5444 Y-58.0910 F35.00
G01 X41.5668 Y-58.1174 F35.00
G01 X41.6056 Y-58.1523 F35.00
G01 X41.6266 Y-58.1726 F35.00
G01 X41.6490 Y-58.1913 F35.00
G01 X41.6877 Y-58.2262 F35.00
G01 X41.7184 Y-58.2473 F35.00
G01 X41.7649 Y-58.2710 F35.00
G01 X41.7777 Y-58.2779 F35.00
G01 X41.8263 Y-58.3059 F35.00
G01 X41.8608 Y-58.3202 F35.00
G01 X41.9111 Y-58.3337 F35.00
G01 X41.9251 Y-58.3378 F35.00
G01 X41.9785 Y-58.3551 F35.00
G01 X42.0151 Y-58.3619 F35.00
G01 X42.0672 Y-58.3646 F35.00
G01 X42.0963 Y-58.3672 F35.00
G01 X42.1255 Y-58.3676 F35.00
G01 X42.1776 Y-58.3704 F35.00
G01 X42.2121 Y-58.3676 F35.00
G01 X42.2239 Y-58.3672 F35.00
G01 X52.0814 Y-58.3672 F35.00
G01 X52.0932 Y-58.3676 F35.00
G01 X52.1277 Y-58.3704 F35.00
G01 X52.1798 Y-58.3676 F35.00
G01 X52.2090 Y-58.3672 F35.00
G01 X52.2381 Y-58.3646 F35.00
G01 X52.2902 Y-58.3619 F35.00
G01 X52.3268 Y-58.3551 F35.00
G01 X52.3802 Y-58.3378 F35.00
G01 X52.3942 Y-58.3337 F35.00
G01 X52.4445 Y-58.3202 F35.00
G01 X52.4790 Y-58.3059 F35.00
G01 X52.5241 Y-58.2798 F35.00
G01 X52.5404 Y-58.2710 F35.00
G01 X52.5877 Y-58.2470 F35.00
G01 X52.5945 Y-58.2439 F35.00
G01 X52.6050 Y-58.2400 F35.00
G01 X52.6158 Y-58.2368 F35.00
G01 X52.7074 Y-58.2138 F35.00
G01 X52.7148 Y-58.2123 F35.00
G01 X52.7259 Y-58.2108 F35.00
G01 X52.7333 Y-58.2103 F35.00
G01 X52.7446 Y-58.2102 F35.00
G01 X52.7558 Y-58.2109 F35.00
G01 X52.7669 Y-58.2125 F35.00
G01 X52.8595 Y-58.2314 F35.00
G01 X52.8704 Y-58.2340 F35.00
G01 X52.8845 Y-58.2388 F35.00
G01 X52.8982 Y-58.2450 F35.00
G01 X52.9079 Y-58.2505 F35.00
G01 X52.9203 Y-58.2590 F35.00
G01 X52.9954 Y-58.3162 F35.00
G01 X53.0064 Y-58.3259 F35.00
G01 X53.0139 Y-58.3339 F35.00
G01 X53.0187 Y-58.3395 F35.00
G01 X53.0252 Y-58.3483 F35.00
G01 X53.0311 Y-58.3576 F35.00
G01 X53.0703 Y-58.4285 F35.00
G01 X53.0752 Y-58.4380 F35.00
G01 X53.0787 Y-58.4463 F35.00
G01 X53.1224 Y-58.5320 F35.00
G01 X53.1807 Y-58.5904 F35.00
G01 X53.2542 Y-58.6278 F35.00
G01 X53.3153 Y-58.6375 F35.00
G01 X55.4963 Y-58.6375 F35.00
G01 X55.5573 Y-58.6278 F35.00
G01 X55.6308 Y-58.5904 F35.00
G01 X55.6891 Y-58.5320 F35.00
G01 X55.7266 Y-58.4585 F35.00
G01 X55.7363 Y-58.3975 F35.00
G01 X55.7363 Y-56.2165 F35.00
G01 X55.7247 Y-56.1435 F35.00
G01 X55.7217 Y-56.1320 F35.00
G01 X55.7192 Y-56.1172 F35.00
G01 X55.7107 Y-56.0231 F35.00
G01 X55.7101 Y-56.0086 F35.00
G01 X55.7106 Y-55.9977 F35.00
G01 X55.7124 Y-55.9833 F35.00
G01 X55.7220 Y-55.9406 F35.00
G01 X55.7247 Y-55.9305 F35.00
G01 X55.7363 Y-55.8575 F35.00
G01 X55.7363 Y-53.6765 F35.00
G01 X55.7247 Y-53.6035 F35.00
G01 X55.7217 Y-53.5920 F35.00
G01 X55.7192 Y-53.5772 F35.00
G01 X55.7107 Y-53.4831 F35.00
G01 X55.7101 Y-53.4686 F35.00
G01 X55.7106 Y-53.4577 F35.00
G01 X55.7124 Y-53.4433 F35.00
G01 X55.7220 Y-53.4006 F35.00
G01 X55.7247 Y-53.3905 F35.00
G01 X55.7363 Y-53.3175 F35.00
G01 X55.7363 Y-51.1365 F35.00
G01 X55.7247 Y-51.0635 F35.00
G01 X55.7217 Y-51.0520 F35.00
G01 X55.7192 Y-51.0372 F35.00
G01 X55.7107 Y-50.9431 F35.00
G01 X55.7101 Y-50.9286 F35.00
G01 X55.7106 Y-50.9177 F35.00
G01 X55.7124 Y-50.9033 F35.00
G01 X55.7220 Y-50.8606 F35.00
G01 X55.7247 Y-50.8505 F35.00
G01 X55.7363 Y-50.7775 F35.00
G01 X55.7363 Y-48.5965 F35.00
G01 X55.7247 Y-48.5235 F35.00
G01 X55.7217 Y-48.5120 F35.00
G01 X55.7192 Y-48.4972 F35.00
G01 X55.7107 Y-48.4031 F35.00
G01 X55.7101 Y-48.3886 F35.00
G01 X55.7106 Y-48.3777 F35.00
G01 X55.7124 Y-48.3633 F35.00
G01 X55.7220 Y-48.3206 F35.00
G01 X55.7247 Y-48.3105 F35.00
G01 X55.7363 Y-48.2375 F35.00
G01 X55.7363 Y-46.0565 F35.00
G01 X55.7247 Y-45.9835 F35.00
G01 X55.7217 Y-45.9720 F35.00
G01 X55.7192 Y-45.9572 F35.00
G01 X55.7107 Y-45.8631 F35.00
G01 X55.7101 Y-45.8486 F35.00
G01 X55.7106 Y-45.8377 F35.00
G01 X55.7124 Y-45.8233 F35.00
G01 X55.7220 Y-45.7806 F35.00
G01 X55.7247 Y-45.7705 F35.00
G01 X55.7363 Y-45.6975 F35.00
G01 X55.7363 Y-43.5165 F35.00
G01 X55.7266 Y-43.4555 F35.00
G01 X55.6891 Y-43.3820 F35.00
G01 X55.6308 Y-43.3236 F35.00
G01 X55.5573 Y-43.2862 F35.00
G01 X55.4963 Y-43.2765 F35.00
G01 X53.3153 Y-43.2765 F35.00
G01 X53.2542 Y-43.2862 F35.00
G01 X53.1807 Y-43.3236 F35.00
G01 X53.1224 Y-43.3820 F35.00
G01 X53.0849 Y-43.4555 F35.00
G01 X53.0743 Y-43.5227 F35.00
G01 X53.0732 Y-43.5314 F35.00
G01 X53.0691 Y-43.5507 F35.00
G01 X53.0409 Y-43.6404 F35.00
G01 X53.0385 Y-43.6474 F35.00
G01 X53.0342 Y-43.6577 F35.00
G01 X53.0292 Y-43.6677 F35.00
G01 X53.0234 Y-43.6772 F35.00
G01 X53.0192 Y-43.6833 F35.00
G01 X53.0124 Y-43.6921 F35.00
G01 X52.9454 Y-43.7639 F35.00
G01 X52.9375 Y-43.7718 F35.00
G01 X52.9260 Y-43.7814 F35.00
G01 X52.9168 Y-43.7878 F35.00
G01 X52.9038 Y-43.7952 F35.00
G01 X52.8901 Y-43.8013 F35.00
G01 X52.8055 Y-43.8342 F35.00
G01 X52.7914 Y-43.8389 F35.00
G01 X52.7842 Y-43.8407 F35.00
G01 X52.7732 Y-43.8427 F35.00
G01 X52.7622 Y-43.8439 F35.00
G01 X52.7289 Y-43.8463 F35.00
G01 X45.2242 Y-43.8465 F35.00
G01 X45.2167 Y-43.8463 F35.00
G01 X45.2055 Y-43.8453 F35.00
G01 X45.1908 Y-43.8427 F35.00
G01 X45.0986 Y-43.8217 F35.00
G01 X45.0879 Y-43.8185 F35.00
G01 X45.0740 Y-43.8130 F35.00
G01 X45.0607 Y-43.8062 F35.00
G01 X45.0543 Y-43.8023 F35.00
G01 X45.0451 Y-43.7959 F35.00
G01 X44.9683 Y-43.7346 F35.00
G01 X44.9627 Y-43.7297 F35.00
G01 X44.9547 Y-43.7217 F35.00
G01 X44.9474 Y-43.7132 F35.00
G01 X44.9429 Y-43.7073 F35.00
G01 X44.9387 Y-43.7011 F35.00
G01 X44.9329 Y-43.6914 F35.00
G01 X44.8901 Y-43.6030 F35.00
G01 X44.8857 Y-43.5928 F35.00
G01 X44.8809 Y-43.5787 F35.00
G01 X44.8776 Y-43.5642 F35.00
G01 X44.8715 Y-43.5227 F35.00
G01 X44.8608 Y-43.4555 F35.00
G01 X44.8234 Y-43.3820 F35.00
G01 X44.7650 Y-43.3236 F35.00
G01 X44.6915 Y-43.2862 F35.00
G01 X44.6305 Y-43.2765 F35.00
G01 X42.4495 Y-43.2765 F35.00
G01 X42.3885 Y-43.2862 F35.00
G01 X42.3150 Y-43.3236 F35.00
G01 X42.2566 Y-43.3820 F35.00
G01 X42.2192 Y-43.4555 F35.00
G01 X42.2095 Y-43.5165 F35.00
G01 X42.2093 Y-44.3005 F35.00
G01 X42.2083 Y-44.3117 F35.00
G01 X42.2065 Y-44.3227 F35.00
G01 X42.1847 Y-44.4185 F35.00
G01 X42.1826 Y-44.4257 F35.00
G01 X42.1789 Y-44.4363 F35.00
G01 X42.1760 Y-44.4432 F35.00
G01 X42.1710 Y-44.4533 F35.00
G01 X42.1653 Y-44.4629 F35.00
G01 X42.1589 Y-44.4721 F35.00
G01 X42.1000 Y-44.5460 F35.00
G01 X42.0901 Y-44.5572 F35.00
G01 X42.0791 Y-44.5674 F35.00
G01 X42.0703 Y-44.5743 F35.00
G01 X42.0641 Y-44.5785 F35.00
G01 X42.0511 Y-44.5860 F35.00
G01 X41.9660 Y-44.6270 F35.00
G01 X41.9527 Y-44.6327 F35.00
G01 X41.9389 Y-44.6370 F35.00
G01 X41.9248 Y-44.6400 F35.00
G01 X41.8723 Y-44.6461 F35.00
G01 X41.8622 Y-44.6468 F35.00
G01 X41.6500 Y-44.6470 F35.00
G01 X41.6500 Y-44.7570 F35.00
G01 X42.0700 Y-44.7570 F35.00
G01 X42.0847 Y-44.7577 F35.00
G01 X42.0956 Y-44.7592 F35.00
G01 X42.1029 Y-44.7606 F35.00
G01 X42.1135 Y-44.7635 F35.00
G01 X42.1240 Y-44.7671 F35.00
G01 X42.1341 Y-44.7714 F35.00
G01 X42.1439 Y-44.7765 F35.00
G01 X42.1533 Y-44.7823 F35.00
G01 X42.1623 Y-44.7887 F35.00
G01 X42.1707 Y-44.7959 F35.00
G01 X42.1786 Y-44.8036 F35.00
G01 X42.1860 Y-44.8118 F35.00
G01 X42.1926 Y-44.8206 F35.00
G01 X42.1987 Y-44.8299 F35.00
G01 X42.2040 Y-44.8396 F35.00
G01 X42.2086 Y-44.8496 F35.00
G01 X42.2124 Y-44.8599 F35.00
G01 X42.2155 Y-44.8706 F35.00
G01 X42.2178 Y-44.8814 F35.00
G01 X42.2196 Y-44.8960 F35.00
G01 X42.2200 Y-44.9070 F35.00
G01 X42.2198 Y-47.0544 F35.00
G01 X42.2184 Y-47.0690 F35.00
G01 X42.2155 Y-47.0834 F35.00
G01 X42.2124 Y-47.0941 F35.00
G01 X42.2071 Y-47.1078 F35.00
G01 X42.2005 Y-47.1209 F35.00
G01 X42.1947 Y-47.1303 F35.00
G01 X42.1860 Y-47.1422 F35.00
G01 X42.1761 Y-47.1531 F35.00
G01 X42.1652 Y-47.1630 F35.00
G01 X42.1533 Y-47.1717 F35.00
G01 X42.1439 Y-47.1775 F35.00
G01 X42.1308 Y-47.1841 F35.00
G01 X42.1171 Y-47.1894 F35.00
G01 X42.1064 Y-47.1925 F35.00
G01 X42.0956 Y-47.1948 F35.00
G01 X42.0810 Y-47.1966 F35.00
G01 X42.0700 Y-47.1970 F35.00
G01 X39.9263 Y-47.1970 F35.00
G01 X39.9116 Y-47.1959 F35.00
G01 X39.8971 Y-47.1934 F35.00
G01 X39.8829 Y-47.1894 F35.00
G01 X39.8692 Y-47.1841 F35.00
G01 X39.8561 Y-47.1775 F35.00
G01 X39.8436 Y-47.1696 F35.00
G01 X39.8320 Y-47.1606 F35.00
G01 X39.8214 Y-47.1504 F35.00
G01 X39.8140 Y-47.1422 F35.00
G01 X39.8053 Y-47.1303 F35.00
G01 X39.7977 Y-47.1177 F35.00
G01 X39.7914 Y-47.1044 F35.00
G01 X39.7865 Y-47.0905 F35.00
G01 X39.7829 Y-47.0763 F35.00
G01 X39.7807 Y-47.0617 F35.00
G01 X39.7800 Y-47.0507 F35.00
G01 X39.7800 Y-44.9070 F35.00
G01 X39.7807 Y-44.8923 F35.00
G01 X39.7829 Y-44.8777 F35.00
G01 X39.7854 Y-44.8670 F35.00
G01 X39.7888 Y-44.8565 F35.00
G01 X39.7929 Y-44.8462 F35.00
G01 X39.7977 Y-44.8363 F35.00
G01 X39.8033 Y-44.8268 F35.00
G01 X39.8095 Y-44.8176 F35.00
G01 X39.8164 Y-44.8090 F35.00
G01 X39.8239 Y-44.8009 F35.00
G01 X39.8320 Y-44.7934 F35.00
G01 X39.8406 Y-44.7865 F35.00
G01 X39.8467 Y-44.7823 F35.00
G01 X39.8561 Y-44.7765 F35.00
G01 X39.8659 Y-44.7714 F35.00
G01 X39.8760 Y-44.7671 F35.00
G01 X39.8865 Y-44.7635 F35.00
G01 X39.8971 Y-44.7606 F35.00
G01 X39.9044 Y-44.7592 F35.00
G01 X39.9153 Y-44.7577 F35.00
G01 X39.9300 Y-44.7570 F35.00
G01 X40.3500 Y-44.7570 F35.00
G01 X40.3500 Y-44.6470 F35.00
G01 X39.9095 Y-44.6470 F35.00
G01 X39.8020 Y-44.6638 F35.00
G01 X39.7873 Y-44.6647 F35.00
G01 X39.7750 Y-44.6643 F35.00
G01 X39.7285 Y-44.6685 F35.00
G01 X39.7173 Y-44.6691 F35.00
G01 X39.7024 Y-44.6686 F35.00
G01 X39.6912 Y-44.6672 F35.00
G01 X39.6802 Y-44.6650 F35.00
G01 X39.6659 Y-44.6608 F35.00
G01 X39.5739 Y-44.6263 F35.00
G01 X39.5603 Y-44.6200 F35.00
G01 X39.5475 Y-44.6124 F35.00
G01 X39.5354 Y-44.6035 F35.00
G01 X39.5243 Y-44.5935 F35.00
G01 X39.4589 Y-44.5252 F35.00
G01 X39.4515 Y-44.5168 F35.00
G01 X39.4426 Y-44.5048 F35.00
G01 X39.4349 Y-44.4920 F35.00
G01 X39.4300 Y-44.4819 F35.00
G01 X39.4247 Y-44.4679 F35.00
G01 X39.3967 Y-44.3816 F35.00
G01 X39.3936 Y-44.3710 F35.00
G01 X39.3914 Y-44.3602 F35.00
G01 X39.3900 Y-44.3493 F35.00
G01 X39.3887 Y-44.3237 F35.00
G01 X39.3885 Y-37.7996 F35.00
G01 X39.3892 Y-37.7847 F35.00
G01 X39.3908 Y-37.7736 F35.00
G01 X39.3923 Y-37.7663 F35.00
G01 X39.4125 Y-37.6778 F35.00
G01 X39.4153 Y-37.6671 F35.00
G01 X39.4203 Y-37.6532 F35.00
G01 X39.4267 Y-37.6400 F35.00
G01 X39.4343 Y-37.6274 F35.00
G01 X39.4759 Y-37.5686 F35.00
G01 X39.4825 Y-37.5600 F35.00
G01 X39.4922 Y-37.5493 F35.00
G01 X40.0479 Y-36.9937 F35.00
G01 X40.0563 Y-36.9863 F35.00
G01 X40.0683 Y-36.9774 F35.00
G01 X40.1483 Y-36.9271 F35.00
G01 X40.1614 Y-36.9197 F35.00
G01 X40.1682 Y-36.9166 F35.00
G01 X40.1786 Y-36.9125 F35.00
G01 X40.1929 Y-36.9083 F35.00
G01 X40.2076 Y-36.9055 F35.00
G01 X40.3016 Y-36.8948 F35.00
G01 X40.3090 Y-36.8942 F35.00
G01 X40.3202 Y-36.8939 F35.00
G01 X40.3277 Y-36.8942 F35.00
G01 X40.3389 Y-36.8953 F35.00
G01 X40.3536 Y-36.8981 F35.00
G01 X40.3644 Y-36.9011 F35.00
G01 X40.4536 Y-36.9323 F35.00
G01 X40.4640 Y-36.9364 F35.00
G01 X40.4708 Y-36.9396 F35.00
G01 X40.4807 Y-36.9449 F35.00
G01 X40.4870 Y-36.9489 F35.00
G01 X40.4961 Y-36.9555 F35.00
G01 X40.5074 Y-36.9652 F35.00
G01 X40.5769 Y-37.0347 F35.00
G01 X40.5819 Y-37.0402 F35.00
G01 X40.5889 Y-37.0490 F35.00
G01 X40.5953 Y-37.0583 F35.00
G01 X40.5991 Y-37.0647 F35.00
G01 X40.6042 Y-37.0747 F35.00
G01 X40.6086 Y-37.0850 F35.00
G01 X40.6410 Y-37.1778 F35.00
G01 X40.6432 Y-37.1851 F35.00
G01 X40.6457 Y-37.1963 F35.00
G01 X40.6474 Y-37.2076 F35.00
G01 X40.6480 Y-37.2152 F35.00
G01 X40.6482 Y-37.2266 F35.00
G01 X40.6472 Y-37.2798 F35.00
G01 X40.6465 Y-37.2916 F35.00
G01 X40.6201 Y-37.4684 F35.00
G01 X40.6201 Y-37.7156 F35.00
G01 X40.6570 Y-37.9602 F35.00
G01 X40.7298 Y-38.1965 F35.00
G01 X40.8371 Y-38.4193 F35.00
G01 X40.9764 Y-38.6236 F35.00
G01 X41.1446 Y-38.8049 F35.00
G01 X41.3380 Y-38.9590 F35.00
G01 X41.5521 Y-39.0827 F35.00
G01 X41.7823 Y-39.1730 F35.00
G01 X42.0234 Y-39.2280 F35.00
G01 X42.2083 Y-39.2419 F35.00
G01 X42.3317 Y-39.2419 F35.00
G01 X42.5166 Y-39.2280 F35.00
G01 X42.7577 Y-39.1730 F35.00
G01 X42.9879 Y-39.0827 F35.00
G01 X43.2020 Y-38.9590 F35.00
G01 X43.3954 Y-38.8049 F35.00
G01 X43.5636 Y-38.6236 F35.00
G01 X43.7029 Y-38.4193 F35.00
G01 X43.8102 Y-38.1965 F35.00
G01 X43.8830 Y-37.9602 F35.00
G01 X43.9199 Y-37.7156 F35.00
G01 X43.9199 Y-37.4684 F35.00
G01 X43.8830 Y-37.2238 F35.00
G01 X43.8102 Y-36.9875 F35.00
G01 X43.7029 Y-36.7647 F35.00
G01 X43.5636 Y-36.5604 F35.00
G01 X43.4215 Y-36.4073 F35.00
G01 X43.4119 Y-36.3958 F35.00
G01 X43.4034 Y-36.3835 F35.00
G01 X43.3543 Y-36.2984 F35.00
G01 X43.3478 Y-36.2849 F35.00
G01 X43.3427 Y-36.2708 F35.00
G01 X43.3390 Y-36.2563 F35.00
G01 X43.3368 Y-36.2416 F35.00
G01 X43.3297 Y-36.1473 F35.00
G01 X43.3293 Y-36.1324 F35.00
G01 X43.3304 Y-36.1174 F35.00
G01 X43.3330 Y-36.1027 F35.00
G01 X43.3349 Y-36.0955 F35.00
G01 X43.3383 Y-36.0848 F35.00
G01 X43.3728 Y-35.9968 F35.00
G01 X43.3773 Y-35.9865 F35.00
G01 X43.3825 Y-35.9766 F35.00
G01 X43.3906 Y-35.9640 F35.00
G01 X43.3975 Y-35.9552 F35.00
G01 X43.4050 Y-35.9468 F35.00
G01 X43.4797 Y-35.8774 F35.00
G01 X43.4914 Y-35.8680 F35.00
G01 X43.5008 Y-35.8618 F35.00
G01 X43.5072 Y-35.8581 F35.00
G01 X43.5207 Y-35.8516 F35.00
G01 X43.5348 Y-35.8465 F35.00
G01 X43.6249 Y-35.8187 F35.00
G01 X43.6353 Y-35.8162 F35.00
G01 X43.6494 Y-35.8140 F35.00
G01 X43.6601 Y-35.8132 F35.00
G01 X43.6810 Y-35.8125 F35.00
G01 X45.7901 Y-35.8125 F35.00
G01 X45.8050 Y-35.8137 F35.00
G01 X45.8161 Y-35.8155 F35.00
G01 X45.9082 Y-35.8365 F35.00
G01 X45.9224 Y-35.8404 F35.00
G01 X45.9293 Y-35.8429 F35.00
G01 X45.9395 Y-35.8473 F35.00
G01 X45.9524 Y-35.8543 F35.00
G01 X45.9617 Y-35.8604 F35.00
G01 X46.0203 Y-35.9020 F35.00
G01 X46.0288 Y-35.9088 F35.00
G01 X46.0367 Y-35.9162 F35.00
G01 X47.9342 Y-37.8137 F35.00
G01 X47.9422 Y-37.8224 F35.00
G01 X47.9647 Y-37.8487 F35.00
G01 X48.0034 Y-37.8836 F35.00
G01 X48.0244 Y-37.9039 F35.00
G01 X48.0468 Y-37.9227 F35.00
G01 X48.0855 Y-37.9576 F35.00
G01 X48.1163 Y-37.9787 F35.00
G01 X48.1662 Y-38.0042 F35.00
G01 X48.1790 Y-38.0112 F35.00
G01 X48.2242 Y-38.0373 F35.00
G01 X48.2586 Y-38.0515 F35.00
G01 X48.3090 Y-38.0650 F35.00
G01 X48.3229 Y-38.0691 F35.00
G01 X48.3763 Y-38.0864 F35.00
G01 X48.4130 Y-38.0932 F35.00
G01 X48.4651 Y-38.0959 F35.00
G01 X48.4941 Y-38.0985 F35.00
G01 X48.5234 Y-38.0990 F35.00
G01 X48.5754 Y-38.1017 F35.00
G01 X48.6099 Y-38.0990 F35.00
G01 X48.6217 Y-38.0985 F35.00
G01 X52.0023 Y-38.0985 F35.00
G01 X52.0141 Y-38.0990 F35.00
G01 X52.0486 Y-38.1017 F35.00
G01 X52.1006 Y-38.0990 F35.00
G01 X52.1299 Y-38.0985 F35.00
G01 X52.1589 Y-38.0959 F35.00
G01 X52.2110 Y-38.0932 F35.00
G01 X52.2477 Y-38.0864 F35.00
G01 X52.3010 Y-38.0691 F35.00
G01 X52.3150 Y-38.0650 F35.00
G01 X52.3654 Y-38.0515 F35.00
G01 X52.3998 Y-38.0373 F35.00
G01 X52.4484 Y-38.0093 F35.00
G01 X52.4612 Y-38.0024 F35.00
G01 X52.5077 Y-37.9787 F35.00
G01 X52.5384 Y-37.9576 F35.00
G01 X52.5772 Y-37.9227 F35.00
G01 X52.5996 Y-37.9039 F35.00
G01 X52.6205 Y-37.8836 F35.00
G01 X52.6593 Y-37.8487 F35.00
G01 X52.6818 Y-37.8224 F35.00
G01 X52.6898 Y-37.8137 F35.00
G01 X53.2305 Y-37.2730 F35.00
G01 X53.2391 Y-37.2650 F35.00
G01 X53.2655 Y-37.2426 F35.00
G01 X53.3004 Y-37.2038 F35.00
G01 X53.3207 Y-37.1828 F35.00
G01 X53.3394 Y-37.1604 F35.00
G01 X53.3743 Y-37.1217 F35.00
G01 X53.3954 Y-37.0910 F35.00
G01 X53.4191 Y-37.0445 F35.00
G01 X53.4260 Y-37.0317 F35.00
G01 X53.4540 Y-36.9831 F35.00
G01 X53.4683 Y-36.9486 F35.00
G01 X53.4829 Y-36.8945 F35.00
G01 X53.4870 Y-36.8805 F35.00
G01 X53.5032 Y-36.8309 F35.00
G01 X53.5100 Y-36.7943 F35.00
G01 X53.5127 Y-36.7422 F35.00
G01 X53.5153 Y-36.7131 F35.00
G01 X53.5157 Y-36.6839 F35.00
G01 X53.5185 Y-36.6318 F35.00
G01 X53.5153 Y-36.5895 F35.00
G01 X53.5153 Y-36.4822 F35.00
G01 X53.5157 Y-36.4710 F35.00
G01 X53.5169 Y-36.4598 F35.00
G01 X53.5190 Y-36.4488 F35.00
G01 X53.5411 Y-36.3530 F35.00
G01 X53.5445 Y-36.3424 F35.00
G01 X53.5503 Y-36.3286 F35.00
G01 X53.5575 Y-36.3154 F35.00
G01 X53.5637 Y-36.3061 F35.00
G01 X53.6272 Y-36.2263 F35.00
G01 X53.6347 Y-36.2179 F35.00
G01 X53.6456 Y-36.2078 F35.00
G01 X53.6545 Y-36.2009 F35.00
G01 X53.6607 Y-36.1967 F35.00
G01 X53.6703 Y-36.1909 F35.00
G01 X53.6770 Y-36.1875 F35.00
G01 X53.7621 Y-36.1466 F35.00
G01 X53.7725 Y-36.1424 F35.00
G01 X53.7867 Y-36.1380 F35.00
G01 X53.8012 Y-36.1350 F35.00
G01 X53.8390 Y-36.1295 F35.00
G01 X53.9182 Y-36.1169 F35.00
G01 X53.9306 Y-36.1137 F35.00
G01 X53.9416 Y-36.1117 F35.00
G01 X54.0395 Y-36.1027 F35.00
G01 X54.0504 Y-36.1021 F35.00
G01 X54.0576 Y-36.1022 F35.00
G01 X54.0648 Y-36.1026 F35.00
G01 X54.0756 Y-36.1038 F35.00
G01 X54.0863 Y-36.1059 F35.00
G01 X54.1312 Y-36.1164 F35.00
G01 X54.2043 Y-36.1280 F35.00
G01 X54.6448 Y-36.1280 F35.00
G01 X54.6448 Y-36.0180 F35.00
G01 X54.2248 Y-36.0180 F35.00
G01 X54.2100 Y-36.0173 F35.00
G01 X54.1955 Y-36.0151 F35.00
G01 X54.1847 Y-36.0126 F35.00
G01 X54.1742 Y-36.0092 F35.00
G01 X54.1640 Y-36.0051 F35.00
G01 X54.1573 Y-36.0020 F35.00
G01 X54.1476 Y-35.9967 F35.00
G01 X54.1384 Y-35.9906 F35.00
G01 X54.1296 Y-35.9840 F35.00
G01 X54.1213 Y-35.9766 F35.00
G01 X54.1136 Y-35.9687 F35.00
G01 X54.1065 Y-35.9603 F35.00
G01 X54.1000 Y-35.9513 F35.00
G01 X54.0961 Y-35.9451 F35.00
G01 X54.0908 Y-35.9354 F35.00
G01 X54.0862 Y-35.9254 F35.00
G01 X54.0823 Y-35.9151 F35.00
G01 X54.0792 Y-35.9044 F35.00
G01 X54.0776 Y-35.8973 F35.00
G01 X54.0759 Y-35.8864 F35.00
G01 X54.0752 Y-35.8790 F35.00
G01 X54.0748 Y-35.8680 F35.00
G01 X54.0748 Y-33.7280 F35.00
G01 X54.0755 Y-33.7133 F35.00
G01 X54.0770 Y-33.7024 F35.00
G01 X54.0792 Y-33.6916 F35.00
G01 X54.0823 Y-33.6809 F35.00
G01 X54.0862 Y-33.6706 F35.00
G01 X54.0925 Y-33.6573 F35.00
G01 X54.1000 Y-33.6447 F35.00
G01 X54.1065 Y-33.6357 F35.00
G01 X54.1136 Y-33.6273 F35.00
G01 X54.1240 Y-33.6169 F35.00
G01 X54.1325 Y-33.6097 F35.00
G01 X54.1414 Y-33.6033 F35.00
G01 X54.1508 Y-33.5975 F35.00
G01 X54.1640 Y-33.5909 F35.00
G01 X54.1777 Y-33.5856 F35.00
G01 X54.1883 Y-33.5825 F35.00
G01 X54.1991 Y-33.5802 F35.00
G01 X54.2064 Y-33.5791 F35.00
G01 X54.2174 Y-33.5782 F35.00
G01 X54.2248 Y-33.5780 F35.00
G01 X54.6448 Y-33.5780 F35.00
G01 X54.6448 Y-33.4680 F35.00
G01 X54.2043 Y-33.4680 F35.00
G01 X54.1313 Y-33.4796 F35.00
G01 X54.1169 Y-33.4831 F35.00
G01 X54.1058 Y-33.4848 F35.00
G01 X54.0080 Y-33.4936 F35.00
G01 X53.9971 Y-33.4939 F35.00
G01 X53.9899 Y-33.4937 F35.00
G01 X53.9791 Y-33.4927 F35.00
G01 X53.9683 Y-33.4909 F35.00
G01 X53.9291 Y-33.4820 F35.00
G01 X53.9182 Y-33.4791 F35.00
G01 X53.8390 Y-33.4665 F35.00
G01 X53.8303 Y-33.4654 F35.00
G01 X53.8147 Y-33.4622 F35.00
G01 X53.8039 Y-33.4592 F35.00
G01 X53.7213 Y-33.4331 F35.00
G01 X53.7108 Y-33.4294 F35.00
G01 X53.7007 Y-33.4248 F35.00
G01 X53.6908 Y-33.4196 F35.00
G01 X53.6845 Y-33.4157 F35.00
G01 X53.6755 Y-33.4093 F35.00
G01 X53.6669 Y-33.4022 F35.00
G01 X53.5951 Y-33.3351 F35.00
G01 X53.5874 Y-33.3269 F35.00
G01 X53.5803 Y-33.3182 F35.00
G01 X53.5720 Y-33.3058 F35.00
G01 X53.5665 Y-33.2960 F35.00
G01 X53.5633 Y-33.2893 F35.00
G01 X53.5263 Y-33.1942 F35.00
G01 X53.5219 Y-33.1800 F35.00
G01 X53.5190 Y-33.1655 F35.00
G01 X53.5178 Y-33.1544 F35.00
G01 X53.5154 Y-33.1211 F35.00
G01 X53.5153 Y-32.9262 F35.00
G01 X53.5160 Y-32.9112 F35.00
G01 X53.5182 Y-32.8964 F35.00
G01 X53.5411 Y-32.7970 F35.00
G01 X53.5458 Y-32.7829 F35.00
G01 X53.5520 Y-32.7692 F35.00
G01 X53.5575 Y-32.7594 F35.00
G01 X53.5659 Y-32.7471 F35.00
G01 X53.6272 Y-32.6703 F35.00
G01 X53.6321 Y-32.6647 F35.00
G01 X53.6400 Y-32.6567 F35.00
G01 X53.6515 Y-32.6471 F35.00
G01 X53.6638 Y-32.6387 F35.00
G01 X53.6770 Y-32.6315 F35.00
G01 X53.7621 Y-32.5906 F35.00
G01 X53.7690 Y-32.5877 F35.00
G01 X53.7795 Y-32.5840 F35.00
G01 X53.7867 Y-32.5820 F35.00
G01 X53.7976 Y-32.5796 F35.00
G01 X53.8390 Y-32.5735 F35.00
G01 X53.9182 Y-32.5609 F35.00
G01 X53.9306 Y-32.5577 F35.00
G01 X53.9416 Y-32.5557 F35.00
G01 X54.0395 Y-32.5467 F35.00
G01 X54.0504 Y-32.5461 F35.00
G01 X54.0648 Y-32.5466 F35.00
G01 X54.0792 Y-32.5484 F35.00
G01 X54.1220 Y-32.5580 F35.00
G01 X54.1312 Y-32.5604 F35.00
G01 X54.2043 Y-32.5720 F35.00
G01 X54.6448 Y-32.5720 F35.00
G01 X54.6448 Y-32.4620 F35.00
G01 X54.2248 Y-32.4620 F35.00
G01 X54.2100 Y-32.4613 F35.00
G01 X54.1955 Y-32.4591 F35.00
G01 X54.1847 Y-32.4566 F35.00
G01 X54.1742 Y-32.4532 F35.00
G01 X54.1640 Y-32.4491 F35.00
G01 X54.1573 Y-32.4460 F35.00
G01 X54.1476 Y-32.4407 F35.00
G01 X54.1384 Y-32.4346 F35.00
G01 X54.1296 Y-32.4280 F35.00
G01 X54.1213 Y-32.4206 F35.00
G01 X54.1136 Y-32.4127 F35.00
G01 X54.1065 Y-32.4043 F35.00
G01 X54.1000 Y-32.3953 F35.00
G01 X54.0961 Y-32.3891 F35.00
G01 X54.0908 Y-32.3794 F35.00
G01 X54.0862 Y-32.3694 F35.00
G01 X54.0823 Y-32.3591 F35.00
G01 X54.0792 Y-32.3484 F35.00
G01 X54.0776 Y-32.3413 F35.00
G01 X54.0759 Y-32.3304 F35.00
G01 X54.0752 Y-32.3230 F35.00
G01 X54.0748 Y-32.3120 F35.00
G01 X54.0748 Y-30.1720 F35.00
G01 X54.0755 Y-30.1573 F35.00
G01 X54.0770 Y-30.1464 F35.00
G01 X54.0792 Y-30.1356 F35.00
G01 X54.0823 Y-30.1249 F35.00
G01 X54.0876 Y-30.1112 F35.00
G01 X54.0925 Y-30.1013 F35.00
G01 X54.1000 Y-30.0887 F35.00
G01 X54.1065 Y-30.0797 F35.00
G01 X54.1136 Y-30.0713 F35.00
G01 X54.1213 Y-30.0634 F35.00
G01 X54.1325 Y-30.0537 F35.00
G01 X54.1414 Y-30.0473 F35.00
G01 X54.1508 Y-30.0415 F35.00
G01 X54.1640 Y-30.0349 F35.00
G01 X54.1742 Y-30.0308 F35.00
G01 X54.1883 Y-30.0265 F35.00
G01 X54.1991 Y-30.0242 F35.00
G01 X54.2064 Y-30.0231 F35.00
G01 X54.2174 Y-30.0222 F35.00
G01 X54.2248 Y-30.0220 F35.00
G01 X54.6448 Y-30.0220 F35.00
G01 X54.6448 Y-29.9120 F35.00
G01 X54.2043 Y-29.9120 F35.00
G01 X54.1313 Y-29.9236 F35.00
G01 X54.1169 Y-29.9271 F35.00
G01 X54.1058 Y-29.9288 F35.00
G01 X54.0080 Y-29.9376 F35.00
G01 X53.9971 Y-29.9379 F35.00
G01 X53.9899 Y-29.9377 F35.00
G01 X53.9791 Y-29.9367 F35.00
G01 X53.9683 Y-29.9349 F35.00
G01 X53.9291 Y-29.9260 F35.00
G01 X53.9182 Y-29.9231 F35.00
G01 X53.8266 Y-29.9088 F35.00
G01 X53.8075 Y-29.9043 F35.00
G01 X53.7213 Y-29.8771 F35.00
G01 X53.7108 Y-29.8734 F35.00
G01 X53.7007 Y-29.8688 F35.00
G01 X53.6908 Y-29.8636 F35.00
G01 X53.6784 Y-29.8555 F35.00
G01 X53.6697 Y-29.8486 F35.00
G01 X53.5951 Y-29.7791 F35.00
G01 X53.5850 Y-29.7681 F35.00
G01 X53.5760 Y-29.7561 F35.00
G01 X53.5683 Y-29.7433 F35.00
G01 X53.5618 Y-29.7298 F35.00
G01 X53.5276 Y-29.6417 F35.00
G01 X53.5239 Y-29.6312 F35.00
G01 X53.5203 Y-29.6168 F35.00
G01 X53.5185 Y-29.6058 F35.00
G01 X53.5153 Y-29.5615 F35.00
G01 X53.5153 Y-29.4505 F35.00
G01 X53.5185 Y-29.4082 F35.00
G01 X53.5157 Y-29.3561 F35.00
G01 X53.5153 Y-29.3269 F35.00
G01 X53.5127 Y-29.2978 F35.00
G01 X53.5100 Y-29.2457 F35.00
G01 X53.5032 Y-29.2091 F35.00
G01 X53.4859 Y-29.1557 F35.00
G01 X53.4818 Y-29.1417 F35.00
G01 X53.4683 Y-29.0914 F35.00
G01 X53.4540 Y-29.0569 F35.00
G01 X53.4279 Y-29.0117 F35.00
G01 X53.4210 Y-28.9990 F35.00
G01 X53.3954 Y-28.9490 F35.00
G01 X53.3743 Y-28.9183 F35.00
G01 X53.3394 Y-28.8796 F35.00
G01 X53.3207 Y-28.8572 F35.00
G01 X53.3004 Y-28.8362 F35.00
G01 X53.2655 Y-28.7974 F35.00
G01 X53.2391 Y-28.7750 F35.00
G01 X53.2305 Y-28.7670 F35.00
G01 X52.6898 Y-28.2263 F35.00
G01 X52.6818 Y-28.2176 F35.00
G01 X52.6593 Y-28.1913 F35.00
G01 X52.6206 Y-28.1564 F35.00
G01 X52.5996 Y-28.1361 F35.00
G01 X52.5772 Y-28.1173 F35.00
G01 X52.5385 Y-28.0824 F35.00
G01 X52.5077 Y-28.0613 F35.00
G01 X52.4613 Y-28.0376 F35.00
G01 X52.4484 Y-28.0307 F35.00
G01 X52.3998 Y-28.0027 F35.00
G01 X52.3654 Y-27.9885 F35.00
G01 X52.3150 Y-27.9750 F35.00
G01 X52.3010 Y-27.9709 F35.00
G01 X52.2477 Y-27.9536 F35.00
G01 X52.2110 Y-27.9468 F35.00
G01 X52.1589 Y-27.9441 F35.00
G01 X52.1299 Y-27.9415 F35.00
G01 X52.1006 Y-27.9410 F35.00
G01 X52.0486 Y-27.9383 F35.00
G01 X52.0141 Y-27.9410 F35.00
G01 X52.0023 Y-27.9415 F35.00
G01 X48.6217 Y-27.9415 F35.00
G01 X48.6099 Y-27.9410 F35.00
G01 X48.5754 Y-27.9383 F35.00
G01 X48.5234 Y-27.9410 F35.00
G01 X48.4941 Y-27.9415 F35.00
G01 X48.4650 Y-27.9441 F35.00
G01 X48.4130 Y-27.9468 F35.00
G01 X48.3763 Y-27.9536 F35.00
G01 X48.3230 Y-27.9709 F35.00
G01 X48.3090 Y-27.9750 F35.00
G01 X48.2586 Y-27.9885 F35.00
G01 X48.2242 Y-28.0027 F35.00
G01 X48.1790 Y-28.0288 F35.00
G01 X48.1662 Y-28.0358 F35.00
G01 X48.1163 Y-28.0613 F35.00
G01 X48.0856 Y-28.0824 F35.00
G01 X48.0468 Y-28.1173 F35.00
G01 X48.0244 Y-28.1361 F35.00
G01 X48.0034 Y-28.1564 F35.00
G01 X47.9647 Y-28.1913 F35.00
G01 X47.9422 Y-28.2176 F35.00
G01 X47.9342 Y-28.2263 F35.00
G01 X46.2880 Y-29.8724 F35.00
G01 X46.2767 Y-29.8822 F35.00
G01 X46.2644 Y-29.8908 F35.00
G01 X46.1844 Y-29.9410 F35.00
G01 X46.1747 Y-29.9463 F35.00
G01 X46.1647 Y-29.9508 F35.00
G01 X46.1508 Y-29.9557 F35.00
G01 X46.1437 Y-29.9577 F35.00
G01 X46.1329 Y-29.9599 F35.00
G01 X46.0619 Y-29.9719 F35.00
G01 X46.0512 Y-29.9731 F35.00
G01 X46.0404 Y-29.9735 F35.00
G01 X43.7290 Y-29.9735 F35.00
G01 X43.7141 Y-29.9728 F35.00
G01 X43.6993 Y-29.9705 F35.00
G01 X43.5998 Y-29.9477 F35.00
G01 X43.5857 Y-29.9429 F35.00
G01 X43.5720 Y-29.9368 F35.00
G01 X43.5591 Y-29.9293 F35.00
G01 X43.5470 Y-29.9206 F35.00
G01 X43.4760 Y-29.8640 F35.00
G01 X43.4675 Y-29.8566 F35.00
G01 X43.4595 Y-29.8487 F35.00
G01 X43.4522 Y-29.8402 F35.00
G01 X43.4456 Y-29.8312 F35.00
G01 X43.4396 Y-29.8217 F35.00
G01 X43.4343 Y-29.8118 F35.00
G01 X43.3934 Y-29.7266 F35.00
G01 X43.3879 Y-29.7127 F35.00
G01 X43.3839 Y-29.6983 F35.00
G01 X43.3813 Y-29.6835 F35.00
G01 X43.3801 Y-29.6686 F35.00
G01 X43.3801 Y-29.5741 F35.00
G01 X43.3808 Y-29.5592 F35.00
G01 X43.3824 Y-29.5481 F35.00
G01 X43.3847 Y-29.5371 F35.00
G01 X43.3879 Y-29.5263 F35.00
G01 X43.3919 Y-29.5158 F35.00
G01 X43.4356 Y-29.4247 F35.00
G01 X43.4409 Y-29.4151 F35.00
G01 X43.4448 Y-29.4090 F35.00
G01 X43.4535 Y-29.3973 F35.00
G01 X43.4676 Y-29.3808 F35.00
G01 X43.5636 Y-29.2773 F35.00
G01 X43.7029 Y-29.0730 F35.00
G01 X43.8102 Y-28.8502 F35.00
G01 X43.8830 Y-28.6139 F35.00
G01 X43.9199 Y-28.3694 F35.00
G01 X43.9199 Y-28.1221 F35.00
G01 X43.8830 Y-27.8776 F35.00
G01 X43.8102 Y-27.6413 F35.00
G01 X43.7029 Y-27.4185 F35.00
G01 X43.5636 Y-27.2142 F35.00
G01 X43.3954 Y-27.0329 F35.00
G01 X43.2020 Y-26.8787 F35.00
G01 X42.9879 Y-26.7551 F35.00
G01 X42.7577 Y-26.6647 F35.00
G01 X42.5166 Y-26.6097 F35.00
G01 X42.3317 Y-26.5958 F35.00
G01 X42.2083 Y-26.5958 F35.00
G01 X42.0234 Y-26.6097 F35.00
G01 X41.7823 Y-26.6647 F35.00
G01 X41.5521 Y-26.7551 F35.00
G01 X41.3380 Y-26.8787 F35.00
G01 X41.1446 Y-27.0329 F35.00
G01 X40.9764 Y-27.2142 F35.00
G01 X40.8371 Y-27.4185 F35.00
G01 X40.7298 Y-27.6413 F35.00
G01 X40.6570 Y-27.8776 F35.00
G01 X40.6201 Y-28.1221 F35.00
G01 X40.6201 Y-28.3694 F35.00
G01 X40.6570 Y-28.6139 F35.00
G01 X40.7008 Y-28.7560 F35.00
G01 X40.7037 Y-28.7669 F35.00
G01 X40.7058 Y-28.7779 F35.00
G01 X40.7070 Y-28.7890 F35.00
G01 X40.7138 Y-28.8796 F35.00
G01 X40.7142 Y-28.8908 F35.00
G01 X40.7135 Y-28.9057 F35.00
G01 X40.7113 Y-28.9205 F35.00
G01 X40.7076 Y-28.9350 F35.00
G01 X40.7039 Y-28.9456 F35.00
G01 X40.6678 Y-29.0370 F35.00
G01 X40.6610 Y-29.0503 F35.00
G01 X40.6571 Y-29.0567 F35.00
G01 X40.6506 Y-29.0659 F35.00
G01 X40.6435 Y-29.0746 F35.00
G01 X40.6358 Y-29.0827 F35.00
G01 X40.5638 Y-29.1495 F35.00
G01 X40.5551 Y-29.1566 F35.00
G01 X40.5459 Y-29.1631 F35.00
G01 X40.5395 Y-29.1670 F35.00
G01 X40.5296 Y-29.1722 F35.00
G01 X40.5193 Y-29.1767 F35.00
G01 X40.5123 Y-29.1792 F35.00
G01 X40.4184 Y-29.2082 F35.00
G01 X40.4075 Y-29.2108 F35.00
G01 X40.4001 Y-29.2121 F35.00
G01 X40.3890 Y-29.2134 F35.00
G01 X40.3815 Y-29.2138 F35.00
G01 X40.3703 Y-29.2136 F35.00
G01 X40.3591 Y-29.2126 F35.00
G01 X40.2586 Y-29.1974 F35.00
G01 X40.2481 Y-29.1949 F35.00
G01 X40.2345 Y-29.1904 F35.00
G01 X40.2246 Y-29.1862 F35.00
G01 X40.2150 Y-29.1813 F35.00
G01 X40.2058 Y-29.1758 F35.00
G01 X40.1329 Y-29.1280 F35.00
G01 X40.1237 Y-29.1210 F35.00
G01 X40.1150 Y-29.1134 F35.00
G01 X39.4870 Y-28.4853 F35.00
G01 X39.4776 Y-28.4737 F35.00
G01 X39.4712 Y-28.4644 F35.00
G01 X39.4210 Y-28.3844 F35.00
G01 X39.4157 Y-28.3747 F35.00
G01 X39.4112 Y-28.3647 F35.00
G01 X39.4063 Y-28.3508 F35.00
G01 X39.4027 Y-28.3365 F35.00
G01 X39.3906 Y-28.2655 F35.00
G01 X39.3892 Y-28.2548 F35.00
G01 X39.3885 Y-28.2404 F35.00
G01 X39.3885 Y-21.5208 F35.00
G01 X39.3892 Y-21.5059 F35.00
G01 X39.3915 Y-21.4911 F35.00
G01 X39.4143 Y-21.3917 F35.00
G01 X39.4191 Y-21.3775 F35.00
G01 X39.4252 Y-21.3639 F35.00
G01 X39.4307 Y-21.3541 F35.00
G01 X39.4391 Y-21.3417 F35.00
G01 X39.5004 Y-21.2649 F35.00
G01 X39.5054 Y-21.2593 F35.00
G01 X39.5133 Y-21.2513 F35.00
G01 X39.5247 Y-21.2417 F35.00
G01 X39.5371 Y-21.2333 F35.00
G01 X39.5469 Y-21.2278 F35.00
G01 X39.6320 Y-21.1868 F35.00
G01 X39.6388 Y-21.1837 F35.00
G01 X39.6493 Y-21.1797 F35.00
G01 X39.6601 Y-21.1766 F35.00
G01 X39.6711 Y-21.1742 F35.00
G01 X39.6785 Y-21.1731 F35.00
G01 X39.6896 Y-21.1721 F35.00
G01 X39.7916 Y-21.1720 F35.00
G01 X39.7989 Y-21.1723 F35.00
G01 X39.8098 Y-21.1735 F35.00
G01 X39.8207 Y-21.1755 F35.00
G01 X39.8319 Y-21.1785 F35.00
G01 X39.9095 Y-21.1907 F35.00
G01 X40.3500 Y-21.1907 F35.00
G01 X40.3500 Y-21.0807 F35.00
G01 X39.9300 Y-21.0807 F35.00
G01 X39.9190 Y-21.0803 F35.00
G01 X39.9116 Y-21.0796 F35.00
G01 X39.8971 Y-21.0771 F35.00
G01 X39.8865 Y-21.0743 F35.00
G01 X39.8760 Y-21.0707 F35.00
G01 X39.8659 Y-21.0663 F35.00
G01 X39.8561 Y-21.0613 F35.00
G01 X39.8467 Y-21.0555 F35.00
G01 X39.8377 Y-21.0490 F35.00
G01 X39.8293 Y-21.0419 F35.00
G01 X39.8239 Y-21.0368 F35.00
G01 X39.8164 Y-21.0287 F35.00
G01 X39.8095 Y-21.0201 F35.00
G01 X39.8033 Y-21.0110 F35.00
G01 X39.7977 Y-21.0015 F35.00
G01 X39.7929 Y-20.9915 F35.00
G01 X39.7888 Y-20.9813 F35.00
G01 X39.7854 Y-20.9708 F35.00
G01 X39.7829 Y-20.9600 F35.00
G01 X39.7807 Y-20.9455 F35.00
G01 X39.7800 Y-20.9307 F35.00
G01 X39.7800 Y-18.7871 F35.00
G01 X39.7807 Y-18.7760 F35.00
G01 X39.7829 Y-18.7615 F35.00
G01 X39.7865 Y-18.7472 F35.00
G01 X39.7914 Y-18.7333 F35.00
G01 X39.7977 Y-18.7200 F35.00
G01 X39.8053 Y-18.7074 F35.00
G01 X39.8140 Y-18.6956 F35.00
G01 X39.8214 Y-18.6873 F35.00
G01 X39.8320 Y-18.6772 F35.00
G01 X39.8436 Y-18.6681 F35.00
G01 X39.8561 Y-18.6602 F35.00
G01 X39.8692 Y-18.6536 F35.00
G01 X39.8829 Y-18.6483 F35.00
G01 X39.8971 Y-18.6444 F35.00
G01 X39.9116 Y-18.6419 F35.00
G01 X39.9263 Y-18.6408 F35.00
G01 X42.0774 Y-18.6409 F35.00
G01 X42.0920 Y-18.6424 F35.00
G01 X42.1064 Y-18.6452 F35.00
G01 X42.1205 Y-18.6495 F35.00
G01 X42.1308 Y-18.6536 F35.00
G01 X42.1439 Y-18.6602 F35.00
G01 X42.1564 Y-18.6681 F35.00
G01 X42.1652 Y-18.6748 F35.00
G01 X42.1761 Y-18.6847 F35.00
G01 X42.1860 Y-18.6956 F35.00
G01 X42.1947 Y-18.7074 F35.00
G01 X42.2005 Y-18.7168 F35.00
G01 X42.2071 Y-18.7300 F35.00
G01 X42.2124 Y-18.7437 F35.00
G01 X42.2155 Y-18.7543 F35.00
G01 X42.2184 Y-18.7687 F35.00
G01 X42.2198 Y-18.7834 F35.00
G01 X42.2200 Y-20.9307 F35.00
G01 X42.2193 Y-20.9455 F35.00
G01 X42.2178 Y-20.9564 F35.00
G01 X42.2155 Y-20.9672 F35.00
G01 X42.2124 Y-20.9778 F35.00
G01 X42.2086 Y-20.9882 F35.00
G01 X42.2040 Y-20.9982 F35.00
G01 X42.1987 Y-21.0079 F35.00
G01 X42.1926 Y-21.0171 F35.00
G01 X42.1860 Y-21.0259 F35.00
G01 X42.1786 Y-21.0342 F35.00
G01 X42.1707 Y-21.0419 F35.00
G01 X42.1623 Y-21.0490 F35.00
G01 X42.1533 Y-21.0555 F35.00
G01 X42.1439 Y-21.0613 F35.00
G01 X42.1341 Y-21.0663 F35.00
G01 X42.1240 Y-21.0707 F35.00
G01 X42.1135 Y-21.0743 F35.00
G01 X42.1029 Y-21.0771 F35.00
G01 X42.0920 Y-21.0791 F35.00
G01 X42.0847 Y-21.0800 F35.00
G01 X42.0700 Y-21.0807 F35.00
G01 X41.6500 Y-21.0807 F35.00
G01 X41.6500 Y-21.1907 F35.00
G01 X41.8555 Y-21.1907 F35.00
G01 X41.8667 Y-21.1912 F35.00
G01 X41.8779 Y-21.1924 F35.00
G01 X41.8889 Y-21.1945 F35.00
G01 X41.9774 Y-21.2147 F35.00
G01 X41.9882 Y-21.2176 F35.00
G01 X41.9988 Y-21.2213 F35.00
G01 X42.0091 Y-21.2258 F35.00
G01 X42.0190 Y-21.2310 F35.00
G01 X42.0285 Y-21.2370 F35.00
G01 X42.0375 Y-21.2437 F35.00
G01 X42.1085 Y-21.3003 F35.00
G01 X42.1197 Y-21.3102 F35.00
G01 X42.1299 Y-21.3211 F35.00
G01 X42.1389 Y-21.3331 F35.00
G01 X42.1467 Y-21.3458 F35.00
G01 X42.1895 Y-21.4343 F35.00
G01 X42.1925 Y-21.4408 F35.00
G01 X42.1964 Y-21.4509 F35.00
G01 X42.2004 Y-21.4648 F35.00
G01 X42.2025 Y-21.4754 F35.00
G01 X42.2092 Y-21.5347 F35.00
G01 X42.2095 Y-21.5447 F35.00
G01 X42.2095 Y-22.3212 F35.00
G01 X42.2192 Y-22.3823 F35.00
G01 X42.2566 Y-22.4558 F35.00
G01 X42.3150 Y-22.5141 F35.00
G01 X42.3885 Y-22.5516 F35.00
G01 X42.4495 Y-22.5612 F35.00
G01 X44.6305 Y-22.5612 F35.00
G01 X44.6915 Y-22.5516 F35.00
G01 X44.7650 Y-22.5141 F35.00
G01 X44.8234 Y-22.4558 F35.00
G01 X44.8608 Y-22.3823 F35.00
G01 X44.8715 Y-22.3150 F35.00
G01 X44.8726 Y-22.3063 F35.00
G01 X44.8767 Y-22.2870 F35.00
G01 X44.9049 Y-22.1973 F35.00
G01 X44.9073 Y-22.1903 F35.00
G01 X44.9116 Y-22.1800 F35.00
G01 X44.9148 Y-22.1734 F35.00
G01 X44.9203 Y-22.1637 F35.00
G01 X44.9265 Y-22.1544 F35.00
G01 X44.9334 Y-22.1457 F35.00
G01 X45.0003 Y-22.0738 F35.00
G01 X45.0111 Y-22.0634 F35.00
G01 X45.0198 Y-22.0564 F35.00
G01 X45.0290 Y-22.0500 F35.00
G01 X45.0420 Y-22.0425 F35.00
G01 X45.0556 Y-22.0364 F35.00
G01 X45.1437 Y-22.0023 F35.00
G01 X45.1579 Y-21.9979 F35.00
G01 X45.1725 Y-21.9950 F35.00
G01 X45.1836 Y-21.9938 F35.00
G01 X45.2132 Y-21.9916 F35.00
G01 X45.2242 Y-21.9912 F35.00
G01 X52.7288 Y-21.9914 F35.00
G01 X52.7399 Y-21.9924 F35.00
G01 X52.7510 Y-21.9942 F35.00
G01 X52.8432 Y-22.0152 F35.00
G01 X52.8576 Y-22.0193 F35.00
G01 X52.8646 Y-22.0218 F35.00
G01 X52.8749 Y-22.0263 F35.00
G01 X52.8880 Y-22.0335 F35.00
G01 X52.9004 Y-22.0419 F35.00
G01 X52.9772 Y-22.1032 F35.00
G01 X52.9828 Y-22.1081 F35.00
G01 X52.9907 Y-22.1160 F35.00
G01 X52.9957 Y-22.1216 F35.00
G01 X53.0026 Y-22.1305 F35.00
G01 X53.0068 Y-22.1367 F35.00
G01 X53.0125 Y-22.1463 F35.00
G01 X53.0553 Y-22.2348 F35.00
G01 X53.0598 Y-22.2450 F35.00
G01 X53.0645 Y-22.2591 F35.00
G01 X53.0679 Y-22.2736 F35.00
G01 X53.0729 Y-22.3066 F35.00
G01 X53.0743 Y-22.3191 F35.00
G01 X53.0849 Y-22.3859 F35.00
G01 X53.1224 Y-22.4594 F35.00
G01 X53.1807 Y-22.5178 F35.00
G01 X53.2542 Y-22.5552 F35.00
G01 X53.3153 Y-22.5649 F35.00
G01 X55.4963 Y-22.5649 F35.00
G01 X55.5573 Y-22.5552 F35.00
G01 X55.6308 Y-22.5178 F35.00
G01 X55.6891 Y-22.4594 F35.00
G01 X55.7266 Y-22.3859 F35.00
G01 X55.7363 Y-22.3249 F35.00
G01 X55.7363 Y-20.1439 F35.00
G01 X55.7247 Y-20.0709 F35.00
G01 X55.7217 Y-20.0594 F35.00
G01 X55.7192 Y-20.0446 F35.00
G01 X55.7107 Y-19.9505 F35.00
G01 X55.7101 Y-19.9360 F35.00
G01 X55.7106 Y-19.9251 F35.00
G01 X55.7124 Y-19.9107 F35.00
G01 X55.7220 Y-19.8680 F35.00
G01 X55.7247 Y-19.8579 F35.00
G01 X55.7363 Y-19.7849 F35.00
G01 X55.7363 Y-17.6039 F35.00
G01 X55.7247 Y-17.5309 F35.00
G01 X55.7217 Y-17.5194 F35.00
G01 X55.7192 Y-17.5046 F35.00
G01 X55.7107 Y-17.4105 F35.00
G01 X55.7101 Y-17.3960 F35.00
G01 X55.7106 Y-17.3851 F35.00
G01 X55.7124 Y-17.3707 F35.00
G01 X55.7220 Y-17.3280 F35.00
G01 X55.7247 Y-17.3179 F35.00
G01 X55.7363 Y-17.2449 F35.00
G01 X55.7363 Y-15.0639 F35.00
G01 X55.7247 Y-14.9909 F35.00
G01 X55.7217 Y-14.9794 F35.00
G01 X55.7192 Y-14.9646 F35.00
G01 X55.7107 Y-14.8705 F35.00
G01 X55.7101 Y-14.8560 F35.00
G01 X55.7106 Y-14.8451 F35.00
G01 X55.7124 Y-14.8307 F35.00
G01 X55.7220 Y-14.7880 F35.00
G01 X55.7247 Y-14.7779 F35.00
G01 X55.7363 Y-14.7049 F35.00
G01 X55.7363 Y-12.5239 F35.00
G01 X55.7247 Y-12.4509 F35.00
G01 X55.7217 Y-12.4394 F35.00
G01 X55.7192 Y-12.4246 F35.00
G01 X55.7107 Y-12.3305 F35.00
G01 X55.7101 Y-12.3160 F35.00
G01 X55.7106 Y-12.3051 F35.00
G01 X55.7124 Y-12.2907 F35.00
G01 X55.7220 Y-12.2480 F35.00
G01 X55.7247 Y-12.2379 F35.00
G01 X55.7363 Y-12.1649 F35.00
G01 X55.7363 Y-9.9839 F35.00
G01 X55.7247 Y-9.9109 F35.00
G01 X55.7217 Y-9.8994 F35.00
G01 X55.7192 Y-9.8846 F35.00
G01 X55.7107 Y-9.7905 F35.00
G01 X55.7101 Y-9.7760 F35.00
G01 X55.7106 Y-9.7651 F35.00
G01 X55.7124 Y-9.7507 F35.00
G01 X55.7220 Y-9.7080 F35.00
G01 X55.7247 Y-9.6979 F35.00
G01 X55.7363 Y-9.6249 F35.00
G01 X55.7363 Y-7.4439 F35.00
G01 X55.7266 Y-7.3829 F35.00
G01 X55.6891 Y-7.3094 F35.00
G01 X55.6308 Y-7.2510 F35.00
G01 X55.5573 Y-7.2136 F35.00
G01 X55.4963 Y-7.2039 F35.00
G01 X53.3153 Y-7.2039 F35.00
G01 X53.2542 Y-7.2136 F35.00
G01 X53.1807 Y-7.2510 F35.00
G01 X53.1224 Y-7.3094 F35.00
G01 X53.0754 Y-7.4015 F35.00
G01 X53.0717 Y-7.4080 F35.00
G01 X53.0655 Y-7.4173 F35.00
G01 X53.0586 Y-7.4262 F35.00
G01 X52.9980 Y-7.4987 F35.00
G01 X52.9876 Y-7.5095 F35.00
G01 X52.9762 Y-7.5191 F35.00
G01 X52.9638 Y-7.5275 F35.00
G01 X52.9507 Y-7.5347 F35.00
G01 X52.8578 Y-7.5768 F35.00
G01 X52.8436 Y-7.5816 F35.00
G01 X52.8291 Y-7.5849 F35.00
G01 X52.8180 Y-7.5865 F35.00
G01 X52.8030 Y-7.5873 F35.00
G01 X52.7013 Y-7.5849 F35.00
G01 X52.6906 Y-7.5837 F35.00
G01 X52.6834 Y-7.5825 F35.00
G01 X52.6694 Y-7.5791 F35.00
G01 X52.6592 Y-7.5757 F35.00
G01 X52.6164 Y-7.5596 F35.00
G01 X52.6071 Y-7.5558 F35.00
G01 X52.5754 Y-7.5398 F35.00
G01 X52.5626 Y-7.5329 F35.00
G01 X52.5140 Y-7.5049 F35.00
G01 X52.4796 Y-7.4907 F35.00
G01 X52.4292 Y-7.4772 F35.00
G01 X52.4152 Y-7.4731 F35.00
G01 X52.3619 Y-7.4558 F35.00
G01 X52.3252 Y-7.4490 F35.00
G01 X52.2731 Y-7.4463 F35.00
G01 X52.2441 Y-7.4437 F35.00
G01 X52.2148 Y-7.4432 F35.00
G01 X52.1628 Y-7.4405 F35.00
G01 X52.1283 Y-7.4432 F35.00
G01 X52.1165 Y-7.4437 F35.00
G01 X41.9643 Y-7.4437 F35.00
G01 X41.9525 Y-7.4432 F35.00
G01 X41.9180 Y-7.4405 F35.00
G01 X41.8659 Y-7.4432 F35.00
G01 X41.8367 Y-7.4437 F35.00
G01 X41.8076 Y-7.4463 F35.00
G01 X41.7555 Y-7.4490 F35.00
G01 X41.7189 Y-7.4558 F35.00
G01 X41.6655 Y-7.4731 F35.00
G01 X41.6515 Y-7.4772 F35.00
G01 X41.6012 Y-7.4907 F35.00
G01 X41.5667 Y-7.5049 F35.00
G01 X41.5216 Y-7.5310 F35.00
G01 X41.5088 Y-7.5380 F35.00
G01 X41.4588 Y-7.5635 F35.00
G01 X41.4281 Y-7.5846 F35.00
G01 X41.3894 Y-7.6195 F35.00
G01 X41.3670 Y-7.6383 F35.00
G01 X41.3460 Y-7.6586 F35.00
G01 X41.3072 Y-7.6935 F35.00
G01 X41.2848 Y-7.7198 F35.00
G01 X41.2768 Y-7.7285 F35.00
G01 X40.5243 Y-8.4810 F35.00
G01 X40.5156 Y-8.4890 F35.00
G01 X40.4893 Y-8.5114 F35.00
G01 X40.4544 Y-8.5502 F35.00
G01 X40.4341 Y-8.5712 F35.00
G01 X40.4153 Y-8.5936 F35.00
G01 X40.3804 Y-8.6323 F35.00
G01 X40.3593 Y-8.6630 F35.00
G01 X40.3356 Y-8.7095 F35.00
G01 X40.3287 Y-8.7224 F35.00
G01 X40.3007 Y-8.7709 F35.00
G01 X40.2865 Y-8.8054 F35.00
G01 X40.2730 Y-8.8557 F35.00
G01 X40.2689 Y-8.8697 F35.00
G01 X40.2516 Y-8.9231 F35.00
G01 X40.2448 Y-8.9597 F35.00
G01 X40.2421 Y-9.0118 F35.00
G01 X40.2395 Y-9.0409 F35.00
G01 X40.2390 Y-9.0701 F35.00
G01 X40.2363 Y-9.1222 F35.00
G01 X40.2390 Y-9.1567 F35.00
G01 X40.2395 Y-9.1685 F35.00
G01 X40.2395 Y-9.9603 F35.00
G01 X40.2383 Y-9.9752 F35.00
G01 X40.2365 Y-9.9863 F35.00
G01 X40.2155 Y-10.0785 F35.00
G01 X40.2126 Y-10.0893 F35.00
G01 X40.2103 Y-10.0964 F35.00
G01 X40.2060 Y-10.1068 F35.00
G01 X40.2028 Y-10.1135 F35.00
G01 X40.1973 Y-10.1233 F35.00
G01 X40.1911 Y-10.1327 F35.00
G01 X40.1300 Y-10.2096 F35.00
G01 X40.1201 Y-10.2208 F35.00
G01 X40.1119 Y-10.2285 F35.00
G01 X40.1033 Y-10.2356 F35.00
G01 X40.0909 Y-10.2441 F35.00
G01 X40.0778 Y-10.2512 F35.00
G01 X39.9960 Y-10.2906 F35.00
G01 X39.9823 Y-10.2964 F35.00
G01 X39.9681 Y-10.3008 F35.00
G01 X39.9572 Y-10.3031 F35.00
G01 X39.9157 Y-10.3093 F35.00
G01 X39.8485 Y-10.3199 F35.00
G01 X39.7750 Y-10.3574 F35.00
G01 X39.7166 Y-10.4157 F35.00
G01 X39.6792 Y-10.4892 F35.00
G01 X39.6695 Y-10.5502 F35.00
G01 X39.6695 Y-12.7312 F35.00
G01 X39.6792 Y-12.7923 F35.00
G01 X39.7103 Y-12.8534 F35.00
G01 X39.7147 Y-12.8637 F35.00
G01 X39.7194 Y-12.8779 F35.00
G01 X39.7442 Y-12.9768 F35.00
G01 X39.7455 Y-12.9842 F35.00
G01 X39.7467 Y-12.9953 F35.00
G01 X39.7471 Y-13.0103 F35.00
G01 X39.7464 Y-13.0215 F35.00
G01 X39.7448 Y-13.0326 F35.00
G01 X39.7259 Y-13.1252 F35.00
G01 X39.7232 Y-13.1360 F35.00
G01 X39.7185 Y-13.1500 F35.00
G01 X39.7141 Y-13.1602 F35.00
G01 X39.6792 Y-13.2292 F35.00
G01 X39.6685 Y-13.2965 F35.00
G01 X39.6674 Y-13.3052 F35.00
G01 X39.6633 Y-13.3244 F35.00
G01 X39.6340 Y-13.4177 F35.00
G01 X39.6300 Y-13.4281 F35.00
G01 X39.6252 Y-13.4381 F35.00
G01 X39.6197 Y-13.4478 F35.00
G01 X39.6156 Y-13.4540 F35.00
G01 X39.6113 Y-13.4600 F35.00
G01 X39.6042 Y-13.4686 F35.00
G01 X39.5371 Y-13.5404 F35.00
G01 X39.5289 Y-13.5481 F35.00
G01 X39.5172 Y-13.5573 F35.00
G01 X39.5078 Y-13.5635 F35.00
G01 X39.5014 Y-13.5672 F35.00
G01 X39.4879 Y-13.5737 F35.00
G01 X39.3998 Y-13.6079 F35.00
G01 X39.3857 Y-13.6126 F35.00
G01 X39.3748 Y-13.6152 F35.00
G01 X39.3638 Y-13.6170 F35.00
G01 X39.3195 Y-13.6202 F35.00
G01 X39.0177 Y-13.6202 F35.00
G01 X39.0059 Y-13.6198 F35.00
G01 X38.9714 Y-13.6170 F35.00
G01 X38.9194 Y-13.6198 F35.00
G01 X38.8901 Y-13.6202 F35.00
G01 X38.8611 Y-13.6228 F35.00
G01 X38.8090 Y-13.6255 F35.00
G01 X38.7723 Y-13.6323 F35.00
G01 X38.7190 Y-13.6496 F35.00
G01 X38.7050 Y-13.6537 F35.00
G01 X38.6546 Y-13.6672 F35.00
G01 X38.6202 Y-13.6815 F35.00
G01 X38.5750 Y-13.7075 F35.00
G01 X38.5622 Y-13.7146 F35.00
G01 X38.5123 Y-13.7401 F35.00
G01 X38.4816 Y-13.7612 F35.00
G01 X38.4428 Y-13.7961 F35.00
G01 X38.4204 Y-13.8148 F35.00
G01 X38.3994 Y-13.8351 F35.00
G01 X38.3607 Y-13.8700 F35.00
G01 X38.3382 Y-13.8964 F35.00
G01 X38.3302 Y-13.9050 F35.00
G01 X36.7423 Y-15.4930 F35.00
G01 X36.7336 Y-15.5010 F35.00
G01 X36.7073 Y-15.5234 F35.00
G01 X36.6724 Y-15.5622 F35.00
G01 X36.6521 Y-15.5832 F35.00
G01 X36.6333 Y-15.6056 F35.00
G01 X36.5984 Y-15.6443 F35.00
G01 X36.5773 Y-15.6750 F35.00
G01 X36.5536 Y-15.7215 F35.00
G01 X36.5467 Y-15.7344 F35.00
G01 X36.5187 Y-15.7829 F35.00
G01 X36.5045 Y-15.8174 F35.00
G01 X36.4910 Y-15.8677 F35.00
G01 X36.4869 Y-15.8817 F35.00
G01 X36.4696 Y-15.9351 F35.00
G01 X36.4628 Y-15.9717 F35.00
G01 X36.4601 Y-16.0238 F35.00
G01 X36.4575 Y-16.0529 F35.00
G01 X36.4570 Y-16.0821 F35.00
G01 X36.4543 Y-16.1342 F35.00
G01 X36.4570 Y-16.1687 F35.00
G01 X36.4575 Y-16.1805 F35.00
G01 X36.4575 Y-30.2523 F35.00
G01 X36.4570 Y-30.2641 F35.00
G01 X36.4543 Y-30.2986 F35.00
G01 X36.4570 Y-30.3506 F35.00
G01 X36.4575 Y-30.3799 F35.00
G01 X36.4601 Y-30.4089 F35.00
G01 X36.4628 Y-30.4610 F35.00
G01 X36.4696 Y-30.4977 F35.00
G01 X36.4869 Y-30.5510 F35.00
G01 X36.4910 Y-30.5650 F35.00
G01 X36.5045 Y-30.6154 F35.00
G01 X36.5187 Y-30.6498 F35.00
G01 X36.5467 Y-30.6984 F35.00
G01 X36.5536 Y-30.7113 F35.00
G01 X36.5773 Y-30.7577 F35.00
G01 X36.5984 Y-30.7884 F35.00
G01 X36.6333 Y-30.8272 F35.00
G01 X36.6521 Y-30.8496 F35.00
G01 X36.6724 Y-30.8706 F35.00
G01 X36.7073 Y-30.9093 F35.00
G01 X36.7336 Y-30.9318 F35.00
G01 X36.7423 Y-30.9398 F35.00
G01 X38.5773 Y-32.7751 F35.00
G01 X38.5845 Y-32.7837 F35.00
G01 X38.5911 Y-32.7928 F35.00
G01 X38.6414 Y-32.8728 F35.00
G01 X38.6487 Y-32.8859 F35.00
G01 X38.6533 Y-32.8961 F35.00
G01 X38.6560 Y-32.9031 F35.00
G01 X38.6602 Y-32.9174 F35.00
G01 X38.6630 Y-32.9321 F35.00
G01 X38.6736 Y-33.0260 F35.00
G01 X38.6745 Y-33.0372 F35.00
G01 X38.6746 Y-33.0447 F35.00
G01 X38.6740 Y-33.0559 F35.00
G01 X38.6726 Y-33.0670 F35.00
G01 X38.6712 Y-33.0744 F35.00
G01 X38.6685 Y-33.0853 F35.00
G01 X38.6362 Y-33.1781 F35.00
G01 X38.6311 Y-33.1908 F35.00
G01 X38.6243 Y-33.2038 F35.00
G01 X38.6163 Y-33.2162 F35.00
G01 X38.5834 Y-33.2578 F35.00
G01 X38.5745 Y-33.2679 F35.00
G01 X36.7423 Y-35.1002 F35.00
G01 X36.7336 Y-35.1082 F35.00
G01 X36.7073 Y-35.1307 F35.00
G01 X36.6724 Y-35.1694 F35.00
G01 X36.6521 Y-35.1904 F35.00
G01 X36.6333 Y-35.2128 F35.00
G01 X36.5984 Y-35.2515 F35.00
G01 X36.5773 Y-35.2823 F35.00
G01 X36.5536 Y-35.3288 F35.00
G01 X36.5467 Y-35.3416 F35.00
G01 X36.5187 Y-35.3902 F35.00
G01 X36.5045 Y-35.4246 F35.00
G01 X36.4910 Y-35.4750 F35.00
G01 X36.4869 Y-35.4890 F35.00
G01 X36.4696 Y-35.5423 F35.00
G01 X36.4628 Y-35.5790 F35.00
G01 X36.4601 Y-35.6310 F35.00
G01 X36.4575 Y-35.6601 F35.00
G01 X36.4570 Y-35.6894 F35.00
G01 X36.4543 Y-35.7414 F35.00
G00 Z2.0000
G00 X42.3200 Y-43.5370
G01 F45.00
G01 Z-0.0900
G01 F35.00
G01 X42.3202 Y-45.6844 F35.00
G01 X42.3211 Y-45.6954 F35.00
G01 X42.3236 Y-45.7099 F35.00
G01 X42.3276 Y-45.7241 F35.00
G01 X42.3314 Y-45.7344 F35.00
G01 X42.3360 Y-45.7444 F35.00
G01 X42.3433 Y-45.7573 F35.00
G01 X42.3495 Y-45.7664 F35.00
G01 X42.3589 Y-45.7777 F35.00
G01 X42.3693 Y-45.7881 F35.00
G01 X42.3777 Y-45.7953 F35.00
G01 X42.3867 Y-45.8017 F35.00
G01 X42.3961 Y-45.8075 F35.00
G01 X42.4092 Y-45.8141 F35.00
G01 X42.4195 Y-45.8182 F35.00
G01 X42.4336 Y-45.8225 F35.00
G01 X42.4444 Y-45.8248 F35.00
G01 X42.4553 Y-45.8263 F35.00
G01 X42.4700 Y-45.8270 F35.00
G01 X44.6100 Y-45.8270 F35.00
G01 X44.6174 Y-45.8268 F35.00
G01 X44.6284 Y-45.8259 F35.00
G01 X44.6356 Y-45.8248 F35.00
G01 X44.6464 Y-45.8225 F35.00
G01 X44.6571 Y-45.8194 F35.00
G01 X44.6674 Y-45.8156 F35.00
G01 X44.6774 Y-45.8110 F35.00
G01 X44.6871 Y-45.8057 F35.00
G01 X44.6933 Y-45.8017 F35.00
G01 X44.7023 Y-45.7953 F35.00
G01 X44.7107 Y-45.7881 F35.00
G01 X44.7186 Y-45.7804 F35.00
G01 X44.7260 Y-45.7722 F35.00
G01 X44.7326 Y-45.7634 F35.00
G01 X44.7387 Y-45.7541 F35.00
G01 X44.7440 Y-45.7444 F35.00
G01 X44.7486 Y-45.7344 F35.00
G01 X44.7524 Y-45.7241 F35.00
G01 X44.7546 Y-45.7170 F35.00
G01 X44.7571 Y-45.7063 F35.00
G01 X44.7593 Y-45.6917 F35.00
G01 X44.7600 Y-45.6770 F35.00
G01 X44.7600 Y-45.2573 F35.00
G01 X53.1858 Y-45.2573 F35.00
G01 X53.1858 Y-45.6770 F35.00
G01 X53.1865 Y-45.6917 F35.00
G01 X53.1880 Y-45.7026 F35.00
G01 X53.1894 Y-45.7099 F35.00
G01 X53.1922 Y-45.7205 F35.00
G01 X53.1958 Y-45.7310 F35.00
G01 X53.2002 Y-45.7411 F35.00
G01 X53.2052 Y-45.7509 F35.00
G01 X53.2110 Y-45.7603 F35.00
G01 X53.2175 Y-45.7693 F35.00
G01 X53.2246 Y-45.7777 F35.00
G01 X53.2323 Y-45.7856 F35.00
G01 X53.2406 Y-45.7930 F35.00
G01 X53.2494 Y-45.7996 F35.00
G01 X53.2586 Y-45.8057 F35.00
G01 X53.2683 Y-45.8110 F35.00
G01 X53.2783 Y-45.8156 F35.00
G01 X53.2887 Y-45.8194 F35.00
G01 X53.2993 Y-45.8225 F35.00
G01 X53.3101 Y-45.8248 F35.00
G01 X53.3210 Y-45.8263 F35.00
G01 X53.3358 Y-45.8270 F35.00
G01 X55.4831 Y-45.8268 F35.00
G01 X55.4941 Y-45.8259 F35.00
G01 X55.5086 Y-45.8234 F35.00
G01 X55.5228 Y-45.8194 F35.00
G01 X55.5332 Y-45.8156 F35.00
G01 X55.5432 Y-45.8110 F35.00
G01 X55.5560 Y-45.8037 F35.00
G01 X55.5651 Y-45.7975 F35.00
G01 X55.5765 Y-45.7881 F35.00
G01 X55.5869 Y-45.7777 F35.00
G01 X55.5940 Y-45.7693 F35.00
G01 X55.6005 Y-45.7603 F35.00
G01 X55.6063 Y-45.7509 F35.00
G01 X55.6129 Y-45.7378 F35.00
G01 X55.6170 Y-45.7275 F35.00
G01 X55.6213 Y-45.7134 F35.00
G01 X55.6235 Y-45.7026 F35.00
G01 X55.6250 Y-45.6917 F35.00
G01 X55.6258 Y-45.6770 F35.00
G01 X55.6256 Y-43.5296 F35.00
G01 X55.6246 Y-43.5186 F35.00
G01 X55.6221 Y-43.5041 F35.00
G01 X55.6182 Y-43.4899 F35.00
G01 X55.6143 Y-43.4796 F35.00
G01 X55.6097 Y-43.4696 F35.00
G01 X55.6025 Y-43.4568 F35.00
G01 X55.5962 Y-43.4476 F35.00
G01 X55.5869 Y-43.4363 F35.00
G01 X55.5765 Y-43.4259 F35.00
G01 X55.5680 Y-43.4187 F35.00
G01 X55.5591 Y-43.4123 F35.00
G01 X55.5497 Y-43.4065 F35.00
G01 X55.5365 Y-43.3999 F35.00
G01 X55.5263 Y-43.3958 F35.00
G01 X55.5122 Y-43.3915 F35.00
G01 X55.5014 Y-43.3892 F35.00
G01 X55.4905 Y-43.3877 F35.00
G01 X55.4758 Y-43.3870 F35.00
G01 X53.3358 Y-43.3870 F35.00
G01 X53.3284 Y-43.3872 F35.00
G01 X53.3174 Y-43.3881 F35.00
G01 X53.3101 Y-43.3892 F35.00
G01 X53.2993 Y-43.3915 F35.00
G01 X53.2887 Y-43.3946 F35.00
G01 X53.2783 Y-43.3984 F35.00
G01 X53.2683 Y-43.4030 F35.00
G01 X53.2586 Y-43.4083 F35.00
G01 X53.2524 Y-43.4123 F35.00
G01 X53.2435 Y-43.4187 F35.00
G01 X53.2350 Y-43.4259 F35.00
G01 X53.2271 Y-43.4336 F35.00
G01 X53.2198 Y-43.4418 F35.00
G01 X53.2131 Y-43.4506 F35.00
G01 X53.2071 Y-43.4599 F35.00
G01 X53.2018 Y-43.4696 F35.00
G01 X53.1972 Y-43.4796 F35.00
G01 X53.1933 Y-43.4899 F35.00
G01 X53.1912 Y-43.4970 F35.00
G01 X53.1886 Y-43.5077 F35.00
G01 X53.1865 Y-43.5223 F35.00
G01 X53.1858 Y-43.5370 F35.00
G01 X53.1858 Y-43.9568 F35.00
G01 X44.7600 Y-43.9568 F35.00
G01 X44.7600 Y-43.5370 F35.00
G01 X44.7593 Y-43.5223 F35.00
G01 X44.7578 Y-43.5114 F35.00
G01 X44.7564 Y-43.5041 F35.00
G01 X44.7535 Y-43.4935 F35.00
G01 X44.7499 Y-43.4830 F35.00
G01 X44.7456 Y-43.4729 F35.00
G01 X44.7405 Y-43.4631 F35.00
G01 X44.7347 Y-43.4537 F35.00
G01 X44.7283 Y-43.4447 F35.00
G01 X44.7211 Y-43.4363 F35.00
G01 X44.7134 Y-43.4284 F35.00
G01 X44.7052 Y-43.4210 F35.00
G01 X44.6964 Y-43.4144 F35.00
G01 X44.6871 Y-43.4083 F35.00
G01 X44.6774 Y-43.4030 F35.00
G01 X44.6674 Y-43.3984 F35.00
G01 X44.6571 Y-43.3946 F35.00
G01 X44.6464 Y-43.3915 F35.00
G01 X44.6356 Y-43.3892 F35.00
G01 X44.6247 Y-43.3877 F35.00
G01 X44.6100 Y-43.3870 F35.00
G01 X42.4700 Y-43.3870 F35.00
G01 X42.4590 Y-43.3874 F35.00
G01 X42.4444 Y-43.3892 F35.00
G01 X42.4300 Y-43.3924 F35.00
G01 X42.4160 Y-43.3971 F35.00
G01 X42.4026 Y-43.4030 F35.00
G01 X42.3929 Y-43.4083 F35.00
G01 X42.3806 Y-43.4165 F35.00
G01 X42.3693 Y-43.4259 F35.00
G01 X42.3589 Y-43.4363 F35.00
G01 X42.3495 Y-43.4476 F35.00
G01 X42.3413 Y-43.4599 F35.00
G01 X42.3360 Y-43.4696 F35.00
G01 X42.3301 Y-43.4830 F35.00
G01 X42.3254 Y-43.4970 F35.00
G01 X42.3222 Y-43.5114 F35.00
G01 X42.3207 Y-43.5223 F35.00
G01 X42.3200 Y-43.5370 F35.00
G00 Z2.0000
G00 X44.7600 Y-48.4170
G01 F45.00
G01 Z-0.0900
G01 F35.00
G01 X44.7600 Y-47.9973 F35.00
G01 X52.2217 Y-47.9972 F35.00
G01 X52.2817 Y-47.9941 F35.00
G01 X52.3449 Y-47.9848 F35.00
G01 X52.4068 Y-47.9693 F35.00
G01 X52.4600 Y-47.9504 F35.00
G01 X52.4702 Y-47.9463 F35.00
G01 X52.5245 Y-47.9205 F35.00
G01 X52.5730 Y-47.8916 F35.00
G01 X52.5823 Y-47.8856 F35.00
G01 X52.6305 Y-47.8497 F35.00
G01 X52.6725 Y-47.8119 F35.00
G01 X52.6873 Y-47.7973 F35.00
G01 X53.1858 Y-47.7973 F35.00
G01 X53.1858 Y-48.2170 F35.00
G01 X53.1865 Y-48.2317 F35.00
G01 X53.1880 Y-48.2426 F35.00
G01 X53.1894 Y-48.2499 F35.00
G01 X53.1922 Y-48.2605 F35.00
G01 X53.1958 Y-48.2710 F35.00
G01 X53.2002 Y-48.2811 F35.00
G01 X53.2052 Y-48.2909 F35.00
G01 X53.2110 Y-48.3003 F35.00
G01 X53.2153 Y-48.3064 F35.00
G01 X53.2222 Y-48.3150 F35.00
G01 X53.2297 Y-48.3231 F35.00
G01 X53.2378 Y-48.3306 F35.00
G01 X53.2464 Y-48.3375 F35.00
G01 X53.2555 Y-48.3437 F35.00
G01 X53.2650 Y-48.3493 F35.00
G01 X53.2750 Y-48.3541 F35.00
G01 X53.2852 Y-48.3582 F35.00
G01 X53.2957 Y-48.3616 F35.00
G01 X53.3065 Y-48.3641 F35.00
G01 X53.3210 Y-48.3663 F35.00
G01 X53.3358 Y-48.3670 F35.00
G01 X55.4758 Y-48.3670 F35.00
G01 X55.4905 Y-48.3663 F35.00
G01 X55.5014 Y-48.3648 F35.00
G01 X55.5086 Y-48.3634 F35.00
G01 X55.5228 Y-48.3594 F35.00
G01 X55.5332 Y-48.3556 F35.00
G01 X55.5432 Y-48.3510 F35.00
G01 X55.5529 Y-48.3457 F35.00
G01 X55.5651 Y-48.3375 F35.00
G01 X55.5737 Y-48.3306 F35.00
G01 X55.5818 Y-48.3231 F35.00
G01 X55.5917 Y-48.3122 F35.00
G01 X55.5984 Y-48.3034 F35.00
G01 X55.6044 Y-48.2941 F35.00
G01 X55.6097 Y-48.2844 F35.00
G01 X55.6157 Y-48.2710 F35.00
G01 X55.6203 Y-48.2570 F35.00
G01 X55.6229 Y-48.2463 F35.00
G01 X55.6246 Y-48.2354 F35.00
G01 X55.6256 Y-48.2244 F35.00
