(G-CODE GENERATED BY FLATCAM v8.994 - www.flatcam.org - Version Date: 2020/11/7)

(Name: Electrode_Breakout-Edge_Cuts.gbr_2_cutout_cnc)
(Type: G-code from Geometry)
(Units: MM)

(Created on Tuesday, 02 April 2024 at 22:14)

(This preprocessor is used with a motion controller loaded with GRBL firmware.)
(It is configured to be compatible with almost any version of GRBL firmware.)

(TOOL DIAMETER: 0.5 mm)
(Feedrate_XY: 60.0 mm/min)
(Feedrate_Z: 60.0 mm/min)
(Feedrate rapids 1500.0 mm/min)

(Z_Cut: -2.5 mm)
(DepthPerCut: 0.5 mm <=>5 passes)
(Z_Move: 2.0 mm)
(Z Start: None mm)
(Z End: 15.0 mm)
(X,Y End: 0.0000, 0.0000 mm)
(Steps per circle: 64)
(Steps per circle: 64)
(Preprocessor Geometry: GRBL_11_no_M6)

(X range:   -0.4000 ...   30.6500  mm)
(Y range:  -66.1500 ...    0.4000  mm)

(Spindle Speed: 0.0 RPM)
G21
G90
G17
G94


G01 F60.00

M5             
G00 Z15.0000
G00 X0.0000 Y0.0000                
T1
(MSG, Change to Tool Dia = 0.5000)
M0
G00 Z15.0000
        
M03
G01 F60.00
G00 X14.4750 Y0.4000
G01 F60.00
G01 Z-0.5000
G01 F60.00
G01 X0.0000 Y0.4000 F60.00
G01 X-0.0221 Y0.3994 F60.00
G01 X-0.0563 Y0.3960 F60.00
G01 X-0.0996 Y0.3874 F60.00
G01 X-0.1362 Y0.3761 F60.00
G01 X-0.1688 Y0.3626 F60.00
G01 X-0.2077 Y0.3418 F60.00
G01 X-0.2381 Y0.3214 F60.00
G01 X-0.2668 Y0.2980 F60.00
G01 X-0.2980 Y0.2668 F60.00
G01 X-0.3215 Y0.2380 F60.00
G01 X-0.3418 Y0.2077 F60.00
G01 X-0.3626 Y0.1688 F60.00
G01 X-0.3774 Y0.1324 F60.00
G01 X-0.3886 Y0.0948 F60.00
G01 X-0.3960 Y0.0563 F60.00
G01 X-0.3994 Y0.0221 F60.00
G01 X-0.4000 Y-0.0000 F60.00
G01 X-0.4000 Y-32.0250 F60.00
G00 X-0.4000 Y-32.0250
G01 F60.00
G01 Z-1.0000
G01 F60.00
G01 X-0.4000 Y-0.0000 F60.00
G01 X-0.3994 Y0.0221 F60.00
G01 X-0.3960 Y0.0563 F60.00
G01 X-0.3886 Y0.0948 F60.00
G01 X-0.3774 Y0.1324 F60.00
G01 X-0.3626 Y0.1688 F60.00
G01 X-0.3418 Y0.2077 F60.00
G01 X-0.3215 Y0.2380 F60.00
G01 X-0.2980 Y0.2668 F60.00
G01 X-0.2668 Y0.2980 F60.00
G01 X-0.2381 Y0.3214 F60.00
G01 X-0.2077 Y0.3418 F60.00
G01 X-0.1688 Y0.3626 F60.00
G01 X-0.1362 Y0.3761 F60.00
G01 X-0.0996 Y0.3874 F60.00
G01 X-0.0563 Y0.3960 F60.00
G01 X-0.0221 Y0.3994 F60.00
G01 X0.0000 Y0.4000 F60.00
G01 X14.4750 Y0.4000 F60.00
G00 X14.4750 Y0.4000
G01 F60.00
G01 Z-1.5000
G01 F60.00
G01 X0.0000 Y0.4000 F60.00
G01 X-0.0221 Y0.3994 F60.00
G01 X-0.0563 Y0.3960 F60.00
G01 X-0.0996 Y0.3874 F60.00
G01 X-0.1362 Y0.3761 F60.00
G01 X-0.1688 Y0.3626 F60.00
G01 X-0.2077 Y0.3418 F60.00
G01 X-0.2381 Y0.3214 F60.00
G01 X-0.2668 Y0.2980 F60.00
G01 X-0.2980 Y0.2668 F60.00
G01 X-0.3215 Y0.2380 F60.00
G01 X-0.3418 Y0.2077 F60.00
G01 X-0.3626 Y0.1688 F60.00
G01 X-0.3774 Y0.1324 F60.00
G01 X-0.3886 Y0.0948 F60.00
G01 X-0.3960 Y0.0563 F60.00
G01 X-0.3994 Y0.0221 F60.00
G01 X-0.4000 Y-0.0000 F60.00
G01 X-0.4000 Y-32.0250 F60.00
G00 X-0.4000 Y-32.0250
G01 F60.00
G01 Z-2.0000
G01 F60.00
G01 X-0.4000 Y-0.0000 F60.00
G01 X-0.3994 Y0.0221 F60.00
G01 X-0.3960 Y0.0563 F60.00
G01 X-0.3886 Y0.0948 F60.00
G01 X-0.3774 Y0.1324 F60.00
G01 X-0.3626 Y0.1688 F60.00
G01 X-0.3418 Y0.2077 F60.00
G01 X-0.3215 Y0.2380 F60.00
G01 X-0.2980 Y0.2668 F60.00
G01 X-0.2668 Y0.2980 F60.00
G01 X-0.2381 Y0.3214 F60.00
G01 X-0.2077 Y0.3418 F60.00
G01 X-0.1688 Y0.3626 F60.00
G01 X-0.1362 Y0.3761 F60.00
G01 X-0.0996 Y0.3874 F60.00
G01 X-0.0563 Y0.3960 F60.00
G01 X-0.0221 Y0.3994 F60.00
G01 X0.0000 Y0.4000 F60.00
G01 X14.4750 Y0.4000 F60.00
G00 X14.4750 Y0.4000
G01 F60.00
G01 Z-2.5000
G01 F60.00
G01 X0.0000 Y0.4000 F60.00
G01 X-0.0221 Y0.3994 F60.00
G01 X-0.0563 Y0.3960 F60.00
G01 X-0.0996 Y0.3874 F60.00
G01 X-0.1362 Y0.3761 F60.00
G01 X-0.1688 Y0.3626 F60.00
G01 X-0.2077 Y0.3418 F60.00
G01 X-0.2381 Y0.3214 F60.00
G01 X-0.2668 Y0.2980 F60.00
G01 X-0.2980 Y0.2668 F60.00
G01 X-0.3215 Y0.2380 F60.00
G01 X-0.3418 Y0.2077 F60.00
G01 X-0.3626 Y0.1688 F60.00
G01 X-0.3774 Y0.1324 F60.00
G01 X-0.3886 Y0.0948 F60.00
G01 X-0.3960 Y0.0563 F60.00
G01 X-0.3994 Y0.0221 F60.00
G01 X-0.4000 Y-0.0000 F60.00
G01 X-0.4000 Y-32.0250 F60.00
G00 Z2.0000
G00 X15.9750 Y0.4000
G01 F60.00
G01 Z-0.5000
G01 F60.00
G01 X30.2500 Y0.4000 F60.00
G01 X30.2721 Y0.3994 F60.00
G01 X30.3063 Y0.3960 F60.00
G01 X30.3496 Y0.3874 F60.00
G01 X30.3824 Y0.3774 F60.00
G01 X30.4188 Y0.3626 F60.00
G01 X30.4577 Y0.3418 F60.00
G01 X30.4863 Y0.3227 F60.00
G01 X30.5168 Y0.2980 F60.00
G01 X30.5480 Y0.2668 F60.00
G01 X30.5698 Y0.2402 F60.00
G01 X30.5918 Y0.2077 F60.00
G01 X30.6126 Y0.1688 F60.00
G01 X30.6274 Y0.1324 F60.00
G01 X30.6386 Y0.0948 F60.00
G01 X30.6460 Y0.0563 F60.00
G01 X30.6494 Y0.0221 F60.00
G01 X30.6500 Y-0.0000 F60.00
G01 X30.6500 Y-32.0250 F60.00
G00 X30.6500 Y-32.0250
G01 F60.00
G01 Z-1.0000
G01 F60.00
G01 X30.6500 Y-0.0000 F60.00
G01 X30.6494 Y0.0221 F60.00
G01 X30.6460 Y0.0563 F60.00
G01 X30.6386 Y0.0948 F60.00
G01 X30.6274 Y0.1324 F60.00
G01 X30.6126 Y0.1688 F60.00
G01 X30.5918 Y0.2077 F60.00
G01 X30.5698 Y0.2402 F60.00
G01 X30.5480 Y0.2668 F60.00
G01 X30.5168 Y0.2980 F60.00
G01 X30.4863 Y0.3227 F60.00
G01 X30.4577 Y0.3418 F60.00
G01 X30.4188 Y0.3626 F60.00
G01 X30.3824 Y0.3774 F60.00
G01 X30.3496 Y0.3874 F60.00
G01 X30.3063 Y0.3960 F60.00
G01 X30.2721 Y0.3994 F60.00
G01 X30.2500 Y0.4000 F60.00
G01 X15.9750 Y0.4000 F60.00
G00 X15.9750 Y0.4000
G01 F60.00
G01 Z-1.5000
G01 F60.00
G01 X30.2500 Y0.4000 F60.00
G01 X30.2721 Y0.3994 F60.00
G01 X30.3063 Y0.3960 F60.00
G01 X30.3496 Y0.3874 F60.00
G01 X30.3824 Y0.3774 F60.00
G01 X30.4188 Y0.3626 F60.00
G01 X30.4577 Y0.3418 F60.00
G01 X30.4863 Y0.3227 F60.00
G01 X30.5168 Y0.2980 F60.00
G01 X30.5480 Y0.2668 F60.00
G01 X30.5698 Y0.2402 F60.00
G01 X30.5918 Y0.2077 F60.00
G01 X30.6126 Y0.1688 F60.00
G01 X30.6274 Y0.1324 F60.00
G01 X30.6386 Y0.0948 F60.00
G01 X30.6460 Y0.0563 F60.00
G01 X30.6494 Y0.0221 F60.00
G01 X30.6500 Y-0.0000 F60.00
G01 X30.6500 Y-32.0250 F60.00
G00 X30.6500 Y-32.0250
G01 F60.00
G01 Z-2.0000
G01 F60.00
G01 X30.6500 Y-0.0000 F60.00
G01 X30.6494 Y0.0221 F60.00
G01 X30.6460 Y0.0563 F60.00
G01 X30.6386 Y0.0948 F60.00
G01 X30.6274 Y0.1324 F60.00
G01 X30.6126 Y0.1688 F60.00
G01 X30.5918 Y0.2077 F60.00
G01 X30.5698 Y0.2402 F60.00
G01 X30.5480 Y0.2668 F60.00
G01 X30.5168 Y0.2980 F60.00
G01 X30.4863 Y0.3227 F60.00
G01 X30.4577 Y0.3418 F60.00
G01 X30.4188 Y0.3626 F60.00
G01 X30.3824 Y0.3774 F60.00
G01 X30.3496 Y0.3874 F60.00
G01 X30.3063 Y0.3960 F60.00
G01 X30.2721 Y0.3994 F60.00
G01 X30.2500 Y0.4000 F60.00
G01 X15.9750 Y0.4000 F60.00
G00 X15.9750 Y0.4000
G01 F60.00
G01 Z-2.5000
G01 F60.00
G01 X30.2500 Y0.4000 F60.00
G01 X30.2721 Y0.3994 F60.00
G01 X30.3063 Y0.3960 F60.00
G01 X30.3496 Y0.3874 F60.00
G01 X30.3824 Y0.3774 F60.00
G01 X30.4188 Y0.3626 F60.00
G01 X30.4577 Y0.3418 F60.00
G01 X30.4863 Y0.3227 F60.00
G01 X30.5168 Y0.2980 F60.00
G01 X30.5480 Y0.2668 F60.00
G01 X30.5698 Y0.2402 F60.00
G01 X30.5918 Y0.2077 F60.00
G01 X30.6126 Y0.1688 F60.00
G01 X30.6274 Y0.1324 F60.00
G01 X30.6386 Y0.0948 F60.00
G01 X30.6460 Y0.0563 F60.00
G01 X30.6494 Y0.0221 F60.00
G01 X30.6500 Y-0.0000 F60.00
G01 X30.6500 Y-32.0250 F60.00
G00 Z2.0000
G00 X30.6500 Y-33.5250
G01 F60.00
G01 Z-0.5000
G01 F60.00
G01 X30.6500 Y-65.7500 F60.00
G01 X30.6494 Y-65.7721 F60.00
G01 X30.6460 Y-65.8063 F60.00
G01 X30.6386 Y-65.8448 F60.00
G01 X30.6274 Y-65.8824 F60.00
G01 X30.6126 Y-65.9188 F60.00
G01 X30.5918 Y-65.9577 F60.00
G01 X30.5698 Y-65.9902 F60.00
G01 X30.5480 Y-66.0168 F60.00
G01 X30.5168 Y-66.0480 F60.00
G01 X30.4863 Y-66.0727 F60.00
G01 X30.4577 Y-66.0918 F60.00
G01 X30.4188 Y-66.1126 F60.00
G01 X30.3824 Y-66.1274 F60.00
G01 X30.3496 Y-66.1374 F60.00
G01 X30.3063 Y-66.1460 F60.00
G01 X30.2721 Y-66.1494 F60.00
G01 X30.2500 Y-66.1500 F60.00
G01 X15.9750 Y-66.1500 F60.00
G00 X15.9750 Y-66.1500
G01 F60.00
G01 Z-1.0000
G01 F60.00
G01 X30.2500 Y-66.1500 F60.00
G01 X30.2721 Y-66.1494 F60.00
G01 X30.3063 Y-66.1460 F60.00
G01 X30.3496 Y-66.1374 F60.00
G01 X30.3824 Y-66.1274 F60.00
G01 X30.4188 Y-66.1126 F60.00
G01 X30.4577 Y-66.0918 F60.00
G01 X30.4863 Y-66.0727 F60.00
G01 X30.5168 Y-66.0480 F60.00
G01 X30.5480 Y-66.0168 F60.00
G01 X30.5698 Y-65.9902 F60.00
G01 X30.5918 Y-65.9577 F60.00
G01 X30.6126 Y-65.9188 F60.00
G01 X30.6274 Y-65.8824 F60.00
G01 X30.6386 Y-65.8448 F60.00
G01 X30.6460 Y-65.8063 F60.00
G01 X30.6494 Y-65.7721 F60.00
G01 X30.6500 Y-65.7500 F60.00
G01 X30.6500 Y-33.5250 F60.00
G00 X30.6500 Y-33.5250
G01 F60.00
G01 Z-1.5000
G01 F60.00
G01 X30.6500 Y-65.7500 F60.00
G01 X30.6494 Y-65.7721 F60.00
G01 X30.6460 Y-65.8063 F60.00
G01 X30.6386 Y-65.8448 F60.00
G01 X30.6274 Y-65.8824 F60.00
G01 X30.6126 Y-65.9188 F60.00
G01 X30.5918 Y-65.9577 F60.00
G01 X30.5698 Y-65.9902 F60.00
G01 X30.5480 Y-66.0168 F60.00
G01 X30.5168 Y-66.0480 F60.00
G01 X30.4863 Y-66.0727 F60.00
G01 X30.4577 Y-66.0918 F60.00
G01 X30.4188 Y-66.1126 F60.00
G01 X30.3824 Y-66.1274 F60.00
G01 X30.3496 Y-66.1374 F60.00
G01 X30.3063 Y-66.1460 F60.00
G01 X30.2721 Y-66.1494 F60.00
G01 X30.2500 Y-66.1500 F60.00
G01 X15.9750 Y-66.1500 F60.00
G00 X15.9750 Y-66.1500
G01 F60.00
G01 Z-2.0000
G01 F60.00
G01 X30.2500 Y-66.1500 F60.00
G01 X30.2721 Y-66.1494 F60.00
G01 X30.3063 Y-66.1460 F60.00
G01 X30.3496 Y-66.1374 F60.00
G01 X30.3824 Y-66.1274 F60.00
G01 X30.4188 Y-66.1126 F60.00
G01 X30.4577 Y-66.0918 F60.00
G01 X30.4863 Y-66.0727 F60.00
G01 X30.5168 Y-66.0480 F60.00
G01 X30.5480 Y-66.0168 F60.00
G01 X30.5698 Y-65.9902 F60.00
G01 X30.5918 Y-65.9577 F60.00
G01 X30.6126 Y-65.9188 F60.00
G01 X30.6274 Y-65.8824 F60.00
G01 X30.6386 Y-65.8448 F60.00
G01 X30.6460 Y-65.8063 F60.00
G01 X30.6494 Y-65.7721 F60.00
G01 X30.6500 Y-65.7500 F60.00
G01 X30.6500 Y-33.5250 F60.00
G00 X30.6500 Y-33.5250
G01 F60.00
G01 Z-2.5000
G01 F60.00
G01 X30.6500 Y-65.7500 F60.00
G01 X30.6494 Y-65.7721 F60.00
G01 X30.6460 Y-65.8063 F60.00
G01 X30.6386 Y-65.8448 F60.00
G01 X30.6274 Y-65.8824 F60.00
G01 X30.6126 Y-65.9188 F60.00
G01 X30.5918 Y-65.9577 F60.00
G01 X30.5698 Y-65.9902 F60.00
G01 X30.5480 Y-66.0168 F60.00
G01 X30.5168 Y-66.0480 F60.00
G01 X30.4863 Y-66.0727 F60.00
G01 X30.4577 Y-66.0918 F60.00
G01 X30.4188 Y-66.1126 F60.00
G01 X30.3824 Y-66.1274 F60.00
G01 X30.3496 Y-66.1374 F60.00
G01 X30.3063 Y-66.1460 F60.00
G01 X30.2721 Y-66.1494 F60.00
G01 X30.2500 Y-66.1500 F60.00
G01 X15.9750 Y-66.1500 F60.00
G00 Z2.0000
G00 X14.4750 Y-66.1500
G01 F60.00
G01 Z-0.5000
G01 F60.00
G01 X0.0000 Y-66.1500 F60.00
G01 X-0.0221 Y-66.1494 F60.00
G01 X-0.0563 Y-66.1460 F60.00
G01 X-0.0996 Y-66.1374 F60.00
G01 X-0.1324 Y-66.1274 F60.00
G01 X-0.1688 Y-66.1126 F60.00
G01 X-0.2077 Y-66.0918 F60.00
G01 X-0.2402 Y-66.0698 F60.00
G01 X-0.2668 Y-66.0480 F60.00
G01 X-0.2980 Y-66.0168 F60.00
G01 X-0.3198 Y-65.9902 F60.00
G01 X-0.3418 Y-65.9577 F60.00
G01 X-0.3626 Y-65.9188 F60.00
G01 X-0.3774 Y-65.8824 F60.00
G01 X-0.3886 Y-65.8448 F60.00
G01 X-0.3960 Y-65.8063 F60.00
G01 X-0.3994 Y-65.7721 F60.00
G01 X-0.4000 Y-65.7500 F60.00
G01 X-0.4000 Y-33.5250 F60.00
G00 X-0.4000 Y-33.5250
G01 F60.00
G01 Z-1.0000
G01 F60.00
G01 X-0.4000 Y-65.7500 F60.00
G01 X-0.3994 Y-65.7721 F60.00
G01 X-0.3960 Y-65.8063 F60.00
G01 X-0.3886 Y-65.8448 F60.00
G01 X-0.3774 Y-65.8824 F60.00
G01 X-0.3626 Y-65.9188 F60.00
G01 X-0.3418 Y-65.9577 F60.00
G01 X-0.3198 Y-65.9902 F60.00
G01 X-0.2980 Y-66.0168 F60.00
G01 X-0.2668 Y-66.0480 F60.00
G01 X-0.2402 Y-66.0698 F60.00
G01 X-0.2077 Y-66.0918 F60.00
G01 X-0.1688 Y-66.1126 F60.00
G01 X-0.1324 Y-66.1274 F60.00
G01 X-0.0996 Y-66.1374 F60.00
G01 X-0.0563 Y-66.1460 F60.00
G01 X-0.0221 Y-66.1494 F60.00
G01 X0.0000 Y-66.1500 F60.00
G01 X14.4750 Y-66.1500 F60.00
G00 X14.4750 Y-66.1500
G01 F60.00
G01 Z-1.5000
G01 F60.00
G01 X0.0000 Y-66.1500 F60.00
G01 X-0.0221 Y-66.1494 F60.00
G01 X-0.0563 Y-66.1460 F60.00
G01 X-0.0996 Y-66.1374 F60.00
G01 X-0.1324 Y-66.1274 F60.00
G01 X-0.1688 Y-66.1126 F60.00
G01 X-0.2077 Y-66.0918 F60.00
G01 X-0.2402 Y-66.0698 F60.00
G01 X-0.2668 Y-66.0480 F60.00
G01 X-0.2980 Y-66.0168 F60.00
G01 X-0.3198 Y-65.9902 F60.00
G01 X-0.3418 Y-65.9577 F60.00
G01 X-0.3626 Y-65.9188 F60.00
G01 X-0.3774 Y-65.8824 F60.00
G01 X-0.3886 Y-65.8448 F60.00
G01 X-0.3960 Y-65.8063 F60.00
G01 X-0.3994 Y-65.7721 F60.00
G01 X-0.4000 Y-65.7500 F60.00
G01 X-0.4000 Y-33.5250 F60.00
G00 X-0.4000 Y-33.5250
G01 F60.00
G01 Z-2.0000
G01 F60.00
G01 X-0.4000 Y-65.7500 F60.00
G01 X-0.3994 Y-65.7721 F60.00
G01 X-0.3960 Y-65.8063 F60.00
G01 X-0.3886 Y-65.8448 F60.00
G01 X-0.3774 Y-65.8824 F60.00
G01 X-0.3626 Y-65.9188 F60.00
G01 X-0.3418 Y-65.9577 F60.00
G01 X-0.3198 Y-65.9902 F60.00
G01 X-0.2980 Y-66.0168 F60.00
G01 X-0.2668 Y-66.0480 F60.00
G01 X-0.2402 Y-66.0698 F60.00
G01 X-0.2077 Y-66.0918 F60.00
G01 X-0.1688 Y-66.1126 F60.00
G01 X-0.1324 Y-66.1274 F60.00
G01 X-0.0996 Y-66.1374 F60.00
G01 X-0.0563 Y-66.1460 F60.00
G01 X-0.0221 Y-66.1494 F60.00
G01 X0.0000 Y-66.1500 F60.00
G01 X14.4750 Y-66.1500 F60.00
G00 X14.4750 Y-66.1500
G01 F60.00
G01 Z-2.5000
G01 F60.00
G01 X0.0000 Y-66.1500 F60.00
G01 X-0.0221 Y-66.1494 F60.00
G01 X-0.0563 Y-66.1460 F60.00
G01 X-0.0996 Y-66.1374 F60.00
G01 X-0.1324 Y-66.1274 F60.00
G01 X-0.1688 Y-66.1126 F60.00
G01 X-0.2077 Y-66.0918 F60.00
G01 X-0.2402 Y-66.0698 F60.00
G01 X-0.2668 Y-66.0480 F60.00
G01 X-0.2980 Y-66.0168 F60.00
G01 X-0.3198 Y-65.9902 F60.00
G01 X-0.3418 Y-65.9577 F60.00
G01 X-0.3626 Y-65.9188 F60.00
G01 X-0.3774 Y-65.8824 F60.00
G01 X-0.3886 Y-65.8448 F60.00
G01 X-0.3960 Y-65.8063 F60.00
G01 X-0.3994 Y-65.7721 F60.00
G01 X-0.4000 Y-65.7500 F60.00
G01 X-0.4000 Y-33.5250 F60.00
G00 Z2.0000
G01 F120.00

M5             
G00 Z15.0000
G00 X0.0000 Y0.0000                
T9999
(MSG, Change to Tool Dia = 0.5000)
M0
G00 Z15.0000
        
M03
G01 F120.00
G00 X14.4750 Y0.4000
G01 F60.00
G01 Z-0.5000
G01 F120.00
G01 X15.9750 Y0.4000 F120.00
G00 X15.9750 Y0.4000
G01 F60.00
G01 Z-1.0000
G01 F120.00
G01 X14.4750 Y0.4000 F120.00
G00 Z2.0000
G00 X30.6500 Y-32.0250
G01 F60.00
G01 Z-0.5000
G01 F120.00
G01 X30.6500 Y-33.5250 F120.00
G00 X30.6500 Y-33.5250
G01 F60.00
G01 Z-1.0000
G01 F120.00
G01 X30.6500 Y-32.0250 F120.00
G00 Z2.0000
G00 X-0.4000 Y-33.5250
G01 F60.00
G01 Z-0.5000
G01 F120.00
G01 X-0.4000 Y-32.0250 F120.00
G00 X-0.4000 Y-32.0250
G01 F60.00
G01 Z-1.0000
G01 F120.00
G01 X-0.4000 Y-33.5250 F120.00
G00 Z2.0000
G00 X14.4750 Y-66.1500
G01 F60.00
G01 Z-0.5000
G01 F120.00
G01 X15.9750 Y-66.1500 F120.00
G00 X15.9750 Y-66.1500
G01 F60.00
G01 Z-1.0000
G01 F120.00
G01 X14.4750 Y-66.1500 F120.00
G00 Z2.0000
M05
G00 Z2.0000
G00 Z15.00
G00 X0.0 Y0.0


