(G-code generated by FlatCAM Evo vUnstable - Version Date: 2023/6/31)

(Name: Breakout_Boards.drl_exc_cnc_cnc)
(Type: G-code from Geometry)
(Units: MM)

(Created on Sunday, 17 March 2024 at 21:04)

(This preprocessor is used with a motion controller loaded with GRBL firmware.)
(It is configured to be compatible with almost any version of GRBL firmware. No M6 command.)

(TOOL DIAMETER: 0.5 mm)
(Feedrate_XY: 60.0 mm/min)
(Feedrate_Z: 60.0 mm/min)
(Feedrate rapids 1500.0 mm/min)

(Z_Cut: -2.0 mm)
(DepthPerCut: 0.5 mm <=>4 passes)
(Z_Move: 2.0 mm)
(Z Start: None mm)
(Z End: 15.0 mm)
(X,Y End: 0.0000, 0.0000 mm)
(Steps per circle: 16)
(Steps per circle: 16)
(Preprocessor Geometry: GRBL_11_no_M6)

(X range:    1.5770 ...   30.4270  mm)
(Y range:  -35.8000 ...   -8.4350  mm)

(Spindle Speed: 0.0 RPM)
G21
G90
G17
G94


G01 F60.00

M5             
G00 Z15.0000
G00 X0.0000 Y0.0000                
T1
(MSG, Change to Tool Dia = 0.5000)
M0
G00 Z15.0000
        
M03
G01 F60.00
G00 X4.8217 Y-16.5100
G01 F60.00
G01 Z-0.5000
G01 F60.00
G01 X4.8027 Y-16.6056 F60.00
G01 X4.7486 Y-16.6866 F60.00
G01 X4.6676 Y-16.7407 F60.00
G01 X4.5720 Y-16.7597 F60.00
G01 X4.4764 Y-16.7407 F60.00
G01 X4.3954 Y-16.6866 F60.00
G01 X4.3413 Y-16.6056 F60.00
G01 X4.3223 Y-16.5100 F60.00
G01 X4.3413 Y-16.4144 F60.00
G01 X4.3954 Y-16.3334 F60.00
G01 X4.4764 Y-16.2793 F60.00
G01 X4.5720 Y-16.2603 F60.00
G01 X4.6676 Y-16.2793 F60.00
G01 X4.7486 Y-16.3334 F60.00
G01 X4.8027 Y-16.4144 F60.00
G01 X4.8217 Y-16.5100 F60.00
G00 X4.8217 Y-16.5100
G01 F60.00
G01 Z-1.0000
G01 F60.00
G01 X4.8027 Y-16.4144 F60.00
G01 X4.7486 Y-16.3334 F60.00
G01 X4.6676 Y-16.2793 F60.00
G01 X4.5720 Y-16.2603 F60.00
G01 X4.4764 Y-16.2793 F60.00
G01 X4.3954 Y-16.3334 F60.00
G01 X4.3413 Y-16.4144 F60.00
G01 X4.3223 Y-16.5100 F60.00
G01 X4.3413 Y-16.6056 F60.00
G01 X4.3954 Y-16.6866 F60.00
G01 X4.4764 Y-16.7407 F60.00
G01 X4.5720 Y-16.7597 F60.00
G01 X4.6676 Y-16.7407 F60.00
G01 X4.7486 Y-16.6866 F60.00
G01 X4.8027 Y-16.6056 F60.00
G01 X4.8217 Y-16.5100 F60.00
G00 X4.8217 Y-16.5100
G01 F60.00
G01 Z-1.5000
G01 F60.00
G01 X4.8027 Y-16.6056 F60.00
G01 X4.7486 Y-16.6866 F60.00
G01 X4.6676 Y-16.7407 F60.00
G01 X4.5720 Y-16.7597 F60.00
G01 X4.4764 Y-16.7407 F60.00
G01 X4.3954 Y-16.6866 F60.00
G01 X4.3413 Y-16.6056 F60.00
G01 X4.3223 Y-16.5100 F60.00
G01 X4.3413 Y-16.4144 F60.00
G01 X4.3954 Y-16.3334 F60.00
G01 X4.4764 Y-16.2793 F60.00
G01 X4.5720 Y-16.2603 F60.00
G01 X4.6676 Y-16.2793 F60.00
G01 X4.7486 Y-16.3334 F60.00
G01 X4.8027 Y-16.4144 F60.00
G01 X4.8217 Y-16.5100 F60.00
G00 X4.8217 Y-16.5100
G01 F60.00
G01 Z-2.0000
G01 F60.00
G01 X4.8027 Y-16.4144 F60.00
G01 X4.7486 Y-16.3334 F60.00
G01 X4.6676 Y-16.2793 F60.00
G01 X4.5720 Y-16.2603 F60.00
G01 X4.4764 Y-16.2793 F60.00
G01 X4.3954 Y-16.3334 F60.00
G01 X4.3413 Y-16.4144 F60.00
G01 X4.3223 Y-16.5100 F60.00
G01 X4.3413 Y-16.6056 F60.00
G01 X4.3954 Y-16.6866 F60.00
G01 X4.4764 Y-16.7407 F60.00
G01 X4.5720 Y-16.7597 F60.00
G01 X4.6676 Y-16.7407 F60.00
G01 X4.7486 Y-16.6866 F60.00
G01 X4.8027 Y-16.6056 F60.00
G01 X4.8217 Y-16.5100 F60.00
G00 Z2.0000
G00 X7.3617 Y-16.5100
G01 F60.00
G01 Z-0.5000
G01 F60.00
G01 X7.3427 Y-16.6056 F60.00
G01 X7.2886 Y-16.6866 F60.00
G01 X7.2076 Y-16.7407 F60.00
G01 X7.1120 Y-16.7597 F60.00
G01 X7.0164 Y-16.7407 F60.00
G01 X6.9354 Y-16.6866 F60.00
G01 X6.8813 Y-16.6056 F60.00
G01 X6.8623 Y-16.5100 F60.00
G01 X6.8813 Y-16.4144 F60.00
G01 X6.9354 Y-16.3334 F60.00
G01 X7.0164 Y-16.2793 F60.00
G01 X7.1120 Y-16.2603 F60.00
G01 X7.2076 Y-16.2793 F60.00
G01 X7.2886 Y-16.3334 F60.00
G01 X7.3427 Y-16.4144 F60.00
G01 X7.3617 Y-16.5100 F60.00
G00 X7.3617 Y-16.5100
G01 F60.00
G01 Z-1.0000
G01 F60.00
G01 X7.3427 Y-16.4144 F60.00
G01 X7.2886 Y-16.3334 F60.00
G01 X7.2076 Y-16.2793 F60.00
G01 X7.1120 Y-16.2603 F60.00
G01 X7.0164 Y-16.2793 F60.00
G01 X6.9354 Y-16.3334 F60.00
G01 X6.8813 Y-16.4144 F60.00
G01 X6.8623 Y-16.5100 F60.00
G01 X6.8813 Y-16.6056 F60.00
G01 X6.9354 Y-16.6866 F60.00
G01 X7.0164 Y-16.7407 F60.00
G01 X7.1120 Y-16.7597 F60.00
G01 X7.2076 Y-16.7407 F60.00
G01 X7.2886 Y-16.6866 F60.00
G01 X7.3427 Y-16.6056 F60.00
G01 X7.3617 Y-16.5100 F60.00
G00 X7.3617 Y-16.5100
G01 F60.00
G01 Z-1.5000
G01 F60.00
G01 X7.3427 Y-16.6056 F60.00
G01 X7.2886 Y-16.6866 F60.00
G01 X7.2076 Y-16.7407 F60.00
G01 X7.1120 Y-16.7597 F60.00
G01 X7.0164 Y-16.7407 F60.00
G01 X6.9354 Y-16.6866 F60.00
G01 X6.8813 Y-16.6056 F60.00
G01 X6.8623 Y-16.5100 F60.00
G01 X6.8813 Y-16.4144 F60.00
G01 X6.9354 Y-16.3334 F60.00
G01 X7.0164 Y-16.2793 F60.00
G01 X7.1120 Y-16.2603 F60.00
G01 X7.2076 Y-16.2793 F60.00
G01 X7.2886 Y-16.3334 F60.00
G01 X7.3427 Y-16.4144 F60.00
G01 X7.3617 Y-16.5100 F60.00
G00 X7.3617 Y-16.5100
G01 F60.00
G01 Z-2.0000
G01 F60.00
G01 X7.3427 Y-16.4144 F60.00
G01 X7.2886 Y-16.3334 F60.00
G01 X7.2076 Y-16.2793 F60.00
G01 X7.1120 Y-16.2603 F60.00
G01 X7.0164 Y-16.2793 F60.00
G01 X6.9354 Y-16.3334 F60.00
G01 X6.8813 Y-16.4144 F60.00
G01 X6.8623 Y-16.5100 F60.00
G01 X6.8813 Y-16.6056 F60.00
G01 X6.9354 Y-16.6866 F60.00
G01 X7.0164 Y-16.7407 F60.00
G01 X7.1120 Y-16.7597 F60.00
G01 X7.2076 Y-16.7407 F60.00
G01 X7.2886 Y-16.6866 F60.00
G01 X7.3427 Y-16.6056 F60.00
G01 X7.3617 Y-16.5100 F60.00
G00 Z2.0000
G00 X9.9017 Y-16.5100
G01 F60.00
G01 Z-0.5000
G01 F60.00
G01 X9.8827 Y-16.6056 F60.00
G01 X9.8286 Y-16.6866 F60.00
G01 X9.7476 Y-16.7407 F60.00
G01 X9.6520 Y-16.7597 F60.00
G01 X9.5564 Y-16.7407 F60.00
G01 X9.4754 Y-16.6866 F60.00
G01 X9.4213 Y-16.6056 F60.00
G01 X9.4023 Y-16.5100 F60.00
G01 X9.4213 Y-16.4144 F60.00
G01 X9.4754 Y-16.3334 F60.00
G01 X9.5564 Y-16.2793 F60.00
G01 X9.6520 Y-16.2603 F60.00
G01 X9.7476 Y-16.2793 F60.00
G01 X9.8286 Y-16.3334 F60.00
G01 X9.8827 Y-16.4144 F60.00
G01 X9.9017 Y-16.5100 F60.00
G00 X9.9017 Y-16.5100
G01 F60.00
G01 Z-1.0000
G01 F60.00
G01 X9.8827 Y-16.4144 F60.00
G01 X9.8286 Y-16.3334 F60.00
G01 X9.7476 Y-16.2793 F60.00
G01 X9.6520 Y-16.2603 F60.00
G01 X9.5564 Y-16.2793 F60.00
G01 X9.4754 Y-16.3334 F60.00
G01 X9.4213 Y-16.4144 F60.00
G01 X9.4023 Y-16.5100 F60.00
G01 X9.4213 Y-16.6056 F60.00
G01 X9.4754 Y-16.6866 F60.00
G01 X9.5564 Y-16.7407 F60.00
G01 X9.6520 Y-16.7597 F60.00
G01 X9.7476 Y-16.7407 F60.00
G01 X9.8286 Y-16.6866 F60.00
G01 X9.8827 Y-16.6056 F60.00
G01 X9.9017 Y-16.5100 F60.00
G00 X9.9017 Y-16.5100
G01 F60.00
G01 Z-1.5000
G01 F60.00
G01 X9.8827 Y-16.6056 F60.00
G01 X9.8286 Y-16.6866 F60.00
G01 X9.7476 Y-16.7407 F60.00
G01 X9.6520 Y-16.7597 F60.00
G01 X9.5564 Y-16.7407 F60.00
G01 X9.4754 Y-16.6866 F60.00
G01 X9.4213 Y-16.6056 F60.00
G01 X9.4023 Y-16.5100 F60.00
G01 X9.4213 Y-16.4144 F60.00
G01 X9.4754 Y-16.3334 F60.00
G01 X9.5564 Y-16.2793 F60.00
G01 X9.6520 Y-16.2603 F60.00
G01 X9.7476 Y-16.2793 F60.00
G01 X9.8286 Y-16.3334 F60.00
G01 X9.8827 Y-16.4144 F60.00
G01 X9.9017 Y-16.5100 F60.00
G00 X9.9017 Y-16.5100
G01 F60.00
G01 Z-2.0000
G01 F60.00
G01 X9.8827 Y-16.4144 F60.00
G01 X9.8286 Y-16.3334 F60.00
G01 X9.7476 Y-16.2793 F60.00
G01 X9.6520 Y-16.2603 F60.00
G01 X9.5564 Y-16.2793 F60.00
G01 X9.4754 Y-16.3334 F60.00
G01 X9.4213 Y-16.4144 F60.00
G01 X9.4023 Y-16.5100 F60.00
G01 X9.4213 Y-16.6056 F60.00
G01 X9.4754 Y-16.6866 F60.00
G01 X9.5564 Y-16.7407 F60.00
G01 X9.6520 Y-16.7597 F60.00
G01 X9.7476 Y-16.7407 F60.00
G01 X9.8286 Y-16.6866 F60.00
G01 X9.8827 Y-16.6056 F60.00
G01 X9.9017 Y-16.5100 F60.00
G00 Z2.0000
G00 X12.4417 Y-16.5100
G01 F60.00
G01 Z-0.5000
G01 F60.00
G01 X12.4227 Y-16.6056 F60.00
G01 X12.3686 Y-16.6866 F60.00
G01 X12.2876 Y-16.7407 F60.00
G01 X12.1920 Y-16.7597 F60.00
G01 X12.0964 Y-16.7407 F60.00
G01 X12.0154 Y-16.6866 F60.00
G01 X11.9613 Y-16.6056 F60.00
G01 X11.9423 Y-16.5100 F60.00
G01 X11.9613 Y-16.4144 F60.00
G01 X12.0154 Y-16.3334 F60.00
G01 X12.0964 Y-16.2793 F60.00
G01 X12.1920 Y-16.2603 F60.00
G01 X12.2876 Y-16.2793 F60.00
G01 X12.3686 Y-16.3334 F60.00
G01 X12.4227 Y-16.4144 F60.00
G01 X12.4417 Y-16.5100 F60.00
G00 X12.4417 Y-16.5100
G01 F60.00
G01 Z-1.0000
G01 F60.00
G01 X12.4227 Y-16.4144 F60.00
G01 X12.3686 Y-16.3334 F60.00
G01 X12.2876 Y-16.2793 F60.00
G01 X12.1920 Y-16.2603 F60.00
G01 X12.0964 Y-16.2793 F60.00
G01 X12.0154 Y-16.3334 F60.00
G01 X11.9613 Y-16.4144 F60.00
G01 X11.9423 Y-16.5100 F60.00
G01 X11.9613 Y-16.6056 F60.00
G01 X12.0154 Y-16.6866 F60.00
G01 X12.0964 Y-16.7407 F60.00
G01 X12.1920 Y-16.7597 F60.00
G01 X12.2876 Y-16.7407 F60.00
G01 X12.3686 Y-16.6866 F60.00
G01 X12.4227 Y-16.6056 F60.00
G01 X12.4417 Y-16.5100 F60.00
G00 X12.4417 Y-16.5100
G01 F60.00
G01 Z-1.5000
G01 F60.00
G01 X12.4227 Y-16.6056 F60.00
G01 X12.3686 Y-16.6866 F60.00
G01 X12.2876 Y-16.7407 F60.00
G01 X12.1920 Y-16.7597 F60.00
G01 X12.0964 Y-16.7407 F60.00
G01 X12.0154 Y-16.6866 F60.00
G01 X11.9613 Y-16.6056 F60.00
G01 X11.9423 Y-16.5100 F60.00
G01 X11.9613 Y-16.4144 F60.00
G01 X12.0154 Y-16.3334 F60.00
G01 X12.0964 Y-16.2793 F60.00
G01 X12.1920 Y-16.2603 F60.00
G01 X12.2876 Y-16.2793 F60.00
G01 X12.3686 Y-16.3334 F60.00
G01 X12.4227 Y-16.4144 F60.00
G01 X12.4417 Y-16.5100 F60.00
G00 X12.4417 Y-16.5100
G01 F60.00
G01 Z-2.0000
G01 F60.00
G01 X12.4227 Y-16.4144 F60.00
G01 X12.3686 Y-16.3334 F60.00
G01 X12.2876 Y-16.2793 F60.00
G01 X12.1920 Y-16.2603 F60.00
G01 X12.0964 Y-16.2793 F60.00
G01 X12.0154 Y-16.3334 F60.00
G01 X11.9613 Y-16.4144 F60.00
G01 X11.9423 Y-16.5100 F60.00
G01 X11.9613 Y-16.6056 F60.00
G01 X12.0154 Y-16.6866 F60.00
G01 X12.0964 Y-16.7407 F60.00
G01 X12.1920 Y-16.7597 F60.00
G01 X12.2876 Y-16.7407 F60.00
G01 X12.3686 Y-16.6866 F60.00
G01 X12.4227 Y-16.6056 F60.00
G01 X12.4417 Y-16.5100 F60.00
G00 Z2.0000
G00 X11.1717 Y-19.0500
G01 F60.00
G01 Z-0.5000
G01 F60.00
G01 X11.1527 Y-19.1456 F60.00
G01 X11.0986 Y-19.2266 F60.00
G01 X11.0176 Y-19.2807 F60.00
G01 X10.9220 Y-19.2997 F60.00
G01 X10.8264 Y-19.2807 F60.00
G01 X10.7454 Y-19.2266 F60.00
G01 X10.6913 Y-19.1456 F60.00
G01 X10.6723 Y-19.0500 F60.00
G01 X10.6913 Y-18.9544 F60.00
G01 X10.7454 Y-18.8734 F60.00
G01 X10.8264 Y-18.8193 F60.00
G01 X10.9220 Y-18.8003 F60.00
G01 X11.0176 Y-18.8193 F60.00
G01 X11.0986 Y-18.8734 F60.00
G01 X11.1527 Y-18.9544 F60.00
G01 X11.1717 Y-19.0500 F60.00
G00 X11.1717 Y-19.0500
G01 F60.00
G01 Z-1.0000
G01 F60.00
G01 X11.1527 Y-18.9544 F60.00
G01 X11.0986 Y-18.8734 F60.00
G01 X11.0176 Y-18.8193 F60.00
G01 X10.9220 Y-18.8003 F60.00
G01 X10.8264 Y-18.8193 F60.00
G01 X10.7454 Y-18.8734 F60.00
G01 X10.6913 Y-18.9544 F60.00
G01 X10.6723 Y-19.0500 F60.00
G01 X10.6913 Y-19.1456 F60.00
G01 X10.7454 Y-19.2266 F60.00
G01 X10.8264 Y-19.2807 F60.00
G01 X10.9220 Y-19.2997 F60.00
G01 X11.0176 Y-19.2807 F60.00
G01 X11.0986 Y-19.2266 F60.00
G01 X11.1527 Y-19.1456 F60.00
G01 X11.1717 Y-19.0500 F60.00
G00 X11.1717 Y-19.0500
G01 F60.00
G01 Z-1.5000
G01 F60.00
G01 X11.1527 Y-19.1456 F60.00
G01 X11.0986 Y-19.2266 F60.00
G01 X11.0176 Y-19.2807 F60.00
G01 X10.9220 Y-19.2997 F60.00
G01 X10.8264 Y-19.2807 F60.00
G01 X10.7454 Y-19.2266 F60.00
G01 X10.6913 Y-19.1456 F60.00
G01 X10.6723 Y-19.0500 F60.00
G01 X10.6913 Y-18.9544 F60.00
G01 X10.7454 Y-18.8734 F60.00
G01 X10.8264 Y-18.8193 F60.00
G01 X10.9220 Y-18.8003 F60.00
G01 X11.0176 Y-18.8193 F60.00
G01 X11.0986 Y-18.8734 F60.00
G01 X11.1527 Y-18.9544 F60.00
G01 X11.1717 Y-19.0500 F60.00
G00 X11.1717 Y-19.0500
G01 F60.00
G01 Z-2.0000
G01 F60.00
G01 X11.1527 Y-18.9544 F60.00
G01 X11.0986 Y-18.8734 F60.00
G01 X11.0176 Y-18.8193 F60.00
G01 X10.9220 Y-18.8003 F60.00
G01 X10.8264 Y-18.8193 F60.00
G01 X10.7454 Y-18.8734 F60.00
G01 X10.6913 Y-18.9544 F60.00
G01 X10.6723 Y-19.0500 F60.00
G01 X10.6913 Y-19.1456 F60.00
G01 X10.7454 Y-19.2266 F60.00
G01 X10.8264 Y-19.2807 F60.00
G01 X10.9220 Y-19.2997 F60.00
G01 X11.0176 Y-19.2807 F60.00
G01 X11.0986 Y-19.2266 F60.00
G01 X11.1527 Y-19.1456 F60.00
G01 X11.1717 Y-19.0500 F60.00
G00 Z2.0000
G00 X13.7117 Y-19.0500
G01 F60.00
G01 Z-0.5000
G01 F60.00
G01 X13.6927 Y-19.1456 F60.00
G01 X13.6386 Y-19.2266 F60.00
G01 X13.5576 Y-19.2807 F60.00
G01 X13.4620 Y-19.2997 F60.00
G01 X13.3664 Y-19.2807 F60.00
G01 X13.2854 Y-19.2266 F60.00
G01 X13.2313 Y-19.1456 F60.00
G01 X13.2123 Y-19.0500 F60.00
G01 X13.2313 Y-18.9544 F60.00
G01 X13.2854 Y-18.8734 F60.00
G01 X13.3664 Y-18.8193 F60.00
G01 X13.4620 Y-18.8003 F60.00
G01 X13.5576 Y-18.8193 F60.00
G01 X13.6386 Y-18.8734 F60.00
G01 X13.6927 Y-18.9544 F60.00
G01 X13.7117 Y-19.0500 F60.00
G00 X13.7117 Y-19.0500
G01 F60.00
G01 Z-1.0000
G01 F60.00
G01 X13.6927 Y-18.9544 F60.00
G01 X13.6386 Y-18.8734 F60.00
G01 X13.5576 Y-18.8193 F60.00
G01 X13.4620 Y-18.8003 F60.00
G01 X13.3664 Y-18.8193 F60.00
G01 X13.2854 Y-18.8734 F60.00
G01 X13.2313 Y-18.9544 F60.00
G01 X13.2123 Y-19.0500 F60.00
G01 X13.2313 Y-19.1456 F60.00
G01 X13.2854 Y-19.2266 F60.00
G01 X13.3664 Y-19.2807 F60.00
G01 X13.4620 Y-19.2997 F60.00
G01 X13.5576 Y-19.2807 F60.00
G01 X13.6386 Y-19.2266 F60.00
G01 X13.6927 Y-19.1456 F60.00
G01 X13.7117 Y-19.0500 F60.00
G00 X13.7117 Y-19.0500
G01 F60.00
G01 Z-1.5000
G01 F60.00
G01 X13.6927 Y-19.1456 F60.00
G01 X13.6386 Y-19.2266 F60.00
G01 X13.5576 Y-19.2807 F60.00
G01 X13.4620 Y-19.2997 F60.00
G01 X13.3664 Y-19.2807 F60.00
G01 X13.2854 Y-19.2266 F60.00
G01 X13.2313 Y-19.1456 F60.00
G01 X13.2123 Y-19.0500 F60.00
G01 X13.2313 Y-18.9544 F60.00
G01 X13.2854 Y-18.8734 F60.00
G01 X13.3664 Y-18.8193 F60.00
G01 X13.4620 Y-18.8003 F60.00
G01 X13.5576 Y-18.8193 F60.00
G01 X13.6386 Y-18.8734 F60.00
G01 X13.6927 Y-18.9544 F60.00
G01 X13.7117 Y-19.0500 F60.00
G00 X13.7117 Y-19.0500
G01 F60.00
G01 Z-2.0000
G01 F60.00
G01 X13.6927 Y-18.9544 F60.00
G01 X13.6386 Y-18.8734 F60.00
G01 X13.5576 Y-18.8193 F60.00
G01 X13.4620 Y-18.8003 F60.00
G01 X13.3664 Y-18.8193 F60.00
G01 X13.2854 Y-18.8734 F60.00
G01 X13.2313 Y-18.9544 F60.00
G01 X13.2123 Y-19.0500 F60.00
G01 X13.2313 Y-19.1456 F60.00
G01 X13.2854 Y-19.2266 F60.00
G01 X13.3664 Y-19.2807 F60.00
G01 X13.4620 Y-19.2997 F60.00
G01 X13.5576 Y-19.2807 F60.00
G01 X13.6386 Y-19.2266 F60.00
G01 X13.6927 Y-19.1456 F60.00
G01 X13.7117 Y-19.0500 F60.00
G00 Z2.0000
G00 X11.1717 Y-22.6000
G01 F60.00
G01 Z-0.5000
G01 F60.00
G01 X11.1527 Y-22.6956 F60.00
G01 X11.0986 Y-22.7766 F60.00
G01 X11.0176 Y-22.8307 F60.00
G01 X10.9220 Y-22.8497 F60.00
G01 X10.8264 Y-22.8307 F60.00
G01 X10.7454 Y-22.7766 F60.00
G01 X10.6913 Y-22.6956 F60.00
G01 X10.6723 Y-22.6000 F60.00
G01 X10.6913 Y-22.5044 F60.00
G01 X10.7454 Y-22.4234 F60.00
G01 X10.8264 Y-22.3693 F60.00
G01 X10.9220 Y-22.3503 F60.00
G01 X11.0176 Y-22.3693 F60.00
G01 X11.0986 Y-22.4234 F60.00
G01 X11.1527 Y-22.5044 F60.00
G01 X11.1717 Y-22.6000 F60.00
G00 X11.1717 Y-22.6000
G01 F60.00
G01 Z-1.0000
G01 F60.00
G01 X11.1527 Y-22.5044 F60.00
G01 X11.0986 Y-22.4234 F60.00
G01 X11.0176 Y-22.3693 F60.00
G01 X10.9220 Y-22.3503 F60.00
G01 X10.8264 Y-22.3693 F60.00
G01 X10.7454 Y-22.4234 F60.00
G01 X10.6913 Y-22.5044 F60.00
G01 X10.6723 Y-22.6000 F60.00
G01 X10.6913 Y-22.6956 F60.00
G01 X10.7454 Y-22.7766 F60.00
G01 X10.8264 Y-22.8307 F60.00
G01 X10.9220 Y-22.8497 F60.00
G01 X11.0176 Y-22.8307 F60.00
G01 X11.0986 Y-22.7766 F60.00
G01 X11.1527 Y-22.6956 F60.00
G01 X11.1717 Y-22.6000 F60.00
G00 X11.1717 Y-22.6000
G01 F60.00
G01 Z-1.5000
G01 F60.00
G01 X11.1527 Y-22.6956 F60.00
G01 X11.0986 Y-22.7766 F60.00
G01 X11.0176 Y-22.8307 F60.00
G01 X10.9220 Y-22.8497 F60.00
G01 X10.8264 Y-22.8307 F60.00
G01 X10.7454 Y-22.7766 F60.00
G01 X10.6913 Y-22.6956 F60.00
G01 X10.6723 Y-22.6000 F60.00
G01 X10.6913 Y-22.5044 F60.00
G01 X10.7454 Y-22.4234 F60.00
G01 X10.8264 Y-22.3693 F60.00
G01 X10.9220 Y-22.3503 F60.00
G01 X11.0176 Y-22.3693 F60.00
G01 X11.0986 Y-22.4234 F60.00
G01 X11.1527 Y-22.5044 F60.00
G01 X11.1717 Y-22.6000 F60.00
G00 X11.1717 Y-22.6000
G01 F60.00
G01 Z-2.0000
G01 F60.00
G01 X11.1527 Y-22.5044 F60.00
G01 X11.0986 Y-22.4234 F60.00
G01 X11.0176 Y-22.3693 F60.00
G01 X10.9220 Y-22.3503 F60.00
G01 X10.8264 Y-22.3693 F60.00
G01 X10.7454 Y-22.4234 F60.00
G01 X10.6913 Y-22.5044 F60.00
G01 X10.6723 Y-22.6000 F60.00
G01 X10.6913 Y-22.6956 F60.00
G01 X10.7454 Y-22.7766 F60.00
G01 X10.8264 Y-22.8307 F60.00
G01 X10.9220 Y-22.8497 F60.00
G01 X11.0176 Y-22.8307 F60.00
G01 X11.0986 Y-22.7766 F60.00
G01 X11.1527 Y-22.6956 F60.00
G01 X11.1717 Y-22.6000 F60.00
G00 Z2.0000
G00 X11.1717 Y-25.1400
G01 F60.00
G01 Z-0.5000
G01 F60.00
G01 X11.1527 Y-25.2356 F60.00
G01 X11.0986 Y-25.3166 F60.00
G01 X11.0176 Y-25.3707 F60.00
G01 X10.9220 Y-25.3897 F60.00
G01 X10.8264 Y-25.3707 F60.00
G01 X10.7454 Y-25.3166 F60.00
G01 X10.6913 Y-25.2356 F60.00
G01 X10.6723 Y-25.1400 F60.00
G01 X10.6913 Y-25.0444 F60.00
G01 X10.7454 Y-24.9634 F60.00
G01 X10.8264 Y-24.9093 F60.00
G01 X10.9220 Y-24.8903 F60.00
G01 X11.0176 Y-24.9093 F60.00
G01 X11.0986 Y-24.9634 F60.00
G01 X11.1527 Y-25.0444 F60.00
G01 X11.1717 Y-25.1400 F60.00
G00 X11.1717 Y-25.1400
G01 F60.00
G01 Z-1.0000
G01 F60.00
G01 X11.1527 Y-25.0444 F60.00
G01 X11.0986 Y-24.9634 F60.00
G01 X11.0176 Y-24.9093 F60.00
G01 X10.9220 Y-24.8903 F60.00
G01 X10.8264 Y-24.9093 F60.00
G01 X10.7454 Y-24.9634 F60.00
G01 X10.6913 Y-25.0444 F60.00
G01 X10.6723 Y-25.1400 F60.00
G01 X10.6913 Y-25.2356 F60.00
G01 X10.7454 Y-25.3166 F60.00
G01 X10.8264 Y-25.3707 F60.00
G01 X10.9220 Y-25.3897 F60.00
G01 X11.0176 Y-25.3707 F60.00
G01 X11.0986 Y-25.3166 F60.00
G01 X11.1527 Y-25.2356 F60.00
G01 X11.1717 Y-25.1400 F60.00
G00 X11.1717 Y-25.1400
G01 F60.00
G01 Z-1.5000
G01 F60.00
G01 X11.1527 Y-25.2356 F60.00
G01 X11.0986 Y-25.3166 F60.00
G01 X11.0176 Y-25.3707 F60.00
G01 X10.9220 Y-25.3897 F60.00
G01 X10.8264 Y-25.3707 F60.00
G01 X10.7454 Y-25.3166 F60.00
G01 X10.6913 Y-25.2356 F60.00
G01 X10.6723 Y-25.1400 F60.00
G01 X10.6913 Y-25.0444 F60.00
G01 X10.7454 Y-24.9634 F60.00
G01 X10.8264 Y-24.9093 F60.00
G01 X10.9220 Y-24.8903 F60.00
G01 X11.0176 Y-24.9093 F60.00
G01 X11.0986 Y-24.9634 F60.00
G01 X11.1527 Y-25.0444 F60.00
G01 X11.1717 Y-25.1400 F60.00
G00 X11.1717 Y-25.1400
G01 F60.00
G01 Z-2.0000
G01 F60.00
G01 X11.1527 Y-25.0444 F60.00
G01 X11.0986 Y-24.9634 F60.00
G01 X11.0176 Y-24.9093 F60.00
G01 X10.9220 Y-24.8903 F60.00
G01 X10.8264 Y-24.9093 F60.00
G01 X10.7454 Y-24.9634 F60.00
G01 X10.6913 Y-25.0444 F60.00
G01 X10.6723 Y-25.1400 F60.00
G01 X10.6913 Y-25.2356 F60.00
G01 X10.7454 Y-25.3166 F60.00
G01 X10.8264 Y-25.3707 F60.00
G01 X10.9220 Y-25.3897 F60.00
G01 X11.0176 Y-25.3707 F60.00
G01 X11.0986 Y-25.3166 F60.00
G01 X11.1527 Y-25.2356 F60.00
G01 X11.1717 Y-25.1400 F60.00
G00 Z2.0000
G00 X11.1717 Y-27.6800
G01 F60.00
G01 Z-0.5000
G01 F60.00
G01 X11.1527 Y-27.7756 F60.00
G01 X11.0986 Y-27.8566 F60.00
G01 X11.0176 Y-27.9107 F60.00
G01 X10.9220 Y-27.9297 F60.00
G01 X10.8264 Y-27.9107 F60.00
G01 X10.7454 Y-27.8566 F60.00
G01 X10.6913 Y-27.7756 F60.00
G01 X10.6723 Y-27.6800 F60.00
G01 X10.6913 Y-27.5844 F60.00
G01 X10.7454 Y-27.5034 F60.00
G01 X10.8264 Y-27.4493 F60.00
G01 X10.9220 Y-27.4303 F60.00
G01 X11.0176 Y-27.4493 F60.00
G01 X11.0986 Y-27.5034 F60.00
G01 X11.1527 Y-27.5844 F60.00
G01 X11.1717 Y-27.6800 F60.00
G00 X11.1717 Y-27.6800
G01 F60.00
G01 Z-1.0000
G01 F60.00
G01 X11.1527 Y-27.5844 F60.00
G01 X11.0986 Y-27.5034 F60.00
G01 X11.0176 Y-27.4493 F60.00
G01 X10.9220 Y-27.4303 F60.00
G01 X10.8264 Y-27.4493 F60.00
G01 X10.7454 Y-27.5034 F60.00
G01 X10.6913 Y-27.5844 F60.00
G01 X10.6723 Y-27.6800 F60.00
G01 X10.6913 Y-27.7756 F60.00
G01 X10.7454 Y-27.8566 F60.00
G01 X10.8264 Y-27.9107 F60.00
G01 X10.9220 Y-27.9297 F60.00
G01 X11.0176 Y-27.9107 F60.00
G01 X11.0986 Y-27.8566 F60.00
G01 X11.1527 Y-27.7756 F60.00
G01 X11.1717 Y-27.6800 F60.00
G00 X11.1717 Y-27.6800
G01 F60.00
G01 Z-1.5000
G01 F60.00
G01 X11.1527 Y-27.7756 F60.00
G01 X11.0986 Y-27.8566 F60.00
G01 X11.0176 Y-27.9107 F60.00
G01 X10.9220 Y-27.9297 F60.00
G01 X10.8264 Y-27.9107 F60.00
G01 X10.7454 Y-27.8566 F60.00
G01 X10.6913 Y-27.7756 F60.00
G01 X10.6723 Y-27.6800 F60.00
G01 X10.6913 Y-27.5844 F60.00
G01 X10.7454 Y-27.5034 F60.00
G01 X10.8264 Y-27.4493 F60.00
G01 X10.9220 Y-27.4303 F60.00
G01 X11.0176 Y-27.4493 F60.00
G01 X11.0986 Y-27.5034 F60.00
G01 X11.1527 Y-27.5844 F60.00
G01 X11.1717 Y-27.6800 F60.00
G00 X11.1717 Y-27.6800
G01 F60.00
G01 Z-2.0000
G01 F60.00
G01 X11.1527 Y-27.5844 F60.00
G01 X11.0986 Y-27.5034 F60.00
G01 X11.0176 Y-27.4493 F60.00
G01 X10.9220 Y-27.4303 F60.00
G01 X10.8264 Y-27.4493 F60.00
G01 X10.7454 Y-27.5034 F60.00
G01 X10.6913 Y-27.5844 F60.00
G01 X10.6723 Y-27.6800 F60.00
G01 X10.6913 Y-27.7756 F60.00
G01 X10.7454 Y-27.8566 F60.00
G01 X10.8264 Y-27.9107 F60.00
G01 X10.9220 Y-27.9297 F60.00
G01 X11.0176 Y-27.9107 F60.00
G01 X11.0986 Y-27.8566 F60.00
G01 X11.1527 Y-27.7756 F60.00
G01 X11.1717 Y-27.6800 F60.00
G00 Z2.0000
G00 X11.1717 Y-30.2200
G01 F60.00
G01 Z-0.5000
G01 F60.00
G01 X11.1527 Y-30.3156 F60.00
G01 X11.0986 Y-30.3966 F60.00
G01 X11.0176 Y-30.4507 F60.00
G01 X10.9220 Y-30.4697 F60.00
G01 X10.8264 Y-30.4507 F60.00
G01 X10.7454 Y-30.3966 F60.00
G01 X10.6913 Y-30.3156 F60.00
G01 X10.6723 Y-30.2200 F60.00
G01 X10.6913 Y-30.1244 F60.00
G01 X10.7454 Y-30.0434 F60.00
G01 X10.8264 Y-29.9893 F60.00
G01 X10.9220 Y-29.9703 F60.00
G01 X11.0176 Y-29.9893 F60.00
G01 X11.0986 Y-30.0434 F60.00
G01 X11.1527 Y-30.1244 F60.00
G01 X11.1717 Y-30.2200 F60.00
G00 X11.1717 Y-30.2200
G01 F60.00
G01 Z-1.0000
G01 F60.00
G01 X11.1527 Y-30.1244 F60.00
G01 X11.0986 Y-30.0434 F60.00
G01 X11.0176 Y-29.9893 F60.00
G01 X10.9220 Y-29.9703 F60.00
G01 X10.8264 Y-29.9893 F60.00
G01 X10.7454 Y-30.0434 F60.00
G01 X10.6913 Y-30.1244 F60.00
G01 X10.6723 Y-30.2200 F60.00
G01 X10.6913 Y-30.3156 F60.00
G01 X10.7454 Y-30.3966 F60.00
G01 X10.8264 Y-30.4507 F60.00
G01 X10.9220 Y-30.4697 F60.00
G01 X11.0176 Y-30.4507 F60.00
G01 X11.0986 Y-30.3966 F60.00
G01 X11.1527 Y-30.3156 F60.00
G01 X11.1717 Y-30.2200 F60.00
G00 X11.1717 Y-30.2200
G01 F60.00
G01 Z-1.5000
G01 F60.00
G01 X11.1527 Y-30.3156 F60.00
G01 X11.0986 Y-30.3966 F60.00
G01 X11.0176 Y-30.4507 F60.00
G01 X10.9220 Y-30.4697 F60.00
G01 X10.8264 Y-30.4507 F60.00
G01 X10.7454 Y-30.3966 F60.00
G01 X10.6913 Y-30.3156 F60.00
G01 X10.6723 Y-30.2200 F60.00
G01 X10.6913 Y-30.1244 F60.00
G01 X10.7454 Y-30.0434 F60.00
G01 X10.8264 Y-29.9893 F60.00
G01 X10.9220 Y-29.9703 F60.00
G01 X11.0176 Y-29.9893 F60.00
G01 X11.0986 Y-30.0434 F60.00
G01 X11.1527 Y-30.1244 F60.00
G01 X11.1717 Y-30.2200 F60.00
G00 X11.1717 Y-30.2200
G01 F60.00
G01 Z-2.0000
G01 F60.00
G01 X11.1527 Y-30.1244 F60.00
G01 X11.0986 Y-30.0434 F60.00
G01 X11.0176 Y-29.9893 F60.00
G01 X10.9220 Y-29.9703 F60.00
G01 X10.8264 Y-29.9893 F60.00
G01 X10.7454 Y-30.0434 F60.00
G01 X10.6913 Y-30.1244 F60.00
G01 X10.6723 Y-30.2200 F60.00
G01 X10.6913 Y-30.3156 F60.00
G01 X10.7454 Y-30.3966 F60.00
G01 X10.8264 Y-30.4507 F60.00
G01 X10.9220 Y-30.4697 F60.00
G01 X11.0176 Y-30.4507 F60.00
G01 X11.0986 Y-30.3966 F60.00
G01 X11.1527 Y-30.3156 F60.00
G01 X11.1717 Y-30.2200 F60.00
G00 Z2.0000
G00 X11.1717 Y-32.7600
G01 F60.00
G01 Z-0.5000
G01 F60.00
G01 X11.1527 Y-32.8556 F60.00
G01 X11.0986 Y-32.9366 F60.00
G01 X11.0176 Y-32.9907 F60.00
G01 X10.9220 Y-33.0097 F60.00
G01 X10.8264 Y-32.9907 F60.00
G01 X10.7454 Y-32.9366 F60.00
G01 X10.6913 Y-32.8556 F60.00
G01 X10.6723 Y-32.7600 F60.00
G01 X10.6913 Y-32.6644 F60.00
G01 X10.7454 Y-32.5834 F60.00
G01 X10.8264 Y-32.5293 F60.00
G01 X10.9220 Y-32.5103 F60.00
G01 X11.0176 Y-32.5293 F60.00
G01 X11.0986 Y-32.5834 F60.00
G01 X11.1527 Y-32.6644 F60.00
G01 X11.1717 Y-32.7600 F60.00
G00 X11.1717 Y-32.7600
G01 F60.00
G01 Z-1.0000
G01 F60.00
G01 X11.1527 Y-32.6644 F60.00
G01 X11.0986 Y-32.5834 F60.00
G01 X11.0176 Y-32.5293 F60.00
G01 X10.9220 Y-32.5103 F60.00
G01 X10.8264 Y-32.5293 F60.00
G01 X10.7454 Y-32.5834 F60.00
G01 X10.6913 Y-32.6644 F60.00
G01 X10.6723 Y-32.7600 F60.00
G01 X10.6913 Y-32.8556 F60.00
G01 X10.7454 Y-32.9366 F60.00
G01 X10.8264 Y-32.9907 F60.00
G01 X10.9220 Y-33.0097 F60.00
G01 X11.0176 Y-32.9907 F60.00
G01 X11.0986 Y-32.9366 F60.00
G01 X11.1527 Y-32.8556 F60.00
G01 X11.1717 Y-32.7600 F60.00
G00 X11.1717 Y-32.7600
G01 F60.00
G01 Z-1.5000
G01 F60.00
G01 X11.1527 Y-32.8556 F60.00
G01 X11.0986 Y-32.9366 F60.00
G01 X11.0176 Y-32.9907 F60.00
G01 X10.9220 Y-33.0097 F60.00
G01 X10.8264 Y-32.9907 F60.00
G01 X10.7454 Y-32.9366 F60.00
G01 X10.6913 Y-32.8556 F60.00
G01 X10.6723 Y-32.7600 F60.00
G01 X10.6913 Y-32.6644 F60.00
G01 X10.7454 Y-32.5834 F60.00
G01 X10.8264 Y-32.5293 F60.00
G01 X10.9220 Y-32.5103 F60.00
G01 X11.0176 Y-32.5293 F60.00
G01 X11.0986 Y-32.5834 F60.00
G01 X11.1527 Y-32.6644 F60.00
G01 X11.1717 Y-32.7600 F60.00
G00 X11.1717 Y-32.7600
G01 F60.00
G01 Z-2.0000
G01 F60.00
G01 X11.1527 Y-32.6644 F60.00
G01 X11.0986 Y-32.5834 F60.00
G01 X11.0176 Y-32.5293 F60.00
G01 X10.9220 Y-32.5103 F60.00
G01 X10.8264 Y-32.5293 F60.00
G01 X10.7454 Y-32.5834 F60.00
G01 X10.6913 Y-32.6644 F60.00
G01 X10.6723 Y-32.7600 F60.00
G01 X10.6913 Y-32.8556 F60.00
G01 X10.7454 Y-32.9366 F60.00
G01 X10.8264 Y-32.9907 F60.00
G01 X10.9220 Y-33.0097 F60.00
G01 X11.0176 Y-32.9907 F60.00
G01 X11.0986 Y-32.9366 F60.00
G01 X11.1527 Y-32.8556 F60.00
G01 X11.1717 Y-32.7600 F60.00
G00 Z2.0000
G00 X11.1717 Y-35.3000
G01 F60.00
G01 Z-0.5000
G01 F60.00
G01 X11.1527 Y-35.3956 F60.00
G01 X11.0986 Y-35.4766 F60.00
G01 X11.0176 Y-35.5307 F60.00
G01 X10.9220 Y-35.5497 F60.00
G01 X10.8264 Y-35.5307 F60.00
G01 X10.7454 Y-35.4766 F60.00
G01 X10.6913 Y-35.3956 F60.00
G01 X10.6723 Y-35.3000 F60.00
G01 X10.6913 Y-35.2044 F60.00
G01 X10.7454 Y-35.1234 F60.00
G01 X10.8264 Y-35.0693 F60.00
G01 X10.9220 Y-35.0503 F60.00
G01 X11.0176 Y-35.0693 F60.00
G01 X11.0986 Y-35.1234 F60.00
G01 X11.1527 Y-35.2044 F60.00
G01 X11.1717 Y-35.3000 F60.00
G00 X11.1717 Y-35.3000
G01 F60.00
G01 Z-1.0000
G01 F60.00
G01 X11.1527 Y-35.2044 F60.00
G01 X11.0986 Y-35.1234 F60.00
G01 X11.0176 Y-35.0693 F60.00
G01 X10.9220 Y-35.0503 F60.00
G01 X10.8264 Y-35.0693 F60.00
G01 X10.7454 Y-35.1234 F60.00
G01 X10.6913 Y-35.2044 F60.00
G01 X10.6723 Y-35.3000 F60.00
G01 X10.6913 Y-35.3956 F60.00
G01 X10.7454 Y-35.4766 F60.00
G01 X10.8264 Y-35.5307 F60.00
G01 X10.9220 Y-35.5497 F60.00
G01 X11.0176 Y-35.5307 F60.00
G01 X11.0986 Y-35.4766 F60.00
G01 X11.1527 Y-35.3956 F60.00
G01 X11.1717 Y-35.3000 F60.00
G00 X11.1717 Y-35.3000
G01 F60.00
G01 Z-1.5000
G01 F60.00
G01 X11.1527 Y-35.3956 F60.00
G01 X11.0986 Y-35.4766 F60.00
G01 X11.0176 Y-35.5307 F60.00
G01 X10.9220 Y-35.5497 F60.00
G01 X10.8264 Y-35.5307 F60.00
G01 X10.7454 Y-35.4766 F60.00
G01 X10.6913 Y-35.3956 F60.00
G01 X10.6723 Y-35.3000 F60.00
G01 X10.6913 Y-35.2044 F60.00
G01 X10.7454 Y-35.1234 F60.00
G01 X10.8264 Y-35.0693 F60.00
G01 X10.9220 Y-35.0503 F60.00
G01 X11.0176 Y-35.0693 F60.00
G01 X11.0986 Y-35.1234 F60.00
G01 X11.1527 Y-35.2044 F60.00
G01 X11.1717 Y-35.3000 F60.00
G00 X11.1717 Y-35.3000
G01 F60.00
G01 Z-2.0000
G01 F60.00
G01 X11.1527 Y-35.2044 F60.00
G01 X11.0986 Y-35.1234 F60.00
G01 X11.0176 Y-35.0693 F60.00
G01 X10.9220 Y-35.0503 F60.00
G01 X10.8264 Y-35.0693 F60.00
G01 X10.7454 Y-35.1234 F60.00
G01 X10.6913 Y-35.2044 F60.00
G01 X10.6723 Y-35.3000 F60.00
G01 X10.6913 Y-35.3956 F60.00
G01 X10.7454 Y-35.4766 F60.00
G01 X10.8264 Y-35.5307 F60.00
G01 X10.9220 Y-35.5497 F60.00
G01 X11.0176 Y-35.5307 F60.00
G01 X11.0986 Y-35.4766 F60.00
G01 X11.1527 Y-35.3956 F60.00
G01 X11.1717 Y-35.3000 F60.00
G00 Z2.0000
G00 X25.1397 Y-35.2900
G01 F60.00
G01 Z-0.5000
G01 F60.00
G01 X25.1207 Y-35.3856 F60.00
G01 X25.0666 Y-35.4666 F60.00
G01 X24.9856 Y-35.5207 F60.00
G01 X24.8900 Y-35.5397 F60.00
G01 X24.7944 Y-35.5207 F60.00
G01 X24.7134 Y-35.4666 F60.00
G01 X24.6593 Y-35.3856 F60.00
G01 X24.6403 Y-35.2900 F60.00
G01 X24.6593 Y-35.1944 F60.00
G01 X24.7134 Y-35.1134 F60.00
G01 X24.7944 Y-35.0593 F60.00
G01 X24.8900 Y-35.0403 F60.00
G01 X24.9856 Y-35.0593 F60.00
G01 X25.0666 Y-35.1134 F60.00
G01 X25.1207 Y-35.1944 F60.00
G01 X25.1397 Y-35.2900 F60.00
G00 X25.1397 Y-35.2900
G01 F60.00
G01 Z-1.0000
G01 F60.00
G01 X25.1207 Y-35.1944 F60.00
G01 X25.0666 Y-35.1134 F60.00
G01 X24.9856 Y-35.0593 F60.00
G01 X24.8900 Y-35.0403 F60.00
G01 X24.7944 Y-35.0593 F60.00
G01 X24.7134 Y-35.1134 F60.00
G01 X24.6593 Y-35.1944 F60.00
G01 X24.6403 Y-35.2900 F60.00
G01 X24.6593 Y-35.3856 F60.00
G01 X24.7134 Y-35.4666 F60.00
G01 X24.7944 Y-35.5207 F60.00
G01 X24.8900 Y-35.5397 F60.00
G01 X24.9856 Y-35.5207 F60.00
G01 X25.0666 Y-35.4666 F60.00
G01 X25.1207 Y-35.3856 F60.00
G01 X25.1397 Y-35.2900 F60.00
G00 X25.1397 Y-35.2900
G01 F60.00
G01 Z-1.5000
G01 F60.00
G01 X25.1207 Y-35.3856 F60.00
G01 X25.0666 Y-35.4666 F60.00
G01 X24.9856 Y-35.5207 F60.00
G01 X24.8900 Y-35.5397 F60.00
G01 X24.7944 Y-35.5207 F60.00
G01 X24.7134 Y-35.4666 F60.00
G01 X24.6593 Y-35.3856 F60.00
G01 X24.6403 Y-35.2900 F60.00
G01 X24.6593 Y-35.1944 F60.00
G01 X24.7134 Y-35.1134 F60.00
G01 X24.7944 Y-35.0593 F60.00
G01 X24.8900 Y-35.0403 F60.00
G01 X24.9856 Y-35.0593 F60.00
G01 X25.0666 Y-35.1134 F60.00
G01 X25.1207 Y-35.1944 F60.00
G01 X25.1397 Y-35.2900 F60.00
G00 X25.1397 Y-35.2900
G01 F60.00
G01 Z-2.0000
G01 F60.00
G01 X25.1207 Y-35.1944 F60.00
G01 X25.0666 Y-35.1134 F60.00
G01 X24.9856 Y-35.0593 F60.00
G01 X24.8900 Y-35.0403 F60.00
G01 X24.7944 Y-35.0593 F60.00
G01 X24.7134 Y-35.1134 F60.00
G01 X24.6593 Y-35.1944 F60.00
G01 X24.6403 Y-35.2900 F60.00
G01 X24.6593 Y-35.3856 F60.00
G01 X24.7134 Y-35.4666 F60.00
G01 X24.7944 Y-35.5207 F60.00
G01 X24.8900 Y-35.5397 F60.00
G01 X24.9856 Y-35.5207 F60.00
G01 X25.0666 Y-35.4666 F60.00
G01 X25.1207 Y-35.3856 F60.00
G01 X25.1397 Y-35.2900 F60.00
G00 Z2.0000
G00 X25.1397 Y-32.7500
G01 F60.00
G01 Z-0.5000
G01 F60.00
G01 X25.1207 Y-32.8456 F60.00
G01 X25.0666 Y-32.9266 F60.00
G01 X24.9856 Y-32.9807 F60.00
G01 X24.8900 Y-32.9997 F60.00
G01 X24.7944 Y-32.9807 F60.00
G01 X24.7134 Y-32.9266 F60.00
G01 X24.6593 Y-32.8456 F60.00
G01 X24.6403 Y-32.7500 F60.00
G01 X24.6593 Y-32.6544 F60.00
G01 X24.7134 Y-32.5734 F60.00
G01 X24.7944 Y-32.5193 F60.00
G01 X24.8900 Y-32.5003 F60.00
G01 X24.9856 Y-32.5193 F60.00
G01 X25.0666 Y-32.5734 F60.00
G01 X25.1207 Y-32.6544 F60.00
G01 X25.1397 Y-32.7500 F60.00
G00 X25.1397 Y-32.7500
G01 F60.00
G01 Z-1.0000
G01 F60.00
G01 X25.1207 Y-32.6544 F60.00
G01 X25.0666 Y-32.5734 F60.00
G01 X24.9856 Y-32.5193 F60.00
G01 X24.8900 Y-32.5003 F60.00
G01 X24.7944 Y-32.5193 F60.00
G01 X24.7134 Y-32.5734 F60.00
G01 X24.6593 Y-32.6544 F60.00
G01 X24.6403 Y-32.7500 F60.00
G01 X24.6593 Y-32.8456 F60.00
G01 X24.7134 Y-32.9266 F60.00
G01 X24.7944 Y-32.9807 F60.00
G01 X24.8900 Y-32.9997 F60.00
G01 X24.9856 Y-32.9807 F60.00
G01 X25.0666 Y-32.9266 F60.00
G01 X25.1207 Y-32.8456 F60.00
G01 X25.1397 Y-32.7500 F60.00
G00 X25.1397 Y-32.7500
G01 F60.00
G01 Z-1.5000
G01 F60.00
G01 X25.1207 Y-32.8456 F60.00
G01 X25.0666 Y-32.9266 F60.00
G01 X24.9856 Y-32.9807 F60.00
G01 X24.8900 Y-32.9997 F60.00
G01 X24.7944 Y-32.9807 F60.00
G01 X24.7134 Y-32.9266 F60.00
G01 X24.6593 Y-32.8456 F60.00
G01 X24.6403 Y-32.7500 F60.00
G01 X24.6593 Y-32.6544 F60.00
G01 X24.7134 Y-32.5734 F60.00
G01 X24.7944 Y-32.5193 F60.00
G01 X24.8900 Y-32.5003 F60.00
G01 X24.9856 Y-32.5193 F60.00
G01 X25.0666 Y-32.5734 F60.00
G01 X25.1207 Y-32.6544 F60.00
G01 X25.1397 Y-32.7500 F60.00
G00 X25.1397 Y-32.7500
G01 F60.00
G01 Z-2.0000
G01 F60.00
G01 X25.1207 Y-32.6544 F60.00
G01 X25.0666 Y-32.5734 F60.00
G01 X24.9856 Y-32.5193 F60.00
G01 X24.8900 Y-32.5003 F60.00
G01 X24.7944 Y-32.5193 F60.00
G01 X24.7134 Y-32.5734 F60.00
G01 X24.6593 Y-32.6544 F60.00
G01 X24.6403 Y-32.7500 F60.00
G01 X24.6593 Y-32.8456 F60.00
G01 X24.7134 Y-32.9266 F60.00
G01 X24.7944 Y-32.9807 F60.00
G01 X24.8900 Y-32.9997 F60.00
G01 X24.9856 Y-32.9807 F60.00
G01 X25.0666 Y-32.9266 F60.00
G01 X25.1207 Y-32.8456 F60.00
G01 X25.1397 Y-32.7500 F60.00
G00 Z2.0000
G00 X25.1397 Y-30.2100
G01 F60.00
G01 Z-0.5000
G01 F60.00
G01 X25.1207 Y-30.3056 F60.00
G01 X25.0666 Y-30.3866 F60.00
G01 X24.9856 Y-30.4407 F60.00
G01 X24.8900 Y-30.4597 F60.00
G01 X24.7944 Y-30.4407 F60.00
G01 X24.7134 Y-30.3866 F60.00
G01 X24.6593 Y-30.3056 F60.00
G01 X24.6403 Y-30.2100 F60.00
G01 X24.6593 Y-30.1144 F60.00
G01 X24.7134 Y-30.0334 F60.00
G01 X24.7944 Y-29.9793 F60.00
G01 X24.8900 Y-29.9603 F60.00
G01 X24.9856 Y-29.9793 F60.00
G01 X25.0666 Y-30.0334 F60.00
G01 X25.1207 Y-30.1144 F60.00
G01 X25.1397 Y-30.2100 F60.00
G00 X25.1397 Y-30.2100
G01 F60.00
G01 Z-1.0000
G01 F60.00
G01 X25.1207 Y-30.1144 F60.00
G01 X25.0666 Y-30.0334 F60.00
G01 X24.9856 Y-29.9793 F60.00
G01 X24.8900 Y-29.9603 F60.00
G01 X24.7944 Y-29.9793 F60.00
G01 X24.7134 Y-30.0334 F60.00
G01 X24.6593 Y-30.1144 F60.00
G01 X24.6403 Y-30.2100 F60.00
G01 X24.6593 Y-30.3056 F60.00
G01 X24.7134 Y-30.3866 F60.00
G01 X24.7944 Y-30.4407 F60.00
G01 X24.8900 Y-30.4597 F60.00
G01 X24.9856 Y-30.4407 F60.00
G01 X25.0666 Y-30.3866 F60.00
G01 X25.1207 Y-30.3056 F60.00
G01 X25.1397 Y-30.2100 F60.00
G00 X25.1397 Y-30.2100
G01 F60.00
G01 Z-1.5000
G01 F60.00
G01 X25.1207 Y-30.3056 F60.00
G01 X25.0666 Y-30.3866 F60.00
G01 X24.9856 Y-30.4407 F60.00
G01 X24.8900 Y-30.4597 F60.00
G01 X24.7944 Y-30.4407 F60.00
G01 X24.7134 Y-30.3866 F60.00
G01 X24.6593 Y-30.3056 F60.00
G01 X24.6403 Y-30.2100 F60.00
G01 X24.6593 Y-30.1144 F60.00
G01 X24.7134 Y-30.0334 F60.00
G01 X24.7944 Y-29.9793 F60.00
G01 X24.8900 Y-29.9603 F60.00
G01 X24.9856 Y-29.9793 F60.00
G01 X25.0666 Y-30.0334 F60.00
G01 X25.1207 Y-30.1144 F60.00
G01 X25.1397 Y-30.2100 F60.00
G00 X25.1397 Y-30.2100
G01 F60.00
G01 Z-2.0000
G01 F60.00
G01 X25.1207 Y-30.1144 F60.00
G01 X25.0666 Y-30.0334 F60.00
G01 X24.9856 Y-29.9793 F60.00
G01 X24.8900 Y-29.9603 F60.00
G01 X24.7944 Y-29.9793 F60.00
G01 X24.7134 Y-30.0334 F60.00
G01 X24.6593 Y-30.1144 F60.00
G01 X24.6403 Y-30.2100 F60.00
G01 X24.6593 Y-30.3056 F60.00
G01 X24.7134 Y-30.3866 F60.00
G01 X24.7944 Y-30.4407 F60.00
G01 X24.8900 Y-30.4597 F60.00
G01 X24.9856 Y-30.4407 F60.00
G01 X25.0666 Y-30.3866 F60.00
G01 X25.1207 Y-30.3056 F60.00
G01 X25.1397 Y-30.2100 F60.00
G00 Z2.0000
G00 X25.1397 Y-27.6700
G01 F60.00
G01 Z-0.5000
G01 F60.00
G01 X25.1207 Y-27.7656 F60.00
G01 X25.0666 Y-27.8466 F60.00
G01 X24.9856 Y-27.9007 F60.00
G01 X24.8900 Y-27.9197 F60.00
G01 X24.7944 Y-27.9007 F60.00
G01 X24.7134 Y-27.8466 F60.00
G01 X24.6593 Y-27.7656 F60.00
G01 X24.6403 Y-27.6700 F60.00
G01 X24.6593 Y-27.5744 F60.00
G01 X24.7134 Y-27.4934 F60.00
G01 X24.7944 Y-27.4393 F60.00
G01 X24.8900 Y-27.4203 F60.00
G01 X24.9856 Y-27.4393 F60.00
G01 X25.0666 Y-27.4934 F60.00
G01 X25.1207 Y-27.5744 F60.00
G01 X25.1397 Y-27.6700 F60.00
G00 X25.1397 Y-27.6700
G01 F60.00
G01 Z-1.0000
G01 F60.00
G01 X25.1207 Y-27.5744 F60.00
G01 X25.0666 Y-27.4934 F60.00
G01 X24.9856 Y-27.4393 F60.00
G01 X24.8900 Y-27.4203 F60.00
G01 X24.7944 Y-27.4393 F60.00
G01 X24.7134 Y-27.4934 F60.00
G01 X24.6593 Y-27.5744 F60.00
G01 X24.6403 Y-27.6700 F60.00
G01 X24.6593 Y-27.7656 F60.00
G01 X24.7134 Y-27.8466 F60.00
G01 X24.7944 Y-27.9007 F60.00
G01 X24.8900 Y-27.9197 F60.00
G01 X24.9856 Y-27.9007 F60.00
G01 X25.0666 Y-27.8466 F60.00
G01 X25.1207 Y-27.7656 F60.00
G01 X25.1397 Y-27.6700 F60.00
G00 X25.1397 Y-27.6700
G01 F60.00
G01 Z-1.5000
G01 F60.00
G01 X25.1207 Y-27.7656 F60.00
G01 X25.0666 Y-27.8466 F60.00
G01 X24.9856 Y-27.9007 F60.00
G01 X24.8900 Y-27.9197 F60.00
G01 X24.7944 Y-27.9007 F60.00
G01 X24.7134 Y-27.8466 F60.00
G01 X24.6593 Y-27.7656 F60.00
G01 X24.6403 Y-27.6700 F60.00
G01 X24.6593 Y-27.5744 F60.00
G01 X24.7134 Y-27.4934 F60.00
G01 X24.7944 Y-27.4393 F60.00
G01 X24.8900 Y-27.4203 F60.00
G01 X24.9856 Y-27.4393 F60.00
G01 X25.0666 Y-27.4934 F60.00
G01 X25.1207 Y-27.5744 F60.00
G01 X25.1397 Y-27.6700 F60.00
G00 X25.1397 Y-27.6700
G01 F60.00
G01 Z-2.0000
G01 F60.00
G01 X25.1207 Y-27.5744 F60.00
G01 X25.0666 Y-27.4934 F60.00
G01 X24.9856 Y-27.4393 F60.00
G01 X24.8900 Y-27.4203 F60.00
G01 X24.7944 Y-27.4393 F60.00
G01 X24.7134 Y-27.4934 F60.00
G01 X24.6593 Y-27.5744 F60.00
G01 X24.6403 Y-27.6700 F60.00
G01 X24.6593 Y-27.7656 F60.00
G01 X24.7134 Y-27.8466 F60.00
G01 X24.7944 Y-27.9007 F60.00
G01 X24.8900 Y-27.9197 F60.00
G01 X24.9856 Y-27.9007 F60.00
G01 X25.0666 Y-27.8466 F60.00
G01 X25.1207 Y-27.7656 F60.00
G01 X25.1397 Y-27.6700 F60.00
G00 Z2.0000
G00 X25.1397 Y-25.1300
G01 F60.00
G01 Z-0.5000
G01 F60.00
G01 X25.1207 Y-25.2256 F60.00
G01 X25.0666 Y-25.3066 F60.00
G01 X24.9856 Y-25.3607 F60.00
G01 X24.8900 Y-25.3797 F60.00
G01 X24.7944 Y-25.3607 F60.00
G01 X24.7134 Y-25.3066 F60.00
G01 X24.6593 Y-25.2256 F60.00
G01 X24.6403 Y-25.1300 F60.00
G01 X24.6593 Y-25.0344 F60.00
G01 X24.7134 Y-24.9534 F60.00
G01 X24.7944 Y-24.8993 F60.00
G01 X24.8900 Y-24.8803 F60.00
G01 X24.9856 Y-24.8993 F60.00
G01 X25.0666 Y-24.9534 F60.00
G01 X25.1207 Y-25.0344 F60.00
G01 X25.1397 Y-25.1300 F60.00
G00 X25.1397 Y-25.1300
G01 F60.00
G01 Z-1.0000
G01 F60.00
G01 X25.1207 Y-25.0344 F60.00
G01 X25.0666 Y-24.9534 F60.00
G01 X24.9856 Y-24.8993 F60.00
G01 X24.8900 Y-24.8803 F60.00
G01 X24.7944 Y-24.8993 F60.00
G01 X24.7134 Y-24.9534 F60.00
G01 X24.6593 Y-25.0344 F60.00
G01 X24.6403 Y-25.1300 F60.00
G01 X24.6593 Y-25.2256 F60.00
G01 X24.7134 Y-25.3066 F60.00
G01 X24.7944 Y-25.3607 F60.00
G01 X24.8900 Y-25.3797 F60.00
G01 X24.9856 Y-25.3607 F60.00
G01 X25.0666 Y-25.3066 F60.00
G01 X25.1207 Y-25.2256 F60.00
G01 X25.1397 Y-25.1300 F60.00
G00 X25.1397 Y-25.1300
G01 F60.00
G01 Z-1.5000
G01 F60.00
G01 X25.1207 Y-25.2256 F60.00
G01 X25.0666 Y-25.3066 F60.00
G01 X24.9856 Y-25.3607 F60.00
G01 X24.8900 Y-25.3797 F60.00
G01 X24.7944 Y-25.3607 F60.00
G01 X24.7134 Y-25.3066 F60.00
G01 X24.6593 Y-25.2256 F60.00
G01 X24.6403 Y-25.1300 F60.00
G01 X24.6593 Y-25.0344 F60.00
G01 X24.7134 Y-24.9534 F60.00
G01 X24.7944 Y-24.8993 F60.00
G01 X24.8900 Y-24.8803 F60.00
G01 X24.9856 Y-24.8993 F60.00
G01 X25.0666 Y-24.9534 F60.00
G01 X25.1207 Y-25.0344 F60.00
G01 X25.1397 Y-25.1300 F60.00
G00 X25.1397 Y-25.1300
G01 F60.00
G01 Z-2.0000
G01 F60.00
G01 X25.1207 Y-25.0344 F60.00
G01 X25.0666 Y-24.9534 F60.00
G01 X24.9856 Y-24.8993 F60.00
G01 X24.8900 Y-24.8803 F60.00
G01 X24.7944 Y-24.8993 F60.00
G01 X24.7134 Y-24.9534 F60.00
G01 X24.6593 Y-25.0344 F60.00
G01 X24.6403 Y-25.1300 F60.00
G01 X24.6593 Y-25.2256 F60.00
G01 X24.7134 Y-25.3066 F60.00
G01 X24.7944 Y-25.3607 F60.00
G01 X24.8900 Y-25.3797 F60.00
G01 X24.9856 Y-25.3607 F60.00
G01 X25.0666 Y-25.3066 F60.00
G01 X25.1207 Y-25.2256 F60.00
G01 X25.1397 Y-25.1300 F60.00
G00 Z2.0000
G00 X25.1397 Y-22.5900
G01 F60.00
G01 Z-0.5000
G01 F60.00
G01 X25.1207 Y-22.6856 F60.00
G01 X25.0666 Y-22.7666 F60.00
G01 X24.9856 Y-22.8207 F60.00
G01 X24.8900 Y-22.8397 F60.00
G01 X24.7944 Y-22.8207 F60.00
G01 X24.7134 Y-22.7666 F60.00
G01 X24.6593 Y-22.6856 F60.00
G01 X24.6403 Y-22.5900 F60.00
G01 X24.6593 Y-22.4944 F60.00
G01 X24.7134 Y-22.4134 F60.00
G01 X24.7944 Y-22.3593 F60.00
G01 X24.8900 Y-22.3403 F60.00
G01 X24.9856 Y-22.3593 F60.00
G01 X25.0666 Y-22.4134 F60.00
G01 X25.1207 Y-22.4944 F60.00
G01 X25.1397 Y-22.5900 F60.00
G00 X25.1397 Y-22.5900
G01 F60.00
G01 Z-1.0000
G01 F60.00
G01 X25.1207 Y-22.4944 F60.00
G01 X25.0666 Y-22.4134 F60.00
G01 X24.9856 Y-22.3593 F60.00
G01 X24.8900 Y-22.3403 F60.00
G01 X24.7944 Y-22.3593 F60.00
G01 X24.7134 Y-22.4134 F60.00
G01 X24.6593 Y-22.4944 F60.00
G01 X24.6403 Y-22.5900 F60.00
G01 X24.6593 Y-22.6856 F60.00
G01 X24.7134 Y-22.7666 F60.00
G01 X24.7944 Y-22.8207 F60.00
G01 X24.8900 Y-22.8397 F60.00
G01 X24.9856 Y-22.8207 F60.00
G01 X25.0666 Y-22.7666 F60.00
G01 X25.1207 Y-22.6856 F60.00
G01 X25.1397 Y-22.5900 F60.00
G00 X25.1397 Y-22.5900
G01 F60.00
G01 Z-1.5000
G01 F60.00
G01 X25.1207 Y-22.6856 F60.00
G01 X25.0666 Y-22.7666 F60.00
G01 X24.9856 Y-22.8207 F60.00
G01 X24.8900 Y-22.8397 F60.00
G01 X24.7944 Y-22.8207 F60.00
G01 X24.7134 Y-22.7666 F60.00
G01 X24.6593 Y-22.6856 F60.00
G01 X24.6403 Y-22.5900 F60.00
G01 X24.6593 Y-22.4944 F60.00
G01 X24.7134 Y-22.4134 F60.00
G01 X24.7944 Y-22.3593 F60.00
G01 X24.8900 Y-22.3403 F60.00
G01 X24.9856 Y-22.3593 F60.00
G01 X25.0666 Y-22.4134 F60.00
G01 X25.1207 Y-22.4944 F60.00
G01 X25.1397 Y-22.5900 F60.00
G00 X25.1397 Y-22.5900
G01 F60.00
G01 Z-2.0000
G01 F60.00
G01 X25.1207 Y-22.4944 F60.00
G01 X25.0666 Y-22.4134 F60.00
G01 X24.9856 Y-22.3593 F60.00
G01 X24.8900 Y-22.3403 F60.00
G01 X24.7944 Y-22.3593 F60.00
G01 X24.7134 Y-22.4134 F60.00
G01 X24.6593 Y-22.4944 F60.00
G01 X24.6403 Y-22.5900 F60.00
G01 X24.6593 Y-22.6856 F60.00
G01 X24.7134 Y-22.7666 F60.00
G01 X24.7944 Y-22.8207 F60.00
G01 X24.8900 Y-22.8397 F60.00
G01 X24.9856 Y-22.8207 F60.00
G01 X25.0666 Y-22.7666 F60.00
G01 X25.1207 Y-22.6856 F60.00
G01 X25.1397 Y-22.5900 F60.00
G00 Z2.0000
G00 X25.1417 Y-19.0500
G01 F60.00
G01 Z-0.5000
G01 F60.00
G01 X25.1227 Y-19.1456 F60.00
G01 X25.0686 Y-19.2266 F60.00
G01 X24.9876 Y-19.2807 F60.00
G01 X24.8920 Y-19.2997 F60.00
G01 X24.7964 Y-19.2807 F60.00
G01 X24.7154 Y-19.2266 F60.00
G01 X24.6613 Y-19.1456 F60.00
G01 X24.6423 Y-19.0500 F60.00
G01 X24.6613 Y-18.9544 F60.00
G01 X24.7154 Y-18.8734 F60.00
G01 X24.7964 Y-18.8193 F60.00
G01 X24.8920 Y-18.8003 F60.00
G01 X24.9876 Y-18.8193 F60.00
G01 X25.0686 Y-18.8734 F60.00
G01 X25.1227 Y-18.9544 F60.00
G01 X25.1417 Y-19.0500 F60.00
G00 X25.1417 Y-19.0500
G01 F60.00
G01 Z-1.0000
G01 F60.00
G01 X25.1227 Y-18.9544 F60.00
G01 X25.0686 Y-18.8734 F60.00
G01 X24.9876 Y-18.8193 F60.00
G01 X24.8920 Y-18.8003 F60.00
G01 X24.7964 Y-18.8193 F60.00
G01 X24.7154 Y-18.8734 F60.00
G01 X24.6613 Y-18.9544 F60.00
G01 X24.6423 Y-19.0500 F60.00
G01 X24.6613 Y-19.1456 F60.00
G01 X24.7154 Y-19.2266 F60.00
G01 X24.7964 Y-19.2807 F60.00
G01 X24.8920 Y-19.2997 F60.00
G01 X24.9876 Y-19.2807 F60.00
G01 X25.0686 Y-19.2266 F60.00
G01 X25.1227 Y-19.1456 F60.00
G01 X25.1417 Y-19.0500 F60.00
G00 X25.1417 Y-19.0500
G01 F60.00
G01 Z-1.5000
G01 F60.00
G01 X25.1227 Y-19.1456 F60.00
G01 X25.0686 Y-19.2266 F60.00
G01 X24.9876 Y-19.2807 F60.00
G01 X24.8920 Y-19.2997 F60.00
G01 X24.7964 Y-19.2807 F60.00
G01 X24.7154 Y-19.2266 F60.00
G01 X24.6613 Y-19.1456 F60.00
G01 X24.6423 Y-19.0500 F60.00
G01 X24.6613 Y-18.9544 F60.00
G01 X24.7154 Y-18.8734 F60.00
G01 X24.7964 Y-18.8193 F60.00
G01 X24.8920 Y-18.8003 F60.00
G01 X24.9876 Y-18.8193 F60.00
G01 X25.0686 Y-18.8734 F60.00
G01 X25.1227 Y-18.9544 F60.00
G01 X25.1417 Y-19.0500 F60.00
G00 X25.1417 Y-19.0500
G01 F60.00
G01 Z-2.0000
G01 F60.00
G01 X25.1227 Y-18.9544 F60.00
G01 X25.0686 Y-18.8734 F60.00
G01 X24.9876 Y-18.8193 F60.00
G01 X24.8920 Y-18.8003 F60.00
G01 X24.7964 Y-18.8193 F60.00
G01 X24.7154 Y-18.8734 F60.00
G01 X24.6613 Y-18.9544 F60.00
G01 X24.6423 Y-19.0500 F60.00
G01 X24.6613 Y-19.1456 F60.00
G01 X24.7154 Y-19.2266 F60.00
G01 X24.7964 Y-19.2807 F60.00
G01 X24.8920 Y-19.2997 F60.00
G01 X24.9876 Y-19.2807 F60.00
G01 X25.0686 Y-19.2266 F60.00
G01 X25.1227 Y-19.1456 F60.00
G01 X25.1417 Y-19.0500 F60.00
G00 Z2.0000
G00 X27.6817 Y-19.0500
G01 F60.00
G01 Z-0.5000
G01 F60.00
G01 X27.6627 Y-19.1456 F60.00
G01 X27.6086 Y-19.2266 F60.00
G01 X27.5276 Y-19.2807 F60.00
G01 X27.4320 Y-19.2997 F60.00
G01 X27.3364 Y-19.2807 F60.00
G01 X27.2554 Y-19.2266 F60.00
G01 X27.2013 Y-19.1456 F60.00
G01 X27.1823 Y-19.0500 F60.00
G01 X27.2013 Y-18.9544 F60.00
G01 X27.2554 Y-18.8734 F60.00
G01 X27.3364 Y-18.8193 F60.00
G01 X27.4320 Y-18.8003 F60.00
G01 X27.5276 Y-18.8193 F60.00
G01 X27.6086 Y-18.8734 F60.00
G01 X27.6627 Y-18.9544 F60.00
G01 X27.6817 Y-19.0500 F60.00
G00 X27.6817 Y-19.0500
G01 F60.00
G01 Z-1.0000
G01 F60.00
G01 X27.6627 Y-18.9544 F60.00
G01 X27.6086 Y-18.8734 F60.00
G01 X27.5276 Y-18.8193 F60.00
G01 X27.4320 Y-18.8003 F60.00
G01 X27.3364 Y-18.8193 F60.00
G01 X27.2554 Y-18.8734 F60.00
G01 X27.2013 Y-18.9544 F60.00
G01 X27.1823 Y-19.0500 F60.00
G01 X27.2013 Y-19.1456 F60.00
G01 X27.2554 Y-19.2266 F60.00
G01 X27.3364 Y-19.2807 F60.00
G01 X27.4320 Y-19.2997 F60.00
G01 X27.5276 Y-19.2807 F60.00
G01 X27.6086 Y-19.2266 F60.00
G01 X27.6627 Y-19.1456 F60.00
G01 X27.6817 Y-19.0500 F60.00
G00 X27.6817 Y-19.0500
G01 F60.00
G01 Z-1.5000
G01 F60.00
G01 X27.6627 Y-19.1456 F60.00
G01 X27.6086 Y-19.2266 F60.00
G01 X27.5276 Y-19.2807 F60.00
G01 X27.4320 Y-19.2997 F60.00
G01 X27.3364 Y-19.2807 F60.00
G01 X27.2554 Y-19.2266 F60.00
G01 X27.2013 Y-19.1456 F60.00
G01 X27.1823 Y-19.0500 F60.00
G01 X27.2013 Y-18.9544 F60.00
G01 X27.2554 Y-18.8734 F60.00
G01 X27.3364 Y-18.8193 F60.00
G01 X27.4320 Y-18.8003 F60.00
G01 X27.5276 Y-18.8193 F60.00
G01 X27.6086 Y-18.8734 F60.00
G01 X27.6627 Y-18.9544 F60.00
G01 X27.6817 Y-19.0500 F60.00
G00 X27.6817 Y-19.0500
G01 F60.00
G01 Z-2.0000
G01 F60.00
G01 X27.6627 Y-18.9544 F60.00
G01 X27.6086 Y-18.8734 F60.00
G01 X27.5276 Y-18.8193 F60.00
G01 X27.4320 Y-18.8003 F60.00
G01 X27.3364 Y-18.8193 F60.00
G01 X27.2554 Y-18.8734 F60.00
G01 X27.2013 Y-18.9544 F60.00
G01 X27.1823 Y-19.0500 F60.00
G01 X27.2013 Y-19.1456 F60.00
G01 X27.2554 Y-19.2266 F60.00
G01 X27.3364 Y-19.2807 F60.00
G01 X27.4320 Y-19.2997 F60.00
G01 X27.5276 Y-19.2807 F60.00
G01 X27.6086 Y-19.2266 F60.00
G01 X27.6627 Y-19.1456 F60.00
G01 X27.6817 Y-19.0500 F60.00
G00 Z2.0000
G00 X26.4117 Y-16.5100
G01 F60.00
G01 Z-0.5000
G01 F60.00
G01 X26.3927 Y-16.6056 F60.00
G01 X26.3386 Y-16.6866 F60.00
G01 X26.2576 Y-16.7407 F60.00
G01 X26.1620 Y-16.7597 F60.00
G01 X26.0664 Y-16.7407 F60.00
G01 X25.9854 Y-16.6866 F60.00
G01 X25.9313 Y-16.6056 F60.00
G01 X25.9123 Y-16.5100 F60.00
G01 X25.9313 Y-16.4144 F60.00
G01 X25.9854 Y-16.3334 F60.00
G01 X26.0664 Y-16.2793 F60.00
G01 X26.1620 Y-16.2603 F60.00
G01 X26.2576 Y-16.2793 F60.00
G01 X26.3386 Y-16.3334 F60.00
G01 X26.3927 Y-16.4144 F60.00
G01 X26.4117 Y-16.5100 F60.00
G00 X26.4117 Y-16.5100
G01 F60.00
G01 Z-1.0000
G01 F60.00
G01 X26.3927 Y-16.4144 F60.00
G01 X26.3386 Y-16.3334 F60.00
G01 X26.2576 Y-16.2793 F60.00
G01 X26.1620 Y-16.2603 F60.00
G01 X26.0664 Y-16.2793 F60.00
G01 X25.9854 Y-16.3334 F60.00
G01 X25.9313 Y-16.4144 F60.00
G01 X25.9123 Y-16.5100 F60.00
G01 X25.9313 Y-16.6056 F60.00
G01 X25.9854 Y-16.6866 F60.00
G01 X26.0664 Y-16.7407 F60.00
G01 X26.1620 Y-16.7597 F60.00
G01 X26.2576 Y-16.7407 F60.00
G01 X26.3386 Y-16.6866 F60.00
G01 X26.3927 Y-16.6056 F60.00
G01 X26.4117 Y-16.5100 F60.00
G00 X26.4117 Y-16.5100
G01 F60.00
G01 Z-1.5000
G01 F60.00
G01 X26.3927 Y-16.6056 F60.00
G01 X26.3386 Y-16.6866 F60.00
G01 X26.2576 Y-16.7407 F60.00
G01 X26.1620 Y-16.7597 F60.00
G01 X26.0664 Y-16.7407 F60.00
G01 X25.9854 Y-16.6866 F60.00
G01 X25.9313 Y-16.6056 F60.00
G01 X25.9123 Y-16.5100 F60.00
G01 X25.9313 Y-16.4144 F60.00
G01 X25.9854 Y-16.3334 F60.00
G01 X26.0664 Y-16.2793 F60.00
G01 X26.1620 Y-16.2603 F60.00
G01 X26.2576 Y-16.2793 F60.00
G01 X26.3386 Y-16.3334 F60.00
G01 X26.3927 Y-16.4144 F60.00
G01 X26.4117 Y-16.5100 F60.00
G00 X26.4117 Y-16.5100
G01 F60.00
G01 Z-2.0000
G01 F60.00
G01 X26.3927 Y-16.4144 F60.00
G01 X26.3386 Y-16.3334 F60.00
G01 X26.2576 Y-16.2793 F60.00
G01 X26.1620 Y-16.2603 F60.00
G01 X26.0664 Y-16.2793 F60.00
G01 X25.9854 Y-16.3334 F60.00
G01 X25.9313 Y-16.4144 F60.00
G01 X25.9123 Y-16.5100 F60.00
G01 X25.9313 Y-16.6056 F60.00
G01 X25.9854 Y-16.6866 F60.00
G01 X26.0664 Y-16.7407 F60.00
G01 X26.1620 Y-16.7597 F60.00
G01 X26.2576 Y-16.7407 F60.00
G01 X26.3386 Y-16.6866 F60.00
G01 X26.3927 Y-16.6056 F60.00
G01 X26.4117 Y-16.5100 F60.00
G00 Z2.0000
G00 X23.8717 Y-16.5100
G01 F60.00
G01 Z-0.5000
G01 F60.00
G01 X23.8527 Y-16.6056 F60.00
G01 X23.7986 Y-16.6866 F60.00
G01 X23.7176 Y-16.7407 F60.00
G01 X23.6220 Y-16.7597 F60.00
G01 X23.5264 Y-16.7407 F60.00
G01 X23.4454 Y-16.6866 F60.00
G01 X23.3913 Y-16.6056 F60.00
G01 X23.3723 Y-16.5100 F60.00
G01 X23.3913 Y-16.4144 F60.00
G01 X23.4454 Y-16.3334 F60.00
G01 X23.5264 Y-16.2793 F60.00
G01 X23.6220 Y-16.2603 F60.00
G01 X23.7176 Y-16.2793 F60.00
G01 X23.7986 Y-16.3334 F60.00
G01 X23.8527 Y-16.4144 F60.00
G01 X23.8717 Y-16.5100 F60.00
G00 X23.8717 Y-16.5100
G01 F60.00
G01 Z-1.0000
G01 F60.00
G01 X23.8527 Y-16.4144 F60.00
G01 X23.7986 Y-16.3334 F60.00
G01 X23.7176 Y-16.2793 F60.00
G01 X23.6220 Y-16.2603 F60.00
G01 X23.5264 Y-16.2793 F60.00
G01 X23.4454 Y-16.3334 F60.00
G01 X23.3913 Y-16.4144 F60.00
G01 X23.3723 Y-16.5100 F60.00
G01 X23.3913 Y-16.6056 F60.00
G01 X23.4454 Y-16.6866 F60.00
G01 X23.5264 Y-16.7407 F60.00
G01 X23.6220 Y-16.7597 F60.00
G01 X23.7176 Y-16.7407 F60.00
G01 X23.7986 Y-16.6866 F60.00
G01 X23.8527 Y-16.6056 F60.00
G01 X23.8717 Y-16.5100 F60.00
G00 X23.8717 Y-16.5100
G01 F60.00
G01 Z-1.5000
G01 F60.00
G01 X23.8527 Y-16.6056 F60.00
G01 X23.7986 Y-16.6866 F60.00
G01 X23.7176 Y-16.7407 F60.00
G01 X23.6220 Y-16.7597 F60.00
G01 X23.5264 Y-16.7407 F60.00
G01 X23.4454 Y-16.6866 F60.00
G01 X23.3913 Y-16.6056 F60.00
G01 X23.3723 Y-16.5100 F60.00
G01 X23.3913 Y-16.4144 F60.00
G01 X23.4454 Y-16.3334 F60.00
G01 X23.5264 Y-16.2793 F60.00
G01 X23.6220 Y-16.2603 F60.00
G01 X23.7176 Y-16.2793 F60.00
G01 X23.7986 Y-16.3334 F60.00
G01 X23.8527 Y-16.4144 F60.00
G01 X23.8717 Y-16.5100 F60.00
G00 X23.8717 Y-16.5100
G01 F60.00
G01 Z-2.0000
G01 F60.00
G01 X23.8527 Y-16.4144 F60.00
G01 X23.7986 Y-16.3334 F60.00
G01 X23.7176 Y-16.2793 F60.00
G01 X23.6220 Y-16.2603 F60.00
G01 X23.5264 Y-16.2793 F60.00
G01 X23.4454 Y-16.3334 F60.00
G01 X23.3913 Y-16.4144 F60.00
G01 X23.3723 Y-16.5100 F60.00
G01 X23.3913 Y-16.6056 F60.00
G01 X23.4454 Y-16.6866 F60.00
G01 X23.5264 Y-16.7407 F60.00
G01 X23.6220 Y-16.7597 F60.00
G01 X23.7176 Y-16.7407 F60.00
G01 X23.7986 Y-16.6866 F60.00
G01 X23.8527 Y-16.6056 F60.00
G01 X23.8717 Y-16.5100 F60.00
G00 Z2.0000
G00 X21.3317 Y-16.5100
G01 F60.00
G01 Z-0.5000
G01 F60.00
G01 X21.3127 Y-16.6056 F60.00
G01 X21.2586 Y-16.6866 F60.00
G01 X21.1776 Y-16.7407 F60.00
G01 X21.0820 Y-16.7597 F60.00
G01 X20.9864 Y-16.7407 F60.00
G01 X20.9054 Y-16.6866 F60.00
G01 X20.8513 Y-16.6056 F60.00
G01 X20.8323 Y-16.5100 F60.00
G01 X20.8513 Y-16.4144 F60.00
G01 X20.9054 Y-16.3334 F60.00
G01 X20.9864 Y-16.2793 F60.00
G01 X21.0820 Y-16.2603 F60.00
G01 X21.1776 Y-16.2793 F60.00
G01 X21.2586 Y-16.3334 F60.00
G01 X21.3127 Y-16.4144 F60.00
G01 X21.3317 Y-16.5100 F60.00
G00 X21.3317 Y-16.5100
G01 F60.00
G01 Z-1.0000
G01 F60.00
G01 X21.3127 Y-16.4144 F60.00
G01 X21.2586 Y-16.3334 F60.00
G01 X21.1776 Y-16.2793 F60.00
G01 X21.0820 Y-16.2603 F60.00
G01 X20.9864 Y-16.2793 F60.00
G01 X20.9054 Y-16.3334 F60.00
G01 X20.8513 Y-16.4144 F60.00
G01 X20.8323 Y-16.5100 F60.00
G01 X20.8513 Y-16.6056 F60.00
G01 X20.9054 Y-16.6866 F60.00
G01 X20.9864 Y-16.7407 F60.00
G01 X21.0820 Y-16.7597 F60.00
G01 X21.1776 Y-16.7407 F60.00
G01 X21.2586 Y-16.6866 F60.00
G01 X21.3127 Y-16.6056 F60.00
G01 X21.3317 Y-16.5100 F60.00
G00 X21.3317 Y-16.5100
G01 F60.00
G01 Z-1.5000
G01 F60.00
G01 X21.3127 Y-16.6056 F60.00
G01 X21.2586 Y-16.6866 F60.00
G01 X21.1776 Y-16.7407 F60.00
G01 X21.0820 Y-16.7597 F60.00
G01 X20.9864 Y-16.7407 F60.00
G01 X20.9054 Y-16.6866 F60.00
G01 X20.8513 Y-16.6056 F60.00
G01 X20.8323 Y-16.5100 F60.00
G01 X20.8513 Y-16.4144 F60.00
G01 X20.9054 Y-16.3334 F60.00
G01 X20.9864 Y-16.2793 F60.00
G01 X21.0820 Y-16.2603 F60.00
G01 X21.1776 Y-16.2793 F60.00
G01 X21.2586 Y-16.3334 F60.00
G01 X21.3127 Y-16.4144 F60.00
G01 X21.3317 Y-16.5100 F60.00
G00 X21.3317 Y-16.5100
G01 F60.00
G01 Z-2.0000
G01 F60.00
G01 X21.3127 Y-16.4144 F60.00
G01 X21.2586 Y-16.3334 F60.00
G01 X21.1776 Y-16.2793 F60.00
G01 X21.0820 Y-16.2603 F60.00
G01 X20.9864 Y-16.2793 F60.00
G01 X20.9054 Y-16.3334 F60.00
G01 X20.8513 Y-16.4144 F60.00
G01 X20.8323 Y-16.5100 F60.00
G01 X20.8513 Y-16.6056 F60.00
G01 X20.9054 Y-16.6866 F60.00
G01 X20.9864 Y-16.7407 F60.00
G01 X21.0820 Y-16.7597 F60.00
G01 X21.1776 Y-16.7407 F60.00
G01 X21.2586 Y-16.6866 F60.00
G01 X21.3127 Y-16.6056 F60.00
G01 X21.3317 Y-16.5100 F60.00
G00 Z2.0000
G00 X18.7917 Y-16.5100
G01 F60.00
G01 Z-0.5000
G01 F60.00
G01 X18.7727 Y-16.6056 F60.00
G01 X18.7186 Y-16.6866 F60.00
G01 X18.6376 Y-16.7407 F60.00
G01 X18.5420 Y-16.7597 F60.00
G01 X18.4464 Y-16.7407 F60.00
G01 X18.3654 Y-16.6866 F60.00
G01 X18.3113 Y-16.6056 F60.00
G01 X18.2923 Y-16.5100 F60.00
G01 X18.3113 Y-16.4144 F60.00
G01 X18.3654 Y-16.3334 F60.00
G01 X18.4464 Y-16.2793 F60.00
G01 X18.5420 Y-16.2603 F60.00
G01 X18.6376 Y-16.2793 F60.00
G01 X18.7186 Y-16.3334 F60.00
G01 X18.7727 Y-16.4144 F60.00
G01 X18.7917 Y-16.5100 F60.00
G00 X18.7917 Y-16.5100
G01 F60.00
G01 Z-1.0000
G01 F60.00
G01 X18.7727 Y-16.4144 F60.00
G01 X18.7186 Y-16.3334 F60.00
G01 X18.6376 Y-16.2793 F60.00
G01 X18.5420 Y-16.2603 F60.00
G01 X18.4464 Y-16.2793 F60.00
G01 X18.3654 Y-16.3334 F60.00
G01 X18.3113 Y-16.4144 F60.00
G01 X18.2923 Y-16.5100 F60.00
G01 X18.3113 Y-16.6056 F60.00
G01 X18.3654 Y-16.6866 F60.00
G01 X18.4464 Y-16.7407 F60.00
G01 X18.5420 Y-16.7597 F60.00
G01 X18.6376 Y-16.7407 F60.00
G01 X18.7186 Y-16.6866 F60.00
G01 X18.7727 Y-16.6056 F60.00
G01 X18.7917 Y-16.5100 F60.00
G00 X18.7917 Y-16.5100
G01 F60.00
G01 Z-1.5000
G01 F60.00
G01 X18.7727 Y-16.6056 F60.00
G01 X18.7186 Y-16.6866 F60.00
G01 X18.6376 Y-16.7407 F60.00
G01 X18.5420 Y-16.7597 F60.00
G01 X18.4464 Y-16.7407 F60.00
G01 X18.3654 Y-16.6866 F60.00
G01 X18.3113 Y-16.6056 F60.00
G01 X18.2923 Y-16.5100 F60.00
G01 X18.3113 Y-16.4144 F60.00
G01 X18.3654 Y-16.3334 F60.00
G01 X18.4464 Y-16.2793 F60.00
G01 X18.5420 Y-16.2603 F60.00
G01 X18.6376 Y-16.2793 F60.00
G01 X18.7186 Y-16.3334 F60.00
G01 X18.7727 Y-16.4144 F60.00
G01 X18.7917 Y-16.5100 F60.00
G00 X18.7917 Y-16.5100
G01 F60.00
G01 Z-2.0000
G01 F60.00
G01 X18.7727 Y-16.4144 F60.00
G01 X18.7186 Y-16.3334 F60.00
G01 X18.6376 Y-16.2793 F60.00
G01 X18.5420 Y-16.2603 F60.00
G01 X18.4464 Y-16.2793 F60.00
G01 X18.3654 Y-16.3334 F60.00
G01 X18.3113 Y-16.4144 F60.00
G01 X18.2923 Y-16.5100 F60.00
G01 X18.3113 Y-16.6056 F60.00
G01 X18.3654 Y-16.6866 F60.00
G01 X18.4464 Y-16.7407 F60.00
G01 X18.5420 Y-16.7597 F60.00
G01 X18.6376 Y-16.7407 F60.00
G01 X18.7186 Y-16.6866 F60.00
G01 X18.7727 Y-16.6056 F60.00
G01 X18.7917 Y-16.5100 F60.00
G00 Z2.0000
G00 X20.0617 Y-19.0500
G01 F60.00
G01 Z-0.5000
G01 F60.00
G01 X20.0427 Y-19.1456 F60.00
G01 X19.9886 Y-19.2266 F60.00
G01 X19.9076 Y-19.2807 F60.00
G01 X19.8120 Y-19.2997 F60.00
G01 X19.7164 Y-19.2807 F60.00
G01 X19.6354 Y-19.2266 F60.00
G01 X19.5813 Y-19.1456 F60.00
G01 X19.5623 Y-19.0500 F60.00
G01 X19.5813 Y-18.9544 F60.00
G01 X19.6354 Y-18.8734 F60.00
G01 X19.7164 Y-18.8193 F60.00
G01 X19.8120 Y-18.8003 F60.00
G01 X19.9076 Y-18.8193 F60.00
G01 X19.9886 Y-18.8734 F60.00
G01 X20.0427 Y-18.9544 F60.00
G01 X20.0617 Y-19.0500 F60.00
G00 X20.0617 Y-19.0500
G01 F60.00
G01 Z-1.0000
G01 F60.00
G01 X20.0427 Y-18.9544 F60.00
G01 X19.9886 Y-18.8734 F60.00
G01 X19.9076 Y-18.8193 F60.00
G01 X19.8120 Y-18.8003 F60.00
G01 X19.7164 Y-18.8193 F60.00
G01 X19.6354 Y-18.8734 F60.00
G01 X19.5813 Y-18.9544 F60.00
G01 X19.5623 Y-19.0500 F60.00
G01 X19.5813 Y-19.1456 F60.00
G01 X19.6354 Y-19.2266 F60.00
G01 X19.7164 Y-19.2807 F60.00
G01 X19.8120 Y-19.2997 F60.00
G01 X19.9076 Y-19.2807 F60.00
G01 X19.9886 Y-19.2266 F60.00
G01 X20.0427 Y-19.1456 F60.00
G01 X20.0617 Y-19.0500 F60.00
G00 X20.0617 Y-19.0500
G01 F60.00
G01 Z-1.5000
G01 F60.00
G01 X20.0427 Y-19.1456 F60.00
G01 X19.9886 Y-19.2266 F60.00
G01 X19.9076 Y-19.2807 F60.00
G01 X19.8120 Y-19.2997 F60.00
G01 X19.7164 Y-19.2807 F60.00
G01 X19.6354 Y-19.2266 F60.00
G01 X19.5813 Y-19.1456 F60.00
G01 X19.5623 Y-19.0500 F60.00
G01 X19.5813 Y-18.9544 F60.00
G01 X19.6354 Y-18.8734 F60.00
G01 X19.7164 Y-18.8193 F60.00
G01 X19.8120 Y-18.8003 F60.00
G01 X19.9076 Y-18.8193 F60.00
G01 X19.9886 Y-18.8734 F60.00
G01 X20.0427 Y-18.9544 F60.00
G01 X20.0617 Y-19.0500 F60.00
G00 X20.0617 Y-19.0500
G01 F60.00
G01 Z-2.0000
G01 F60.00
G01 X20.0427 Y-18.9544 F60.00
G01 X19.9886 Y-18.8734 F60.00
G01 X19.9076 Y-18.8193 F60.00
G01 X19.8120 Y-18.8003 F60.00
G01 X19.7164 Y-18.8193 F60.00
G01 X19.6354 Y-18.8734 F60.00
G01 X19.5813 Y-18.9544 F60.00
G01 X19.5623 Y-19.0500 F60.00
G01 X19.5813 Y-19.1456 F60.00
G01 X19.6354 Y-19.2266 F60.00
G01 X19.7164 Y-19.2807 F60.00
G01 X19.8120 Y-19.2997 F60.00
G01 X19.9076 Y-19.2807 F60.00
G01 X19.9886 Y-19.2266 F60.00
G01 X20.0427 Y-19.1456 F60.00
G01 X20.0617 Y-19.0500 F60.00
G00 Z2.0000
G00 X22.6017 Y-19.0500
G01 F60.00
G01 Z-0.5000
G01 F60.00
G01 X22.5827 Y-19.1456 F60.00
G01 X22.5286 Y-19.2266 F60.00
G01 X22.4476 Y-19.2807 F60.00
G01 X22.3520 Y-19.2997 F60.00
G01 X22.2564 Y-19.2807 F60.00
G01 X22.1754 Y-19.2266 F60.00
G01 X22.1213 Y-19.1456 F60.00
G01 X22.1023 Y-19.0500 F60.00
G01 X22.1213 Y-18.9544 F60.00
G01 X22.1754 Y-18.8734 F60.00
G01 X22.2564 Y-18.8193 F60.00
G01 X22.3520 Y-18.8003 F60.00
G01 X22.4476 Y-18.8193 F60.00
G01 X22.5286 Y-18.8734 F60.00
G01 X22.5827 Y-18.9544 F60.00
G01 X22.6017 Y-19.0500 F60.00
G00 X22.6017 Y-19.0500
G01 F60.00
G01 Z-1.0000
G01 F60.00
G01 X22.5827 Y-18.9544 F60.00
G01 X22.5286 Y-18.8734 F60.00
G01 X22.4476 Y-18.8193 F60.00
G01 X22.3520 Y-18.8003 F60.00
G01 X22.2564 Y-18.8193 F60.00
G01 X22.1754 Y-18.8734 F60.00
G01 X22.1213 Y-18.9544 F60.00
G01 X22.1023 Y-19.0500 F60.00
G01 X22.1213 Y-19.1456 F60.00
G01 X22.1754 Y-19.2266 F60.00
G01 X22.2564 Y-19.2807 F60.00
G01 X22.3520 Y-19.2997 F60.00
G01 X22.4476 Y-19.2807 F60.00
G01 X22.5286 Y-19.2266 F60.00
G01 X22.5827 Y-19.1456 F60.00
G01 X22.6017 Y-19.0500 F60.00
G00 X22.6017 Y-19.0500
G01 F60.00
G01 Z-1.5000
G01 F60.00
G01 X22.5827 Y-19.1456 F60.00
G01 X22.5286 Y-19.2266 F60.00
G01 X22.4476 Y-19.2807 F60.00
G01 X22.3520 Y-19.2997 F60.00
G01 X22.2564 Y-19.2807 F60.00
G01 X22.1754 Y-19.2266 F60.00
G01 X22.1213 Y-19.1456 F60.00
G01 X22.1023 Y-19.0500 F60.00
G01 X22.1213 Y-18.9544 F60.00
G01 X22.1754 Y-18.8734 F60.00
G01 X22.2564 Y-18.8193 F60.00
G01 X22.3520 Y-18.8003 F60.00
G01 X22.4476 Y-18.8193 F60.00
G01 X22.5286 Y-18.8734 F60.00
G01 X22.5827 Y-18.9544 F60.00
G01 X22.6017 Y-19.0500 F60.00
G00 X22.6017 Y-19.0500
G01 F60.00
G01 Z-2.0000
G01 F60.00
G01 X22.5827 Y-18.9544 F60.00
G01 X22.5286 Y-18.8734 F60.00
G01 X22.4476 Y-18.8193 F60.00
G01 X22.3520 Y-18.8003 F60.00
G01 X22.2564 Y-18.8193 F60.00
G01 X22.1754 Y-18.8734 F60.00
G01 X22.1213 Y-18.9544 F60.00
G01 X22.1023 Y-19.0500 F60.00
G01 X22.1213 Y-19.1456 F60.00
G01 X22.1754 Y-19.2266 F60.00
G01 X22.2564 Y-19.2807 F60.00
G01 X22.3520 Y-19.2997 F60.00
G01 X22.4476 Y-19.2807 F60.00
G01 X22.5286 Y-19.2266 F60.00
G01 X22.5827 Y-19.1456 F60.00
G01 X22.6017 Y-19.0500 F60.00
G00 Z2.0000
G00 X8.6317 Y-19.0500
G01 F60.00
G01 Z-0.5000
G01 F60.00
G01 X8.6127 Y-19.1456 F60.00
G01 X8.5586 Y-19.2266 F60.00
G01 X8.4776 Y-19.2807 F60.00
G01 X8.3820 Y-19.2997 F60.00
G01 X8.2864 Y-19.2807 F60.00
G01 X8.2054 Y-19.2266 F60.00
G01 X8.1513 Y-19.1456 F60.00
G01 X8.1323 Y-19.0500 F60.00
G01 X8.1513 Y-18.9544 F60.00
G01 X8.2054 Y-18.8734 F60.00
G01 X8.2864 Y-18.8193 F60.00
G01 X8.3820 Y-18.8003 F60.00
G01 X8.4776 Y-18.8193 F60.00
G01 X8.5586 Y-18.8734 F60.00
G01 X8.6127 Y-18.9544 F60.00
G01 X8.6317 Y-19.0500 F60.00
G00 X8.6317 Y-19.0500
G01 F60.00
G01 Z-1.0000
G01 F60.00
G01 X8.6127 Y-18.9544 F60.00
G01 X8.5586 Y-18.8734 F60.00
G01 X8.4776 Y-18.8193 F60.00
G01 X8.3820 Y-18.8003 F60.00
G01 X8.2864 Y-18.8193 F60.00
G01 X8.2054 Y-18.8734 F60.00
G01 X8.1513 Y-18.9544 F60.00
G01 X8.1323 Y-19.0500 F60.00
G01 X8.1513 Y-19.1456 F60.00
G01 X8.2054 Y-19.2266 F60.00
G01 X8.2864 Y-19.2807 F60.00
G01 X8.3820 Y-19.2997 F60.00
G01 X8.4776 Y-19.2807 F60.00
G01 X8.5586 Y-19.2266 F60.00
G01 X8.6127 Y-19.1456 F60.00
G01 X8.6317 Y-19.0500 F60.00
G00 X8.6317 Y-19.0500
G01 F60.00
G01 Z-1.5000
G01 F60.00
G01 X8.6127 Y-19.1456 F60.00
G01 X8.5586 Y-19.2266 F60.00
G01 X8.4776 Y-19.2807 F60.00
G01 X8.3820 Y-19.2997 F60.00
G01 X8.2864 Y-19.2807 F60.00
G01 X8.2054 Y-19.2266 F60.00
G01 X8.1513 Y-19.1456 F60.00
G01 X8.1323 Y-19.0500 F60.00
G01 X8.1513 Y-18.9544 F60.00
G01 X8.2054 Y-18.8734 F60.00
G01 X8.2864 Y-18.8193 F60.00
G01 X8.3820 Y-18.8003 F60.00
G01 X8.4776 Y-18.8193 F60.00
G01 X8.5586 Y-18.8734 F60.00
G01 X8.6127 Y-18.9544 F60.00
G01 X8.6317 Y-19.0500 F60.00
G00 X8.6317 Y-19.0500
G01 F60.00
G01 Z-2.0000
G01 F60.00
G01 X8.6127 Y-18.9544 F60.00
G01 X8.5586 Y-18.8734 F60.00
G01 X8.4776 Y-18.8193 F60.00
G01 X8.3820 Y-18.8003 F60.00
G01 X8.2864 Y-18.8193 F60.00
G01 X8.2054 Y-18.8734 F60.00
G01 X8.1513 Y-18.9544 F60.00
G01 X8.1323 Y-19.0500 F60.00
G01 X8.1513 Y-19.1456 F60.00
G01 X8.2054 Y-19.2266 F60.00
G01 X8.2864 Y-19.2807 F60.00
G01 X8.3820 Y-19.2997 F60.00
G01 X8.4776 Y-19.2807 F60.00
G01 X8.5586 Y-19.2266 F60.00
G01 X8.6127 Y-19.1456 F60.00
G01 X8.6317 Y-19.0500 F60.00
G00 Z2.0000
G00 X6.0917 Y-19.0500
G01 F60.00
G01 Z-0.5000
G01 F60.00
G01 X6.0727 Y-19.1456 F60.00
G01 X6.0186 Y-19.2266 F60.00
G01 X5.9376 Y-19.2807 F60.00
G01 X5.8420 Y-19.2997 F60.00
G01 X5.7464 Y-19.2807 F60.00
G01 X5.6654 Y-19.2266 F60.00
G01 X5.6113 Y-19.1456 F60.00
G01 X5.5923 Y-19.0500 F60.00
G01 X5.6113 Y-18.9544 F60.00
G01 X5.6654 Y-18.8734 F60.00
G01 X5.7464 Y-18.8193 F60.00
G01 X5.8420 Y-18.8003 F60.00
G01 X5.9376 Y-18.8193 F60.00
G01 X6.0186 Y-18.8734 F60.00
G01 X6.0727 Y-18.9544 F60.00
G01 X6.0917 Y-19.0500 F60.00
G00 X6.0917 Y-19.0500
G01 F60.00
G01 Z-1.0000
G01 F60.00
G01 X6.0727 Y-18.9544 F60.00
G01 X6.0186 Y-18.8734 F60.00
G01 X5.9376 Y-18.8193 F60.00
G01 X5.8420 Y-18.8003 F60.00
G01 X5.7464 Y-18.8193 F60.00
G01 X5.6654 Y-18.8734 F60.00
G01 X5.6113 Y-18.9544 F60.00
G01 X5.5923 Y-19.0500 F60.00
G01 X5.6113 Y-19.1456 F60.00
G01 X5.6654 Y-19.2266 F60.00
G01 X5.7464 Y-19.2807 F60.00
G01 X5.8420 Y-19.2997 F60.00
G01 X5.9376 Y-19.2807 F60.00
G01 X6.0186 Y-19.2266 F60.00
G01 X6.0727 Y-19.1456 F60.00
G01 X6.0917 Y-19.0500 F60.00
G00 X6.0917 Y-19.0500
G01 F60.00
G01 Z-1.5000
G01 F60.00
G01 X6.0727 Y-19.1456 F60.00
G01 X6.0186 Y-19.2266 F60.00
G01 X5.9376 Y-19.2807 F60.00
G01 X5.8420 Y-19.2997 F60.00
G01 X5.7464 Y-19.2807 F60.00
G01 X5.6654 Y-19.2266 F60.00
G01 X5.6113 Y-19.1456 F60.00
G01 X5.5923 Y-19.0500 F60.00
G01 X5.6113 Y-18.9544 F60.00
G01 X5.6654 Y-18.8734 F60.00
G01 X5.7464 Y-18.8193 F60.00
G01 X5.8420 Y-18.8003 F60.00
G01 X5.9376 Y-18.8193 F60.00
G01 X6.0186 Y-18.8734 F60.00
G01 X6.0727 Y-18.9544 F60.00
G01 X6.0917 Y-19.0500 F60.00
G00 X6.0917 Y-19.0500
G01 F60.00
G01 Z-2.0000
G01 F60.00
G01 X6.0727 Y-18.9544 F60.00
G01 X6.0186 Y-18.8734 F60.00
G01 X5.9376 Y-18.8193 F60.00
G01 X5.8420 Y-18.8003 F60.00
G01 X5.7464 Y-18.8193 F60.00
G01 X5.6654 Y-18.8734 F60.00
G01 X5.6113 Y-18.9544 F60.00
G01 X5.5923 Y-19.0500 F60.00
G01 X5.6113 Y-19.1456 F60.00
G01 X5.6654 Y-19.2266 F60.00
G01 X5.7464 Y-19.2807 F60.00
G01 X5.8420 Y-19.2997 F60.00
G01 X5.9376 Y-19.2807 F60.00
G01 X6.0186 Y-19.2266 F60.00
G01 X6.0727 Y-19.1456 F60.00
G01 X6.0917 Y-19.0500 F60.00
G00 Z2.0000
G01 F60.00

M5             
G00 Z15.0000
G00 X0.0000 Y0.0000                
T2
(MSG, Change to Tool Dia = 0.5000)
M0
G00 Z15.0000
        
M03
G01 F60.00
G00 X3.5520 Y-10.1600
G01 F60.00
G01 Z-0.5000
G01 F60.00
G01 X3.5330 Y-10.2557 F60.00
G01 X3.4788 Y-10.3368 F60.00
G01 X3.3977 Y-10.3910 F60.00
G01 X3.3020 Y-10.4100 F60.00
G01 X3.2063 Y-10.3910 F60.00
G01 X3.1252 Y-10.3368 F60.00
G01 X3.0710 Y-10.2557 F60.00
G01 X3.0520 Y-10.1600 F60.00
G01 X3.0568 Y-10.1112 F60.00
G01 X3.0760 Y-10.0531 F60.00
G01 X3.1012 Y-10.0111 F60.00
G01 X3.1434 Y-9.9667 F60.00
G01 X3.1951 Y-9.9340 F60.00
G01 X3.2532 Y-9.9148 F60.00
G01 X3.3143 Y-9.9103 F60.00
G01 X3.3627 Y-9.9175 F60.00
G01 X3.4409 Y-9.9521 F60.00
G01 X3.5028 Y-10.0111 F60.00
G01 X3.5412 Y-10.0874 F60.00
G01 X3.5520 Y-10.1600 F60.00
G01 X4.0520 Y-10.1600 F60.00
G01 X4.0439 Y-10.2700 F60.00
G01 X4.0082 Y-10.4127 F60.00
G01 X3.9634 Y-10.5135 F60.00
G01 X3.9044 Y-10.6068 F60.00
G01 X3.8323 Y-10.6903 F60.00
G01 X3.7187 Y-10.7836 F60.00
G01 X3.6227 Y-10.8380 F60.00
G01 X3.5197 Y-10.8777 F60.00
G01 X3.4120 Y-10.9019 F60.00
G01 X3.3020 Y-10.9100 F60.00
G01 X3.1557 Y-10.8956 F60.00
G01 X3.0150 Y-10.8529 F60.00
G01 X2.8853 Y-10.7836 F60.00
G01 X2.7717 Y-10.6903 F60.00
G01 X2.6784 Y-10.5767 F60.00
G01 X2.6091 Y-10.4470 F60.00
G01 X2.5664 Y-10.3063 F60.00
G01 X2.5520 Y-10.1600 F60.00
G01 X2.5664 Y-10.0137 F60.00
G01 X2.5843 Y-9.9423 F60.00
G01 X2.6240 Y-9.8393 F60.00
G01 X2.6784 Y-9.7433 F60.00
G01 X2.7222 Y-9.6842 F60.00
G01 X2.8262 Y-9.5802 F60.00
G01 X2.9485 Y-9.4986 F60.00
G01 X3.0493 Y-9.4538 F60.00
G01 X3.1198 Y-9.4325 F60.00
G01 X3.2652 Y-9.4109 F60.00
G01 X3.3755 Y-9.4136 F60.00
G01 X3.4483 Y-9.4244 F60.00
G01 X3.5547 Y-9.4538 F60.00
G01 X3.6876 Y-9.5167 F60.00
G01 X3.7778 Y-9.5802 F60.00
G01 X3.8818 Y-9.6842 F60.00
G01 X3.9453 Y-9.7744 F60.00
G01 X4.0082 Y-9.9073 F60.00
G01 X4.0376 Y-10.0137 F60.00
G01 X4.0520 Y-10.1600 F60.00
G01 X4.5520 Y-10.1600 F60.00
G01 X4.5385 Y-10.3434 F60.00
G01 X4.5145 Y-10.4637 F60.00
G01 X4.4789 Y-10.5811 F60.00
G01 X4.4320 Y-10.6944 F60.00
G01 X4.3742 Y-10.8026 F60.00
G01 X4.2683 Y-10.9530 F60.00
G01 X4.1414 Y-11.0862 F60.00
G01 X4.0466 Y-11.1640 F60.00
G01 X3.9446 Y-11.2322 F60.00
G01 X3.8364 Y-11.2900 F60.00
G01 X3.7231 Y-11.3369 F60.00
G01 X3.5459 Y-11.3860 F60.00
G01 X3.3633 Y-11.4085 F60.00
G01 X3.2407 Y-11.4085 F60.00
G01 X3.1186 Y-11.3965 F60.00
G01 X2.9983 Y-11.3725 F60.00
G01 X2.8809 Y-11.3369 F60.00
G01 X2.7676 Y-11.2900 F60.00
G01 X2.6594 Y-11.2322 F60.00
G01 X2.5574 Y-11.1640 F60.00
G01 X2.4626 Y-11.0862 F60.00
G01 X2.3758 Y-10.9994 F60.00
G01 X2.2980 Y-10.9046 F60.00
G01 X2.2298 Y-10.8026 F60.00
G01 X2.1720 Y-10.6944 F60.00
G01 X2.1251 Y-10.5811 F60.00
G01 X2.0895 Y-10.4637 F60.00
G01 X2.0655 Y-10.3434 F60.00
G01 X2.0535 Y-10.2213 F60.00
G01 X2.0535 Y-10.0987 F60.00
G01 X2.0655 Y-9.9766 F60.00
G01 X2.1058 Y-9.7971 F60.00
G01 X2.1720 Y-9.6256 F60.00
G01 X2.2627 Y-9.4655 F60.00
G01 X2.3758 Y-9.3206 F60.00
G01 X2.5090 Y-9.1937 F60.00
G01 X2.6594 Y-9.0878 F60.00
G01 X2.8236 Y-9.0052 F60.00
G01 X2.9983 Y-8.9475 F60.00
G01 X3.1795 Y-8.9160 F60.00
G01 X3.3633 Y-8.9115 F60.00
G01 X3.5459 Y-8.9340 F60.00
G01 X3.7231 Y-8.9831 F60.00
G01 X3.8912 Y-9.0576 F60.00
G01 X4.0466 Y-9.1560 F60.00
G01 X4.1859 Y-9.2761 F60.00
G01 X4.3060 Y-9.4154 F60.00
G01 X4.4044 Y-9.5708 F60.00
G01 X4.4789 Y-9.7389 F60.00
G01 X4.5145 Y-9.8563 F60.00
G01 X4.5385 Y-9.9766 F60.00
G01 X4.5520 Y-10.1600 F60.00
G01 X4.7767 Y-10.1600 F60.00
G01 X4.7696 Y-10.3045 F60.00
G01 X4.7484 Y-10.4477 F60.00
G01 X4.7132 Y-10.5881 F60.00
G01 X4.6644 Y-10.7243 F60.00
G01 X4.6026 Y-10.8552 F60.00
G01 X4.5282 Y-10.9793 F60.00
G01 X4.4420 Y-11.0955 F60.00
G01 X4.3448 Y-11.2028 F60.00
G01 X4.2375 Y-11.3000 F60.00
G01 X4.1213 Y-11.3862 F60.00
G01 X3.9972 Y-11.4606 F60.00
G01 X3.8663 Y-11.5224 F60.00
G01 X3.7301 Y-11.5712 F60.00
G01 X3.5897 Y-11.6064 F60.00
G01 X3.4465 Y-11.6276 F60.00
G01 X3.3020 Y-11.6347 F60.00
G01 X3.1575 Y-11.6276 F60.00
G01 X3.0143 Y-11.6064 F60.00
G01 X2.8739 Y-11.5712 F60.00
G01 X2.7377 Y-11.5224 F60.00
G01 X2.6068 Y-11.4606 F60.00
G01 X2.4827 Y-11.3862 F60.00
G01 X2.3665 Y-11.3000 F60.00
G01 X2.2592 Y-11.2028 F60.00
G01 X2.1620 Y-11.0955 F60.00
G01 X2.0758 Y-10.9793 F60.00
G01 X2.0014 Y-10.8552 F60.00
G01 X1.9396 Y-10.7243 F60.00
G01 X1.8908 Y-10.5881 F60.00
G01 X1.8556 Y-10.4477 F60.00
G01 X1.8344 Y-10.3045 F60.00
G01 X1.8273 Y-10.1600 F60.00
G01 X1.8344 Y-10.0155 F60.00
G01 X1.8556 Y-9.8723 F60.00
G01 X1.8908 Y-9.7319 F60.00
G01 X1.9396 Y-9.5957 F60.00
G01 X2.0014 Y-9.4648 F60.00
G01 X2.0758 Y-9.3407 F60.00
G01 X2.1620 Y-9.2245 F60.00
G01 X2.2592 Y-9.1172 F60.00
G01 X2.3665 Y-9.0200 F60.00
G01 X2.4827 Y-8.9338 F60.00
G01 X2.6068 Y-8.8594 F60.00
G01 X2.7377 Y-8.7976 F60.00
G01 X2.8739 Y-8.7488 F60.00
G01 X3.0143 Y-8.7136 F60.00
G01 X3.1575 Y-8.6924 F60.00
G01 X3.3020 Y-8.6853 F60.00
G01 X3.4465 Y-8.6924 F60.00
G01 X3.5897 Y-8.7136 F60.00
G01 X3.7301 Y-8.7488 F60.00
G01 X3.8663 Y-8.7976 F60.00
G01 X3.9972 Y-8.8594 F60.00
G01 X4.1213 Y-8.9338 F60.00
G01 X4.2375 Y-9.0200 F60.00
G01 X4.3448 Y-9.1172 F60.00
G01 X4.4420 Y-9.2245 F60.00
G01 X4.5282 Y-9.3407 F60.00
G01 X4.6026 Y-9.4648 F60.00
G01 X4.6644 Y-9.5957 F60.00
G01 X4.7132 Y-9.7319 F60.00
G01 X4.7484 Y-9.8723 F60.00
G01 X4.7696 Y-10.0155 F60.00
G01 X4.7767 Y-10.1600 F60.00
G00 X4.7767 Y-10.1600
G01 F60.00
G01 Z-1.0000
G01 F60.00
G01 X4.7696 Y-10.0155 F60.00
G01 X4.7484 Y-9.8723 F60.00
G01 X4.7132 Y-9.7319 F60.00
G01 X4.6644 Y-9.5957 F60.00
G01 X4.6026 Y-9.4648 F60.00
G01 X4.5282 Y-9.3407 F60.00
G01 X4.4420 Y-9.2245 F60.00
G01 X4.3448 Y-9.1172 F60.00
G01 X4.2375 Y-9.0200 F60.00
G01 X4.1213 Y-8.9338 F60.00
G01 X3.9972 Y-8.8594 F60.00
G01 X3.8663 Y-8.7976 F60.00
G01 X3.7301 Y-8.7488 F60.00
G01 X3.5897 Y-8.7136 F60.00
G01 X3.4465 Y-8.6924 F60.00
G01 X3.3020 Y-8.6853 F60.00
G01 X3.1575 Y-8.6924 F60.00
G01 X3.0143 Y-8.7136 F60.00
G01 X2.8739 Y-8.7488 F60.00
G01 X2.7377 Y-8.7976 F60.00
G01 X2.6068 Y-8.8594 F60.00
G01 X2.4827 Y-8.9338 F60.00
G01 X2.3665 Y-9.0200 F60.00
G01 X2.2592 Y-9.1172 F60.00
G01 X2.1620 Y-9.2245 F60.00
G01 X2.0758 Y-9.3407 F60.00
G01 X2.0014 Y-9.4648 F60.00
G01 X1.9396 Y-9.5957 F60.00
G01 X1.8908 Y-9.7319 F60.00
G01 X1.8556 Y-9.8723 F60.00
G01 X1.8344 Y-10.0155 F60.00
G01 X1.8273 Y-10.1600 F60.00
G01 X1.8344 Y-10.3045 F60.00
G01 X1.8556 Y-10.4477 F60.00
G01 X1.8908 Y-10.5881 F60.00
G01 X1.9396 Y-10.7243 F60.00
G01 X2.0014 Y-10.8552 F60.00
G01 X2.0758 Y-10.9793 F60.00
G01 X2.1620 Y-11.0955 F60.00
G01 X2.2592 Y-11.2028 F60.00
G01 X2.3665 Y-11.3000 F60.00
G01 X2.4827 Y-11.3862 F60.00
G01 X2.6068 Y-11.4606 F60.00
G01 X2.7377 Y-11.5224 F60.00
G01 X2.8739 Y-11.5712 F60.00
G01 X3.0143 Y-11.6064 F60.00
G01 X3.1575 Y-11.6276 F60.00
G01 X3.3020 Y-11.6347 F60.00
G01 X3.4465 Y-11.6276 F60.00
G01 X3.5897 Y-11.6064 F60.00
G01 X3.7301 Y-11.5712 F60.00
G01 X3.8663 Y-11.5224 F60.00
G01 X3.9972 Y-11.4606 F60.00
G01 X4.1213 Y-11.3862 F60.00
G01 X4.2375 Y-11.3000 F60.00
G01 X4.3448 Y-11.2028 F60.00
G01 X4.4420 Y-11.0955 F60.00
G01 X4.5282 Y-10.9793 F60.00
G01 X4.6026 Y-10.8552 F60.00
G01 X4.6644 Y-10.7243 F60.00
G01 X4.7132 Y-10.5881 F60.00
G01 X4.7484 Y-10.4477 F60.00
G01 X4.7696 Y-10.3045 F60.00
G01 X4.7767 Y-10.1600 F60.00
G01 X4.5520 Y-10.1600 F60.00
G01 X4.5385 Y-9.9766 F60.00
G01 X4.5145 Y-9.8563 F60.00
G01 X4.4789 Y-9.7389 F60.00
G01 X4.4044 Y-9.5708 F60.00
G01 X4.3060 Y-9.4154 F60.00
G01 X4.1859 Y-9.2761 F60.00
G01 X4.0466 Y-9.1560 F60.00
G01 X3.8912 Y-9.0576 F60.00
G01 X3.7231 Y-8.9831 F60.00
G01 X3.5459 Y-8.9340 F60.00
G01 X3.3633 Y-8.9115 F60.00
G01 X3.1795 Y-8.9160 F60.00
G01 X2.9983 Y-8.9475 F60.00
G01 X2.8236 Y-9.0052 F60.00
G01 X2.6594 Y-9.0878 F60.00
G01 X2.5090 Y-9.1937 F60.00
G01 X2.3758 Y-9.3206 F60.00
G01 X2.2627 Y-9.4655 F60.00
G01 X2.1720 Y-9.6256 F60.00
G01 X2.1058 Y-9.7971 F60.00
G01 X2.0655 Y-9.9766 F60.00
G01 X2.0535 Y-10.0987 F60.00
G01 X2.0535 Y-10.2213 F60.00
G01 X2.0655 Y-10.3434 F60.00
G01 X2.0895 Y-10.4637 F60.00
G01 X2.1251 Y-10.5811 F60.00
G01 X2.1720 Y-10.6944 F60.00
G01 X2.2298 Y-10.8026 F60.00
G01 X2.2980 Y-10.9046 F60.00
G01 X2.3758 Y-10.9994 F60.00
G01 X2.4626 Y-11.0862 F60.00
G01 X2.5574 Y-11.1640 F60.00
G01 X2.6594 Y-11.2322 F60.00
G01 X2.7676 Y-11.2900 F60.00
G01 X2.8809 Y-11.3369 F60.00
G01 X2.9983 Y-11.3725 F60.00
G01 X3.1186 Y-11.3965 F60.00
G01 X3.2407 Y-11.4085 F60.00
G01 X3.3633 Y-11.4085 F60.00
G01 X3.5459 Y-11.3860 F60.00
G01 X3.7231 Y-11.3369 F60.00
G01 X3.8364 Y-11.2900 F60.00
G01 X3.9446 Y-11.2322 F60.00
G01 X4.0466 Y-11.1640 F60.00
G01 X4.1414 Y-11.0862 F60.00
G01 X4.2683 Y-10.9530 F60.00
G01 X4.3742 Y-10.8026 F60.00
G01 X4.4320 Y-10.6944 F60.00
G01 X4.4789 Y-10.5811 F60.00
G01 X4.5145 Y-10.4637 F60.00
G01 X4.5385 Y-10.3434 F60.00
G01 X4.5520 Y-10.1600 F60.00
G01 X4.0520 Y-10.1600 F60.00
G01 X4.0376 Y-10.0137 F60.00
G01 X4.0082 Y-9.9073 F60.00
G01 X3.9453 Y-9.7744 F60.00
G01 X3.8818 Y-9.6842 F60.00
G01 X3.7778 Y-9.5802 F60.00
G01 X3.6876 Y-9.5167 F60.00
G01 X3.5547 Y-9.4538 F60.00
G01 X3.4483 Y-9.4244 F60.00
G01 X3.3755 Y-9.4136 F60.00
G01 X3.2652 Y-9.4109 F60.00
G01 X3.1198 Y-9.4325 F60.00
G01 X3.0493 Y-9.4538 F60.00
G01 X2.9485 Y-9.4986 F60.00
G01 X2.8262 Y-9.5802 F60.00
G01 X2.7222 Y-9.6842 F60.00
G01 X2.6587 Y-9.7744 F60.00
G01 X2.6240 Y-9.8393 F60.00
G01 X2.5843 Y-9.9423 F60.00
G01 X2.5664 Y-10.0137 F60.00
G01 X2.5520 Y-10.1600 F60.00
G01 X2.5664 Y-10.3063 F60.00
G01 X2.6091 Y-10.4470 F60.00
G01 X2.6784 Y-10.5767 F60.00
G01 X2.7717 Y-10.6903 F60.00
G01 X2.8853 Y-10.7836 F60.00
G01 X3.0150 Y-10.8529 F60.00
G01 X3.1557 Y-10.8956 F60.00
G01 X3.3020 Y-10.9100 F60.00
G01 X3.4120 Y-10.9019 F60.00
G01 X3.5197 Y-10.8777 F60.00
G01 X3.6227 Y-10.8380 F60.00
G01 X3.7187 Y-10.7836 F60.00
G01 X3.8323 Y-10.6903 F60.00
G01 X3.9044 Y-10.6068 F60.00
G01 X3.9634 Y-10.5135 F60.00
G01 X4.0082 Y-10.4127 F60.00
G01 X4.0439 Y-10.2700 F60.00
G01 X4.0520 Y-10.1600 F60.00
G01 X3.5520 Y-10.1600 F60.00
G01 X3.5412 Y-10.0874 F60.00
G01 X3.5028 Y-10.0111 F60.00
G01 X3.4409 Y-9.9521 F60.00
G01 X3.3627 Y-9.9175 F60.00
G01 X3.3143 Y-9.9103 F60.00
G01 X3.2532 Y-9.9148 F60.00
G01 X3.1951 Y-9.9340 F60.00
G01 X3.1434 Y-9.9667 F60.00
G01 X3.1012 Y-10.0111 F60.00
G01 X3.0760 Y-10.0531 F60.00
G01 X3.0568 Y-10.1112 F60.00
G01 X3.0520 Y-10.1600 F60.00
G01 X3.0710 Y-10.2557 F60.00
G01 X3.1252 Y-10.3368 F60.00
G01 X3.2063 Y-10.3910 F60.00
G01 X3.3020 Y-10.4100 F60.00
G01 X3.3977 Y-10.3910 F60.00
G01 X3.4788 Y-10.3368 F60.00
G01 X3.5330 Y-10.2557 F60.00
G01 X3.5520 Y-10.1600 F60.00
G00 X3.5520 Y-10.1600
G01 F60.00
G01 Z-1.5000
G01 F60.00
G01 X3.5330 Y-10.2557 F60.00
G01 X3.4788 Y-10.3368 F60.00
G01 X3.3977 Y-10.3910 F60.00
G01 X3.3020 Y-10.4100 F60.00
G01 X3.2063 Y-10.3910 F60.00
G01 X3.1252 Y-10.3368 F60.00
G01 X3.0710 Y-10.2557 F60.00
G01 X3.0520 Y-10.1600 F60.00
G01 X3.0568 Y-10.1112 F60.00
G01 X3.0760 Y-10.0531 F60.00
G01 X3.1012 Y-10.0111 F60.00
G01 X3.1434 Y-9.9667 F60.00
G01 X3.1951 Y-9.9340 F60.00
G01 X3.2532 Y-9.9148 F60.00
G01 X3.3143 Y-9.9103 F60.00
G01 X3.3627 Y-9.9175 F60.00
G01 X3.4409 Y-9.9521 F60.00
G01 X3.5028 Y-10.0111 F60.00
G01 X3.5412 Y-10.0874 F60.00
G01 X3.5520 Y-10.1600 F60.00
G01 X4.0520 Y-10.1600 F60.00
G01 X4.0439 Y-10.2700 F60.00
G01 X4.0082 Y-10.4127 F60.00
G01 X3.9634 Y-10.5135 F60.00
G01 X3.9044 Y-10.6068 F60.00
G01 X3.8323 Y-10.6903 F60.00
G01 X3.7187 Y-10.7836 F60.00
G01 X3.6227 Y-10.8380 F60.00
G01 X3.5197 Y-10.8777 F60.00
G01 X3.4120 Y-10.9019 F60.00
G01 X3.3020 Y-10.9100 F60.00
G01 X3.1557 Y-10.8956 F60.00
G01 X3.0150 Y-10.8529 F60.00
G01 X2.8853 Y-10.7836 F60.00
G01 X2.7717 Y-10.6903 F60.00
G01 X2.6784 Y-10.5767 F60.00
G01 X2.6091 Y-10.4470 F60.00
G01 X2.5664 Y-10.3063 F60.00
G01 X2.5520 Y-10.1600 F60.00
G01 X2.5664 Y-10.0137 F60.00
G01 X2.5843 Y-9.9423 F60.00
G01 X2.6240 Y-9.8393 F60.00
G01 X2.6784 Y-9.7433 F60.00
G01 X2.7222 Y-9.6842 F60.00
G01 X2.8262 Y-9.5802 F60.00
G01 X2.9485 Y-9.4986 F60.00
G01 X3.0493 Y-9.4538 F60.00
G01 X3.1198 Y-9.4325 F60.00
G01 X3.2652 Y-9.4109 F60.00
G01 X3.3755 Y-9.4136 F60.00
G01 X3.4483 Y-9.4244 F60.00
G01 X3.5547 Y-9.4538 F60.00
G01 X3.6876 Y-9.5167 F60.00
G01 X3.7778 Y-9.5802 F60.00
G01 X3.8818 Y-9.6842 F60.00
G01 X3.9453 Y-9.7744 F60.00
G01 X4.0082 Y-9.9073 F60.00
G01 X4.0376 Y-10.0137 F60.00
G01 X4.0520 Y-10.1600 F60.00
G01 X4.5520 Y-10.1600 F60.00
G01 X4.5385 Y-10.3434 F60.00
G01 X4.5145 Y-10.4637 F60.00
G01 X4.4789 Y-10.5811 F60.00
G01 X4.4320 Y-10.6944 F60.00
G01 X4.3742 Y-10.8026 F60.00
G01 X4.2683 Y-10.9530 F60.00
G01 X4.1414 Y-11.0862 F60.00
G01 X4.0466 Y-11.1640 F60.00
G01 X3.9446 Y-11.2322 F60.00
G01 X3.8364 Y-11.2900 F60.00
G01 X3.7231 Y-11.3369 F60.00
G01 X3.5459 Y-11.3860 F60.00
G01 X3.3633 Y-11.4085 F60.00
G01 X3.2407 Y-11.4085 F60.00
G01 X3.1186 Y-11.3965 F60.00
G01 X2.9983 Y-11.3725 F60.00
G01 X2.8809 Y-11.3369 F60.00
G01 X2.7676 Y-11.2900 F60.00
G01 X2.6594 Y-11.2322 F60.00
G01 X2.5574 Y-11.1640 F60.00
G01 X2.4626 Y-11.0862 F60.00
G01 X2.3758 Y-10.9994 F60.00
G01 X2.2980 Y-10.9046 F60.00
G01 X2.2298 Y-10.8026 F60.00
G01 X2.1720 Y-10.6944 F60.00
G01 X2.1251 Y-10.5811 F60.00
G01 X2.0895 Y-10.4637 F60.00
G01 X2.0655 Y-10.3434 F60.00
G01 X2.0535 Y-10.2213 F60.00
G01 X2.0535 Y-10.0987 F60.00
G01 X2.0655 Y-9.9766 F60.00
G01 X2.1058 Y-9.7971 F60.00
G01 X2.1720 Y-9.6256 F60.00
G01 X2.2627 Y-9.4655 F60.00
G01 X2.3758 Y-9.3206 F60.00
G01 X2.5090 Y-9.1937 F60.00
G01 X2.6594 Y-9.0878 F60.00
G01 X2.8236 Y-9.0052 F60.00
G01 X2.9983 Y-8.9475 F60.00
G01 X3.1795 Y-8.9160 F60.00
G01 X3.3633 Y-8.9115 F60.00
G01 X3.5459 Y-8.9340 F60.00
G01 X3.7231 Y-8.9831 F60.00
G01 X3.8912 Y-9.0576 F60.00
G01 X4.0466 Y-9.1560 F60.00
G01 X4.1859 Y-9.2761 F60.00
G01 X4.3060 Y-9.4154 F60.00
G01 X4.4044 Y-9.5708 F60.00
G01 X4.4789 Y-9.7389 F60.00
G01 X4.5145 Y-9.8563 F60.00
G01 X4.5385 Y-9.9766 F60.00
G01 X4.5520 Y-10.1600 F60.00
G01 X4.7767 Y-10.1600 F60.00
G01 X4.7696 Y-10.3045 F60.00
G01 X4.7484 Y-10.4477 F60.00
G01 X4.7132 Y-10.5881 F60.00
G01 X4.6644 Y-10.7243 F60.00
G01 X4.6026 Y-10.8552 F60.00
G01 X4.5282 Y-10.9793 F60.00
G01 X4.4420 Y-11.0955 F60.00
G01 X4.3448 Y-11.2028 F60.00
G01 X4.2375 Y-11.3000 F60.00
G01 X4.1213 Y-11.3862 F60.00
G01 X3.9972 Y-11.4606 F60.00
G01 X3.8663 Y-11.5224 F60.00
G01 X3.7301 Y-11.5712 F60.00
G01 X3.5897 Y-11.6064 F60.00
G01 X3.4465 Y-11.6276 F60.00
G01 X3.3020 Y-11.6347 F60.00
G01 X3.1575 Y-11.6276 F60.00
G01 X3.0143 Y-11.6064 F60.00
G01 X2.8739 Y-11.5712 F60.00
G01 X2.7377 Y-11.5224 F60.00
G01 X2.6068 Y-11.4606 F60.00
G01 X2.4827 Y-11.3862 F60.00
G01 X2.3665 Y-11.3000 F60.00
G01 X2.2592 Y-11.2028 F60.00
G01 X2.1620 Y-11.0955 F60.00
G01 X2.0758 Y-10.9793 F60.00
G01 X2.0014 Y-10.8552 F60.00
G01 X1.9396 Y-10.7243 F60.00
G01 X1.8908 Y-10.5881 F60.00
G01 X1.8556 Y-10.4477 F60.00
G01 X1.8344 Y-10.3045 F60.00
G01 X1.8273 Y-10.1600 F60.00
G01 X1.8344 Y-10.0155 F60.00
G01 X1.8556 Y-9.8723 F60.00
G01 X1.8908 Y-9.7319 F60.00
G01 X1.9396 Y-9.5957 F60.00
G01 X2.0014 Y-9.4648 F60.00
G01 X2.0758 Y-9.3407 F60.00
G01 X2.1620 Y-9.2245 F60.00
G01 X2.2592 Y-9.1172 F60.00
G01 X2.3665 Y-9.0200 F60.00
G01 X2.4827 Y-8.9338 F60.00
G01 X2.6068 Y-8.8594 F60.00
G01 X2.7377 Y-8.7976 F60.00
G01 X2.8739 Y-8.7488 F60.00
G01 X3.0143 Y-8.7136 F60.00
G01 X3.1575 Y-8.6924 F60.00
G01 X3.3020 Y-8.6853 F60.00
G01 X3.4465 Y-8.6924 F60.00
G01 X3.5897 Y-8.7136 F60.00
G01 X3.7301 Y-8.7488 F60.00
G01 X3.8663 Y-8.7976 F60.00
G01 X3.9972 Y-8.8594 F60.00
G01 X4.1213 Y-8.9338 F60.00
G01 X4.2375 Y-9.0200 F60.00
G01 X4.3448 Y-9.1172 F60.00
G01 X4.4420 Y-9.2245 F60.00
G01 X4.5282 Y-9.3407 F60.00
G01 X4.6026 Y-9.4648 F60.00
G01 X4.6644 Y-9.5957 F60.00
G01 X4.7132 Y-9.7319 F60.00
G01 X4.7484 Y-9.8723 F60.00
G01 X4.7696 Y-10.0155 F60.00
G01 X4.7767 Y-10.1600 F60.00
G00 X4.7767 Y-10.1600
G01 F60.00
G01 Z-2.0000
G01 F60.00
G01 X4.7696 Y-10.0155 F60.00
G01 X4.7484 Y-9.8723 F60.00
G01 X4.7132 Y-9.7319 F60.00
G01 X4.6644 Y-9.5957 F60.00
G01 X4.6026 Y-9.4648 F60.00
G01 X4.5282 Y-9.3407 F60.00
G01 X4.4420 Y-9.2245 F60.00
G01 X4.3448 Y-9.1172 F60.00
G01 X4.2375 Y-9.0200 F60.00
G01 X4.1213 Y-8.9338 F60.00
G01 X3.9972 Y-8.8594 F60.00
G01 X3.8663 Y-8.7976 F60.00
G01 X3.7301 Y-8.7488 F60.00
G01 X3.5897 Y-8.7136 F60.00
G01 X3.4465 Y-8.6924 F60.00
G01 X3.3020 Y-8.6853 F60.00
G01 X3.1575 Y-8.6924 F60.00
G01 X3.0143 Y-8.7136 F60.00
G01 X2.8739 Y-8.7488 F60.00
G01 X2.7377 Y-8.7976 F60.00
G01 X2.6068 Y-8.8594 F60.00
G01 X2.4827 Y-8.9338 F60.00
G01 X2.3665 Y-9.0200 F60.00
G01 X2.2592 Y-9.1172 F60.00
G01 X2.1620 Y-9.2245 F60.00
G01 X2.0758 Y-9.3407 F60.00
G01 X2.0014 Y-9.4648 F60.00
G01 X1.9396 Y-9.5957 F60.00
G01 X1.8908 Y-9.7319 F60.00
G01 X1.8556 Y-9.8723 F60.00
G01 X1.8344 Y-10.0155 F60.00
G01 X1.8273 Y-10.1600 F60.00
G01 X1.8344 Y-10.3045 F60.00
G01 X1.8556 Y-10.4477 F60.00
G01 X1.8908 Y-10.5881 F60.00
G01 X1.9396 Y-10.7243 F60.00
G01 X2.0014 Y-10.8552 F60.00
G01 X2.0758 Y-10.9793 F60.00
G01 X2.1620 Y-11.0955 F60.00
G01 X2.2592 Y-11.2028 F60.00
G01 X2.3665 Y-11.3000 F60.00
G01 X2.4827 Y-11.3862 F60.00
G01 X2.6068 Y-11.4606 F60.00
G01 X2.7377 Y-11.5224 F60.00
G01 X2.8739 Y-11.5712 F60.00
G01 X3.0143 Y-11.6064 F60.00
G01 X3.1575 Y-11.6276 F60.00
G01 X3.3020 Y-11.6347 F60.00
G01 X3.4465 Y-11.6276 F60.00
G01 X3.5897 Y-11.6064 F60.00
G01 X3.7301 Y-11.5712 F60.00
G01 X3.8663 Y-11.5224 F60.00
G01 X3.9972 Y-11.4606 F60.00
G01 X4.1213 Y-11.3862 F60.00
G01 X4.2375 Y-11.3000 F60.00
G01 X4.3448 Y-11.2028 F60.00
G01 X4.4420 Y-11.0955 F60.00
G01 X4.5282 Y-10.9793 F60.00
G01 X4.6026 Y-10.8552 F60.00
G01 X4.6644 Y-10.7243 F60.00
G01 X4.7132 Y-10.5881 F60.00
G01 X4.7484 Y-10.4477 F60.00
G01 X4.7696 Y-10.3045 F60.00
G01 X4.7767 Y-10.1600 F60.00
G01 X4.5520 Y-10.1600 F60.00
G01 X4.5385 Y-9.9766 F60.00
G01 X4.5145 Y-9.8563 F60.00
G01 X4.4789 Y-9.7389 F60.00
G01 X4.4044 Y-9.5708 F60.00
G01 X4.3060 Y-9.4154 F60.00
G01 X4.1859 Y-9.2761 F60.00
G01 X4.0466 Y-9.1560 F60.00
G01 X3.8912 Y-9.0576 F60.00
G01 X3.7231 Y-8.9831 F60.00
G01 X3.5459 Y-8.9340 F60.00
G01 X3.3633 Y-8.9115 F60.00
G01 X3.1795 Y-8.9160 F60.00
G01 X2.9983 Y-8.9475 F60.00
G01 X2.8236 Y-9.0052 F60.00
G01 X2.6594 Y-9.0878 F60.00
G01 X2.5090 Y-9.1937 F60.00
G01 X2.3758 Y-9.3206 F60.00
G01 X2.2627 Y-9.4655 F60.00
G01 X2.1720 Y-9.6256 F60.00
G01 X2.1058 Y-9.7971 F60.00
G01 X2.0655 Y-9.9766 F60.00
G01 X2.0535 Y-10.0987 F60.00
G01 X2.0535 Y-10.2213 F60.00
G01 X2.0655 Y-10.3434 F60.00
G01 X2.0895 Y-10.4637 F60.00
G01 X2.1251 Y-10.5811 F60.00
G01 X2.1720 Y-10.6944 F60.00
G01 X2.2298 Y-10.8026 F60.00
G01 X2.2980 Y-10.9046 F60.00
G01 X2.3758 Y-10.9994 F60.00
G01 X2.4626 Y-11.0862 F60.00
G01 X2.5574 Y-11.1640 F60.00
G01 X2.6594 Y-11.2322 F60.00
G01 X2.7676 Y-11.2900 F60.00
G01 X2.8809 Y-11.3369 F60.00
G01 X2.9983 Y-11.3725 F60.00
G01 X3.1186 Y-11.3965 F60.00
G01 X3.2407 Y-11.4085 F60.00
G01 X3.3633 Y-11.4085 F60.00
G01 X3.5459 Y-11.3860 F60.00
G01 X3.7231 Y-11.3369 F60.00
G01 X3.8364 Y-11.2900 F60.00
G01 X3.9446 Y-11.2322 F60.00
G01 X4.0466 Y-11.1640 F60.00
G01 X4.1414 Y-11.0862 F60.00
G01 X4.2683 Y-10.9530 F60.00
G01 X4.3742 Y-10.8026 F60.00
G01 X4.4320 Y-10.6944 F60.00
G01 X4.4789 Y-10.5811 F60.00
G01 X4.5145 Y-10.4637 F60.00
G01 X4.5385 Y-10.3434 F60.00
G01 X4.5520 Y-10.1600 F60.00
G01 X4.0520 Y-10.1600 F60.00
G01 X4.0376 Y-10.0137 F60.00
G01 X4.0082 Y-9.9073 F60.00
G01 X3.9453 Y-9.7744 F60.00
G01 X3.8818 Y-9.6842 F60.00
G01 X3.7778 Y-9.5802 F60.00
G01 X3.6876 Y-9.5167 F60.00
G01 X3.5547 Y-9.4538 F60.00
G01 X3.4483 Y-9.4244 F60.00
G01 X3.3755 Y-9.4136 F60.00
G01 X3.2652 Y-9.4109 F60.00
G01 X3.1198 Y-9.4325 F60.00
G01 X3.0493 Y-9.4538 F60.00
G01 X2.9485 Y-9.4986 F60.00
G01 X2.8262 Y-9.5802 F60.00
G01 X2.7222 Y-9.6842 F60.00
G01 X2.6587 Y-9.7744 F60.00
G01 X2.6240 Y-9.8393 F60.00
G01 X2.5843 Y-9.9423 F60.00
G01 X2.5664 Y-10.0137 F60.00
G01 X2.5520 Y-10.1600 F60.00
G01 X2.5664 Y-10.3063 F60.00
G01 X2.6091 Y-10.4470 F60.00
G01 X2.6784 Y-10.5767 F60.00
G01 X2.7717 Y-10.6903 F60.00
G01 X2.8853 Y-10.7836 F60.00
G01 X3.0150 Y-10.8529 F60.00
G01 X3.1557 Y-10.8956 F60.00
G01 X3.3020 Y-10.9100 F60.00
G01 X3.4120 Y-10.9019 F60.00
G01 X3.5197 Y-10.8777 F60.00
G01 X3.6227 Y-10.8380 F60.00
G01 X3.7187 Y-10.7836 F60.00
G01 X3.8323 Y-10.6903 F60.00
G01 X3.9044 Y-10.6068 F60.00
G01 X3.9634 Y-10.5135 F60.00
G01 X4.0082 Y-10.4127 F60.00
G01 X4.0439 Y-10.2700 F60.00
G01 X4.0520 Y-10.1600 F60.00
G01 X3.5520 Y-10.1600 F60.00
G01 X3.5412 Y-10.0874 F60.00
G01 X3.5028 Y-10.0111 F60.00
G01 X3.4409 Y-9.9521 F60.00
G01 X3.3627 Y-9.9175 F60.00
G01 X3.3143 Y-9.9103 F60.00
G01 X3.2532 Y-9.9148 F60.00
G01 X3.1951 Y-9.9340 F60.00
G01 X3.1434 Y-9.9667 F60.00
G01 X3.1012 Y-10.0111 F60.00
G01 X3.0760 Y-10.0531 F60.00
G01 X3.0568 Y-10.1112 F60.00
G01 X3.0520 Y-10.1600 F60.00
G01 X3.0710 Y-10.2557 F60.00
G01 X3.1252 Y-10.3368 F60.00
G01 X3.2063 Y-10.3910 F60.00
G01 X3.3020 Y-10.4100 F60.00
G01 X3.3977 Y-10.3910 F60.00
G01 X3.4788 Y-10.3368 F60.00
G01 X3.5330 Y-10.2557 F60.00
G01 X3.5520 Y-10.1600 F60.00
G00 Z2.0000
G00 X28.9520 Y-10.1600
G01 F60.00
G01 Z-0.5000
G01 F60.00
G01 X28.9330 Y-10.2557 F60.00
G01 X28.8788 Y-10.3368 F60.00
G01 X28.7977 Y-10.3910 F60.00
G01 X28.7020 Y-10.4100 F60.00
G01 X28.6063 Y-10.3910 F60.00
G01 X28.5252 Y-10.3368 F60.00
G01 X28.4710 Y-10.2557 F60.00
G01 X28.4520 Y-10.1600 F60.00
G01 X28.4595 Y-10.0993 F60.00
G01 X28.4760 Y-10.0531 F60.00
G01 X28.5012 Y-10.0111 F60.00
G01 X28.5434 Y-9.9667 F60.00
G01 X28.5951 Y-9.9340 F60.00
G01 X28.6532 Y-9.9148 F60.00
G01 X28.7143 Y-9.9103 F60.00
G01 X28.7627 Y-9.9175 F60.00
G01 X28.8409 Y-9.9521 F60.00
G01 X28.9028 Y-10.0111 F60.00
G01 X28.9412 Y-10.0874 F60.00
G01 X28.9520 Y-10.1600 F60.00
G01 X29.4520 Y-10.1600 F60.00
G01 X29.4439 Y-10.2700 F60.00
G01 X29.4082 Y-10.4127 F60.00
G01 X29.3634 Y-10.5135 F60.00
G01 X29.2818 Y-10.6358 F60.00
G01 X29.2057 Y-10.7157 F60.00
G01 X29.1187 Y-10.7836 F60.00
G01 X29.0227 Y-10.8380 F60.00
G01 X28.9197 Y-10.8777 F60.00
G01 X28.8120 Y-10.9019 F60.00
G01 X28.7020 Y-10.9100 F60.00
G01 X28.5557 Y-10.8956 F60.00
G01 X28.4150 Y-10.8529 F60.00
G01 X28.2853 Y-10.7836 F60.00
G01 X28.1717 Y-10.6903 F60.00
G01 X28.0784 Y-10.5767 F60.00
G01 X28.0091 Y-10.4470 F60.00
G01 X27.9664 Y-10.3063 F60.00
G01 X27.9520 Y-10.1600 F60.00
G01 X27.9664 Y-10.0137 F60.00
G01 X28.0091 Y-9.8730 F60.00
G01 X28.0406 Y-9.8065 F60.00
G01 X28.0996 Y-9.7132 F60.00
G01 X28.1983 Y-9.6043 F60.00
G01 X28.3164 Y-9.5167 F60.00
G01 X28.4150 Y-9.4671 F60.00
G01 X28.4843 Y-9.4423 F60.00
G01 X28.6285 Y-9.4136 F60.00
G01 X28.7388 Y-9.4109 F60.00
G01 X28.8120 Y-9.4181 F60.00
G01 X28.9547 Y-9.4538 F60.00
G01 X29.0555 Y-9.4986 F60.00
G01 X29.1778 Y-9.5802 F60.00
G01 X29.2577 Y-9.6563 F60.00
G01 X29.3256 Y-9.7433 F60.00
G01 X29.3949 Y-9.8730 F60.00
G01 X29.4376 Y-10.0137 F60.00
G01 X29.4520 Y-10.1600 F60.00
G01 X29.9520 Y-10.1600 F60.00
G01 X29.9460 Y-10.2825 F60.00
G01 X29.9280 Y-10.4039 F60.00
G01 X29.8982 Y-10.5229 F60.00
G01 X29.8568 Y-10.6384 F60.00
G01 X29.7742 Y-10.8026 F60.00
G01 X29.6683 Y-10.9530 F60.00
G01 X29.5859 Y-11.0439 F60.00
G01 X29.4950 Y-11.1263 F60.00
G01 X29.3965 Y-11.1993 F60.00
G01 X29.2912 Y-11.2624 F60.00
G01 X29.1231 Y-11.3369 F60.00
G01 X29.0057 Y-11.3725 F60.00
G01 X28.8854 Y-11.3965 F60.00
G01 X28.7020 Y-11.4100 F60.00
G01 X28.5795 Y-11.4040 F60.00
G01 X28.4581 Y-11.3860 F60.00
G01 X28.3391 Y-11.3562 F60.00
G01 X28.2236 Y-11.3148 F60.00
G01 X28.1128 Y-11.2624 F60.00
G01 X28.0075 Y-11.1993 F60.00
G01 X27.9090 Y-11.1263 F60.00
G01 X27.8181 Y-11.0439 F60.00
G01 X27.7357 Y-10.9530 F60.00
G01 X27.6627 Y-10.8545 F60.00
G01 X27.5996 Y-10.7492 F60.00
G01 X27.5472 Y-10.6384 F60.00
G01 X27.5058 Y-10.5229 F60.00
G01 X27.4760 Y-10.4039 F60.00
G01 X27.4580 Y-10.2825 F60.00
G01 X27.4520 Y-10.1600 F60.00
G01 X27.4580 Y-10.0375 F60.00
G01 X27.4760 Y-9.9161 F60.00
G01 X27.5058 Y-9.7971 F60.00
G01 X27.5472 Y-9.6816 F60.00
G01 X27.5996 Y-9.5708 F60.00
G01 X27.6627 Y-9.4655 F60.00
G01 X27.7357 Y-9.3670 F60.00
G01 X27.8181 Y-9.2761 F60.00
G01 X27.9090 Y-9.1937 F60.00
G01 X28.0075 Y-9.1207 F60.00
G01 X28.1128 Y-9.0576 F60.00
G01 X28.2236 Y-9.0052 F60.00
G01 X28.3391 Y-8.9638 F60.00
G01 X28.4581 Y-8.9340 F60.00
G01 X28.5795 Y-8.9160 F60.00
G01 X28.7020 Y-8.9100 F60.00
G01 X28.8245 Y-8.9160 F60.00
G01 X28.9459 Y-8.9340 F60.00
G01 X29.0649 Y-8.9638 F60.00
G01 X29.1804 Y-9.0052 F60.00
G01 X29.2912 Y-9.0576 F60.00
G01 X29.3965 Y-9.1207 F60.00
G01 X29.4950 Y-9.1937 F60.00
G01 X29.5859 Y-9.2761 F60.00
G01 X29.6683 Y-9.3670 F60.00
G01 X29.7413 Y-9.4655 F60.00
G01 X29.8044 Y-9.5708 F60.00
G01 X29.8568 Y-9.6816 F60.00
G01 X29.8982 Y-9.7971 F60.00
G01 X29.9280 Y-9.9161 F60.00
G01 X29.9460 Y-10.0375 F60.00
G01 X29.9520 Y-10.1600 F60.00
G00 X29.9520 Y-10.1600
G01 F60.00
G01 Z-1.0000
G01 F60.00
G01 X29.9460 Y-10.0375 F60.00
G01 X29.9280 Y-9.9161 F60.00
G01 X29.8982 Y-9.7971 F60.00
G01 X29.8568 Y-9.6816 F60.00
G01 X29.8044 Y-9.5708 F60.00
G01 X29.7413 Y-9.4655 F60.00
G01 X29.6683 Y-9.3670 F60.00
G01 X29.5859 Y-9.2761 F60.00
G01 X29.4950 Y-9.1937 F60.00
G01 X29.3965 Y-9.1207 F60.00
G01 X29.2912 Y-9.0576 F60.00
G01 X29.1804 Y-9.0052 F60.00
G01 X29.0649 Y-8.9638 F60.00
G01 X28.9459 Y-8.9340 F60.00
G01 X28.8245 Y-8.9160 F60.00
G01 X28.7020 Y-8.9100 F60.00
G01 X28.5795 Y-8.9160 F60.00
G01 X28.4581 Y-8.9340 F60.00
G01 X28.3391 Y-8.9638 F60.00
G01 X28.2236 Y-9.0052 F60.00
G01 X28.1128 Y-9.0576 F60.00
G01 X28.0075 Y-9.1207 F60.00
G01 X27.9090 Y-9.1937 F60.00
G01 X27.8181 Y-9.2761 F60.00
G01 X27.7357 Y-9.3670 F60.00
G01 X27.6627 Y-9.4655 F60.00
G01 X27.5996 Y-9.5708 F60.00
G01 X27.5472 Y-9.6816 F60.00
G01 X27.5058 Y-9.7971 F60.00
G01 X27.4760 Y-9.9161 F60.00
G01 X27.4580 Y-10.0375 F60.00
G01 X27.4520 Y-10.1600 F60.00
G01 X27.4580 Y-10.2825 F60.00
G01 X27.4760 Y-10.4039 F60.00
G01 X27.5058 Y-10.5229 F60.00
G01 X27.5472 Y-10.6384 F60.00
G01 X27.5996 Y-10.7492 F60.00
G01 X27.6627 Y-10.8545 F60.00
G01 X27.7357 Y-10.9530 F60.00
G01 X27.8181 Y-11.0439 F60.00
G01 X27.9090 Y-11.1263 F60.00
G01 X28.0075 Y-11.1993 F60.00
G01 X28.1128 Y-11.2624 F60.00
G01 X28.2236 Y-11.3148 F60.00
G01 X28.3391 Y-11.3562 F60.00
G01 X28.4581 Y-11.3860 F60.00
G01 X28.5795 Y-11.4040 F60.00
G01 X28.7020 Y-11.4100 F60.00
G01 X28.8854 Y-11.3965 F60.00
G01 X29.0057 Y-11.3725 F60.00
G01 X29.1231 Y-11.3369 F60.00
G01 X29.2912 Y-11.2624 F60.00
G01 X29.3965 Y-11.1993 F60.00
G01 X29.4950 Y-11.1263 F60.00
G01 X29.5859 Y-11.0439 F60.00
G01 X29.6683 Y-10.9530 F60.00
G01 X29.7742 Y-10.8026 F60.00
G01 X29.8568 Y-10.6384 F60.00
G01 X29.8982 Y-10.5229 F60.00
G01 X29.9280 Y-10.4039 F60.00
G01 X29.9460 Y-10.2825 F60.00
G01 X29.9520 Y-10.1600 F60.00
G01 X29.4520 Y-10.1600 F60.00
G01 X29.4376 Y-10.0137 F60.00
G01 X29.3949 Y-9.8730 F60.00
G01 X29.3256 Y-9.7433 F60.00
G01 X29.2577 Y-9.6563 F60.00
G01 X29.1778 Y-9.5802 F60.00
G01 X29.0555 Y-9.4986 F60.00
G01 X28.9547 Y-9.4538 F60.00
G01 X28.8120 Y-9.4181 F60.00
G01 X28.7388 Y-9.4109 F60.00
G01 X28.6285 Y-9.4136 F60.00
G01 X28.4843 Y-9.4423 F60.00
G01 X28.4150 Y-9.4671 F60.00
G01 X28.3164 Y-9.5167 F60.00
G01 X28.1983 Y-9.6043 F60.00
G01 X28.0996 Y-9.7132 F60.00
G01 X28.0406 Y-9.8065 F60.00
G01 X28.0091 Y-9.8730 F60.00
G01 X27.9664 Y-10.0137 F60.00
G01 X27.9520 Y-10.1600 F60.00
G01 X27.9664 Y-10.3063 F60.00
G01 X28.0091 Y-10.4470 F60.00
G01 X28.0784 Y-10.5767 F60.00
G01 X28.1717 Y-10.6903 F60.00
G01 X28.2853 Y-10.7836 F60.00
G01 X28.4150 Y-10.8529 F60.00
G01 X28.5557 Y-10.8956 F60.00
G01 X28.7020 Y-10.9100 F60.00
G01 X28.8120 Y-10.9019 F60.00
G01 X28.9197 Y-10.8777 F60.00
G01 X29.0227 Y-10.8380 F60.00
G01 X29.1187 Y-10.7836 F60.00
G01 X29.2057 Y-10.7157 F60.00
G01 X29.2818 Y-10.6358 F60.00
G01 X29.3634 Y-10.5135 F60.00
G01 X29.4082 Y-10.4127 F60.00
G01 X29.4439 Y-10.2700 F60.00
G01 X29.4520 Y-10.1600 F60.00
G01 X28.9520 Y-10.1600 F60.00
G01 X28.9412 Y-10.0874 F60.00
G01 X28.9028 Y-10.0111 F60.00
G01 X28.8409 Y-9.9521 F60.00
G01 X28.7627 Y-9.9175 F60.00
G01 X28.7143 Y-9.9103 F60.00
G01 X28.6532 Y-9.9148 F60.00
G01 X28.5951 Y-9.9340 F60.00
G01 X28.5434 Y-9.9667 F60.00
G01 X28.5012 Y-10.0111 F60.00
G01 X28.4760 Y-10.0531 F60.00
G01 X28.4595 Y-10.0993 F60.00
G01 X28.4520 Y-10.1600 F60.00
G01 X28.4710 Y-10.2557 F60.00
G01 X28.5252 Y-10.3368 F60.00
G01 X28.6063 Y-10.3910 F60.00
G01 X28.7020 Y-10.4100 F60.00
G01 X28.7977 Y-10.3910 F60.00
G01 X28.8788 Y-10.3368 F60.00
G01 X28.9330 Y-10.2557 F60.00
G01 X28.9520 Y-10.1600 F60.00
G00 X28.9520 Y-10.1600
G01 F60.00
G01 Z-1.5000
G01 F60.00
G01 X28.9330 Y-10.2557 F60.00
G01 X28.8788 Y-10.3368 F60.00
G01 X28.7977 Y-10.3910 F60.00
G01 X28.7020 Y-10.4100 F60.00
G01 X28.6063 Y-10.3910 F60.00
G01 X28.5252 Y-10.3368 F60.00
G01 X28.4710 Y-10.2557 F60.00
G01 X28.4520 Y-10.1600 F60.00
G01 X28.4595 Y-10.0993 F60.00
G01 X28.4760 Y-10.0531 F60.00
G01 X28.5012 Y-10.0111 F60.00
G01 X28.5434 Y-9.9667 F60.00
G01 X28.5951 Y-9.9340 F60.00
G01 X28.6532 Y-9.9148 F60.00
G01 X28.7143 Y-9.9103 F60.00
G01 X28.7627 Y-9.9175 F60.00
G01 X28.8409 Y-9.9521 F60.00
G01 X28.9028 Y-10.0111 F60.00
G01 X28.9412 Y-10.0874 F60.00
G01 X28.9520 Y-10.1600 F60.00
G01 X29.4520 Y-10.1600 F60.00
G01 X29.4439 Y-10.2700 F60.00
G01 X29.4082 Y-10.4127 F60.00
G01 X29.3634 Y-10.5135 F60.00
G01 X29.2818 Y-10.6358 F60.00
G01 X29.2057 Y-10.7157 F60.00
G01 X29.1187 Y-10.7836 F60.00
G01 X29.0227 Y-10.8380 F60.00
G01 X28.9197 Y-10.8777 F60.00
G01 X28.8120 Y-10.9019 F60.00
G01 X28.7020 Y-10.9100 F60.00
G01 X28.5557 Y-10.8956 F60.00
G01 X28.4150 Y-10.8529 F60.00
G01 X28.2853 Y-10.7836 F60.00
G01 X28.1717 Y-10.6903 F60.00
G01 X28.0784 Y-10.5767 F60.00
G01 X28.0091 Y-10.4470 F60.00
G01 X27.9664 Y-10.3063 F60.00
G01 X27.9520 Y-10.1600 F60.00
G01 X27.9664 Y-10.0137 F60.00
G01 X28.0091 Y-9.8730 F60.00
G01 X28.0406 Y-9.8065 F60.00
G01 X28.0996 Y-9.7132 F60.00
G01 X28.1983 Y-9.6043 F60.00
G01 X28.3164 Y-9.5167 F60.00
G01 X28.4150 Y-9.4671 F60.00
G01 X28.4843 Y-9.4423 F60.00
G01 X28.6285 Y-9.4136 F60.00
G01 X28.7388 Y-9.4109 F60.00
G01 X28.8120 Y-9.4181 F60.00
G01 X28.9547 Y-9.4538 F60.00
G01 X29.0555 Y-9.4986 F60.00
G01 X29.1778 Y-9.5802 F60.00
G01 X29.2577 Y-9.6563 F60.00
G01 X29.3256 Y-9.7433 F60.00
G01 X29.3949 Y-9.8730 F60.00
G01 X29.4376 Y-10.0137 F60.00
G01 X29.4520 Y-10.1600 F60.00
G01 X29.9520 Y-10.1600 F60.00
G01 X29.9460 Y-10.2825 F60.00
G01 X29.9280 Y-10.4039 F60.00
G01 X29.8982 Y-10.5229 F60.00
G01 X29.8568 Y-10.6384 F60.00
G01 X29.7742 Y-10.8026 F60.00
G01 X29.6683 Y-10.9530 F60.00
G01 X29.5859 Y-11.0439 F60.00
G01 X29.4950 Y-11.1263 F60.00
G01 X29.3965 Y-11.1993 F60.00
G01 X29.2912 Y-11.2624 F60.00
G01 X29.1231 Y-11.3369 F60.00
G01 X29.0057 Y-11.3725 F60.00
G01 X28.8854 Y-11.3965 F60.00
G01 X28.7020 Y-11.4100 F60.00
G01 X28.5795 Y-11.4040 F60.00
G01 X28.4581 Y-11.3860 F60.00
G01 X28.3391 Y-11.3562 F60.00
G01 X28.2236 Y-11.3148 F60.00
G01 X28.1128 Y-11.2624 F60.00
G01 X28.0075 Y-11.1993 F60.00
G01 X27.9090 Y-11.1263 F60.00
G01 X27.8181 Y-11.0439 F60.00
G01 X27.7357 Y-10.9530 F60.00
G01 X27.6627 Y-10.8545 F60.00
G01 X27.5996 Y-10.7492 F60.00
G01 X27.5472 Y-10.6384 F60.00
G01 X27.5058 Y-10.5229 F60.00
G01 X27.4760 Y-10.4039 F60.00
G01 X27.4580 Y-10.2825 F60.00
G01 X27.4520 Y-10.1600 F60.00
G01 X27.4580 Y-10.0375 F60.00
G01 X27.4760 Y-9.9161 F60.00
G01 X27.5058 Y-9.7971 F60.00
G01 X27.5472 Y-9.6816 F60.00
G01 X27.5996 Y-9.5708 F60.00
G01 X27.6627 Y-9.4655 F60.00
G01 X27.7357 Y-9.3670 F60.00
G01 X27.8181 Y-9.2761 F60.00
G01 X27.9090 Y-9.1937 F60.00
G01 X28.0075 Y-9.1207 F60.00
G01 X28.1128 Y-9.0576 F60.00
G01 X28.2236 Y-9.0052 F60.00
G01 X28.3391 Y-8.9638 F60.00
G01 X28.4581 Y-8.9340 F60.00
G01 X28.5795 Y-8.9160 F60.00
G01 X28.7020 Y-8.9100 F60.00
G01 X28.8245 Y-8.9160 F60.00
G01 X28.9459 Y-8.9340 F60.00
G01 X29.0649 Y-8.9638 F60.00
G01 X29.1804 Y-9.0052 F60.00
G01 X29.2912 Y-9.0576 F60.00
G01 X29.3965 Y-9.1207 F60.00
G01 X29.4950 Y-9.1937 F60.00
G01 X29.5859 Y-9.2761 F60.00
G01 X29.6683 Y-9.3670 F60.00
G01 X29.7413 Y-9.4655 F60.00
G01 X29.8044 Y-9.5708 F60.00
G01 X29.8568 Y-9.6816 F60.00
G01 X29.8982 Y-9.7971 F60.00
G01 X29.9280 Y-9.9161 F60.00
G01 X29.9460 Y-10.0375 F60.00
G01 X29.9520 Y-10.1600 F60.00
G00 X29.9520 Y-10.1600
G01 F60.00
G01 Z-2.0000
G01 F60.00
G01 X29.9460 Y-10.0375 F60.00
G01 X29.9280 Y-9.9161 F60.00
G01 X29.8982 Y-9.7971 F60.00
G01 X29.8568 Y-9.6816 F60.00
G01 X29.8044 Y-9.5708 F60.00
G01 X29.7413 Y-9.4655 F60.00
G01 X29.6683 Y-9.3670 F60.00
G01 X29.5859 Y-9.2761 F60.00
G01 X29.4950 Y-9.1937 F60.00
G01 X29.3965 Y-9.1207 F60.00
G01 X29.2912 Y-9.0576 F60.00
G01 X29.1804 Y-9.0052 F60.00
G01 X29.0649 Y-8.9638 F60.00
G01 X28.9459 Y-8.9340 F60.00
G01 X28.8245 Y-8.9160 F60.00
G01 X28.7020 Y-8.9100 F60.00
G01 X28.5795 Y-8.9160 F60.00
G01 X28.4581 Y-8.9340 F60.00
G01 X28.3391 Y-8.9638 F60.00
G01 X28.2236 Y-9.0052 F60.00
G01 X28.1128 Y-9.0576 F60.00
G01 X28.0075 Y-9.1207 F60.00
G01 X27.9090 Y-9.1937 F60.00
G01 X27.8181 Y-9.2761 F60.00
G01 X27.7357 Y-9.3670 F60.00
G01 X27.6627 Y-9.4655 F60.00
G01 X27.5996 Y-9.5708 F60.00
G01 X27.5472 Y-9.6816 F60.00
G01 X27.5058 Y-9.7971 F60.00
G01 X27.4760 Y-9.9161 F60.00
G01 X27.4580 Y-10.0375 F60.00
G01 X27.4520 Y-10.1600 F60.00
G01 X27.4580 Y-10.2825 F60.00
G01 X27.4760 Y-10.4039 F60.00
G01 X27.5058 Y-10.5229 F60.00
G01 X27.5472 Y-10.6384 F60.00
G01 X27.5996 Y-10.7492 F60.00
G01 X27.6627 Y-10.8545 F60.00
G01 X27.7357 Y-10.9530 F60.00
G01 X27.8181 Y-11.0439 F60.00
G01 X27.9090 Y-11.1263 F60.00
G01 X28.0075 Y-11.1993 F60.00
G01 X28.1128 Y-11.2624 F60.00
G01 X28.2236 Y-11.3148 F60.00
G01 X28.3391 Y-11.3562 F60.00
G01 X28.4581 Y-11.3860 F60.00
G01 X28.5795 Y-11.4040 F60.00
G01 X28.7020 Y-11.4100 F60.00
G01 X28.8854 Y-11.3965 F60.00
G01 X29.0057 Y-11.3725 F60.00
G01 X29.1231 Y-11.3369 F60.00
G01 X29.2912 Y-11.2624 F60.00
G01 X29.3965 Y-11.1993 F60.00
G01 X29.4950 Y-11.1263 F60.00
G01 X29.5859 Y-11.0439 F60.00
G01 X29.6683 Y-10.9530 F60.00
G01 X29.7742 Y-10.8026 F60.00
G01 X29.8568 Y-10.6384 F60.00
G01 X29.8982 Y-10.5229 F60.00
G01 X29.9280 Y-10.4039 F60.00
G01 X29.9460 Y-10.2825 F60.00
G01 X29.9520 Y-10.1600 F60.00
G01 X29.4520 Y-10.1600 F60.00
G01 X29.4376 Y-10.0137 F60.00
G01 X29.3949 Y-9.8730 F60.00
G01 X29.3256 Y-9.7433 F60.00
G01 X29.2577 Y-9.6563 F60.00
G01 X29.1778 Y-9.5802 F60.00
G01 X29.0555 Y-9.4986 F60.00
G01 X28.9547 Y-9.4538 F60.00
G01 X28.8120 Y-9.4181 F60.00
G01 X28.7388 Y-9.4109 F60.00
G01 X28.6285 Y-9.4136 F60.00
G01 X28.4843 Y-9.4423 F60.00
G01 X28.4150 Y-9.4671 F60.00
G01 X28.3164 Y-9.5167 F60.00
G01 X28.1983 Y-9.6043 F60.00
G01 X28.0996 Y-9.7132 F60.00
G01 X28.0406 Y-9.8065 F60.00
G01 X28.0091 Y-9.8730 F60.00
G01 X27.9664 Y-10.0137 F60.00
G01 X27.9520 Y-10.1600 F60.00
G01 X27.9664 Y-10.3063 F60.00
G01 X28.0091 Y-10.4470 F60.00
G01 X28.0784 Y-10.5767 F60.00
G01 X28.1717 Y-10.6903 F60.00
G01 X28.2853 Y-10.7836 F60.00
G01 X28.4150 Y-10.8529 F60.00
G01 X28.5557 Y-10.8956 F60.00
G01 X28.7020 Y-10.9100 F60.00
G01 X28.8120 Y-10.9019 F60.00
G01 X28.9197 Y-10.8777 F60.00
G01 X29.0227 Y-10.8380 F60.00
G01 X29.1187 Y-10.7836 F60.00
G01 X29.2057 Y-10.7157 F60.00
G01 X29.2818 Y-10.6358 F60.00
G01 X29.3634 Y-10.5135 F60.00
G01 X29.4082 Y-10.4127 F60.00
G01 X29.4439 Y-10.2700 F60.00
G01 X29.4520 Y-10.1600 F60.00
G01 X28.9520 Y-10.1600 F60.00
G01 X28.9412 Y-10.0874 F60.00
G01 X28.9028 Y-10.0111 F60.00
G01 X28.8409 Y-9.9521 F60.00
G01 X28.7627 Y-9.9175 F60.00
G01 X28.7143 Y-9.9103 F60.00
G01 X28.6532 Y-9.9148 F60.00
G01 X28.5951 Y-9.9340 F60.00
G01 X28.5434 Y-9.9667 F60.00
G01 X28.5012 Y-10.0111 F60.00
G01 X28.4760 Y-10.0531 F60.00
G01 X28.4595 Y-10.0993 F60.00
G01 X28.4520 Y-10.1600 F60.00
G01 X28.4710 Y-10.2557 F60.00
G01 X28.5252 Y-10.3368 F60.00
G01 X28.6063 Y-10.3910 F60.00
G01 X28.7020 Y-10.4100 F60.00
G01 X28.7977 Y-10.3910 F60.00
G01 X28.8788 Y-10.3368 F60.00
G01 X28.9330 Y-10.2557 F60.00
G01 X28.9520 Y-10.1600 F60.00
G00 Z2.0000
G00 X30.1767 Y-10.1600
G01 F60.00
G01 Z-0.5000
G01 F60.00
G01 X30.1696 Y-10.3045 F60.00
G01 X30.1484 Y-10.4477 F60.00
G01 X30.1132 Y-10.5881 F60.00
G01 X30.0644 Y-10.7243 F60.00
G01 X30.0026 Y-10.8552 F60.00
G01 X29.9282 Y-10.9793 F60.00
G01 X29.8420 Y-11.0955 F60.00
G01 X29.7448 Y-11.2028 F60.00
G01 X29.6375 Y-11.3000 F60.00
G01 X29.5213 Y-11.3862 F60.00
G01 X29.3972 Y-11.4606 F60.00
G01 X29.2663 Y-11.5224 F60.00
G01 X29.1301 Y-11.5712 F60.00
G01 X28.9897 Y-11.6064 F60.00
G01 X28.8465 Y-11.6276 F60.00
G01 X28.7020 Y-11.6347 F60.00
G01 X28.5575 Y-11.6276 F60.00
G01 X28.4143 Y-11.6064 F60.00
G01 X28.2739 Y-11.5712 F60.00
G01 X28.1377 Y-11.5224 F60.00
G01 X28.0068 Y-11.4606 F60.00
G01 X27.8827 Y-11.3862 F60.00
G01 X27.7665 Y-11.3000 F60.00
G01 X27.6592 Y-11.2028 F60.00
G01 X27.5620 Y-11.0955 F60.00
G01 X27.4758 Y-10.9793 F60.00
G01 X27.4014 Y-10.8552 F60.00
G01 X27.3396 Y-10.7243 F60.00
G01 X27.2908 Y-10.5881 F60.00
G01 X27.2556 Y-10.4477 F60.00
G01 X27.2344 Y-10.3045 F60.00
G01 X27.2273 Y-10.1600 F60.00
G01 X27.2344 Y-10.0155 F60.00
G01 X27.2556 Y-9.8723 F60.00
G01 X27.2908 Y-9.7319 F60.00
G01 X27.3396 Y-9.5957 F60.00
G01 X27.4014 Y-9.4648 F60.00
G01 X27.4758 Y-9.3407 F60.00
G01 X27.5620 Y-9.2245 F60.00
G01 X27.6592 Y-9.1172 F60.00
G01 X27.7665 Y-9.0200 F60.00
G01 X27.8827 Y-8.9338 F60.00
G01 X28.0068 Y-8.8594 F60.00
G01 X28.1377 Y-8.7976 F60.00
G01 X28.2739 Y-8.7488 F60.00
G01 X28.4143 Y-8.7136 F60.00
G01 X28.5575 Y-8.6924 F60.00
G01 X28.7020 Y-8.6853 F60.00
G01 X28.8465 Y-8.6924 F60.00
G01 X28.9897 Y-8.7136 F60.00
G01 X29.1301 Y-8.7488 F60.00
G01 X29.2663 Y-8.7976 F60.00
G01 X29.3972 Y-8.8594 F60.00
G01 X29.5213 Y-8.9338 F60.00
G01 X29.6375 Y-9.0200 F60.00
G01 X29.7448 Y-9.1172 F60.00
G01 X29.8420 Y-9.2245 F60.00
G01 X29.9282 Y-9.3407 F60.00
G01 X30.0026 Y-9.4648 F60.00
G01 X30.0644 Y-9.5957 F60.00
G01 X30.1132 Y-9.7319 F60.00
G01 X30.1484 Y-9.8723 F60.00
G01 X30.1696 Y-10.0155 F60.00
G01 X30.1767 Y-10.1600 F60.00
G00 X30.1767 Y-10.1600
G01 F60.00
G01 Z-1.0000
G01 F60.00
G01 X30.1696 Y-10.0155 F60.00
G01 X30.1484 Y-9.8723 F60.00
G01 X30.1132 Y-9.7319 F60.00
G01 X30.0644 Y-9.5957 F60.00
G01 X30.0026 Y-9.4648 F60.00
G01 X29.9282 Y-9.3407 F60.00
G01 X29.8420 Y-9.2245 F60.00
G01 X29.7448 Y-9.1172 F60.00
G01 X29.6375 Y-9.0200 F60.00
G01 X29.5213 Y-8.9338 F60.00
G01 X29.3972 Y-8.8594 F60.00
G01 X29.2663 Y-8.7976 F60.00
G01 X29.1301 Y-8.7488 F60.00
G01 X28.9897 Y-8.7136 F60.00
G01 X28.8465 Y-8.6924 F60.00
G01 X28.7020 Y-8.6853 F60.00
G01 X28.5575 Y-8.6924 F60.00
G01 X28.4143 Y-8.7136 F60.00
G01 X28.2739 Y-8.7488 F60.00
G01 X28.1377 Y-8.7976 F60.00
G01 X28.0068 Y-8.8594 F60.00
G01 X27.8827 Y-8.9338 F60.00
G01 X27.7665 Y-9.0200 F60.00
G01 X27.6592 Y-9.1172 F60.00
G01 X27.5620 Y-9.2245 F60.00
G01 X27.4758 Y-9.3407 F60.00
G01 X27.4014 Y-9.4648 F60.00
G01 X27.3396 Y-9.5957 F60.00
G01 X27.2908 Y-9.7319 F60.00
G01 X27.2556 Y-9.8723 F60.00
G01 X27.2344 Y-10.0155 F60.00
G01 X27.2273 Y-10.1600 F60.00
G01 X27.2344 Y-10.3045 F60.00
G01 X27.2556 Y-10.4477 F60.00
G01 X27.2908 Y-10.5881 F60.00
G01 X27.3396 Y-10.7243 F60.00
G01 X27.4014 Y-10.8552 F60.00
G01 X27.4758 Y-10.9793 F60.00
G01 X27.5620 Y-11.0955 F60.00
G01 X27.6592 Y-11.2028 F60.00
G01 X27.7665 Y-11.3000 F60.00
G01 X27.8827 Y-11.3862 F60.00
G01 X28.0068 Y-11.4606 F60.00
G01 X28.1377 Y-11.5224 F60.00
G01 X28.2739 Y-11.5712 F60.00
G01 X28.4143 Y-11.6064 F60.00
G01 X28.5575 Y-11.6276 F60.00
G01 X28.7020 Y-11.6347 F60.00
G01 X28.8465 Y-11.6276 F60.00
G01 X28.9897 Y-11.6064 F60.00
G01 X29.1301 Y-11.5712 F60.00
G01 X29.2663 Y-11.5224 F60.00
G01 X29.3972 Y-11.4606 F60.00
