(G-CODE GENERATED BY FLATCAM v8.994 - www.flatcam.org - Version Date: 2020/11/7)

(Name: Electrode_Breakout.drl_mill_cnc)
(Type: G-code from Geometry)
(Units: MM)

(Created on Sunday, 31 March 2024 at 23:43)

(This preprocessor is used with a motion controller loaded with GRBL firmware.)
(It is configured to be compatible with almost any version of GRBL firmware.)

(TOOL DIAMETER: 0.5 mm)
(Feedrate_XY: 60.0 mm/min)
(Feedrate_Z: 60.0 mm/min)
(Feedrate rapids 1500.0 mm/min)

(Z_Cut: -2.5 mm)
(DepthPerCut: 0.5 mm <=>5 passes)
(Z_Move: 2.0 mm)
(Z Start: None mm)
(Z End: 15.0 mm)
(X,Y End: 0.0000, 0.0000 mm)
(Steps per circle: 64)
(Steps per circle: 64)
(Preprocessor Geometry: GRBL_11_no_M6)

(X range:   10.2500 ...   25.0450  mm)
(Y range:  -63.8815 ...   -1.9565  mm)

(Spindle Speed: 0.0 RPM)
G21
G90
G17
G94


G01 F60.00

M5             
G00 Z15.0000
G00 X0.0000 Y0.0000                
T1
(MSG, Change to Tool Dia = 0.5000)
M0
G00 Z15.0000
        
M03
G01 F60.00
G00 X13.0695 Y-3.2560
G01 F60.00
G01 Z-0.5000
G01 F60.00
G01 X13.0632 Y-3.3834 F60.00
G01 X13.0445 Y-3.5095 F60.00
G01 X13.0135 Y-3.6332 F60.00
G01 X12.9706 Y-3.7533 F60.00
G01 X12.9161 Y-3.8686 F60.00
G01 X12.8505 Y-3.9780 F60.00
G01 X12.7745 Y-4.0804 F60.00
G01 X12.6889 Y-4.1749 F60.00
G01 X12.5944 Y-4.2605 F60.00
G01 X12.4920 Y-4.3365 F60.00
G01 X12.3826 Y-4.4021 F60.00
G01 X12.2673 Y-4.4566 F60.00
G01 X12.1472 Y-4.4995 F60.00
G01 X12.0235 Y-4.5305 F60.00
G01 X11.8974 Y-4.5492 F60.00
G01 X11.7700 Y-4.5555 F60.00
G01 X11.6426 Y-4.5492 F60.00
G01 X11.5165 Y-4.5305 F60.00
G01 X11.3928 Y-4.4995 F60.00
G01 X11.2727 Y-4.4566 F60.00
G01 X11.1574 Y-4.4021 F60.00
G01 X11.0480 Y-4.3365 F60.00
G01 X10.9456 Y-4.2605 F60.00
G01 X10.8511 Y-4.1749 F60.00
G01 X10.7655 Y-4.0804 F60.00
G01 X10.6895 Y-3.9780 F60.00
G01 X10.6239 Y-3.8686 F60.00
G01 X10.5694 Y-3.7533 F60.00
G01 X10.5265 Y-3.6332 F60.00
G01 X10.4955 Y-3.5095 F60.00
G01 X10.4768 Y-3.3834 F60.00
G01 X10.4705 Y-3.2560 F60.00
G01 X10.4768 Y-3.1286 F60.00
G01 X10.4955 Y-3.0025 F60.00
G01 X10.5265 Y-2.8788 F60.00
G01 X10.5694 Y-2.7587 F60.00
G01 X10.6239 Y-2.6434 F60.00
G01 X10.6895 Y-2.5340 F60.00
G01 X10.7655 Y-2.4316 F60.00
G01 X10.8511 Y-2.3371 F60.00
G01 X10.9456 Y-2.2515 F60.00
G01 X11.0480 Y-2.1755 F60.00
G01 X11.1574 Y-2.1099 F60.00
G01 X11.2727 Y-2.0554 F60.00
G01 X11.3928 Y-2.0125 F60.00
G01 X11.5165 Y-1.9815 F60.00
G01 X11.6426 Y-1.9628 F60.00
G01 X11.7700 Y-1.9565 F60.00
G01 X11.8974 Y-1.9628 F60.00
G01 X12.0235 Y-1.9815 F60.00
G01 X12.1472 Y-2.0125 F60.00
G01 X12.2673 Y-2.0554 F60.00
G01 X12.3826 Y-2.1099 F60.00
G01 X12.4920 Y-2.1755 F60.00
G01 X12.5944 Y-2.2515 F60.00
G01 X12.6889 Y-2.3371 F60.00
G01 X12.7745 Y-2.4316 F60.00
G01 X12.8505 Y-2.5340 F60.00
G01 X12.9161 Y-2.6434 F60.00
G01 X12.9706 Y-2.7587 F60.00
G01 X13.0135 Y-2.8788 F60.00
G01 X13.0445 Y-3.0025 F60.00
G01 X13.0632 Y-3.1286 F60.00
G01 X13.0695 Y-3.2560 F60.00
G00 X13.0695 Y-3.2560
G01 F60.00
G01 Z-1.0000
G01 F60.00
G01 X13.0632 Y-3.3834 F60.00
G01 X13.0445 Y-3.5095 F60.00
G01 X13.0135 Y-3.6332 F60.00
G01 X12.9706 Y-3.7533 F60.00
G01 X12.9161 Y-3.8686 F60.00
G01 X12.8505 Y-3.9780 F60.00
G01 X12.7745 Y-4.0804 F60.00
G01 X12.6889 Y-4.1749 F60.00
G01 X12.5944 Y-4.2605 F60.00
G01 X12.4920 Y-4.3365 F60.00
G01 X12.3826 Y-4.4021 F60.00
G01 X12.2673 Y-4.4566 F60.00
G01 X12.1472 Y-4.4995 F60.00
G01 X12.0235 Y-4.5305 F60.00
G01 X11.8974 Y-4.5492 F60.00
G01 X11.7700 Y-4.5555 F60.00
G01 X11.6426 Y-4.5492 F60.00
G01 X11.5165 Y-4.5305 F60.00
G01 X11.3928 Y-4.4995 F60.00
G01 X11.2727 Y-4.4566 F60.00
G01 X11.1574 Y-4.4021 F60.00
G01 X11.0480 Y-4.3365 F60.00
G01 X10.9456 Y-4.2605 F60.00
G01 X10.8511 Y-4.1749 F60.00
G01 X10.7655 Y-4.0804 F60.00
G01 X10.6895 Y-3.9780 F60.00
G01 X10.6239 Y-3.8686 F60.00
G01 X10.5694 Y-3.7533 F60.00
G01 X10.5265 Y-3.6332 F60.00
G01 X10.4955 Y-3.5095 F60.00
G01 X10.4768 Y-3.3834 F60.00
G01 X10.4705 Y-3.2560 F60.00
G01 X10.4768 Y-3.1286 F60.00
G01 X10.4955 Y-3.0025 F60.00
G01 X10.5265 Y-2.8788 F60.00
G01 X10.5694 Y-2.7587 F60.00
G01 X10.6239 Y-2.6434 F60.00
G01 X10.6895 Y-2.5340 F60.00
G01 X10.7655 Y-2.4316 F60.00
G01 X10.8511 Y-2.3371 F60.00
G01 X10.9456 Y-2.2515 F60.00
G01 X11.0480 Y-2.1755 F60.00
G01 X11.1574 Y-2.1099 F60.00
G01 X11.2727 Y-2.0554 F60.00
G01 X11.3928 Y-2.0125 F60.00
G01 X11.5165 Y-1.9815 F60.00
G01 X11.6426 Y-1.9628 F60.00
G01 X11.7700 Y-1.9565 F60.00
G01 X11.8974 Y-1.9628 F60.00
G01 X12.0235 Y-1.9815 F60.00
G01 X12.1472 Y-2.0125 F60.00
G01 X12.2673 Y-2.0554 F60.00
G01 X12.3826 Y-2.1099 F60.00
G01 X12.4920 Y-2.1755 F60.00
G01 X12.5944 Y-2.2515 F60.00
G01 X12.6889 Y-2.3371 F60.00
G01 X12.7745 Y-2.4316 F60.00
G01 X12.8505 Y-2.5340 F60.00
G01 X12.9161 Y-2.6434 F60.00
G01 X12.9706 Y-2.7587 F60.00
G01 X13.0135 Y-2.8788 F60.00
G01 X13.0445 Y-3.0025 F60.00
G01 X13.0632 Y-3.1286 F60.00
G01 X13.0695 Y-3.2560 F60.00
G00 X13.0695 Y-3.2560
G01 F60.00
G01 Z-1.5000
G01 F60.00
G01 X13.0632 Y-3.3834 F60.00
G01 X13.0445 Y-3.5095 F60.00
G01 X13.0135 Y-3.6332 F60.00
G01 X12.9706 Y-3.7533 F60.00
G01 X12.9161 Y-3.8686 F60.00
G01 X12.8505 Y-3.9780 F60.00
G01 X12.7745 Y-4.0804 F60.00
G01 X12.6889 Y-4.1749 F60.00
G01 X12.5944 Y-4.2605 F60.00
G01 X12.4920 Y-4.3365 F60.00
G01 X12.3826 Y-4.4021 F60.00
G01 X12.2673 Y-4.4566 F60.00
G01 X12.1472 Y-4.4995 F60.00
G01 X12.0235 Y-4.5305 F60.00
G01 X11.8974 Y-4.5492 F60.00
G01 X11.7700 Y-4.5555 F60.00
G01 X11.6426 Y-4.5492 F60.00
G01 X11.5165 Y-4.5305 F60.00
G01 X11.3928 Y-4.4995 F60.00
G01 X11.2727 Y-4.4566 F60.00
G01 X11.1574 Y-4.4021 F60.00
G01 X11.0480 Y-4.3365 F60.00
G01 X10.9456 Y-4.2605 F60.00
G01 X10.8511 Y-4.1749 F60.00
G01 X10.7655 Y-4.0804 F60.00
G01 X10.6895 Y-3.9780 F60.00
G01 X10.6239 Y-3.8686 F60.00
G01 X10.5694 Y-3.7533 F60.00
G01 X10.5265 Y-3.6332 F60.00
G01 X10.4955 Y-3.5095 F60.00
G01 X10.4768 Y-3.3834 F60.00
G01 X10.4705 Y-3.2560 F60.00
G01 X10.4768 Y-3.1286 F60.00
G01 X10.4955 Y-3.0025 F60.00
G01 X10.5265 Y-2.8788 F60.00
G01 X10.5694 Y-2.7587 F60.00
G01 X10.6239 Y-2.6434 F60.00
G01 X10.6895 Y-2.5340 F60.00
G01 X10.7655 Y-2.4316 F60.00
G01 X10.8511 Y-2.3371 F60.00
G01 X10.9456 Y-2.2515 F60.00
G01 X11.0480 Y-2.1755 F60.00
G01 X11.1574 Y-2.1099 F60.00
G01 X11.2727 Y-2.0554 F60.00
G01 X11.3928 Y-2.0125 F60.00
G01 X11.5165 Y-1.9815 F60.00
G01 X11.6426 Y-1.9628 F60.00
G01 X11.7700 Y-1.9565 F60.00
G01 X11.8974 Y-1.9628 F60.00
G01 X12.0235 Y-1.9815 F60.00
G01 X12.1472 Y-2.0125 F60.00
G01 X12.2673 Y-2.0554 F60.00
G01 X12.3826 Y-2.1099 F60.00
G01 X12.4920 Y-2.1755 F60.00
G01 X12.5944 Y-2.2515 F60.00
G01 X12.6889 Y-2.3371 F60.00
G01 X12.7745 Y-2.4316 F60.00
G01 X12.8505 Y-2.5340 F60.00
G01 X12.9161 Y-2.6434 F60.00
G01 X12.9706 Y-2.7587 F60.00
G01 X13.0135 Y-2.8788 F60.00
G01 X13.0445 Y-3.0025 F60.00
G01 X13.0632 Y-3.1286 F60.00
G01 X13.0695 Y-3.2560 F60.00
G00 X13.0695 Y-3.2560
G01 F60.00
G01 Z-2.0000
G01 F60.00
G01 X13.0632 Y-3.3834 F60.00
G01 X13.0445 Y-3.5095 F60.00
G01 X13.0135 Y-3.6332 F60.00
G01 X12.9706 Y-3.7533 F60.00
G01 X12.9161 Y-3.8686 F60.00
G01 X12.8505 Y-3.9780 F60.00
G01 X12.7745 Y-4.0804 F60.00
G01 X12.6889 Y-4.1749 F60.00
G01 X12.5944 Y-4.2605 F60.00
G01 X12.4920 Y-4.3365 F60.00
G01 X12.3826 Y-4.4021 F60.00
G01 X12.2673 Y-4.4566 F60.00
G01 X12.1472 Y-4.4995 F60.00
G01 X12.0235 Y-4.5305 F60.00
G01 X11.8974 Y-4.5492 F60.00
G01 X11.7700 Y-4.5555 F60.00
G01 X11.6426 Y-4.5492 F60.00
G01 X11.5165 Y-4.5305 F60.00
G01 X11.3928 Y-4.4995 F60.00
G01 X11.2727 Y-4.4566 F60.00
G01 X11.1574 Y-4.4021 F60.00
G01 X11.0480 Y-4.3365 F60.00
G01 X10.9456 Y-4.2605 F60.00
G01 X10.8511 Y-4.1749 F60.00
G01 X10.7655 Y-4.0804 F60.00
G01 X10.6895 Y-3.9780 F60.00
G01 X10.6239 Y-3.8686 F60.00
G01 X10.5694 Y-3.7533 F60.00
G01 X10.5265 Y-3.6332 F60.00
G01 X10.4955 Y-3.5095 F60.00
G01 X10.4768 Y-3.3834 F60.00
G01 X10.4705 Y-3.2560 F60.00
G01 X10.4768 Y-3.1286 F60.00
G01 X10.4955 Y-3.0025 F60.00
G01 X10.5265 Y-2.8788 F60.00
G01 X10.5694 Y-2.7587 F60.00
G01 X10.6239 Y-2.6434 F60.00
G01 X10.6895 Y-2.5340 F60.00
G01 X10.7655 Y-2.4316 F60.00
G01 X10.8511 Y-2.3371 F60.00
G01 X10.9456 Y-2.2515 F60.00
G01 X11.0480 Y-2.1755 F60.00
G01 X11.1574 Y-2.1099 F60.00
G01 X11.2727 Y-2.0554 F60.00
G01 X11.3928 Y-2.0125 F60.00
G01 X11.5165 Y-1.9815 F60.00
G01 X11.6426 Y-1.9628 F60.00
G01 X11.7700 Y-1.9565 F60.00
G01 X11.8974 Y-1.9628 F60.00
G01 X12.0235 Y-1.9815 F60.00
G01 X12.1472 Y-2.0125 F60.00
G01 X12.2673 Y-2.0554 F60.00
G01 X12.3826 Y-2.1099 F60.00
G01 X12.4920 Y-2.1755 F60.00
G01 X12.5944 Y-2.2515 F60.00
G01 X12.6889 Y-2.3371 F60.00
G01 X12.7745 Y-2.4316 F60.00
G01 X12.8505 Y-2.5340 F60.00
G01 X12.9161 Y-2.6434 F60.00
G01 X12.9706 Y-2.7587 F60.00
G01 X13.0135 Y-2.8788 F60.00
G01 X13.0445 Y-3.0025 F60.00
G01 X13.0632 Y-3.1286 F60.00
G01 X13.0695 Y-3.2560 F60.00
G00 X13.0695 Y-3.2560
G01 F60.00
G01 Z-2.5000
G01 F60.00
G01 X13.0632 Y-3.3834 F60.00
G01 X13.0445 Y-3.5095 F60.00
G01 X13.0135 Y-3.6332 F60.00
G01 X12.9706 Y-3.7533 F60.00
G01 X12.9161 Y-3.8686 F60.00
G01 X12.8505 Y-3.9780 F60.00
G01 X12.7745 Y-4.0804 F60.00
G01 X12.6889 Y-4.1749 F60.00
G01 X12.5944 Y-4.2605 F60.00
G01 X12.4920 Y-4.3365 F60.00
G01 X12.3826 Y-4.4021 F60.00
G01 X12.2673 Y-4.4566 F60.00
G01 X12.1472 Y-4.4995 F60.00
G01 X12.0235 Y-4.5305 F60.00
G01 X11.8974 Y-4.5492 F60.00
G01 X11.7700 Y-4.5555 F60.00
G01 X11.6426 Y-4.5492 F60.00
G01 X11.5165 Y-4.5305 F60.00
G01 X11.3928 Y-4.4995 F60.00
G01 X11.2727 Y-4.4566 F60.00
G01 X11.1574 Y-4.4021 F60.00
G01 X11.0480 Y-4.3365 F60.00
G01 X10.9456 Y-4.2605 F60.00
G01 X10.8511 Y-4.1749 F60.00
G01 X10.7655 Y-4.0804 F60.00
G01 X10.6895 Y-3.9780 F60.00
G01 X10.6239 Y-3.8686 F60.00
G01 X10.5694 Y-3.7533 F60.00
G01 X10.5265 Y-3.6332 F60.00
G01 X10.4955 Y-3.5095 F60.00
G01 X10.4768 Y-3.3834 F60.00
G01 X10.4705 Y-3.2560 F60.00
G01 X10.4768 Y-3.1286 F60.00
G01 X10.4955 Y-3.0025 F60.00
G01 X10.5265 Y-2.8788 F60.00
G01 X10.5694 Y-2.7587 F60.00
G01 X10.6239 Y-2.6434 F60.00
G01 X10.6895 Y-2.5340 F60.00
G01 X10.7655 Y-2.4316 F60.00
G01 X10.8511 Y-2.3371 F60.00
G01 X10.9456 Y-2.2515 F60.00
G01 X11.0480 Y-2.1755 F60.00
G01 X11.1574 Y-2.1099 F60.00
G01 X11.2727 Y-2.0554 F60.00
G01 X11.3928 Y-2.0125 F60.00
G01 X11.5165 Y-1.9815 F60.00
G01 X11.6426 Y-1.9628 F60.00
G01 X11.7700 Y-1.9565 F60.00
G01 X11.8974 Y-1.9628 F60.00
G01 X12.0235 Y-1.9815 F60.00
G01 X12.1472 Y-2.0125 F60.00
G01 X12.2673 Y-2.0554 F60.00
G01 X12.3826 Y-2.1099 F60.00
G01 X12.4920 Y-2.1755 F60.00
G01 X12.5944 Y-2.2515 F60.00
G01 X12.6889 Y-2.3371 F60.00
G01 X12.7745 Y-2.4316 F60.00
G01 X12.8505 Y-2.5340 F60.00
G01 X12.9161 Y-2.6434 F60.00
G01 X12.9706 Y-2.7587 F60.00
G01 X13.0135 Y-2.8788 F60.00
G01 X13.0445 Y-3.0025 F60.00
G01 X13.0632 Y-3.1286 F60.00
G01 X13.0695 Y-3.2560 F60.00
G00 Z2.0000
G00 X13.2900 Y-10.2710
G01 F60.00
G01 Z-0.5000
G01 F60.00
G01 X13.2888 Y-10.2955 F60.00
G01 X13.2852 Y-10.3198 F60.00
G01 X13.2792 Y-10.3436 F60.00
G01 X13.2710 Y-10.3667 F60.00
G01 X13.2605 Y-10.3888 F60.00
G01 X13.2479 Y-10.4099 F60.00
G01 X13.2333 Y-10.4296 F60.00
G01 X13.2168 Y-10.4478 F60.00
G01 X13.1986 Y-10.4643 F60.00
G01 X13.1789 Y-10.4789 F60.00
G01 X13.1578 Y-10.4915 F60.00
G01 X13.1357 Y-10.5020 F60.00
G01 X13.1126 Y-10.5102 F60.00
G01 X13.0888 Y-10.5162 F60.00
G01 X13.0645 Y-10.5198 F60.00
G01 X13.0400 Y-10.5210 F60.00
G01 X13.0155 Y-10.5198 F60.00
G01 X12.9912 Y-10.5162 F60.00
G01 X12.9674 Y-10.5102 F60.00
G01 X12.9443 Y-10.5020 F60.00
G01 X12.9222 Y-10.4915 F60.00
G01 X12.9011 Y-10.4789 F60.00
G01 X12.8814 Y-10.4643 F60.00
G01 X12.8632 Y-10.4478 F60.00
G01 X12.8467 Y-10.4296 F60.00
G01 X12.8321 Y-10.4099 F60.00
G01 X12.8195 Y-10.3888 F60.00
G01 X12.8090 Y-10.3667 F60.00
G01 X12.8008 Y-10.3436 F60.00
G01 X12.7948 Y-10.3198 F60.00
G01 X12.7912 Y-10.2955 F60.00
G01 X12.7900 Y-10.2710 F60.00
G01 X12.7912 Y-10.2465 F60.00
G01 X12.7948 Y-10.2222 F60.00
G01 X12.8008 Y-10.1984 F60.00
G01 X12.8090 Y-10.1753 F60.00
G01 X12.8195 Y-10.1532 F60.00
G01 X12.8321 Y-10.1321 F60.00
G01 X12.8467 Y-10.1124 F60.00
G01 X12.8632 Y-10.0942 F60.00
G01 X12.8814 Y-10.0777 F60.00
G01 X12.9011 Y-10.0631 F60.00
G01 X12.9222 Y-10.0505 F60.00
G01 X12.9443 Y-10.0400 F60.00
G01 X12.9674 Y-10.0318 F60.00
G01 X12.9912 Y-10.0258 F60.00
G01 X13.0155 Y-10.0222 F60.00
G01 X13.0400 Y-10.0210 F60.00
G01 X13.0645 Y-10.0222 F60.00
G01 X13.0888 Y-10.0258 F60.00
G01 X13.1126 Y-10.0318 F60.00
G01 X13.1357 Y-10.0400 F60.00
G01 X13.1578 Y-10.0505 F60.00
G01 X13.1789 Y-10.0631 F60.00
G01 X13.1986 Y-10.0777 F60.00
G01 X13.2168 Y-10.0942 F60.00
G01 X13.2333 Y-10.1124 F60.00
G01 X13.2479 Y-10.1321 F60.00
G01 X13.2605 Y-10.1532 F60.00
G01 X13.2710 Y-10.1753 F60.00
G01 X13.2792 Y-10.1984 F60.00
G01 X13.2852 Y-10.2222 F60.00
G01 X13.2888 Y-10.2465 F60.00
G01 X13.2900 Y-10.2710 F60.00
G00 X13.2900 Y-10.2710
G01 F60.00
G01 Z-1.0000
G01 F60.00
G01 X13.2888 Y-10.2955 F60.00
G01 X13.2852 Y-10.3198 F60.00
G01 X13.2792 Y-10.3436 F60.00
G01 X13.2710 Y-10.3667 F60.00
G01 X13.2605 Y-10.3888 F60.00
G01 X13.2479 Y-10.4099 F60.00
G01 X13.2333 Y-10.4296 F60.00
G01 X13.2168 Y-10.4478 F60.00
G01 X13.1986 Y-10.4643 F60.00
G01 X13.1789 Y-10.4789 F60.00
G01 X13.1578 Y-10.4915 F60.00
G01 X13.1357 Y-10.5020 F60.00
G01 X13.1126 Y-10.5102 F60.00
G01 X13.0888 Y-10.5162 F60.00
G01 X13.0645 Y-10.5198 F60.00
G01 X13.0400 Y-10.5210 F60.00
G01 X13.0155 Y-10.5198 F60.00
G01 X12.9912 Y-10.5162 F60.00
G01 X12.9674 Y-10.5102 F60.00
G01 X12.9443 Y-10.5020 F60.00
G01 X12.9222 Y-10.4915 F60.00
G01 X12.9011 Y-10.4789 F60.00
G01 X12.8814 Y-10.4643 F60.00
G01 X12.8632 Y-10.4478 F60.00
G01 X12.8467 Y-10.4296 F60.00
G01 X12.8321 Y-10.4099 F60.00
G01 X12.8195 Y-10.3888 F60.00
G01 X12.8090 Y-10.3667 F60.00
G01 X12.8008 Y-10.3436 F60.00
G01 X12.7948 Y-10.3198 F60.00
G01 X12.7912 Y-10.2955 F60.00
G01 X12.7900 Y-10.2710 F60.00
G01 X12.7912 Y-10.2465 F60.00
G01 X12.7948 Y-10.2222 F60.00
G01 X12.8008 Y-10.1984 F60.00
G01 X12.8090 Y-10.1753 F60.00
G01 X12.8195 Y-10.1532 F60.00
G01 X12.8321 Y-10.1321 F60.00
G01 X12.8467 Y-10.1124 F60.00
G01 X12.8632 Y-10.0942 F60.00
G01 X12.8814 Y-10.0777 F60.00
G01 X12.9011 Y-10.0631 F60.00
G01 X12.9222 Y-10.0505 F60.00
G01 X12.9443 Y-10.0400 F60.00
G01 X12.9674 Y-10.0318 F60.00
G01 X12.9912 Y-10.0258 F60.00
G01 X13.0155 Y-10.0222 F60.00
G01 X13.0400 Y-10.0210 F60.00
G01 X13.0645 Y-10.0222 F60.00
G01 X13.0888 Y-10.0258 F60.00
G01 X13.1126 Y-10.0318 F60.00
G01 X13.1357 Y-10.0400 F60.00
G01 X13.1578 Y-10.0505 F60.00
G01 X13.1789 Y-10.0631 F60.00
G01 X13.1986 Y-10.0777 F60.00
G01 X13.2168 Y-10.0942 F60.00
G01 X13.2333 Y-10.1124 F60.00
G01 X13.2479 Y-10.1321 F60.00
G01 X13.2605 Y-10.1532 F60.00
G01 X13.2710 Y-10.1753 F60.00
G01 X13.2792 Y-10.1984 F60.00
G01 X13.2852 Y-10.2222 F60.00
G01 X13.2888 Y-10.2465 F60.00
G01 X13.2900 Y-10.2710 F60.00
G00 X13.2900 Y-10.2710
G01 F60.00
G01 Z-1.5000
G01 F60.00
G01 X13.2888 Y-10.2955 F60.00
G01 X13.2852 Y-10.3198 F60.00
G01 X13.2792 Y-10.3436 F60.00
G01 X13.2710 Y-10.3667 F60.00
G01 X13.2605 Y-10.3888 F60.00
G01 X13.2479 Y-10.4099 F60.00
G01 X13.2333 Y-10.4296 F60.00
G01 X13.2168 Y-10.4478 F60.00
G01 X13.1986 Y-10.4643 F60.00
G01 X13.1789 Y-10.4789 F60.00
G01 X13.1578 Y-10.4915 F60.00
G01 X13.1357 Y-10.5020 F60.00
G01 X13.1126 Y-10.5102 F60.00
G01 X13.0888 Y-10.5162 F60.00
G01 X13.0645 Y-10.5198 F60.00
G01 X13.0400 Y-10.5210 F60.00
G01 X13.0155 Y-10.5198 F60.00
G01 X12.9912 Y-10.5162 F60.00
G01 X12.9674 Y-10.5102 F60.00
G01 X12.9443 Y-10.5020 F60.00
G01 X12.9222 Y-10.4915 F60.00
G01 X12.9011 Y-10.4789 F60.00
G01 X12.8814 Y-10.4643 F60.00
G01 X12.8632 Y-10.4478 F60.00
G01 X12.8467 Y-10.4296 F60.00
G01 X12.8321 Y-10.4099 F60.00
G01 X12.8195 Y-10.3888 F60.00
G01 X12.8090 Y-10.3667 F60.00
G01 X12.8008 Y-10.3436 F60.00
G01 X12.7948 Y-10.3198 F60.00
G01 X12.7912 Y-10.2955 F60.00
G01 X12.7900 Y-10.2710 F60.00
G01 X12.7912 Y-10.2465 F60.00
G01 X12.7948 Y-10.2222 F60.00
G01 X12.8008 Y-10.1984 F60.00
G01 X12.8090 Y-10.1753 F60.00
G01 X12.8195 Y-10.1532 F60.00
G01 X12.8321 Y-10.1321 F60.00
G01 X12.8467 Y-10.1124 F60.00
G01 X12.8632 Y-10.0942 F60.00
G01 X12.8814 Y-10.0777 F60.00
G01 X12.9011 Y-10.0631 F60.00
G01 X12.9222 Y-10.0505 F60.00
G01 X12.9443 Y-10.0400 F60.00
G01 X12.9674 Y-10.0318 F60.00
G01 X12.9912 Y-10.0258 F60.00
G01 X13.0155 Y-10.0222 F60.00
G01 X13.0400 Y-10.0210 F60.00
G01 X13.0645 Y-10.0222 F60.00
G01 X13.0888 Y-10.0258 F60.00
G01 X13.1126 Y-10.0318 F60.00
G01 X13.1357 Y-10.0400 F60.00
G01 X13.1578 Y-10.0505 F60.00
G01 X13.1789 Y-10.0631 F60.00
G01 X13.1986 Y-10.0777 F60.00
G01 X13.2168 Y-10.0942 F60.00
G01 X13.2333 Y-10.1124 F60.00
G01 X13.2479 Y-10.1321 F60.00
G01 X13.2605 Y-10.1532 F60.00
G01 X13.2710 Y-10.1753 F60.00
G01 X13.2792 Y-10.1984 F60.00
G01 X13.2852 Y-10.2222 F60.00
G01 X13.2888 Y-10.2465 F60.00
G01 X13.2900 Y-10.2710 F60.00
G00 X13.2900 Y-10.2710
G01 F60.00
G01 Z-2.0000
G01 F60.00
G01 X13.2888 Y-10.2955 F60.00
G01 X13.2852 Y-10.3198 F60.00
G01 X13.2792 Y-10.3436 F60.00
G01 X13.2710 Y-10.3667 F60.00
G01 X13.2605 Y-10.3888 F60.00
G01 X13.2479 Y-10.4099 F60.00
G01 X13.2333 Y-10.4296 F60.00
G01 X13.2168 Y-10.4478 F60.00
G01 X13.1986 Y-10.4643 F60.00
G01 X13.1789 Y-10.4789 F60.00
G01 X13.1578 Y-10.4915 F60.00
G01 X13.1357 Y-10.5020 F60.00
G01 X13.1126 Y-10.5102 F60.00
G01 X13.0888 Y-10.5162 F60.00
G01 X13.0645 Y-10.5198 F60.00
G01 X13.0400 Y-10.5210 F60.00
G01 X13.0155 Y-10.5198 F60.00
G01 X12.9912 Y-10.5162 F60.00
G01 X12.9674 Y-10.5102 F60.00
G01 X12.9443 Y-10.5020 F60.00
G01 X12.9222 Y-10.4915 F60.00
G01 X12.9011 Y-10.4789 F60.00
G01 X12.8814 Y-10.4643 F60.00
G01 X12.8632 Y-10.4478 F60.00
G01 X12.8467 Y-10.4296 F60.00
G01 X12.8321 Y-10.4099 F60.00
G01 X12.8195 Y-10.3888 F60.00
G01 X12.8090 Y-10.3667 F60.00
G01 X12.8008 Y-10.3436 F60.00
G01 X12.7948 Y-10.3198 F60.00
G01 X12.7912 Y-10.2955 F60.00
G01 X12.7900 Y-10.2710 F60.00
G01 X12.7912 Y-10.2465 F60.00
G01 X12.7948 Y-10.2222 F60.00
G01 X12.8008 Y-10.1984 F60.00
G01 X12.8090 Y-10.1753 F60.00
G01 X12.8195 Y-10.1532 F60.00
G01 X12.8321 Y-10.1321 F60.00
G01 X12.8467 Y-10.1124 F60.00
G01 X12.8632 Y-10.0942 F60.00
G01 X12.8814 Y-10.0777 F60.00
G01 X12.9011 Y-10.0631 F60.00
G01 X12.9222 Y-10.0505 F60.00
G01 X12.9443 Y-10.0400 F60.00
G01 X12.9674 Y-10.0318 F60.00
G01 X12.9912 Y-10.0258 F60.00
G01 X13.0155 Y-10.0222 F60.00
G01 X13.0400 Y-10.0210 F60.00
G01 X13.0645 Y-10.0222 F60.00
G01 X13.0888 Y-10.0258 F60.00
G01 X13.1126 Y-10.0318 F60.00
G01 X13.1357 Y-10.0400 F60.00
G01 X13.1578 Y-10.0505 F60.00
G01 X13.1789 Y-10.0631 F60.00
G01 X13.1986 Y-10.0777 F60.00
G01 X13.2168 Y-10.0942 F60.00
G01 X13.2333 Y-10.1124 F60.00
G01 X13.2479 Y-10.1321 F60.00
G01 X13.2605 Y-10.1532 F60.00
G01 X13.2710 Y-10.1753 F60.00
G01 X13.2792 Y-10.1984 F60.00
G01 X13.2852 Y-10.2222 F60.00
G01 X13.2888 Y-10.2465 F60.00
G01 X13.2900 Y-10.2710 F60.00
G00 X13.2900 Y-10.2710
G01 F60.00
G01 Z-2.5000
G01 F60.00
G01 X13.2888 Y-10.2955 F60.00
G01 X13.2852 Y-10.3198 F60.00
G01 X13.2792 Y-10.3436 F60.00
G01 X13.2710 Y-10.3667 F60.00
G01 X13.2605 Y-10.3888 F60.00
G01 X13.2479 Y-10.4099 F60.00
G01 X13.2333 Y-10.4296 F60.00
G01 X13.2168 Y-10.4478 F60.00
G01 X13.1986 Y-10.4643 F60.00
G01 X13.1789 Y-10.4789 F60.00
G01 X13.1578 Y-10.4915 F60.00
G01 X13.1357 Y-10.5020 F60.00
G01 X13.1126 Y-10.5102 F60.00
G01 X13.0888 Y-10.5162 F60.00
G01 X13.0645 Y-10.5198 F60.00
G01 X13.0400 Y-10.5210 F60.00
G01 X13.0155 Y-10.5198 F60.00
G01 X12.9912 Y-10.5162 F60.00
G01 X12.9674 Y-10.5102 F60.00
G01 X12.9443 Y-10.5020 F60.00
G01 X12.9222 Y-10.4915 F60.00
G01 X12.9011 Y-10.4789 F60.00
G01 X12.8814 Y-10.4643 F60.00
G01 X12.8632 Y-10.4478 F60.00
G01 X12.8467 Y-10.4296 F60.00
G01 X12.8321 Y-10.4099 F60.00
G01 X12.8195 Y-10.3888 F60.00
G01 X12.8090 Y-10.3667 F60.00
G01 X12.8008 Y-10.3436 F60.00
G01 X12.7948 Y-10.3198 F60.00
G01 X12.7912 Y-10.2955 F60.00
G01 X12.7900 Y-10.2710 F60.00
G01 X12.7912 Y-10.2465 F60.00
G01 X12.7948 Y-10.2222 F60.00
G01 X12.8008 Y-10.1984 F60.00
G01 X12.8090 Y-10.1753 F60.00
G01 X12.8195 Y-10.1532 F60.00
G01 X12.8321 Y-10.1321 F60.00
G01 X12.8467 Y-10.1124 F60.00
G01 X12.8632 Y-10.0942 F60.00
G01 X12.8814 Y-10.0777 F60.00
G01 X12.9011 Y-10.0631 F60.00
G01 X12.9222 Y-10.0505 F60.00
G01 X12.9443 Y-10.0400 F60.00
G01 X12.9674 Y-10.0318 F60.00
G01 X12.9912 Y-10.0258 F60.00
G01 X13.0155 Y-10.0222 F60.00
G01 X13.0400 Y-10.0210 F60.00
G01 X13.0645 Y-10.0222 F60.00
G01 X13.0888 Y-10.0258 F60.00
G01 X13.1126 Y-10.0318 F60.00
G01 X13.1357 Y-10.0400 F60.00
G01 X13.1578 Y-10.0505 F60.00
G01 X13.1789 Y-10.0631 F60.00
G01 X13.1986 Y-10.0777 F60.00
G01 X13.2168 Y-10.0942 F60.00
G01 X13.2333 Y-10.1124 F60.00
G01 X13.2479 Y-10.1321 F60.00
G01 X13.2605 Y-10.1532 F60.00
G01 X13.2710 Y-10.1753 F60.00
G01 X13.2792 Y-10.1984 F60.00
G01 X13.2852 Y-10.2222 F60.00
G01 X13.2888 Y-10.2465 F60.00
G01 X13.2900 Y-10.2710 F60.00
G00 Z2.0000
G00 X13.2900 Y-13.0110
G01 F60.00
G01 Z-0.5000
G01 F60.00
G01 X13.2888 Y-13.0355 F60.00
G01 X13.2852 Y-13.0598 F60.00
G01 X13.2792 Y-13.0836 F60.00
G01 X13.2710 Y-13.1067 F60.00
G01 X13.2605 Y-13.1288 F60.00
G01 X13.2479 Y-13.1499 F60.00
G01 X13.2333 Y-13.1696 F60.00
G01 X13.2168 Y-13.1878 F60.00
G01 X13.1986 Y-13.2043 F60.00
G01 X13.1789 Y-13.2189 F60.00
G01 X13.1578 Y-13.2315 F60.00
G01 X13.1357 Y-13.2420 F60.00
G01 X13.1126 Y-13.2502 F60.00
G01 X13.0888 Y-13.2562 F60.00
G01 X13.0645 Y-13.2598 F60.00
G01 X13.0400 Y-13.2610 F60.00
G01 X13.0155 Y-13.2598 F60.00
G01 X12.9912 Y-13.2562 F60.00
G01 X12.9674 Y-13.2502 F60.00
G01 X12.9443 Y-13.2420 F60.00
G01 X12.9222 Y-13.2315 F60.00
G01 X12.9011 Y-13.2189 F60.00
G01 X12.8814 Y-13.2043 F60.00
G01 X12.8632 Y-13.1878 F60.00
G01 X12.8467 Y-13.1696 F60.00
G01 X12.8321 Y-13.1499 F60.00
G01 X12.8195 Y-13.1288 F60.00
G01 X12.8090 Y-13.1067 F60.00
G01 X12.8008 Y-13.0836 F60.00
G01 X12.7948 Y-13.0598 F60.00
G01 X12.7912 Y-13.0355 F60.00
G01 X12.7900 Y-13.0110 F60.00
G01 X12.7912 Y-12.9865 F60.00
G01 X12.7948 Y-12.9622 F60.00
G01 X12.8008 Y-12.9384 F60.00
G01 X12.8090 Y-12.9153 F60.00
G01 X12.8195 Y-12.8932 F60.00
G01 X12.8321 Y-12.8721 F60.00
G01 X12.8467 Y-12.8524 F60.00
G01 X12.8632 Y-12.8342 F60.00
G01 X12.8814 Y-12.8177 F60.00
G01 X12.9011 Y-12.8031 F60.00
G01 X12.9222 Y-12.7905 F60.00
G01 X12.9443 Y-12.7800 F60.00
G01 X12.9674 Y-12.7718 F60.00
G01 X12.9912 Y-12.7658 F60.00
G01 X13.0155 Y-12.7622 F60.00
G01 X13.0400 Y-12.7610 F60.00
G01 X13.0645 Y-12.7622 F60.00
G01 X13.0888 Y-12.7658 F60.00
G01 X13.1126 Y-12.7718 F60.00
G01 X13.1357 Y-12.7800 F60.00
G01 X13.1578 Y-12.7905 F60.00
G01 X13.1789 Y-12.8031 F60.00
G01 X13.1986 Y-12.8177 F60.00
G01 X13.2168 Y-12.8342 F60.00
G01 X13.2333 Y-12.8524 F60.00
G01 X13.2479 Y-12.8721 F60.00
G01 X13.2605 Y-12.8932 F60.00
G01 X13.2710 Y-12.9153 F60.00
G01 X13.2792 Y-12.9384 F60.00
G01 X13.2852 Y-12.9622 F60.00
G01 X13.2888 Y-12.9865 F60.00
G01 X13.2900 Y-13.0110 F60.00
G00 X13.2900 Y-13.0110
G01 F60.00
G01 Z-1.0000
G01 F60.00
G01 X13.2888 Y-13.0355 F60.00
G01 X13.2852 Y-13.0598 F60.00
G01 X13.2792 Y-13.0836 F60.00
G01 X13.2710 Y-13.1067 F60.00
G01 X13.2605 Y-13.1288 F60.00
G01 X13.2479 Y-13.1499 F60.00
G01 X13.2333 Y-13.1696 F60.00
G01 X13.2168 Y-13.1878 F60.00
G01 X13.1986 Y-13.2043 F60.00
G01 X13.1789 Y-13.2189 F60.00
G01 X13.1578 Y-13.2315 F60.00
G01 X13.1357 Y-13.2420 F60.00
G01 X13.1126 Y-13.2502 F60.00
G01 X13.0888 Y-13.2562 F60.00
G01 X13.0645 Y-13.2598 F60.00
G01 X13.0400 Y-13.2610 F60.00
G01 X13.0155 Y-13.2598 F60.00
G01 X12.9912 Y-13.2562 F60.00
G01 X12.9674 Y-13.2502 F60.00
G01 X12.9443 Y-13.2420 F60.00
G01 X12.9222 Y-13.2315 F60.00
G01 X12.9011 Y-13.2189 F60.00
G01 X12.8814 Y-13.2043 F60.00
G01 X12.8632 Y-13.1878 F60.00
G01 X12.8467 Y-13.1696 F60.00
G01 X12.8321 Y-13.1499 F60.00
G01 X12.8195 Y-13.1288 F60.00
G01 X12.8090 Y-13.1067 F60.00
G01 X12.8008 Y-13.0836 F60.00
G01 X12.7948 Y-13.0598 F60.00
G01 X12.7912 Y-13.0355 F60.00
G01 X12.7900 Y-13.0110 F60.00
G01 X12.7912 Y-12.9865 F60.00
G01 X12.7948 Y-12.9622 F60.00
G01 X12.8008 Y-12.9384 F60.00
G01 X12.8090 Y-12.9153 F60.00
G01 X12.8195 Y-12.8932 F60.00
G01 X12.8321 Y-12.8721 F60.00
G01 X12.8467 Y-12.8524 F60.00
G01 X12.8632 Y-12.8342 F60.00
G01 X12.8814 Y-12.8177 F60.00
G01 X12.9011 Y-12.8031 F60.00
G01 X12.9222 Y-12.7905 F60.00
G01 X12.9443 Y-12.7800 F60.00
G01 X12.9674 Y-12.7718 F60.00
G01 X12.9912 Y-12.7658 F60.00
G01 X13.0155 Y-12.7622 F60.00
G01 X13.0400 Y-12.7610 F60.00
G01 X13.0645 Y-12.7622 F60.00
G01 X13.0888 Y-12.7658 F60.00
G01 X13.1126 Y-12.7718 F60.00
G01 X13.1357 Y-12.7800 F60.00
G01 X13.1578 Y-12.7905 F60.00
G01 X13.1789 Y-12.8031 F60.00
G01 X13.1986 Y-12.8177 F60.00
G01 X13.2168 Y-12.8342 F60.00
G01 X13.2333 Y-12.8524 F60.00
G01 X13.2479 Y-12.8721 F60.00
G01 X13.2605 Y-12.8932 F60.00
G01 X13.2710 Y-12.9153 F60.00
G01 X13.2792 Y-12.9384 F60.00
G01 X13.2852 Y-12.9622 F60.00
G01 X13.2888 Y-12.9865 F60.00
G01 X13.2900 Y-13.0110 F60.00
G00 X13.2900 Y-13.0110
G01 F60.00
G01 Z-1.5000
G01 F60.00
G01 X13.2888 Y-13.0355 F60.00
G01 X13.2852 Y-13.0598 F60.00
G01 X13.2792 Y-13.0836 F60.00
G01 X13.2710 Y-13.1067 F60.00
G01 X13.2605 Y-13.1288 F60.00
G01 X13.2479 Y-13.1499 F60.00
G01 X13.2333 Y-13.1696 F60.00
G01 X13.2168 Y-13.1878 F60.00
G01 X13.1986 Y-13.2043 F60.00
G01 X13.1789 Y-13.2189 F60.00
G01 X13.1578 Y-13.2315 F60.00
G01 X13.1357 Y-13.2420 F60.00
G01 X13.1126 Y-13.2502 F60.00
G01 X13.0888 Y-13.2562 F60.00
G01 X13.0645 Y-13.2598 F60.00
G01 X13.0400 Y-13.2610 F60.00
G01 X13.0155 Y-13.2598 F60.00
G01 X12.9912 Y-13.2562 F60.00
G01 X12.9674 Y-13.2502 F60.00
G01 X12.9443 Y-13.2420 F60.00
G01 X12.9222 Y-13.2315 F60.00
G01 X12.9011 Y-13.2189 F60.00
G01 X12.8814 Y-13.2043 F60.00
G01 X12.8632 Y-13.1878 F60.00
G01 X12.8467 Y-13.1696 F60.00
G01 X12.8321 Y-13.1499 F60.00
G01 X12.8195 Y-13.1288 F60.00
G01 X12.8090 Y-13.1067 F60.00
G01 X12.8008 Y-13.0836 F60.00
G01 X12.7948 Y-13.0598 F60.00
G01 X12.7912 Y-13.0355 F60.00
G01 X12.7900 Y-13.0110 F60.00
G01 X12.7912 Y-12.9865 F60.00
G01 X12.7948 Y-12.9622 F60.00
G01 X12.8008 Y-12.9384 F60.00
G01 X12.8090 Y-12.9153 F60.00
G01 X12.8195 Y-12.8932 F60.00
G01 X12.8321 Y-12.8721 F60.00
G01 X12.8467 Y-12.8524 F60.00
G01 X12.8632 Y-12.8342 F60.00
G01 X12.8814 Y-12.8177 F60.00
G01 X12.9011 Y-12.8031 F60.00
G01 X12.9222 Y-12.7905 F60.00
G01 X12.9443 Y-12.7800 F60.00
G01 X12.9674 Y-12.7718 F60.00
G01 X12.9912 Y-12.7658 F60.00
G01 X13.0155 Y-12.7622 F60.00
G01 X13.0400 Y-12.7610 F60.00
G01 X13.0645 Y-12.7622 F60.00
G01 X13.0888 Y-12.7658 F60.00
G01 X13.1126 Y-12.7718 F60.00
G01 X13.1357 Y-12.7800 F60.00
G01 X13.1578 Y-12.7905 F60.00
G01 X13.1789 Y-12.8031 F60.00
G01 X13.1986 Y-12.8177 F60.00
G01 X13.2168 Y-12.8342 F60.00
G01 X13.2333 Y-12.8524 F60.00
G01 X13.2479 Y-12.8721 F60.00
G01 X13.2605 Y-12.8932 F60.00
G01 X13.2710 Y-12.9153 F60.00
G01 X13.2792 Y-12.9384 F60.00
G01 X13.2852 Y-12.9622 F60.00
G01 X13.2888 Y-12.9865 F60.00
G01 X13.2900 Y-13.0110 F60.00
G00 X13.2900 Y-13.0110
G01 F60.00
G01 Z-2.0000
G01 F60.00
G01 X13.2888 Y-13.0355 F60.00
G01 X13.2852 Y-13.0598 F60.00
G01 X13.2792 Y-13.0836 F60.00
G01 X13.2710 Y-13.1067 F60.00
G01 X13.2605 Y-13.1288 F60.00
G01 X13.2479 Y-13.1499 F60.00
G01 X13.2333 Y-13.1696 F60.00
G01 X13.2168 Y-13.1878 F60.00
G01 X13.1986 Y-13.2043 F60.00
G01 X13.1789 Y-13.2189 F60.00
G01 X13.1578 Y-13.2315 F60.00
G01 X13.1357 Y-13.2420 F60.00
G01 X13.1126 Y-13.2502 F60.00
G01 X13.0888 Y-13.2562 F60.00
G01 X13.0645 Y-13.2598 F60.00
G01 X13.0400 Y-13.2610 F60.00
G01 X13.0155 Y-13.2598 F60.00
G01 X12.9912 Y-13.2562 F60.00
G01 X12.9674 Y-13.2502 F60.00
G01 X12.9443 Y-13.2420 F60.00
G01 X12.9222 Y-13.2315 F60.00
G01 X12.9011 Y-13.2189 F60.00
G01 X12.8814 Y-13.2043 F60.00
G01 X12.8632 Y-13.1878 F60.00
G01 X12.8467 Y-13.1696 F60.00
G01 X12.8321 Y-13.1499 F60.00
G01 X12.8195 Y-13.1288 F60.00
G01 X12.8090 Y-13.1067 F60.00
G01 X12.8008 Y-13.0836 F60.00
G01 X12.7948 Y-13.0598 F60.00
G01 X12.7912 Y-13.0355 F60.00
G01 X12.7900 Y-13.0110 F60.00
G01 X12.7912 Y-12.9865 F60.00
G01 X12.7948 Y-12.9622 F60.00
G01 X12.8008 Y-12.9384 F60.00
G01 X12.8090 Y-12.9153 F60.00
G01 X12.8195 Y-12.8932 F60.00
G01 X12.8321 Y-12.8721 F60.00
G01 X12.8467 Y-12.8524 F60.00
G01 X12.8632 Y-12.8342 F60.00
G01 X12.8814 Y-12.8177 F60.00
G01 X12.9011 Y-12.8031 F60.00
G01 X12.9222 Y-12.7905 F60.00
G01 X12.9443 Y-12.7800 F60.00
G01 X12.9674 Y-12.7718 F60.00
G01 X12.9912 Y-12.7658 F60.00
G01 X13.0155 Y-12.7622 F60.00
G01 X13.0400 Y-12.7610 F60.00
G01 X13.0645 Y-12.7622 F60.00
G01 X13.0888 Y-12.7658 F60.00
G01 X13.1126 Y-12.7718 F60.00
G01 X13.1357 Y-12.7800 F60.00
G01 X13.1578 Y-12.7905 F60.00
G01 X13.1789 Y-12.8031 F60.00
G01 X13.1986 Y-12.8177 F60.00
G01 X13.2168 Y-12.8342 F60.00
G01 X13.2333 Y-12.8524 F60.00
G01 X13.2479 Y-12.8721 F60.00
G01 X13.2605 Y-12.8932 F60.00
G01 X13.2710 Y-12.9153 F60.00
G01 X13.2792 Y-12.9384 F60.00
G01 X13.2852 Y-12.9622 F60.00
G01 X13.2888 Y-12.9865 F60.00
G01 X13.2900 Y-13.0110 F60.00
G00 X13.2900 Y-13.0110
G01 F60.00
G01 Z-2.5000
G01 F60.00
G01 X13.2888 Y-13.0355 F60.00
G01 X13.2852 Y-13.0598 F60.00
G01 X13.2792 Y-13.0836 F60.00
G01 X13.2710 Y-13.1067 F60.00
G01 X13.2605 Y-13.1288 F60.00
G01 X13.2479 Y-13.1499 F60.00
G01 X13.2333 Y-13.1696 F60.00
G01 X13.2168 Y-13.1878 F60.00
G01 X13.1986 Y-13.2043 F60.00
G01 X13.1789 Y-13.2189 F60.00
G01 X13.1578 Y-13.2315 F60.00
G01 X13.1357 Y-13.2420 F60.00
G01 X13.1126 Y-13.2502 F60.00
G01 X13.0888 Y-13.2562 F60.00
G01 X13.0645 Y-13.2598 F60.00
G01 X13.0400 Y-13.2610 F60.00
G01 X13.0155 Y-13.2598 F60.00
G01 X12.9912 Y-13.2562 F60.00
G01 X12.9674 Y-13.2502 F60.00
G01 X12.9443 Y-13.2420 F60.00
G01 X12.9222 Y-13.2315 F60.00
G01 X12.9011 Y-13.2189 F60.00
G01 X12.8814 Y-13.2043 F60.00
G01 X12.8632 Y-13.1878 F60.00
G01 X12.8467 Y-13.1696 F60.00
G01 X12.8321 Y-13.1499 F60.00
G01 X12.8195 Y-13.1288 F60.00
G01 X12.8090 Y-13.1067 F60.00
G01 X12.8008 Y-13.0836 F60.00
G01 X12.7948 Y-13.0598 F60.00
G01 X12.7912 Y-13.0355 F60.00
G01 X12.7900 Y-13.0110 F60.00
G01 X12.7912 Y-12.9865 F60.00
G01 X12.7948 Y-12.9622 F60.00
G01 X12.8008 Y-12.9384 F60.00
G01 X12.8090 Y-12.9153 F60.00
G01 X12.8195 Y-12.8932 F60.00
G01 X12.8321 Y-12.8721 F60.00
G01 X12.8467 Y-12.8524 F60.00
G01 X12.8632 Y-12.8342 F60.00
G01 X12.8814 Y-12.8177 F60.00
G01 X12.9011 Y-12.8031 F60.00
G01 X12.9222 Y-12.7905 F60.00
G01 X12.9443 Y-12.7800 F60.00
G01 X12.9674 Y-12.7718 F60.00
G01 X12.9912 Y-12.7658 F60.00
G01 X13.0155 Y-12.7622 F60.00
G01 X13.0400 Y-12.7610 F60.00
G01 X13.0645 Y-12.7622 F60.00
G01 X13.0888 Y-12.7658 F60.00
G01 X13.1126 Y-12.7718 F60.00
G01 X13.1357 Y-12.7800 F60.00
G01 X13.1578 Y-12.7905 F60.00
G01 X13.1789 Y-12.8031 F60.00
G01 X13.1986 Y-12.8177 F60.00
G01 X13.2168 Y-12.8342 F60.00
G01 X13.2333 Y-12.8524 F60.00
G01 X13.2479 Y-12.8721 F60.00
G01 X13.2605 Y-12.8932 F60.00
G01 X13.2710 Y-12.9153 F60.00
G01 X13.2792 Y-12.9384 F60.00
G01 X13.2852 Y-12.9622 F60.00
G01 X13.2888 Y-12.9865 F60.00
G01 X13.2900 Y-13.0110 F60.00
G00 Z2.0000
G00 X13.2900 Y-15.7510
G01 F60.00
G01 Z-0.5000
G01 F60.00
G01 X13.2888 Y-15.7755 F60.00
G01 X13.2852 Y-15.7998 F60.00
G01 X13.2792 Y-15.8236 F60.00
G01 X13.2710 Y-15.8467 F60.00
G01 X13.2605 Y-15.8688 F60.00
G01 X13.2479 Y-15.8899 F60.00
G01 X13.2333 Y-15.9096 F60.00
G01 X13.2168 Y-15.9278 F60.00
G01 X13.1986 Y-15.9443 F60.00
G01 X13.1789 Y-15.9589 F60.00
G01 X13.1578 Y-15.9715 F60.00
G01 X13.1357 Y-15.9820 F60.00
G01 X13.1126 Y-15.9902 F60.00
G01 X13.0888 Y-15.9962 F60.00
G01 X13.0645 Y-15.9998 F60.00
G01 X13.0400 Y-16.0010 F60.00
G01 X13.0155 Y-15.9998 F60.00
G01 X12.9912 Y-15.9962 F60.00
G01 X12.9674 Y-15.9902 F60.00
G01 X12.9443 Y-15.9820 F60.00
G01 X12.9222 Y-15.9715 F60.00
G01 X12.9011 Y-15.9589 F60.00
G01 X12.8814 Y-15.9443 F60.00
G01 X12.8632 Y-15.9278 F60.00
G01 X12.8467 Y-15.9096 F60.00
G01 X12.8321 Y-15.8899 F60.00
G01 X12.8195 Y-15.8688 F60.00
G01 X12.8090 Y-15.8467 F60.00
G01 X12.8008 Y-15.8236 F60.00
G01 X12.7948 Y-15.7998 F60.00
G01 X12.7912 Y-15.7755 F60.00
G01 X12.7900 Y-15.7510 F60.00
G01 X12.7912 Y-15.7265 F60.00
G01 X12.7948 Y-15.7022 F60.00
G01 X12.8008 Y-15.6784 F60.00
G01 X12.8090 Y-15.6553 F60.00
G01 X12.8195 Y-15.6332 F60.00
G01 X12.8321 Y-15.6121 F60.00
G01 X12.8467 Y-15.5924 F60.00
G01 X12.8632 Y-15.5742 F60.00
G01 X12.8814 Y-15.5577 F60.00
G01 X12.9011 Y-15.5431 F60.00
G01 X12.9222 Y-15.5305 F60.00
G01 X12.9443 Y-15.5200 F60.00
G01 X12.9674 Y-15.5118 F60.00
G01 X12.9912 Y-15.5058 F60.00
G01 X13.0155 Y-15.5022 F60.00
G01 X13.0400 Y-15.5010 F60.00
G01 X13.0645 Y-15.5022 F60.00
G01 X13.0888 Y-15.5058 F60.00
G01 X13.1126 Y-15.5118 F60.00
G01 X13.1357 Y-15.5200 F60.00
G01 X13.1578 Y-15.5305 F60.00
G01 X13.1789 Y-15.5431 F60.00
G01 X13.1986 Y-15.5577 F60.00
G01 X13.2168 Y-15.5742 F60.00
G01 X13.2333 Y-15.5924 F60.00
G01 X13.2479 Y-15.6121 F60.00
G01 X13.2605 Y-15.6332 F60.00
G01 X13.2710 Y-15.6553 F60.00
G01 X13.2792 Y-15.6784 F60.00
G01 X13.2852 Y-15.7022 F60.00
G01 X13.2888 Y-15.7265 F60.00
G01 X13.2900 Y-15.7510 F60.00
G00 X13.2900 Y-15.7510
G01 F60.00
G01 Z-1.0000
G01 F60.00
G01 X13.2888 Y-15.7755 F60.00
G01 X13.2852 Y-15.7998 F60.00
G01 X13.2792 Y-15.8236 F60.00
G01 X13.2710 Y-15.8467 F60.00
G01 X13.2605 Y-15.8688 F60.00
G01 X13.2479 Y-15.8899 F60.00
G01 X13.2333 Y-15.9096 F60.00
G01 X13.2168 Y-15.9278 F60.00
G01 X13.1986 Y-15.9443 F60.00
G01 X13.1789 Y-15.9589 F60.00
G01 X13.1578 Y-15.9715 F60.00
G01 X13.1357 Y-15.9820 F60.00
G01 X13.1126 Y-15.9902 F60.00
G01 X13.0888 Y-15.9962 F60.00
G01 X13.0645 Y-15.9998 F60.00
G01 X13.0400 Y-16.0010 F60.00
G01 X13.0155 Y-15.9998 F60.00
G01 X12.9912 Y-15.9962 F60.00
G01 X12.9674 Y-15.9902 F60.00
G01 X12.9443 Y-15.9820 F60.00
G01 X12.9222 Y-15.9715 F60.00
G01 X12.9011 Y-15.9589 F60.00
G01 X12.8814 Y-15.9443 F60.00
G01 X12.8632 Y-15.9278 F60.00
G01 X12.8467 Y-15.9096 F60.00
G01 X12.8321 Y-15.8899 F60.00
G01 X12.8195 Y-15.8688 F60.00
G01 X12.8090 Y-15.8467 F60.00
G01 X12.8008 Y-15.8236 F60.00
G01 X12.7948 Y-15.7998 F60.00
G01 X12.7912 Y-15.7755 F60.00
G01 X12.7900 Y-15.7510 F60.00
G01 X12.7912 Y-15.7265 F60.00
G01 X12.7948 Y-15.7022 F60.00
G01 X12.8008 Y-15.6784 F60.00
G01 X12.8090 Y-15.6553 F60.00
G01 X12.8195 Y-15.6332 F60.00
G01 X12.8321 Y-15.6121 F60.00
G01 X12.8467 Y-15.5924 F60.00
G01 X12.8632 Y-15.5742 F60.00
G01 X12.8814 Y-15.5577 F60.00
G01 X12.9011 Y-15.5431 F60.00
G01 X12.9222 Y-15.5305 F60.00
G01 X12.9443 Y-15.5200 F60.00
G01 X12.9674 Y-15.5118 F60.00
G01 X12.9912 Y-15.5058 F60.00
G01 X13.0155 Y-15.5022 F60.00
G01 X13.0400 Y-15.5010 F60.00
G01 X13.0645 Y-15.5022 F60.00
G01 X13.0888 Y-15.5058 F60.00
G01 X13.1126 Y-15.5118 F60.00
G01 X13.1357 Y-15.5200 F60.00
G01 X13.1578 Y-15.5305 F60.00
G01 X13.1789 Y-15.5431 F60.00
G01 X13.1986 Y-15.5577 F60.00
G01 X13.2168 Y-15.5742 F60.00
G01 X13.2333 Y-15.5924 F60.00
G01 X13.2479 Y-15.6121 F60.00
G01 X13.2605 Y-15.6332 F60.00
G01 X13.2710 Y-15.6553 F60.00
G01 X13.2792 Y-15.6784 F60.00
G01 X13.2852 Y-15.7022 F60.00
G01 X13.2888 Y-15.7265 F60.00
G01 X13.2900 Y-15.7510 F60.00
G00 X13.2900 Y-15.7510
G01 F60.00
G01 Z-1.5000
G01 F60.00
G01 X13.2888 Y-15.7755 F60.00
G01 X13.2852 Y-15.7998 F60.00
G01 X13.2792 Y-15.8236 F60.00
G01 X13.2710 Y-15.8467 F60.00
G01 X13.2605 Y-15.8688 F60.00
G01 X13.2479 Y-15.8899 F60.00
G01 X13.2333 Y-15.9096 F60.00
G01 X13.2168 Y-15.9278 F60.00
G01 X13.1986 Y-15.9443 F60.00
G01 X13.1789 Y-15.9589 F60.00
G01 X13.1578 Y-15.9715 F60.00
G01 X13.1357 Y-15.9820 F60.00
G01 X13.1126 Y-15.9902 F60.00
G01 X13.0888 Y-15.9962 F60.00
G01 X13.0645 Y-15.9998 F60.00
G01 X13.0400 Y-16.0010 F60.00
G01 X13.0155 Y-15.9998 F60.00
G01 X12.9912 Y-15.9962 F60.00
G01 X12.9674 Y-15.9902 F60.00
G01 X12.9443 Y-15.9820 F60.00
G01 X12.9222 Y-15.9715 F60.00
G01 X12.9011 Y-15.9589 F60.00
G01 X12.8814 Y-15.9443 F60.00
G01 X12.8632 Y-15.9278 F60.00
G01 X12.8467 Y-15.9096 F60.00
G01 X12.8321 Y-15.8899 F60.00
G01 X12.8195 Y-15.8688 F60.00
G01 X12.8090 Y-15.8467 F60.00
G01 X12.8008 Y-15.8236 F60.00
G01 X12.7948 Y-15.7998 F60.00
G01 X12.7912 Y-15.7755 F60.00
G01 X12.7900 Y-15.7510 F60.00
G01 X12.7912 Y-15.7265 F60.00
G01 X12.7948 Y-15.7022 F60.00
G01 X12.8008 Y-15.6784 F60.00
G01 X12.8090 Y-15.6553 F60.00
G01 X12.8195 Y-15.6332 F60.00
G01 X12.8321 Y-15.6121 F60.00
G01 X12.8467 Y-15.5924 F60.00
G01 X12.8632 Y-15.5742 F60.00
G01 X12.8814 Y-15.5577 F60.00
G01 X12.9011 Y-15.5431 F60.00
G01 X12.9222 Y-15.5305 F60.00
G01 X12.9443 Y-15.5200 F60.00
G01 X12.9674 Y-15.5118 F60.00
G01 X12.9912 Y-15.5058 F60.00
G01 X13.0155 Y-15.5022 F60.00
G01 X13.0400 Y-15.5010 F60.00
G01 X13.0645 Y-15.5022 F60.00
G01 X13.0888 Y-15.5058 F60.00
G01 X13.1126 Y-15.5118 F60.00
G01 X13.1357 Y-15.5200 F60.00
G01 X13.1578 Y-15.5305 F60.00
G01 X13.1789 Y-15.5431 F60.00
G01 X13.1986 Y-15.5577 F60.00
G01 X13.2168 Y-15.5742 F60.00
G01 X13.2333 Y-15.5924 F60.00
G01 X13.2479 Y-15.6121 F60.00
G01 X13.2605 Y-15.6332 F60.00
G01 X13.2710 Y-15.6553 F60.00
G01 X13.2792 Y-15.6784 F60.00
G01 X13.2852 Y-15.7022 F60.00
G01 X13.2888 Y-15.7265 F60.00
G01 X13.2900 Y-15.7510 F60.00
G00 X13.2900 Y-15.7510
G01 F60.00
G01 Z-2.0000
G01 F60.00
G01 X13.2888 Y-15.7755 F60.00
G01 X13.2852 Y-15.7998 F60.00
G01 X13.2792 Y-15.8236 F60.00
G01 X13.2710 Y-15.8467 F60.00
G01 X13.2605 Y-15.8688 F60.00
G01 X13.2479 Y-15.8899 F60.00
G01 X13.2333 Y-15.9096 F60.00
G01 X13.2168 Y-15.9278 F60.00
G01 X13.1986 Y-15.9443 F60.00
G01 X13.1789 Y-15.9589 F60.00
G01 X13.1578 Y-15.9715 F60.00
G01 X13.1357 Y-15.9820 F60.00
G01 X13.1126 Y-15.9902 F60.00
G01 X13.0888 Y-15.9962 F60.00
G01 X13.0645 Y-15.9998 F60.00
G01 X13.0400 Y-16.0010 F60.00
G01 X13.0155 Y-15.9998 F60.00
G01 X12.9912 Y-15.9962 F60.00
G01 X12.9674 Y-15.9902 F60.00
G01 X12.9443 Y-15.9820 F60.00
G01 X12.9222 Y-15.9715 F60.00
G01 X12.9011 Y-15.9589 F60.00
G01 X12.8814 Y-15.9443 F60.00
G01 X12.8632 Y-15.9278 F60.00
G01 X12.8467 Y-15.9096 F60.00
G01 X12.8321 Y-15.8899 F60.00
G01 X12.8195 Y-15.8688 F60.00
G01 X12.8090 Y-15.8467 F60.00
G01 X12.8008 Y-15.8236 F60.00
G01 X12.7948 Y-15.7998 F60.00
G01 X12.7912 Y-15.7755 F60.00
G01 X12.7900 Y-15.7510 F60.00
G01 X12.7912 Y-15.7265 F60.00
G01 X12.7948 Y-15.7022 F60.00
G01 X12.8008 Y-15.6784 F60.00
G01 X12.8090 Y-15.6553 F60.00
G01 X12.8195 Y-15.6332 F60.00
G01 X12.8321 Y-15.6121 F60.00
G01 X12.8467 Y-15.5924 F60.00
G01 X12.8632 Y-15.5742 F60.00
G01 X12.8814 Y-15.5577 F60.00
G01 X12.9011 Y-15.5431 F60.00
G01 X12.9222 Y-15.5305 F60.00
G01 X12.9443 Y-15.5200 F60.00
G01 X12.9674 Y-15.5118 F60.00
G01 X12.9912 Y-15.5058 F60.00
G01 X13.0155 Y-15.5022 F60.00
G01 X13.0400 Y-15.5010 F60.00
G01 X13.0645 Y-15.5022 F60.00
G01 X13.0888 Y-15.5058 F60.00
G01 X13.1126 Y-15.5118 F60.00
G01 X13.1357 Y-15.5200 F60.00
G01 X13.1578 Y-15.5305 F60.00
G01 X13.1789 Y-15.5431 F60.00
G01 X13.1986 Y-15.5577 F60.00
G01 X13.2168 Y-15.5742 F60.00
G01 X13.2333 Y-15.5924 F60.00
G01 X13.2479 Y-15.6121 F60.00
G01 X13.2605 Y-15.6332 F60.00
G01 X13.2710 Y-15.6553 F60.00
G01 X13.2792 Y-15.6784 F60.00
G01 X13.2852 Y-15.7022 F60.00
G01 X13.2888 Y-15.7265 F60.00
G01 X13.2900 Y-15.7510 F60.00
G00 X13.2900 Y-15.7510
G01 F60.00
G01 Z-2.5000
G01 F60.00
G01 X13.2888 Y-15.7755 F60.00
G01 X13.2852 Y-15.7998 F60.00
G01 X13.2792 Y-15.8236 F60.00
G01 X13.2710 Y-15.8467 F60.00
G01 X13.2605 Y-15.8688 F60.00
G01 X13.2479 Y-15.8899 F60.00
G01 X13.2333 Y-15.9096 F60.00
G01 X13.2168 Y-15.9278 F60.00
G01 X13.1986 Y-15.9443 F60.00
G01 X13.1789 Y-15.9589 F60.00
G01 X13.1578 Y-15.9715 F60.00
G01 X13.1357 Y-15.9820 F60.00
G01 X13.1126 Y-15.9902 F60.00
G01 X13.0888 Y-15.9962 F60.00
G01 X13.0645 Y-15.9998 F60.00
G01 X13.0400 Y-16.0010 F60.00
G01 X13.0155 Y-15.9998 F60.00
G01 X12.9912 Y-15.9962 F60.00
G01 X12.9674 Y-15.9902 F60.00
G01 X12.9443 Y-15.9820 F60.00
G01 X12.9222 Y-15.9715 F60.00
G01 X12.9011 Y-15.9589 F60.00
G01 X12.8814 Y-15.9443 F60.00
G01 X12.8632 Y-15.9278 F60.00
G01 X12.8467 Y-15.9096 F60.00
G01 X12.8321 Y-15.8899 F60.00
G01 X12.8195 Y-15.8688 F60.00
G01 X12.8090 Y-15.8467 F60.00
G01 X12.8008 Y-15.8236 F60.00
G01 X12.7948 Y-15.7998 F60.00
G01 X12.7912 Y-15.7755 F60.00
G01 X12.7900 Y-15.7510 F60.00
G01 X12.7912 Y-15.7265 F60.00
G01 X12.7948 Y-15.7022 F60.00
G01 X12.8008 Y-15.6784 F60.00
G01 X12.8090 Y-15.6553 F60.00
G01 X12.8195 Y-15.6332 F60.00
G01 X12.8321 Y-15.6121 F60.00
G01 X12.8467 Y-15.5924 F60.00
G01 X12.8632 Y-15.5742 F60.00
G01 X12.8814 Y-15.5577 F60.00
G01 X12.9011 Y-15.5431 F60.00
G01 X12.9222 Y-15.5305 F60.00
G01 X12.9443 Y-15.5200 F60.00
G01 X12.9674 Y-15.5118 F60.00
G01 X12.9912 Y-15.5058 F60.00
G01 X13.0155 Y-15.5022 F60.00
G01 X13.0400 Y-15.5010 F60.00
G01 X13.0645 Y-15.5022 F60.00
G01 X13.0888 Y-15.5058 F60.00
G01 X13.1126 Y-15.5118 F60.00
G01 X13.1357 Y-15.5200 F60.00
G01 X13.1578 Y-15.5305 F60.00
G01 X13.1789 Y-15.5431 F60.00
G01 X13.1986 Y-15.5577 F60.00
G01 X13.2168 Y-15.5742 F60.00
G01 X13.2333 Y-15.5924 F60.00
G01 X13.2479 Y-15.6121 F60.00
G01 X13.2605 Y-15.6332 F60.00
G01 X13.2710 Y-15.6553 F60.00
G01 X13.2792 Y-15.6784 F60.00
G01 X13.2852 Y-15.7022 F60.00
G01 X13.2888 Y-15.7265 F60.00
G01 X13.2900 Y-15.7510 F60.00
G00 Z2.0000
G00 X13.2900 Y-18.4910
G01 F60.00
G01 Z-0.5000
G01 F60.00
G01 X13.2888 Y-18.5155 F60.00
G01 X13.2852 Y-18.5398 F60.00
G01 X13.2792 Y-18.5636 F60.00
G01 X13.2710 Y-18.5867 F60.00
G01 X13.2605 Y-18.6088 F60.00
G01 X13.2479 Y-18.6299 F60.00
G01 X13.2333 Y-18.6496 F60.00
G01 X13.2168 Y-18.6678 F60.00
G01 X13.1986 Y-18.6843 F60.00
G01 X13.1789 Y-18.6989 F60.00
G01 X13.1578 Y-18.7115 F60.00
G01 X13.1357 Y-18.7220 F60.00
G01 X13.1126 Y-18.7302 F60.00
G01 X13.0888 Y-18.7362 F60.00
G01 X13.0645 Y-18.7398 F60.00
G01 X13.0400 Y-18.7410 F60.00
G01 X13.0155 Y-18.7398 F60.00
G01 X12.9912 Y-18.7362 F60.00
G01 X12.9674 Y-18.7302 F60.00
G01 X12.9443 Y-18.7220 F60.00
G01 X12.9222 Y-18.7115 F60.00
G01 X12.9011 Y-18.6989 F60.00
G01 X12.8814 Y-18.6843 F60.00
G01 X12.8632 Y-18.6678 F60.00
G01 X12.8467 Y-18.6496 F60.00
G01 X12.8321 Y-18.6299 F60.00
G01 X12.8195 Y-18.6088 F60.00
G01 X12.8090 Y-18.5867 F60.00
G01 X12.8008 Y-18.5636 F60.00
G01 X12.7948 Y-18.5398 F60.00
G01 X12.7912 Y-18.5155 F60.00
G01 X12.7900 Y-18.4910 F60.00
G01 X12.7912 Y-18.4665 F60.00
G01 X12.7948 Y-18.4422 F60.00
G01 X12.8008 Y-18.4184 F60.00
G01 X12.8090 Y-18.3953 F60.00
G01 X12.8195 Y-18.3732 F60.00
G01 X12.8321 Y-18.3521 F60.00
G01 X12.8467 Y-18.3324 F60.00
G01 X12.8632 Y-18.3142 F60.00
G01 X12.8814 Y-18.2977 F60.00
G01 X12.9011 Y-18.2831 F60.00
G01 X12.9222 Y-18.2705 F60.00
G01 X12.9443 Y-18.2600 F60.00
G01 X12.9674 Y-18.2518 F60.00
G01 X12.9912 Y-18.2458 F60.00
G01 X13.0155 Y-18.2422 F60.00
G01 X13.0400 Y-18.2410 F60.00
G01 X13.0645 Y-18.2422 F60.00
G01 X13.0888 Y-18.2458 F60.00
G01 X13.1126 Y-18.2518 F60.00
G01 X13.1357 Y-18.2600 F60.00
G01 X13.1578 Y-18.2705 F60.00
G01 X13.1789 Y-18.2831 F60.00
G01 X13.1986 Y-18.2977 F60.00
G01 X13.2168 Y-18.3142 F60.00
G01 X13.2333 Y-18.3324 F60.00
G01 X13.2479 Y-18.3521 F60.00
G01 X13.2605 Y-18.3732 F60.00
G01 X13.2710 Y-18.3953 F60.00
G01 X13.2792 Y-18.4184 F60.00
G01 X13.2852 Y-18.4422 F60.00
G01 X13.2888 Y-18.4665 F60.00
G01 X13.2900 Y-18.4910 F60.00
G00 X13.2900 Y-18.4910
G01 F60.00
G01 Z-1.0000
G01 F60.00
G01 X13.2888 Y-18.5155 F60.00
G01 X13.2852 Y-18.5398 F60.00
G01 X13.2792 Y-18.5636 F60.00
G01 X13.2710 Y-18.5867 F60.00
G01 X13.2605 Y-18.6088 F60.00
G01 X13.2479 Y-18.6299 F60.00
G01 X13.2333 Y-18.6496 F60.00
G01 X13.2168 Y-18.6678 F60.00
G01 X13.1986 Y-18.6843 F60.00
G01 X13.1789 Y-18.6989 F60.00
G01 X13.1578 Y-18.7115 F60.00
G01 X13.1357 Y-18.7220 F60.00
G01 X13.1126 Y-18.7302 F60.00
G01 X13.0888 Y-18.7362 F60.00
G01 X13.0645 Y-18.7398 F60.00
G01 X13.0400 Y-18.7410 F60.00
G01 X13.0155 Y-18.7398 F60.00
G01 X12.9912 Y-18.7362 F60.00
G01 X12.9674 Y-18.7302 F60.00
G01 X12.9443 Y-18.7220 F60.00
G01 X12.9222 Y-18.7115 F60.00
G01 X12.9011 Y-18.6989 F60.00
G01 X12.8814 Y-18.6843 F60.00
G01 X12.8632 Y-18.6678 F60.00
G01 X12.8467 Y-18.6496 F60.00
G01 X12.8321 Y-18.6299 F60.00
G01 X12.8195 Y-18.6088 F60.00
G01 X12.8090 Y-18.5867 F60.00
G01 X12.8008 Y-18.5636 F60.00
G01 X12.7948 Y-18.5398 F60.00
G01 X12.7912 Y-18.5155 F60.00
G01 X12.7900 Y-18.4910 F60.00
G01 X12.7912 Y-18.4665 F60.00
G01 X12.7948 Y-18.4422 F60.00
G01 X12.8008 Y-18.4184 F60.00
G01 X12.8090 Y-18.3953 F60.00
G01 X12.8195 Y-18.3732 F60.00
G01 X12.8321 Y-18.3521 F60.00
G01 X12.8467 Y-18.3324 F60.00
G01 X12.8632 Y-18.3142 F60.00
G01 X12.8814 Y-18.2977 F60.00
G01 X12.9011 Y-18.2831 F60.00
G01 X12.9222 Y-18.2705 F60.00
G01 X12.9443 Y-18.2600 F60.00
G01 X12.9674 Y-18.2518 F60.00
G01 X12.9912 Y-18.2458 F60.00
G01 X13.0155 Y-18.2422 F60.00
G01 X13.0400 Y-18.2410 F60.00
G01 X13.0645 Y-18.2422 F60.00
G01 X13.0888 Y-18.2458 F60.00
G01 X13.1126 Y-18.2518 F60.00
G01 X13.1357 Y-18.2600 F60.00
G01 X13.1578 Y-18.2705 F60.00
G01 X13.1789 Y-18.2831 F60.00
G01 X13.1986 Y-18.2977 F60.00
G01 X13.2168 Y-18.3142 F60.00
G01 X13.2333 Y-18.3324 F60.00
G01 X13.2479 Y-18.3521 F60.00
G01 X13.2605 Y-18.3732 F60.00
G01 X13.2710 Y-18.3953 F60.00
G01 X13.2792 Y-18.4184 F60.00
G01 X13.2852 Y-18.4422 F60.00
G01 X13.2888 Y-18.4665 F60.00
G01 X13.2900 Y-18.4910 F60.00
G00 X13.2900 Y-18.4910
G01 F60.00
G01 Z-1.5000
G01 F60.00
G01 X13.2888 Y-18.5155 F60.00
G01 X13.2852 Y-18.5398 F60.00
G01 X13.2792 Y-18.5636 F60.00
G01 X13.2710 Y-18.5867 F60.00
G01 X13.2605 Y-18.6088 F60.00
G01 X13.2479 Y-18.6299 F60.00
G01 X13.2333 Y-18.6496 F60.00
G01 X13.2168 Y-18.6678 F60.00
G01 X13.1986 Y-18.6843 F60.00
G01 X13.1789 Y-18.6989 F60.00
G01 X13.1578 Y-18.7115 F60.00
G01 X13.1357 Y-18.7220 F60.00
G01 X13.1126 Y-18.7302 F60.00
G01 X13.0888 Y-18.7362 F60.00
G01 X13.0645 Y-18.7398 F60.00
G01 X13.0400 Y-18.7410 F60.00
G01 X13.0155 Y-18.7398 F60.00
G01 X12.9912 Y-18.7362 F60.00
G01 X12.9674 Y-18.7302 F60.00
G01 X12.9443 Y-18.7220 F60.00
G01 X12.9222 Y-18.7115 F60.00
G01 X12.9011 Y-18.6989 F60.00
G01 X12.8814 Y-18.6843 F60.00
G01 X12.8632 Y-18.6678 F60.00
G01 X12.8467 Y-18.6496 F60.00
G01 X12.8321 Y-18.6299 F60.00
G01 X12.8195 Y-18.6088 F60.00
G01 X12.8090 Y-18.5867 F60.00
G01 X12.8008 Y-18.5636 F60.00
G01 X12.7948 Y-18.5398 F60.00
G01 X12.7912 Y-18.5155 F60.00
G01 X12.7900 Y-18.4910 F60.00
G01 X12.7912 Y-18.4665 F60.00
G01 X12.7948 Y-18.4422 F60.00
G01 X12.8008 Y-18.4184 F60.00
G01 X12.8090 Y-18.3953 F60.00
G01 X12.8195 Y-18.3732 F60.00
G01 X12.8321 Y-18.3521 F60.00
G01 X12.8467 Y-18.3324 F60.00
G01 X12.8632 Y-18.3142 F60.00
G01 X12.8814 Y-18.2977 F60.00
G01 X12.9011 Y-18.2831 F60.00
G01 X12.9222 Y-18.2705 F60.00
G01 X12.9443 Y-18.2600 F60.00
G01 X12.9674 Y-18.2518 F60.00
G01 X12.9912 Y-18.2458 F60.00
G01 X13.0155 Y-18.2422 F60.00
G01 X13.0400 Y-18.2410 F60.00
G01 X13.0645 Y-18.2422 F60.00
G01 X13.0888 Y-18.2458 F60.00
G01 X13.1126 Y-18.2518 F60.00
G01 X13.1357 Y-18.2600 F60.00
G01 X13.1578 Y-18.2705 F60.00
G01 X13.1789 Y-18.2831 F60.00
G01 X13.1986 Y-18.2977 F60.00
G01 X13.2168 Y-18.3142 F60.00
G01 X13.2333 Y-18.3324 F60.00
G01 X13.2479 Y-18.3521 F60.00
G01 X13.2605 Y-18.3732 F60.00
G01 X13.2710 Y-18.3953 F60.00
G01 X13.2792 Y-18.4184 F60.00
G01 X13.2852 Y-18.4422 F60.00
G01 X13.2888 Y-18.4665 F60.00
G01 X13.2900 Y-18.4910 F60.00
G00 X13.2900 Y-18.4910
G01 F60.00
G01 Z-2.0000
G01 F60.00
G01 X13.2888 Y-18.5155 F60.00
G01 X13.2852 Y-18.5398 F60.00
G01 X13.2792 Y-18.5636 F60.00
G01 X13.2710 Y-18.5867 F60.00
G01 X13.2605 Y-18.6088 F60.00
G01 X13.2479 Y-18.6299 F60.00
G01 X13.2333 Y-18.6496 F60.00
G01 X13.2168 Y-18.6678 F60.00
G01 X13.1986 Y-18.6843 F60.00
G01 X13.1789 Y-18.6989 F60.00
G01 X13.1578 Y-18.7115 F60.00
G01 X13.1357 Y-18.7220 F60.00
G01 X13.1126 Y-18.7302 F60.00
G01 X13.0888 Y-18.7362 F60.00
G01 X13.0645 Y-18.7398 F60.00
G01 X13.0400 Y-18.7410 F60.00
G01 X13.0155 Y-18.7398 F60.00
G01 X12.9912 Y-18.7362 F60.00
G01 X12.9674 Y-18.7302 F60.00
G01 X12.9443 Y-18.7220 F60.00
G01 X12.9222 Y-18.7115 F60.00
G01 X12.9011 Y-18.6989 F60.00
G01 X12.8814 Y-18.6843 F60.00
G01 X12.8632 Y-18.6678 F60.00
G01 X12.8467 Y-18.6496 F60.00
G01 X12.8321 Y-18.6299 F60.00
G01 X12.8195 Y-18.6088 F60.00
G01 X12.8090 Y-18.5867 F60.00
G01 X12.8008 Y-18.5636 F60.00
G01 X12.7948 Y-18.5398 F60.00
G01 X12.7912 Y-18.5155 F60.00
G01 X12.7900 Y-18.4910 F60.00
G01 X12.7912 Y-18.4665 F60.00
G01 X12.7948 Y-18.4422 F60.00
G01 X12.8008 Y-18.4184 F60.00
G01 X12.8090 Y-18.3953 F60.00
G01 X12.8195 Y-18.3732 F60.00
G01 X12.8321 Y-18.3521 F60.00
G01 X12.8467 Y-18.3324 F60.00
G01 X12.8632 Y-18.3142 F60.00
G01 X12.8814 Y-18.2977 F60.00
G01 X12.9011 Y-18.2831 F60.00
G01 X12.9222 Y-18.2705 F60.00
G01 X12.9443 Y-18.2600 F60.00
G01 X12.9674 Y-18.2518 F60.00
G01 X12.9912 Y-18.2458 F60.00
G01 X13.0155 Y-18.2422 F60.00
G01 X13.0400 Y-18.2410 F60.00
G01 X13.0645 Y-18.2422 F60.00
G01 X13.0888 Y-18.2458 F60.00
G01 X13.1126 Y-18.2518 F60.00
G01 X13.1357 Y-18.2600 F60.00
G01 X13.1578 Y-18.2705 F60.00
G01 X13.1789 Y-18.2831 F60.00
G01 X13.1986 Y-18.2977 F60.00
G01 X13.2168 Y-18.3142 F60.00
G01 X13.2333 Y-18.3324 F60.00
G01 X13.2479 Y-18.3521 F60.00
G01 X13.2605 Y-18.3732 F60.00
G01 X13.2710 Y-18.3953 F60.00
G01 X13.2792 Y-18.4184 F60.00
G01 X13.2852 Y-18.4422 F60.00
G01 X13.2888 Y-18.4665 F60.00
G01 X13.2900 Y-18.4910 F60.00
G00 X13.2900 Y-18.4910
G01 F60.00
G01 Z-2.5000
G01 F60.00
G01 X13.2888 Y-18.5155 F60.00
G01 X13.2852 Y-18.5398 F60.00
G01 X13.2792 Y-18.5636 F60.00
G01 X13.2710 Y-18.5867 F60.00
G01 X13.2605 Y-18.6088 F60.00
G01 X13.2479 Y-18.6299 F60.00
G01 X13.2333 Y-18.6496 F60.00
G01 X13.2168 Y-18.6678 F60.00
G01 X13.1986 Y-18.6843 F60.00
G01 X13.1789 Y-18.6989 F60.00
G01 X13.1578 Y-18.7115 F60.00
G01 X13.1357 Y-18.7220 F60.00
G01 X13.1126 Y-18.7302 F60.00
G01 X13.0888 Y-18.7362 F60.00
G01 X13.0645 Y-18.7398 F60.00
G01 X13.0400 Y-18.7410 F60.00
G01 X13.0155 Y-18.7398 F60.00
G01 X12.9912 Y-18.7362 F60.00
G01 X12.9674 Y-18.7302 F60.00
G01 X12.9443 Y-18.7220 F60.00
G01 X12.9222 Y-18.7115 F60.00
G01 X12.9011 Y-18.6989 F60.00
G01 X12.8814 Y-18.6843 F60.00
G01 X12.8632 Y-18.6678 F60.00
G01 X12.8467 Y-18.6496 F60.00
G01 X12.8321 Y-18.6299 F60.00
G01 X12.8195 Y-18.6088 F60.00
G01 X12.8090 Y-18.5867 F60.00
G01 X12.8008 Y-18.5636 F60.00
G01 X12.7948 Y-18.5398 F60.00
G01 X12.7912 Y-18.5155 F60.00
G01 X12.7900 Y-18.4910 F60.00
G01 X12.7912 Y-18.4665 F60.00
G01 X12.7948 Y-18.4422 F60.00
G01 X12.8008 Y-18.4184 F60.00
G01 X12.8090 Y-18.3953 F60.00
G01 X12.8195 Y-18.3732 F60.00
G01 X12.8321 Y-18.3521 F60.00
G01 X12.8467 Y-18.3324 F60.00
G01 X12.8632 Y-18.3142 F60.00
G01 X12.8814 Y-18.2977 F60.00
G01 X12.9011 Y-18.2831 F60.00
G01 X12.9222 Y-18.2705 F60.00
G01 X12.9443 Y-18.2600 F60.00
G01 X12.9674 Y-18.2518 F60.00
G01 X12.9912 Y-18.2458 F60.00
G01 X13.0155 Y-18.2422 F60.00
G01 X13.0400 Y-18.2410 F60.00
G01 X13.0645 Y-18.2422 F60.00
G01 X13.0888 Y-18.2458 F60.00
G01 X13.1126 Y-18.2518 F60.00
G01 X13.1357 Y-18.2600 F60.00
G01 X13.1578 Y-18.2705 F60.00
G01 X13.1789 Y-18.2831 F60.00
G01 X13.1986 Y-18.2977 F60.00
G01 X13.2168 Y-18.3142 F60.00
G01 X13.2333 Y-18.3324 F60.00
G01 X13.2479 Y-18.3521 F60.00
G01 X13.2605 Y-18.3732 F60.00
G01 X13.2710 Y-18.3953 F60.00
G01 X13.2792 Y-18.4184 F60.00
G01 X13.2852 Y-18.4422 F60.00
G01 X13.2888 Y-18.4665 F60.00
G01 X13.2900 Y-18.4910 F60.00
G00 Z2.0000
G00 X13.2900 Y-21.2310
G01 F60.00
G01 Z-0.5000
G01 F60.00
G01 X13.2888 Y-21.2555 F60.00
G01 X13.2852 Y-21.2798 F60.00
G01 X13.2792 Y-21.3036 F60.00
G01 X13.2710 Y-21.3267 F60.00
G01 X13.2605 Y-21.3488 F60.00
G01 X13.2479 Y-21.3699 F60.00
G01 X13.2333 Y-21.3896 F60.00
G01 X13.2168 Y-21.4078 F60.00
G01 X13.1986 Y-21.4243 F60.00
G01 X13.1789 Y-21.4389 F60.00
G01 X13.1578 Y-21.4515 F60.00
G01 X13.1357 Y-21.4620 F60.00
G01 X13.1126 Y-21.4702 F60.00
G01 X13.0888 Y-21.4762 F60.00
G01 X13.0645 Y-21.4798 F60.00
G01 X13.0400 Y-21.4810 F60.00
G01 X13.0155 Y-21.4798 F60.00
G01 X12.9912 Y-21.4762 F60.00
G01 X12.9674 Y-21.4702 F60.00
G01 X12.9443 Y-21.4620 F60.00
G01 X12.9222 Y-21.4515 F60.00
G01 X12.9011 Y-21.4389 F60.00
G01 X12.8814 Y-21.4243 F60.00
G01 X12.8632 Y-21.4078 F60.00
G01 X12.8467 Y-21.3896 F60.00
G01 X12.8321 Y-21.3699 F60.00
G01 X12.8195 Y-21.3488 F60.00
G01 X12.8090 Y-21.3267 F60.00
G01 X12.8008 Y-21.3036 F60.00
G01 X12.7948 Y-21.2798 F60.00
G01 X12.7912 Y-21.2555 F60.00
G01 X12.7900 Y-21.2310 F60.00
G01 X12.7912 Y-21.2065 F60.00
G01 X12.7948 Y-21.1822 F60.00
G01 X12.8008 Y-21.1584 F60.00
G01 X12.8090 Y-21.1353 F60.00
G01 X12.8195 Y-21.1132 F60.00
G01 X12.8321 Y-21.0921 F60.00
G01 X12.8467 Y-21.0724 F60.00
G01 X12.8632 Y-21.0542 F60.00
G01 X12.8814 Y-21.0377 F60.00
G01 X12.9011 Y-21.0231 F60.00
G01 X12.9222 Y-21.0105 F60.00
G01 X12.9443 Y-21.0000 F60.00
G01 X12.9674 Y-20.9918 F60.00
G01 X12.9912 Y-20.9858 F60.00
G01 X13.0155 Y-20.9822 F60.00
G01 X13.0400 Y-20.9810 F60.00
G01 X13.0645 Y-20.9822 F60.00
G01 X13.0888 Y-20.9858 F60.00
G01 X13.1126 Y-20.9918 F60.00
G01 X13.1357 Y-21.0000 F60.00
G01 X13.1578 Y-21.0105 F60.00
G01 X13.1789 Y-21.0231 F60.00
G01 X13.1986 Y-21.0377 F60.00
G01 X13.2168 Y-21.0542 F60.00
G01 X13.2333 Y-21.0724 F60.00
G01 X13.2479 Y-21.0921 F60.00
G01 X13.2605 Y-21.1132 F60.00
G01 X13.2710 Y-21.1353 F60.00
G01 X13.2792 Y-21.1584 F60.00
G01 X13.2852 Y-21.1822 F60.00
G01 X13.2888 Y-21.2065 F60.00
G01 X13.2900 Y-21.2310 F60.00
G00 X13.2900 Y-21.2310
G01 F60.00
G01 Z-1.0000
G01 F60.00
G01 X13.2888 Y-21.2555 F60.00
G01 X13.2852 Y-21.2798 F60.00
G01 X13.2792 Y-21.3036 F60.00
G01 X13.2710 Y-21.3267 F60.00
G01 X13.2605 Y-21.3488 F60.00
G01 X13.2479 Y-21.3699 F60.00
G01 X13.2333 Y-21.3896 F60.00
G01 X13.2168 Y-21.4078 F60.00
G01 X13.1986 Y-21.4243 F60.00
G01 X13.1789 Y-21.4389 F60.00
G01 X13.1578 Y-21.4515 F60.00
G01 X13.1357 Y-21.4620 F60.00
G01 X13.1126 Y-21.4702 F60.00
G01 X13.0888 Y-21.4762 F60.00
G01 X13.0645 Y-21.4798 F60.00
G01 X13.0400 Y-21.4810 F60.00
G01 X13.0155 Y-21.4798 F60.00
G01 X12.9912 Y-21.4762 F60.00
G01 X12.9674 Y-21.4702 F60.00
G01 X12.9443 Y-21.4620 F60.00
G01 X12.9222 Y-21.4515 F60.00
G01 X12.9011 Y-21.4389 F60.00
G01 X12.8814 Y-21.4243 F60.00
G01 X12.8632 Y-21.4078 F60.00
G01 X12.8467 Y-21.3896 F60.00
G01 X12.8321 Y-21.3699 F60.00
G01 X12.8195 Y-21.3488 F60.00
G01 X12.8090 Y-21.3267 F60.00
G01 X12.8008 Y-21.3036 F60.00
G01 X12.7948 Y-21.2798 F60.00
G01 X12.7912 Y-21.2555 F60.00
G01 X12.7900 Y-21.2310 F60.00
G01 X12.7912 Y-21.2065 F60.00
G01 X12.7948 Y-21.1822 F60.00
G01 X12.8008 Y-21.1584 F60.00
G01 X12.8090 Y-21.1353 F60.00
G01 X12.8195 Y-21.1132 F60.00
G01 X12.8321 Y-21.0921 F60.00
G01 X12.8467 Y-21.0724 F60.00
G01 X12.8632 Y-21.0542 F60.00
G01 X12.8814 Y-21.0377 F60.00
G01 X12.9011 Y-21.0231 F60.00
G01 X12.9222 Y-21.0105 F60.00
G01 X12.9443 Y-21.0000 F60.00
G01 X12.9674 Y-20.9918 F60.00
G01 X12.9912 Y-20.9858 F60.00
G01 X13.0155 Y-20.9822 F60.00
G01 X13.0400 Y-20.9810 F60.00
G01 X13.0645 Y-20.9822 F60.00
G01 X13.0888 Y-20.9858 F60.00
G01 X13.1126 Y-20.9918 F60.00
G01 X13.1357 Y-21.0000 F60.00
G01 X13.1578 Y-21.0105 F60.00
G01 X13.1789 Y-21.0231 F60.00
G01 X13.1986 Y-21.0377 F60.00
G01 X13.2168 Y-21.0542 F60.00
G01 X13.2333 Y-21.0724 F60.00
G01 X13.2479 Y-21.0921 F60.00
G01 X13.2605 Y-21.1132 F60.00
G01 X13.2710 Y-21.1353 F60.00
G01 X13.2792 Y-21.1584 F60.00
G01 X13.2852 Y-21.1822 F60.00
G01 X13.2888 Y-21.2065 F60.00
G01 X13.2900 Y-21.2310 F60.00
G00 X13.2900 Y-21.2310
G01 F60.00
G01 Z-1.5000
G01 F60.00
G01 X13.2888 Y-21.2555 F60.00
G01 X13.2852 Y-21.2798 F60.00
G01 X13.2792 Y-21.3036 F60.00
G01 X13.2710 Y-21.3267 F60.00
G01 X13.2605 Y-21.3488 F60.00
G01 X13.2479 Y-21.3699 F60.00
G01 X13.2333 Y-21.3896 F60.00
G01 X13.2168 Y-21.4078 F60.00
G01 X13.1986 Y-21.4243 F60.00
G01 X13.1789 Y-21.4389 F60.00
G01 X13.1578 Y-21.4515 F60.00
G01 X13.1357 Y-21.4620 F60.00
G01 X13.1126 Y-21.4702 F60.00
G01 X13.0888 Y-21.4762 F60.00
G01 X13.0645 Y-21.4798 F60.00
G01 X13.0400 Y-21.4810 F60.00
G01 X13.0155 Y-21.4798 F60.00
G01 X12.9912 Y-21.4762 F60.00
G01 X12.9674 Y-21.4702 F60.00
G01 X12.9443 Y-21.4620 F60.00
G01 X12.9222 Y-21.4515 F60.00
G01 X12.9011 Y-21.4389 F60.00
G01 X12.8814 Y-21.4243 F60.00
G01 X12.8632 Y-21.4078 F60.00
G01 X12.8467 Y-21.3896 F60.00
G01 X12.8321 Y-21.3699 F60.00
G01 X12.8195 Y-21.3488 F60.00
G01 X12.8090 Y-21.3267 F60.00
G01 X12.8008 Y-21.3036 F60.00
G01 X12.7948 Y-21.2798 F60.00
G01 X12.7912 Y-21.2555 F60.00
G01 X12.7900 Y-21.2310 F60.00
G01 X12.7912 Y-21.2065 F60.00
G01 X12.7948 Y-21.1822 F60.00
G01 X12.8008 Y-21.1584 F60.00
G01 X12.8090 Y-21.1353 F60.00
G01 X12.8195 Y-21.1132 F60.00
G01 X12.8321 Y-21.0921 F60.00
G01 X12.8467 Y-21.0724 F60.00
G01 X12.8632 Y-21.0542 F60.00
G01 X12.8814 Y-21.0377 F60.00
G01 X12.9011 Y-21.0231 F60.00
G01 X12.9222 Y-21.0105 F60.00
G01 X12.9443 Y-21.0000 F60.00
G01 X12.9674 Y-20.9918 F60.00
G01 X12.9912 Y-20.9858 F60.00
G01 X13.0155 Y-20.9822 F60.00
G01 X13.0400 Y-20.9810 F60.00
G01 X13.0645 Y-20.9822 F60.00
G01 X13.0888 Y-20.9858 F60.00
G01 X13.1126 Y-20.9918 F60.00
G01 X13.1357 Y-21.0000 F60.00
G01 X13.1578 Y-21.0105 F60.00
G01 X13.1789 Y-21.0231 F60.00
G01 X13.1986 Y-21.0377 F60.00
G01 X13.2168 Y-21.0542 F60.00
G01 X13.2333 Y-21.0724 F60.00
G01 X13.2479 Y-21.0921 F60.00
G01 X13.2605 Y-21.1132 F60.00
G01 X13.2710 Y-21.1353 F60.00
G01 X13.2792 Y-21.1584 F60.00
G01 X13.2852 Y-21.1822 F60.00
G01 X13.2888 Y-21.2065 F60.00
G01 X13.2900 Y-21.2310 F60.00
G00 X13.2900 Y-21.2310
G01 F60.00
G01 Z-2.0000
G01 F60.00
G01 X13.2888 Y-21.2555 F60.00
G01 X13.2852 Y-21.2798 F60.00
G01 X13.2792 Y-21.3036 F60.00
G01 X13.2710 Y-21.3267 F60.00
G01 X13.2605 Y-21.3488 F60.00
G01 X13.2479 Y-21.3699 F60.00
G01 X13.2333 Y-21.3896 F60.00
G01 X13.2168 Y-21.4078 F60.00
G01 X13.1986 Y-21.4243 F60.00
G01 X13.1789 Y-21.4389 F60.00
G01 X13.1578 Y-21.4515 F60.00
G01 X13.1357 Y-21.4620 F60.00
G01 X13.1126 Y-21.4702 F60.00
G01 X13.0888 Y-21.4762 F60.00
G01 X13.0645 Y-21.4798 F60.00
G01 X13.0400 Y-21.4810 F60.00
G01 X13.0155 Y-21.4798 F60.00
G01 X12.9912 Y-21.4762 F60.00
G01 X12.9674 Y-21.4702 F60.00
G01 X12.9443 Y-21.4620 F60.00
G01 X12.9222 Y-21.4515 F60.00
G01 X12.9011 Y-21.4389 F60.00
G01 X12.8814 Y-21.4243 F60.00
G01 X12.8632 Y-21.4078 F60.00
G01 X12.8467 Y-21.3896 F60.00
G01 X12.8321 Y-21.3699 F60.00
G01 X12.8195 Y-21.3488 F60.00
G01 X12.8090 Y-21.3267 F60.00
G01 X12.8008 Y-21.3036 F60.00
G01 X12.7948 Y-21.2798 F60.00
G01 X12.7912 Y-21.2555 F60.00
G01 X12.7900 Y-21.2310 F60.00
G01 X12.7912 Y-21.2065 F60.00
G01 X12.7948 Y-21.1822 F60.00
G01 X12.8008 Y-21.1584 F60.00
G01 X12.8090 Y-21.1353 F60.00
G01 X12.8195 Y-21.1132 F60.00
G01 X12.8321 Y-21.0921 F60.00
G01 X12.8467 Y-21.0724 F60.00
G01 X12.8632 Y-21.0542 F60.00
G01 X12.8814 Y-21.0377 F60.00
G01 X12.9011 Y-21.0231 F60.00
G01 X12.9222 Y-21.0105 F60.00
G01 X12.9443 Y-21.0000 F60.00
G01 X12.9674 Y-20.9918 F60.00
G01 X12.9912 Y-20.9858 F60.00
G01 X13.0155 Y-20.9822 F60.00
G01 X13.0400 Y-20.9810 F60.00
G01 X13.0645 Y-20.9822 F60.00
G01 X13.0888 Y-20.9858 F60.00
G01 X13.1126 Y-20.9918 F60.00
G01 X13.1357 Y-21.0000 F60.00
G01 X13.1578 Y-21.0105 F60.00
G01 X13.1789 Y-21.0231 F60.00
G01 X13.1986 Y-21.0377 F60.00
G01 X13.2168 Y-21.0542 F60.00
G01 X13.2333 Y-21.0724 F60.00
G01 X13.2479 Y-21.0921 F60.00
G01 X13.2605 Y-21.1132 F60.00
G01 X13.2710 Y-21.1353 F60.00
G01 X13.2792 Y-21.1584 F60.00
G01 X13.2852 Y-21.1822 F60.00
G01 X13.2888 Y-21.2065 F60.00
G01 X13.2900 Y-21.2310 F60.00
G00 X13.2900 Y-21.2310
G01 F60.00
G01 Z-2.5000
G01 F60.00
G01 X13.2888 Y-21.2555 F60.00
G01 X13.2852 Y-21.2798 F60.00
G01 X13.2792 Y-21.3036 F60.00
G01 X13.2710 Y-21.3267 F60.00
G01 X13.2605 Y-21.3488 F60.00
G01 X13.2479 Y-21.3699 F60.00
G01 X13.2333 Y-21.3896 F60.00
G01 X13.2168 Y-21.4078 F60.00
G01 X13.1986 Y-21.4243 F60.00
G01 X13.1789 Y-21.4389 F60.00
G01 X13.1578 Y-21.4515 F60.00
G01 X13.1357 Y-21.4620 F60.00
G01 X13.1126 Y-21.4702 F60.00
G01 X13.0888 Y-21.4762 F60.00
G01 X13.0645 Y-21.4798 F60.00
G01 X13.0400 Y-21.4810 F60.00
G01 X13.0155 Y-21.4798 F60.00
G01 X12.9912 Y-21.4762 F60.00
G01 X12.9674 Y-21.4702 F60.00
G01 X12.9443 Y-21.4620 F60.00
G01 X12.9222 Y-21.4515 F60.00
G01 X12.9011 Y-21.4389 F60.00
G01 X12.8814 Y-21.4243 F60.00
G01 X12.8632 Y-21.4078 F60.00
G01 X12.8467 Y-21.3896 F60.00
G01 X12.8321 Y-21.3699 F60.00
G01 X12.8195 Y-21.3488 F60.00
G01 X12.8090 Y-21.3267 F60.00
G01 X12.8008 Y-21.3036 F60.00
G01 X12.7948 Y-21.2798 F60.00
G01 X12.7912 Y-21.2555 F60.00
G01 X12.7900 Y-21.2310 F60.00
G01 X12.7912 Y-21.2065 F60.00
G01 X12.7948 Y-21.1822 F60.00
G01 X12.8008 Y-21.1584 F60.00
G01 X12.8090 Y-21.1353 F60.00
G01 X12.8195 Y-21.1132 F60.00
G01 X12.8321 Y-21.0921 F60.00
G01 X12.8467 Y-21.0724 F60.00
G01 X12.8632 Y-21.0542 F60.00
G01 X12.8814 Y-21.0377 F60.00
G01 X12.9011 Y-21.0231 F60.00
G01 X12.9222 Y-21.0105 F60.00
G01 X12.9443 Y-21.0000 F60.00
G01 X12.9674 Y-20.9918 F60.00
G01 X12.9912 Y-20.9858 F60.00
G01 X13.0155 Y-20.9822 F60.00
G01 X13.0400 Y-20.9810 F60.00
G01 X13.0645 Y-20.9822 F60.00
G01 X13.0888 Y-20.9858 F60.00
G01 X13.1126 Y-20.9918 F60.00
G01 X13.1357 Y-21.0000 F60.00
G01 X13.1578 Y-21.0105 F60.00
G01 X13.1789 Y-21.0231 F60.00
G01 X13.1986 Y-21.0377 F60.00
G01 X13.2168 Y-21.0542 F60.00
G01 X13.2333 Y-21.0724 F60.00
G01 X13.2479 Y-21.0921 F60.00
G01 X13.2605 Y-21.1132 F60.00
G01 X13.2710 Y-21.1353 F60.00
G01 X13.2792 Y-21.1584 F60.00
G01 X13.2852 Y-21.1822 F60.00
G01 X13.2888 Y-21.2065 F60.00
G01 X13.2900 Y-21.2310 F60.00
G00 Z2.0000
G00 X10.7500 Y-19.8610
G01 F60.00
G01 Z-0.5000
G01 F60.00
G01 X10.7488 Y-19.8855 F60.00
G01 X10.7452 Y-19.9098 F60.00
G01 X10.7392 Y-19.9336 F60.00
G01 X10.7310 Y-19.9567 F60.00
G01 X10.7205 Y-19.9788 F60.00
G01 X10.7079 Y-19.9999 F60.00
G01 X10.6933 Y-20.0196 F60.00
G01 X10.6768 Y-20.0378 F60.00
G01 X10.6586 Y-20.0543 F60.00
G01 X10.6389 Y-20.0689 F60.00
G01 X10.6178 Y-20.0815 F60.00
G01 X10.5957 Y-20.0920 F60.00
G01 X10.5726 Y-20.1002 F60.00
G01 X10.5488 Y-20.1062 F60.00
G01 X10.5245 Y-20.1098 F60.00
G01 X10.5000 Y-20.1110 F60.00
G01 X10.4755 Y-20.1098 F60.00
G01 X10.4512 Y-20.1062 F60.00
G01 X10.4274 Y-20.1002 F60.00
G01 X10.4043 Y-20.0920 F60.00
G01 X10.3822 Y-20.0815 F60.00
G01 X10.3611 Y-20.0689 F60.00
G01 X10.3414 Y-20.0543 F60.00
G01 X10.3232 Y-20.0378 F60.00
G01 X10.3067 Y-20.0196 F60.00
G01 X10.2921 Y-19.9999 F60.00
G01 X10.2795 Y-19.9788 F60.00
G01 X10.2690 Y-19.9567 F60.00
G01 X10.2608 Y-19.9336 F60.00
G01 X10.2548 Y-19.9098 F60.00
G01 X10.2512 Y-19.8855 F60.00
G01 X10.2500 Y-19.8610 F60.00
G01 X10.2512 Y-19.8365 F60.00
G01 X10.2548 Y-19.8122 F60.00
G01 X10.2608 Y-19.7884 F60.00
G01 X10.2690 Y-19.7653 F60.00
G01 X10.2795 Y-19.7432 F60.00
G01 X10.2921 Y-19.7221 F60.00
G01 X10.3067 Y-19.7024 F60.00
G01 X10.3232 Y-19.6842 F60.00
G01 X10.3414 Y-19.6677 F60.00
G01 X10.3611 Y-19.6531 F60.00
G01 X10.3822 Y-19.6405 F60.00
G01 X10.4043 Y-19.6300 F60.00
G01 X10.4274 Y-19.6218 F60.00
G01 X10.4512 Y-19.6158 F60.00
G01 X10.4755 Y-19.6122 F60.00
G01 X10.5000 Y-19.6110 F60.00
G01 X10.5245 Y-19.6122 F60.00
G01 X10.5488 Y-19.6158 F60.00
G01 X10.5726 Y-19.6218 F60.00
G01 X10.5957 Y-19.6300 F60.00
G01 X10.6178 Y-19.6405 F60.00
G01 X10.6389 Y-19.6531 F60.00
G01 X10.6586 Y-19.6677 F60.00
G01 X10.6768 Y-19.6842 F60.00
G01 X10.6933 Y-19.7024 F60.00
G01 X10.7079 Y-19.7221 F60.00
G01 X10.7205 Y-19.7432 F60.00
G01 X10.7310 Y-19.7653 F60.00
G01 X10.7392 Y-19.7884 F60.00
G01 X10.7452 Y-19.8122 F60.00
G01 X10.7488 Y-19.8365 F60.00
G01 X10.7500 Y-19.8610 F60.00
G00 X10.7500 Y-19.8610
G01 F60.00
G01 Z-1.0000
G01 F60.00
G01 X10.7488 Y-19.8855 F60.00
G01 X10.7452 Y-19.9098 F60.00
G01 X10.7392 Y-19.9336 F60.00
G01 X10.7310 Y-19.9567 F60.00
G01 X10.7205 Y-19.9788 F60.00
G01 X10.7079 Y-19.9999 F60.00
G01 X10.6933 Y-20.0196 F60.00
G01 X10.6768 Y-20.0378 F60.00
G01 X10.6586 Y-20.0543 F60.00
G01 X10.6389 Y-20.0689 F60.00
G01 X10.6178 Y-20.0815 F60.00
G01 X10.5957 Y-20.0920 F60.00
G01 X10.5726 Y-20.1002 F60.00
G01 X10.5488 Y-20.1062 F60.00
G01 X10.5245 Y-20.1098 F60.00
G01 X10.5000 Y-20.1110 F60.00
G01 X10.4755 Y-20.1098 F60.00
G01 X10.4512 Y-20.1062 F60.00
G01 X10.4274 Y-20.1002 F60.00
G01 X10.4043 Y-20.0920 F60.00
G01 X10.3822 Y-20.0815 F60.00
G01 X10.3611 Y-20.0689 F60.00
G01 X10.3414 Y-20.0543 F60.00
G01 X10.3232 Y-20.0378 F60.00
G01 X10.3067 Y-20.0196 F60.00
G01 X10.2921 Y-19.9999 F60.00
G01 X10.2795 Y-19.9788 F60.00
G01 X10.2690 Y-19.9567 F60.00
G01 X10.2608 Y-19.9336 F60.00
G01 X10.2548 Y-19.9098 F60.00
G01 X10.2512 Y-19.8855 F60.00
G01 X10.2500 Y-19.8610 F60.00
G01 X10.2512 Y-19.8365 F60.00
G01 X10.2548 Y-19.8122 F60.00
G01 X10.2608 Y-19.7884 F60.00
G01 X10.2690 Y-19.7653 F60.00
G01 X10.2795 Y-19.7432 F60.00
G01 X10.2921 Y-19.7221 F60.00
G01 X10.3067 Y-19.7024 F60.00
G01 X10.3232 Y-19.6842 F60.00
G01 X10.3414 Y-19.6677 F60.00
G01 X10.3611 Y-19.6531 F60.00
G01 X10.3822 Y-19.6405 F60.00
G01 X10.4043 Y-19.6300 F60.00
G01 X10.4274 Y-19.6218 F60.00
G01 X10.4512 Y-19.6158 F60.00
G01 X10.4755 Y-19.6122 F60.00
G01 X10.5000 Y-19.6110 F60.00
G01 X10.5245 Y-19.6122 F60.00
G01 X10.5488 Y-19.6158 F60.00
G01 X10.5726 Y-19.6218 F60.00
G01 X10.5957 Y-19.6300 F60.00
G01 X10.6178 Y-19.6405 F60.00
G01 X10.6389 Y-19.6531 F60.00
G01 X10.6586 Y-19.6677 F60.00
G01 X10.6768 Y-19.6842 F60.00
G01 X10.6933 Y-19.7024 F60.00
G01 X10.7079 Y-19.7221 F60.00
G01 X10.7205 Y-19.7432 F60.00
G01 X10.7310 Y-19.7653 F60.00
G01 X10.7392 Y-19.7884 F60.00
G01 X10.7452 Y-19.8122 F60.00
G01 X10.7488 Y-19.8365 F60.00
G01 X10.7500 Y-19.8610 F60.00
G00 X10.7500 Y-19.8610
G01 F60.00
G01 Z-1.5000
G01 F60.00
G01 X10.7488 Y-19.8855 F60.00
G01 X10.7452 Y-19.9098 F60.00
G01 X10.7392 Y-19.9336 F60.00
G01 X10.7310 Y-19.9567 F60.00
G01 X10.7205 Y-19.9788 F60.00
G01 X10.7079 Y-19.9999 F60.00
G01 X10.6933 Y-20.0196 F60.00
G01 X10.6768 Y-20.0378 F60.00
G01 X10.6586 Y-20.0543 F60.00
G01 X10.6389 Y-20.0689 F60.00
G01 X10.6178 Y-20.0815 F60.00
G01 X10.5957 Y-20.0920 F60.00
G01 X10.5726 Y-20.1002 F60.00
G01 X10.5488 Y-20.1062 F60.00
G01 X10.5245 Y-20.1098 F60.00
G01 X10.5000 Y-20.1110 F60.00
G01 X10.4755 Y-20.1098 F60.00
G01 X10.4512 Y-20.1062 F60.00
G01 X10.4274 Y-20.1002 F60.00
G01 X10.4043 Y-20.0920 F60.00
G01 X10.3822 Y-20.0815 F60.00
G01 X10.3611 Y-20.0689 F60.00
G01 X10.3414 Y-20.0543 F60.00
G01 X10.3232 Y-20.0378 F60.00
G01 X10.3067 Y-20.0196 F60.00
G01 X10.2921 Y-19.9999 F60.00
G01 X10.2795 Y-19.9788 F60.00
G01 X10.2690 Y-19.9567 F60.00
G01 X10.2608 Y-19.9336 F60.00
G01 X10.2548 Y-19.9098 F60.00
G01 X10.2512 Y-19.8855 F60.00
G01 X10.2500 Y-19.8610 F60.00
G01 X10.2512 Y-19.8365 F60.00
G01 X10.2548 Y-19.8122 F60.00
G01 X10.2608 Y-19.7884 F60.00
G01 X10.2690 Y-19.7653 F60.00
G01 X10.2795 Y-19.7432 F60.00
G01 X10.2921 Y-19.7221 F60.00
G01 X10.3067 Y-19.7024 F60.00
G01 X10.3232 Y-19.6842 F60.00
G01 X10.3414 Y-19.6677 F60.00
G01 X10.3611 Y-19.6531 F60.00
G01 X10.3822 Y-19.6405 F60.00
G01 X10.4043 Y-19.6300 F60.00
G01 X10.4274 Y-19.6218 F60.00
G01 X10.4512 Y-19.6158 F60.00
G01 X10.4755 Y-19.6122 F60.00
G01 X10.5000 Y-19.6110 F60.00
G01 X10.5245 Y-19.6122 F60.00
G01 X10.5488 Y-19.6158 F60.00
G01 X10.5726 Y-19.6218 F60.00
G01 X10.5957 Y-19.6300 F60.00
G01 X10.6178 Y-19.6405 F60.00
G01 X10.6389 Y-19.6531 F60.00
G01 X10.6586 Y-19.6677 F60.00
G01 X10.6768 Y-19.6842 F60.00
G01 X10.6933 Y-19.7024 F60.00
G01 X10.7079 Y-19.7221 F60.00
G01 X10.7205 Y-19.7432 F60.00
G01 X10.7310 Y-19.7653 F60.00
G01 X10.7392 Y-19.7884 F60.00
G01 X10.7452 Y-19.8122 F60.00
G01 X10.7488 Y-19.8365 F60.00
G01 X10.7500 Y-19.8610 F60.00
G00 X10.7500 Y-19.8610
G01 F60.00
G01 Z-2.0000
G01 F60.00
G01 X10.7488 Y-19.8855 F60.00
G01 X10.7452 Y-19.9098 F60.00
G01 X10.7392 Y-19.9336 F60.00
G01 X10.7310 Y-19.9567 F60.00
G01 X10.7205 Y-19.9788 F60.00
G01 X10.7079 Y-19.9999 F60.00
G01 X10.6933 Y-20.0196 F60.00
G01 X10.6768 Y-20.0378 F60.00
G01 X10.6586 Y-20.0543 F60.00
G01 X10.6389 Y-20.0689 F60.00
G01 X10.6178 Y-20.0815 F60.00
G01 X10.5957 Y-20.0920 F60.00
G01 X10.5726 Y-20.1002 F60.00
G01 X10.5488 Y-20.1062 F60.00
G01 X10.5245 Y-20.1098 F60.00
G01 X10.5000 Y-20.1110 F60.00
G01 X10.4755 Y-20.1098 F60.00
G01 X10.4512 Y-20.1062 F60.00
G01 X10.4274 Y-20.1002 F60.00
G01 X10.4043 Y-20.0920 F60.00
G01 X10.3822 Y-20.0815 F60.00
G01 X10.3611 Y-20.0689 F60.00
G01 X10.3414 Y-20.0543 F60.00
G01 X10.3232 Y-20.0378 F60.00
G01 X10.3067 Y-20.0196 F60.00
G01 X10.2921 Y-19.9999 F60.00
G01 X10.2795 Y-19.9788 F60.00
G01 X10.2690 Y-19.9567 F60.00
G01 X10.2608 Y-19.9336 F60.00
G01 X10.2548 Y-19.9098 F60.00
G01 X10.2512 Y-19.8855 F60.00
G01 X10.2500 Y-19.8610 F60.00
G01 X10.2512 Y-19.8365 F60.00
G01 X10.2548 Y-19.8122 F60.00
G01 X10.2608 Y-19.7884 F60.00
G01 X10.2690 Y-19.7653 F60.00
G01 X10.2795 Y-19.7432 F60.00
G01 X10.2921 Y-19.7221 F60.00
G01 X10.3067 Y-19.7024 F60.00
G01 X10.3232 Y-19.6842 F60.00
G01 X10.3414 Y-19.6677 F60.00
G01 X10.3611 Y-19.6531 F60.00
G01 X10.3822 Y-19.6405 F60.00
G01 X10.4043 Y-19.6300 F60.00
G01 X10.4274 Y-19.6218 F60.00
G01 X10.4512 Y-19.6158 F60.00
G01 X10.4755 Y-19.6122 F60.00
G01 X10.5000 Y-19.6110 F60.00
G01 X10.5245 Y-19.6122 F60.00
G01 X10.5488 Y-19.6158 F60.00
G01 X10.5726 Y-19.6218 F60.00
G01 X10.5957 Y-19.6300 F60.00
G01 X10.6178 Y-19.6405 F60.00
G01 X10.6389 Y-19.6531 F60.00
G01 X10.6586 Y-19.6677 F60.00
G01 X10.6768 Y-19.6842 F60.00
G01 X10.6933 Y-19.7024 F60.00
G01 X10.7079 Y-19.7221 F60.00
G01 X10.7205 Y-19.7432 F60.00
G01 X10.7310 Y-19.7653 F60.00
G01 X10.7392 Y-19.7884 F60.00
G01 X10.7452 Y-19.8122 F60.00
G01 X10.7488 Y-19.8365 F60.00
G01 X10.7500 Y-19.8610 F60.00
G00 X10.7500 Y-19.8610
G01 F60.00
G01 Z-2.5000
G01 F60.00
G01 X10.7488 Y-19.8855 F60.00
G01 X10.7452 Y-19.9098 F60.00
G01 X10.7392 Y-19.9336 F60.00
G01 X10.7310 Y-19.9567 F60.00
G01 X10.7205 Y-19.9788 F60.00
G01 X10.7079 Y-19.9999 F60.00
G01 X10.6933 Y-20.0196 F60.00
G01 X10.6768 Y-20.0378 F60.00
G01 X10.6586 Y-20.0543 F60.00
G01 X10.6389 Y-20.0689 F60.00
G01 X10.6178 Y-20.0815 F60.00
G01 X10.5957 Y-20.0920 F60.00
G01 X10.5726 Y-20.1002 F60.00
G01 X10.5488 Y-20.1062 F60.00
G01 X10.5245 Y-20.1098 F60.00
G01 X10.5000 Y-20.1110 F60.00
G01 X10.4755 Y-20.1098 F60.00
G01 X10.4512 Y-20.1062 F60.00
G01 X10.4274 Y-20.1002 F60.00
G01 X10.4043 Y-20.0920 F60.00
G01 X10.3822 Y-20.0815 F60.00
G01 X10.3611 Y-20.0689 F60.00
G01 X10.3414 Y-20.0543 F60.00
G01 X10.3232 Y-20.0378 F60.00
G01 X10.3067 Y-20.0196 F60.00
G01 X10.2921 Y-19.9999 F60.00
G01 X10.2795 Y-19.9788 F60.00
G01 X10.2690 Y-19.9567 F60.00
G01 X10.2608 Y-19.9336 F60.00
G01 X10.2548 Y-19.9098 F60.00
G01 X10.2512 Y-19.8855 F60.00
G01 X10.2500 Y-19.8610 F60.00
G01 X10.2512 Y-19.8365 F60.00
G01 X10.2548 Y-19.8122 F60.00
G01 X10.2608 Y-19.7884 F60.00
G01 X10.2690 Y-19.7653 F60.00
G01 X10.2795 Y-19.7432 F60.00
G01 X10.2921 Y-19.7221 F60.00
G01 X10.3067 Y-19.7024 F60.00
G01 X10.3232 Y-19.6842 F60.00
G01 X10.3414 Y-19.6677 F60.00
G01 X10.3611 Y-19.6531 F60.00
G01 X10.3822 Y-19.6405 F60.00
G01 X10.4043 Y-19.6300 F60.00
G01 X10.4274 Y-19.6218 F60.00
G01 X10.4512 Y-19.6158 F60.00
G01 X10.4755 Y-19.6122 F60.00
G01 X10.5000 Y-19.6110 F60.00
G01 X10.5245 Y-19.6122 F60.00
G01 X10.5488 Y-19.6158 F60.00
G01 X10.5726 Y-19.6218 F60.00
G01 X10.5957 Y-19.6300 F60.00
G01 X10.6178 Y-19.6405 F60.00
G01 X10.6389 Y-19.6531 F60.00
G01 X10.6586 Y-19.6677 F60.00
G01 X10.6768 Y-19.6842 F60.00
G01 X10.6933 Y-19.7024 F60.00
G01 X10.7079 Y-19.7221 F60.00
G01 X10.7205 Y-19.7432 F60.00
G01 X10.7310 Y-19.7653 F60.00
G01 X10.7392 Y-19.7884 F60.00
G01 X10.7452 Y-19.8122 F60.00
G01 X10.7488 Y-19.8365 F60.00
G01 X10.7500 Y-19.8610 F60.00
G00 Z2.0000
G00 X10.7500 Y-17.1210
G01 F60.00
G01 Z-0.5000
G01 F60.00
G01 X10.7488 Y-17.1455 F60.00
G01 X10.7452 Y-17.1698 F60.00
G01 X10.7392 Y-17.1936 F60.00
G01 X10.7310 Y-17.2167 F60.00
G01 X10.7205 Y-17.2388 F60.00
G01 X10.7079 Y-17.2599 F60.00
G01 X10.6933 Y-17.2796 F60.00
G01 X10.6768 Y-17.2978 F60.00
G01 X10.6586 Y-17.3143 F60.00
G01 X10.6389 Y-17.3289 F60.00
G01 X10.6178 Y-17.3415 F60.00
G01 X10.5957 Y-17.3520 F60.00
G01 X10.5726 Y-17.3602 F60.00
G01 X10.5488 Y-17.3662 F60.00
G01 X10.5245 Y-17.3698 F60.00
G01 X10.5000 Y-17.3710 F60.00
G01 X10.4755 Y-17.3698 F60.00
G01 X10.4512 Y-17.3662 F60.00
G01 X10.4274 Y-17.3602 F60.00
G01 X10.4043 Y-17.3520 F60.00
G01 X10.3822 Y-17.3415 F60.00
G01 X10.3611 Y-17.3289 F60.00
G01 X10.3414 Y-17.3143 F60.00
G01 X10.3232 Y-17.2978 F60.00
G01 X10.3067 Y-17.2796 F60.00
G01 X10.2921 Y-17.2599 F60.00
G01 X10.2795 Y-17.2388 F60.00
G01 X10.2690 Y-17.2167 F60.00
G01 X10.2608 Y-17.1936 F60.00
G01 X10.2548 Y-17.1698 F60.00
G01 X10.2512 Y-17.1455 F60.00
G01 X10.2500 Y-17.1210 F60.00
G01 X10.2512 Y-17.0965 F60.00
G01 X10.2548 Y-17.0722 F60.00
G01 X10.2608 Y-17.0484 F60.00
G01 X10.2690 Y-17.0253 F60.00
G01 X10.2795 Y-17.0032 F60.00
G01 X10.2921 Y-16.9821 F60.00
G01 X10.3067 Y-16.9624 F60.00
G01 X10.3232 Y-16.9442 F60.00
G01 X10.3414 Y-16.9277 F60.00
G01 X10.3611 Y-16.9131 F60.00
G01 X10.3822 Y-16.9005 F60.00
G01 X10.4043 Y-16.8900 F60.00
G01 X10.4274 Y-16.8818 F60.00
G01 X10.4512 Y-16.8758 F60.00
G01 X10.4755 Y-16.8722 F60.00
G01 X10.5000 Y-16.8710 F60.00
G01 X10.5245 Y-16.8722 F60.00
G01 X10.5488 Y-16.8758 F60.00
G01 X10.5726 Y-16.8818 F60.00
G01 X10.5957 Y-16.8900 F60.00
G01 X10.6178 Y-16.9005 F60.00
G01 X10.6389 Y-16.9131 F60.00
G01 X10.6586 Y-16.9277 F60.00
G01 X10.6768 Y-16.9442 F60.00
G01 X10.6933 Y-16.9624 F60.00
G01 X10.7079 Y-16.9821 F60.00
G01 X10.7205 Y-17.0032 F60.00
G01 X10.7310 Y-17.0253 F60.00
G01 X10.7392 Y-17.0484 F60.00
G01 X10.7452 Y-17.0722 F60.00
G01 X10.7488 Y-17.0965 F60.00
G01 X10.7500 Y-17.1210 F60.00
G00 X10.7500 Y-17.1210
G01 F60.00
G01 Z-1.0000
G01 F60.00
G01 X10.7488 Y-17.1455 F60.00
G01 X10.7452 Y-17.1698 F60.00
G01 X10.7392 Y-17.1936 F60.00
G01 X10.7310 Y-17.2167 F60.00
G01 X10.7205 Y-17.2388 F60.00
G01 X10.7079 Y-17.2599 F60.00
G01 X10.6933 Y-17.2796 F60.00
G01 X10.6768 Y-17.2978 F60.00
G01 X10.6586 Y-17.3143 F60.00
G01 X10.6389 Y-17.3289 F60.00
G01 X10.6178 Y-17.3415 F60.00
G01 X10.5957 Y-17.3520 F60.00
G01 X10.5726 Y-17.3602 F60.00
G01 X10.5488 Y-17.3662 F60.00
G01 X10.5245 Y-17.3698 F60.00
G01 X10.5000 Y-17.3710 F60.00
G01 X10.4755 Y-17.3698 F60.00
G01 X10.4512 Y-17.3662 F60.00
G01 X10.4274 Y-17.3602 F60.00
G01 X10.4043 Y-17.3520 F60.00
G01 X10.3822 Y-17.3415 F60.00
G01 X10.3611 Y-17.3289 F60.00
G01 X10.3414 Y-17.3143 F60.00
G01 X10.3232 Y-17.2978 F60.00
G01 X10.3067 Y-17.2796 F60.00
G01 X10.2921 Y-17.2599 F60.00
G01 X10.2795 Y-17.2388 F60.00
G01 X10.2690 Y-17.2167 F60.00
G01 X10.2608 Y-17.1936 F60.00
G01 X10.2548 Y-17.1698 F60.00
G01 X10.2512 Y-17.1455 F60.00
G01 X10.2500 Y-17.1210 F60.00
G01 X10.2512 Y-17.0965 F60.00
G01 X10.2548 Y-17.0722 F60.00
G01 X10.2608 Y-17.0484 F60.00
G01 X10.2690 Y-17.0253 F60.00
G01 X10.2795 Y-17.0032 F60.00
G01 X10.2921 Y-16.9821 F60.00
G01 X10.3067 Y-16.9624 F60.00
G01 X10.3232 Y-16.9442 F60.00
G01 X10.3414 Y-16.9277 F60.00
G01 X10.3611 Y-16.9131 F60.00
G01 X10.3822 Y-16.9005 F60.00
G01 X10.4043 Y-16.8900 F60.00
G01 X10.4274 Y-16.8818 F60.00
G01 X10.4512 Y-16.8758 F60.00
G01 X10.4755 Y-16.8722 F60.00
G01 X10.5000 Y-16.8710 F60.00
G01 X10.5245 Y-16.8722 F60.00
G01 X10.5488 Y-16.8758 F60.00
G01 X10.5726 Y-16.8818 F60.00
G01 X10.5957 Y-16.8900 F60.00
G01 X10.6178 Y-16.9005 F60.00
G01 X10.6389 Y-16.9131 F60.00
G01 X10.6586 Y-16.9277 F60.00
G01 X10.6768 Y-16.9442 F60.00
G01 X10.6933 Y-16.9624 F60.00
G01 X10.7079 Y-16.9821 F60.00
G01 X10.7205 Y-17.0032 F60.00
G01 X10.7310 Y-17.0253 F60.00
G01 X10.7392 Y-17.0484 F60.00
G01 X10.7452 Y-17.0722 F60.00
G01 X10.7488 Y-17.0965 F60.00
G01 X10.7500 Y-17.1210 F60.00
G00 X10.7500 Y-17.1210
G01 F60.00
G01 Z-1.5000
G01 F60.00
G01 X10.7488 Y-17.1455 F60.00
G01 X10.7452 Y-17.1698 F60.00
G01 X10.7392 Y-17.1936 F60.00
G01 X10.7310 Y-17.2167 F60.00
G01 X10.7205 Y-17.2388 F60.00
G01 X10.7079 Y-17.2599 F60.00
G01 X10.6933 Y-17.2796 F60.00
G01 X10.6768 Y-17.2978 F60.00
G01 X10.6586 Y-17.3143 F60.00
G01 X10.6389 Y-17.3289 F60.00
G01 X10.6178 Y-17.3415 F60.00
G01 X10.5957 Y-17.3520 F60.00
G01 X10.5726 Y-17.3602 F60.00
G01 X10.5488 Y-17.3662 F60.00
G01 X10.5245 Y-17.3698 F60.00
G01 X10.5000 Y-17.3710 F60.00
G01 X10.4755 Y-17.3698 F60.00
G01 X10.4512 Y-17.3662 F60.00
G01 X10.4274 Y-17.3602 F60.00
G01 X10.4043 Y-17.3520 F60.00
G01 X10.3822 Y-17.3415 F60.00
G01 X10.3611 Y-17.3289 F60.00
G01 X10.3414 Y-17.3143 F60.00
G01 X10.3232 Y-17.2978 F60.00
G01 X10.3067 Y-17.2796 F60.00
G01 X10.2921 Y-17.2599 F60.00
G01 X10.2795 Y-17.2388 F60.00
G01 X10.2690 Y-17.2167 F60.00
G01 X10.2608 Y-17.1936 F60.00
G01 X10.2548 Y-17.1698 F60.00
G01 X10.2512 Y-17.1455 F60.00
G01 X10.2500 Y-17.1210 F60.00
G01 X10.2512 Y-17.0965 F60.00
G01 X10.2548 Y-17.0722 F60.00
G01 X10.2608 Y-17.0484 F60.00
G01 X10.2690 Y-17.0253 F60.00
G01 X10.2795 Y-17.0032 F60.00
G01 X10.2921 Y-16.9821 F60.00
G01 X10.3067 Y-16.9624 F60.00
G01 X10.3232 Y-16.9442 F60.00
G01 X10.3414 Y-16.9277 F60.00
G01 X10.3611 Y-16.9131 F60.00
G01 X10.3822 Y-16.9005 F60.00
G01 X10.4043 Y-16.8900 F60.00
G01 X10.4274 Y-16.8818 F60.00
G01 X10.4512 Y-16.8758 F60.00
G01 X10.4755 Y-16.8722 F60.00
G01 X10.5000 Y-16.8710 F60.00
G01 X10.5245 Y-16.8722 F60.00
G01 X10.5488 Y-16.8758 F60.00
G01 X10.5726 Y-16.8818 F60.00
G01 X10.5957 Y-16.8900 F60.00
G01 X10.6178 Y-16.9005 F60.00
G01 X10.6389 Y-16.9131 F60.00
G01 X10.6586 Y-16.9277 F60.00
G01 X10.6768 Y-16.9442 F60.00
G01 X10.6933 Y-16.9624 F60.00
G01 X10.7079 Y-16.9821 F60.00
G01 X10.7205 Y-17.0032 F60.00
G01 X10.7310 Y-17.0253 F60.00
G01 X10.7392 Y-17.0484 F60.00
G01 X10.7452 Y-17.0722 F60.00
G01 X10.7488 Y-17.0965 F60.00
G01 X10.7500 Y-17.1210 F60.00
G00 X10.7500 Y-17.1210
G01 F60.00
G01 Z-2.0000
G01 F60.00
G01 X10.7488 Y-17.1455 F60.00
G01 X10.7452 Y-17.1698 F60.00
G01 X10.7392 Y-17.1936 F60.00
G01 X10.7310 Y-17.2167 F60.00
G01 X10.7205 Y-17.2388 F60.00
G01 X10.7079 Y-17.2599 F60.00
G01 X10.6933 Y-17.2796 F60.00
G01 X10.6768 Y-17.2978 F60.00
G01 X10.6586 Y-17.3143 F60.00
G01 X10.6389 Y-17.3289 F60.00
G01 X10.6178 Y-17.3415 F60.00
G01 X10.5957 Y-17.3520 F60.00
G01 X10.5726 Y-17.3602 F60.00
G01 X10.5488 Y-17.3662 F60.00
G01 X10.5245 Y-17.3698 F60.00
G01 X10.5000 Y-17.3710 F60.00
G01 X10.4755 Y-17.3698 F60.00
G01 X10.4512 Y-17.3662 F60.00
G01 X10.4274 Y-17.3602 F60.00
G01 X10.4043 Y-17.3520 F60.00
G01 X10.3822 Y-17.3415 F60.00
G01 X10.3611 Y-17.3289 F60.00
G01 X10.3414 Y-17.3143 F60.00
G01 X10.3232 Y-17.2978 F60.00
G01 X10.3067 Y-17.2796 F60.00
G01 X10.2921 Y-17.2599 F60.00
G01 X10.2795 Y-17.2388 F60.00
G01 X10.2690 Y-17.2167 F60.00
G01 X10.2608 Y-17.1936 F60.00
G01 X10.2548 Y-17.1698 F60.00
G01 X10.2512 Y-17.1455 F60.00
G01 X10.2500 Y-17.1210 F60.00
G01 X10.2512 Y-17.0965 F60.00
G01 X10.2548 Y-17.0722 F60.00
G01 X10.2608 Y-17.0484 F60.00
G01 X10.2690 Y-17.0253 F60.00
G01 X10.2795 Y-17.0032 F60.00
G01 X10.2921 Y-16.9821 F60.00
G01 X10.3067 Y-16.9624 F60.00
G01 X10.3232 Y-16.9442 F60.00
G01 X10.3414 Y-16.9277 F60.00
G01 X10.3611 Y-16.9131 F60.00
G01 X10.3822 Y-16.9005 F60.00
G01 X10.4043 Y-16.8900 F60.00
G01 X10.4274 Y-16.8818 F60.00
G01 X10.4512 Y-16.8758 F60.00
G01 X10.4755 Y-16.8722 F60.00
G01 X10.5000 Y-16.8710 F60.00
G01 X10.5245 Y-16.8722 F60.00
G01 X10.5488 Y-16.8758 F60.00
G01 X10.5726 Y-16.8818 F60.00
G01 X10.5957 Y-16.8900 F60.00
G01 X10.6178 Y-16.9005 F60.00
G01 X10.6389 Y-16.9131 F60.00
G01 X10.6586 Y-16.9277 F60.00
G01 X10.6768 Y-16.9442 F60.00
G01 X10.6933 Y-16.9624 F60.00
G01 X10.7079 Y-16.9821 F60.00
G01 X10.7205 Y-17.0032 F60.00
G01 X10.7310 Y-17.0253 F60.00
G01 X10.7392 Y-17.0484 F60.00
G01 X10.7452 Y-17.0722 F60.00
G01 X10.7488 Y-17.0965 F60.00
G01 X10.7500 Y-17.1210 F60.00
G00 X10.7500 Y-17.1210
G01 F60.00
G01 Z-2.5000
G01 F60.00
G01 X10.7488 Y-17.1455 F60.00
G01 X10.7452 Y-17.1698 F60.00
G01 X10.7392 Y-17.1936 F60.00
G01 X10.7310 Y-17.2167 F60.00
G01 X10.7205 Y-17.2388 F60.00
G01 X10.7079 Y-17.2599 F60.00
G01 X10.6933 Y-17.2796 F60.00
G01 X10.6768 Y-17.2978 F60.00
G01 X10.6586 Y-17.3143 F60.00
G01 X10.6389 Y-17.3289 F60.00
G01 X10.6178 Y-17.3415 F60.00
G01 X10.5957 Y-17.3520 F60.00
G01 X10.5726 Y-17.3602 F60.00
G01 X10.5488 Y-17.3662 F60.00
G01 X10.5245 Y-17.3698 F60.00
G01 X10.5000 Y-17.3710 F60.00
G01 X10.4755 Y-17.3698 F60.00
G01 X10.4512 Y-17.3662 F60.00
G01 X10.4274 Y-17.3602 F60.00
G01 X10.4043 Y-17.3520 F60.00
G01 X10.3822 Y-17.3415 F60.00
G01 X10.3611 Y-17.3289 F60.00
G01 X10.3414 Y-17.3143 F60.00
G01 X10.3232 Y-17.2978 F60.00
G01 X10.3067 Y-17.2796 F60.00
G01 X10.2921 Y-17.2599 F60.00
G01 X10.2795 Y-17.2388 F60.00
G01 X10.2690 Y-17.2167 F60.00
G01 X10.2608 Y-17.1936 F60.00
G01 X10.2548 Y-17.1698 F60.00
G01 X10.2512 Y-17.1455 F60.00
G01 X10.2500 Y-17.1210 F60.00
G01 X10.2512 Y-17.0965 F60.00
G01 X10.2548 Y-17.0722 F60.00
G01 X10.2608 Y-17.0484 F60.00
G01 X10.2690 Y-17.0253 F60.00
G01 X10.2795 Y-17.0032 F60.00
G01 X10.2921 Y-16.9821 F60.00
G01 X10.3067 Y-16.9624 F60.00
G01 X10.3232 Y-16.9442 F60.00
G01 X10.3414 Y-16.9277 F60.00
G01 X10.3611 Y-16.9131 F60.00
G01 X10.3822 Y-16.9005 F60.00
G01 X10.4043 Y-16.8900 F60.00
G01 X10.4274 Y-16.8818 F60.00
G01 X10.4512 Y-16.8758 F60.00
G01 X10.4755 Y-16.8722 F60.00
G01 X10.5000 Y-16.8710 F60.00
G01 X10.5245 Y-16.8722 F60.00
G01 X10.5488 Y-16.8758 F60.00
G01 X10.5726 Y-16.8818 F60.00
G01 X10.5957 Y-16.8900 F60.00
G01 X10.6178 Y-16.9005 F60.00
G01 X10.6389 Y-16.9131 F60.00
G01 X10.6586 Y-16.9277 F60.00
G01 X10.6768 Y-16.9442 F60.00
G01 X10.6933 Y-16.9624 F60.00
G01 X10.7079 Y-16.9821 F60.00
G01 X10.7205 Y-17.0032 F60.00
G01 X10.7310 Y-17.0253 F60.00
G01 X10.7392 Y-17.0484 F60.00
G01 X10.7452 Y-17.0722 F60.00
G01 X10.7488 Y-17.0965 F60.00
G01 X10.7500 Y-17.1210 F60.00
G00 Z2.0000
G00 X10.7500 Y-14.3810
G01 F60.00
G01 Z-0.5000
G01 F60.00
G01 X10.7488 Y-14.4055 F60.00
G01 X10.7452 Y-14.4298 F60.00
G01 X10.7392 Y-14.4536 F60.00
G01 X10.7310 Y-14.4767 F60.00
G01 X10.7205 Y-14.4988 F60.00
G01 X10.7079 Y-14.5199 F60.00
G01 X10.6933 Y-14.5396 F60.00
G01 X10.6768 Y-14.5578 F60.00
G01 X10.6586 Y-14.5743 F60.00
G01 X10.6389 Y-14.5889 F60.00
G01 X10.6178 Y-14.6015 F60.00
G01 X10.5957 Y-14.6120 F60.00
G01 X10.5726 Y-14.6202 F60.00
G01 X10.5488 Y-14.6262 F60.00
G01 X10.5245 Y-14.6298 F60.00
G01 X10.5000 Y-14.6310 F60.00
G01 X10.4755 Y-14.6298 F60.00
G01 X10.4512 Y-14.6262 F60.00
G01 X10.4274 Y-14.6202 F60.00
G01 X10.4043 Y-14.6120 F60.00
G01 X10.3822 Y-14.6015 F60.00
G01 X10.3611 Y-14.5889 F60.00
G01 X10.3414 Y-14.5743 F60.00
G01 X10.3232 Y-14.5578 F60.00
G01 X10.3067 Y-14.5396 F60.00
G01 X10.2921 Y-14.5199 F60.00
G01 X10.2795 Y-14.4988 F60.00
G01 X10.2690 Y-14.4767 F60.00
G01 X10.2608 Y-14.4536 F60.00
G01 X10.2548 Y-14.4298 F60.00
G01 X10.2512 Y-14.4055 F60.00
G01 X10.2500 Y-14.3810 F60.00
G01 X10.2512 Y-14.3565 F60.00
G01 X10.2548 Y-14.3322 F60.00
G01 X10.2608 Y-14.3084 F60.00
G01 X10.2690 Y-14.2853 F60.00
G01 X10.2795 Y-14.2632 F60.00
G01 X10.2921 Y-14.2421 F60.00
G01 X10.3067 Y-14.2224 F60.00
G01 X10.3232 Y-14.2042 F60.00
G01 X10.3414 Y-14.1877 F60.00
G01 X10.3611 Y-14.1731 F60.00
G01 X10.3822 Y-14.1605 F60.00
G01 X10.4043 Y-14.1500 F60.00
G01 X10.4274 Y-14.1418 F60.00
G01 X10.4512 Y-14.1358 F60.00
G01 X10.4755 Y-14.1322 F60.00
G01 X10.5000 Y-14.1310 F60.00
G01 X10.5245 Y-14.1322 F60.00
G01 X10.5488 Y-14.1358 F60.00
G01 X10.5726 Y-14.1418 F60.00
G01 X10.5957 Y-14.1500 F60.00
G01 X10.6178 Y-14.1605 F60.00
G01 X10.6389 Y-14.1731 F60.00
G01 X10.6586 Y-14.1877 F60.00
G01 X10.6768 Y-14.2042 F60.00
G01 X10.6933 Y-14.2224 F60.00
G01 X10.7079 Y-14.2421 F60.00
G01 X10.7205 Y-14.2632 F60.00
G01 X10.7310 Y-14.2853 F60.00
G01 X10.7392 Y-14.3084 F60.00
G01 X10.7452 Y-14.3322 F60.00
G01 X10.7488 Y-14.3565 F60.00
G01 X10.7500 Y-14.3810 F60.00
G00 X10.7500 Y-14.3810
G01 F60.00
G01 Z-1.0000
G01 F60.00
G01 X10.7488 Y-14.4055 F60.00
G01 X10.7452 Y-14.4298 F60.00
G01 X10.7392 Y-14.4536 F60.00
G01 X10.7310 Y-14.4767 F60.00
G01 X10.7205 Y-14.4988 F60.00
G01 X10.7079 Y-14.5199 F60.00
G01 X10.6933 Y-14.5396 F60.00
G01 X10.6768 Y-14.5578 F60.00
G01 X10.6586 Y-14.5743 F60.00
G01 X10.6389 Y-14.5889 F60.00
G01 X10.6178 Y-14.6015 F60.00
G01 X10.5957 Y-14.6120 F60.00
G01 X10.5726 Y-14.6202 F60.00
G01 X10.5488 Y-14.6262 F60.00
G01 X10.5245 Y-14.6298 F60.00
G01 X10.5000 Y-14.6310 F60.00
G01 X10.4755 Y-14.6298 F60.00
G01 X10.4512 Y-14.6262 F60.00
G01 X10.4274 Y-14.6202 F60.00
G01 X10.4043 Y-14.6120 F60.00
G01 X10.3822 Y-14.6015 F60.00
G01 X10.3611 Y-14.5889 F60.00
G01 X10.3414 Y-14.5743 F60.00
G01 X10.3232 Y-14.5578 F60.00
G01 X10.3067 Y-14.5396 F60.00
G01 X10.2921 Y-14.5199 F60.00
G01 X10.2795 Y-14.4988 F60.00
G01 X10.2690 Y-14.4767 F60.00
G01 X10.2608 Y-14.4536 F60.00
G01 X10.2548 Y-14.4298 F60.00
G01 X10.2512 Y-14.4055 F60.00
G01 X10.2500 Y-14.3810 F60.00
G01 X10.2512 Y-14.3565 F60.00
G01 X10.2548 Y-14.3322 F60.00
G01 X10.2608 Y-14.3084 F60.00
G01 X10.2690 Y-14.2853 F60.00
G01 X10.2795 Y-14.2632 F60.00
G01 X10.2921 Y-14.2421 F60.00
G01 X10.3067 Y-14.2224 F60.00
G01 X10.3232 Y-14.2042 F60.00
G01 X10.3414 Y-14.1877 F60.00
G01 X10.3611 Y-14.1731 F60.00
G01 X10.3822 Y-14.1605 F60.00
G01 X10.4043 Y-14.1500 F60.00
G01 X10.4274 Y-14.1418 F60.00
G01 X10.4512 Y-14.1358 F60.00
G01 X10.4755 Y-14.1322 F60.00
G01 X10.5000 Y-14.1310 F60.00
G01 X10.5245 Y-14.1322 F60.00
G01 X10.5488 Y-14.1358 F60.00
G01 X10.5726 Y-14.1418 F60.00
G01 X10.5957 Y-14.1500 F60.00
G01 X10.6178 Y-14.1605 F60.00
G01 X10.6389 Y-14.1731 F60.00
G01 X10.6586 Y-14.1877 F60.00
G01 X10.6768 Y-14.2042 F60.00
G01 X10.6933 Y-14.2224 F60.00
G01 X10.7079 Y-14.2421 F60.00
G01 X10.7205 Y-14.2632 F60.00
G01 X10.7310 Y-14.2853 F60.00
G01 X10.7392 Y-14.3084 F60.00
G01 X10.7452 Y-14.3322 F60.00
G01 X10.7488 Y-14.3565 F60.00
G01 X10.7500 Y-14.3810 F60.00
G00 X10.7500 Y-14.3810
G01 F60.00
G01 Z-1.5000
G01 F60.00
G01 X10.7488 Y-14.4055 F60.00
G01 X10.7452 Y-14.4298 F60.00
G01 X10.7392 Y-14.4536 F60.00
G01 X10.7310 Y-14.4767 F60.00
G01 X10.7205 Y-14.4988 F60.00
G01 X10.7079 Y-14.5199 F60.00
G01 X10.6933 Y-14.5396 F60.00
G01 X10.6768 Y-14.5578 F60.00
G01 X10.6586 Y-14.5743 F60.00
G01 X10.6389 Y-14.5889 F60.00
G01 X10.6178 Y-14.6015 F60.00
G01 X10.5957 Y-14.6120 F60.00
G01 X10.5726 Y-14.6202 F60.00
G01 X10.5488 Y-14.6262 F60.00
G01 X10.5245 Y-14.6298 F60.00
G01 X10.5000 Y-14.6310 F60.00
G01 X10.4755 Y-14.6298 F60.00
G01 X10.4512 Y-14.6262 F60.00
G01 X10.4274 Y-14.6202 F60.00
G01 X10.4043 Y-14.6120 F60.00
G01 X10.3822 Y-14.6015 F60.00
G01 X10.3611 Y-14.5889 F60.00
G01 X10.3414 Y-14.5743 F60.00
G01 X10.3232 Y-14.5578 F60.00
G01 X10.3067 Y-14.5396 F60.00
G01 X10.2921 Y-14.5199 F60.00
G01 X10.2795 Y-14.4988 F60.00
G01 X10.2690 Y-14.4767 F60.00
G01 X10.2608 Y-14.4536 F60.00
G01 X10.2548 Y-14.4298 F60.00
G01 X10.2512 Y-14.4055 F60.00
G01 X10.2500 Y-14.3810 F60.00
G01 X10.2512 Y-14.3565 F60.00
G01 X10.2548 Y-14.3322 F60.00
G01 X10.2608 Y-14.3084 F60.00
G01 X10.2690 Y-14.2853 F60.00
G01 X10.2795 Y-14.2632 F60.00
G01 X10.2921 Y-14.2421 F60.00
G01 X10.3067 Y-14.2224 F60.00
G01 X10.3232 Y-14.2042 F60.00
G01 X10.3414 Y-14.1877 F60.00
G01 X10.3611 Y-14.1731 F60.00
G01 X10.3822 Y-14.1605 F60.00
G01 X10.4043 Y-14.1500 F60.00
G01 X10.4274 Y-14.1418 F60.00
G01 X10.4512 Y-14.1358 F60.00
G01 X10.4755 Y-14.1322 F60.00
G01 X10.5000 Y-14.1310 F60.00
G01 X10.5245 Y-14.1322 F60.00
G01 X10.5488 Y-14.1358 F60.00
G01 X10.5726 Y-14.1418 F60.00
G01 X10.5957 Y-14.1500 F60.00
G01 X10.6178 Y-14.1605 F60.00
G01 X10.6389 Y-14.1731 F60.00
G01 X10.6586 Y-14.1877 F60.00
G01 X10.6768 Y-14.2042 F60.00
G01 X10.6933 Y-14.2224 F60.00
G01 X10.7079 Y-14.2421 F60.00
G01 X10.7205 Y-14.2632 F60.00
G01 X10.7310 Y-14.2853 F60.00
G01 X10.7392 Y-14.3084 F60.00
G01 X10.7452 Y-14.3322 F60.00
G01 X10.7488 Y-14.3565 F60.00
G01 X10.7500 Y-14.3810 F60.00
G00 X10.7500 Y-14.3810
G01 F60.00
G01 Z-2.0000
G01 F60.00
G01 X10.7488 Y-14.4055 F60.00
G01 X10.7452 Y-14.4298 F60.00
G01 X10.7392 Y-14.4536 F60.00
G01 X10.7310 Y-14.4767 F60.00
G01 X10.7205 Y-14.4988 F60.00
G01 X10.7079 Y-14.5199 F60.00
G01 X10.6933 Y-14.5396 F60.00
G01 X10.6768 Y-14.5578 F60.00
G01 X10.6586 Y-14.5743 F60.00
G01 X10.6389 Y-14.5889 F60.00
G01 X10.6178 Y-14.6015 F60.00
G01 X10.5957 Y-14.6120 F60.00
G01 X10.5726 Y-14.6202 F60.00
G01 X10.5488 Y-14.6262 F60.00
G01 X10.5245 Y-14.6298 F60.00
G01 X10.5000 Y-14.6310 F60.00
G01 X10.4755 Y-14.6298 F60.00
G01 X10.4512 Y-14.6262 F60.00
G01 X10.4274 Y-14.6202 F60.00
G01 X10.4043 Y-14.6120 F60.00
G01 X10.3822 Y-14.6015 F60.00
G01 X10.3611 Y-14.5889 F60.00
G01 X10.3414 Y-14.5743 F60.00
G01 X10.3232 Y-14.5578 F60.00
G01 X10.3067 Y-14.5396 F60.00
G01 X10.2921 Y-14.5199 F60.00
G01 X10.2795 Y-14.4988 F60.00
G01 X10.2690 Y-14.4767 F60.00
G01 X10.2608 Y-14.4536 F60.00
G01 X10.2548 Y-14.4298 F60.00
G01 X10.2512 Y-14.4055 F60.00
G01 X10.2500 Y-14.3810 F60.00
G01 X10.2512 Y-14.3565 F60.00
G01 X10.2548 Y-14.3322 F60.00
G01 X10.2608 Y-14.3084 F60.00
G01 X10.2690 Y-14.2853 F60.00
G01 X10.2795 Y-14.2632 F60.00
G01 X10.2921 Y-14.2421 F60.00
G01 X10.3067 Y-14.2224 F60.00
G01 X10.3232 Y-14.2042 F60.00
G01 X10.3414 Y-14.1877 F60.00
G01 X10.3611 Y-14.1731 F60.00
G01 X10.3822 Y-14.1605 F60.00
G01 X10.4043 Y-14.1500 F60.00
G01 X10.4274 Y-14.1418 F60.00
G01 X10.4512 Y-14.1358 F60.00
G01 X10.4755 Y-14.1322 F60.00
G01 X10.5000 Y-14.1310 F60.00
G01 X10.5245 Y-14.1322 F60.00
G01 X10.5488 Y-14.1358 F60.00
G01 X10.5726 Y-14.1418 F60.00
G01 X10.5957 Y-14.1500 F60.00
G01 X10.6178 Y-14.1605 F60.00
G01 X10.6389 Y-14.1731 F60.00
G01 X10.6586 Y-14.1877 F60.00
G01 X10.6768 Y-14.2042 F60.00
G01 X10.6933 Y-14.2224 F60.00
G01 X10.7079 Y-14.2421 F60.00
G01 X10.7205 Y-14.2632 F60.00
G01 X10.7310 Y-14.2853 F60.00
G01 X10.7392 Y-14.3084 F60.00
G01 X10.7452 Y-14.3322 F60.00
G01 X10.7488 Y-14.3565 F60.00
G01 X10.7500 Y-14.3810 F60.00
G00 X10.7500 Y-14.3810
G01 F60.00
G01 Z-2.5000
G01 F60.00
G01 X10.7488 Y-14.4055 F60.00
G01 X10.7452 Y-14.4298 F60.00
G01 X10.7392 Y-14.4536 F60.00
G01 X10.7310 Y-14.4767 F60.00
G01 X10.7205 Y-14.4988 F60.00
G01 X10.7079 Y-14.5199 F60.00
G01 X10.6933 Y-14.5396 F60.00
G01 X10.6768 Y-14.5578 F60.00
G01 X10.6586 Y-14.5743 F60.00
G01 X10.6389 Y-14.5889 F60.00
G01 X10.6178 Y-14.6015 F60.00
G01 X10.5957 Y-14.6120 F60.00
G01 X10.5726 Y-14.6202 F60.00
G01 X10.5488 Y-14.6262 F60.00
G01 X10.5245 Y-14.6298 F60.00
G01 X10.5000 Y-14.6310 F60.00
G01 X10.4755 Y-14.6298 F60.00
G01 X10.4512 Y-14.6262 F60.00
G01 X10.4274 Y-14.6202 F60.00
G01 X10.4043 Y-14.6120 F60.00
G01 X10.3822 Y-14.6015 F60.00
G01 X10.3611 Y-14.5889 F60.00
G01 X10.3414 Y-14.5743 F60.00
G01 X10.3232 Y-14.5578 F60.00
G01 X10.3067 Y-14.5396 F60.00
G01 X10.2921 Y-14.5199 F60.00
G01 X10.2795 Y-14.4988 F60.00
G01 X10.2690 Y-14.4767 F60.00
G01 X10.2608 Y-14.4536 F60.00
G01 X10.2548 Y-14.4298 F60.00
G01 X10.2512 Y-14.4055 F60.00
G01 X10.2500 Y-14.3810 F60.00
G01 X10.2512 Y-14.3565 F60.00
G01 X10.2548 Y-14.3322 F60.00
G01 X10.2608 Y-14.3084 F60.00
G01 X10.2690 Y-14.2853 F60.00
G01 X10.2795 Y-14.2632 F60.00
G01 X10.2921 Y-14.2421 F60.00
G01 X10.3067 Y-14.2224 F60.00
G01 X10.3232 Y-14.2042 F60.00
G01 X10.3414 Y-14.1877 F60.00
G01 X10.3611 Y-14.1731 F60.00
G01 X10.3822 Y-14.1605 F60.00
G01 X10.4043 Y-14.1500 F60.00
G01 X10.4274 Y-14.1418 F60.00
G01 X10.4512 Y-14.1358 F60.00
G01 X10.4755 Y-14.1322 F60.00
G01 X10.5000 Y-14.1310 F60.00
G01 X10.5245 Y-14.1322 F60.00
G01 X10.5488 Y-14.1358 F60.00
G01 X10.5726 Y-14.1418 F60.00
G01 X10.5957 Y-14.1500 F60.00
G01 X10.6178 Y-14.1605 F60.00
G01 X10.6389 Y-14.1731 F60.00
G01 X10.6586 Y-14.1877 F60.00
G01 X10.6768 Y-14.2042 F60.00
G01 X10.6933 Y-14.2224 F60.00
G01 X10.7079 Y-14.2421 F60.00
G01 X10.7205 Y-14.2632 F60.00
G01 X10.7310 Y-14.2853 F60.00
G01 X10.7392 Y-14.3084 F60.00
G01 X10.7452 Y-14.3322 F60.00
G01 X10.7488 Y-14.3565 F60.00
G01 X10.7500 Y-14.3810 F60.00
G00 Z2.0000
G00 X10.7500 Y-11.6410
G01 F60.00
G01 Z-0.5000
G01 F60.00
G01 X10.7488 Y-11.6655 F60.00
G01 X10.7452 Y-11.6898 F60.00
G01 X10.7392 Y-11.7136 F60.00
G01 X10.7310 Y-11.7367 F60.00
G01 X10.7205 Y-11.7588 F60.00
G01 X10.7079 Y-11.7799 F60.00
G01 X10.6933 Y-11.7996 F60.00
G01 X10.6768 Y-11.8178 F60.00
G01 X10.6586 Y-11.8343 F60.00
G01 X10.6389 Y-11.8489 F60.00
G01 X10.6178 Y-11.8615 F60.00
G01 X10.5957 Y-11.8720 F60.00
G01 X10.5726 Y-11.8802 F60.00
G01 X10.5488 Y-11.8862 F60.00
G01 X10.5245 Y-11.8898 F60.00
G01 X10.5000 Y-11.8910 F60.00
G01 X10.4755 Y-11.8898 F60.00
G01 X10.4512 Y-11.8862 F60.00
G01 X10.4274 Y-11.8802 F60.00
G01 X10.4043 Y-11.8720 F60.00
G01 X10.3822 Y-11.8615 F60.00
G01 X10.3611 Y-11.8489 F60.00
G01 X10.3414 Y-11.8343 F60.00
G01 X10.3232 Y-11.8178 F60.00
G01 X10.3067 Y-11.7996 F60.00
G01 X10.2921 Y-11.7799 F60.00
G01 X10.2795 Y-11.7588 F60.00
G01 X10.2690 Y-11.7367 F60.00
G01 X10.2608 Y-11.7136 F60.00
G01 X10.2548 Y-11.6898 F60.00
G01 X10.2512 Y-11.6655 F60.00
G01 X10.2500 Y-11.6410 F60.00
G01 X10.2512 Y-11.6165 F60.00
G01 X10.2548 Y-11.5922 F60.00
G01 X10.2608 Y-11.5684 F60.00
G01 X10.2690 Y-11.5453 F60.00
G01 X10.2795 Y-11.5232 F60.00
G01 X10.2921 Y-11.5021 F60.00
G01 X10.3067 Y-11.4824 F60.00
G01 X10.3232 Y-11.4642 F60.00
G01 X10.3414 Y-11.4477 F60.00
G01 X10.3611 Y-11.4331 F60.00
G01 X10.3822 Y-11.4205 F60.00
G01 X10.4043 Y-11.4100 F60.00
G01 X10.4274 Y-11.4018 F60.00
G01 X10.4512 Y-11.3958 F60.00
G01 X10.4755 Y-11.3922 F60.00
G01 X10.5000 Y-11.3910 F60.00
G01 X10.5245 Y-11.3922 F60.00
G01 X10.5488 Y-11.3958 F60.00
G01 X10.5726 Y-11.4018 F60.00
G01 X10.5957 Y-11.4100 F60.00
G01 X10.6178 Y-11.4205 F60.00
G01 X10.6389 Y-11.4331 F60.00
G01 X10.6586 Y-11.4477 F60.00
G01 X10.6768 Y-11.4642 F60.00
G01 X10.6933 Y-11.4824 F60.00
G01 X10.7079 Y-11.5021 F60.00
G01 X10.7205 Y-11.5232 F60.00
G01 X10.7310 Y-11.5453 F60.00
G01 X10.7392 Y-11.5684 F60.00
G01 X10.7452 Y-11.5922 F60.00
G01 X10.7488 Y-11.6165 F60.00
G01 X10.7500 Y-11.6410 F60.00
G00 X10.7500 Y-11.6410
G01 F60.00
G01 Z-1.0000
G01 F60.00
G01 X10.7488 Y-11.6655 F60.00
G01 X10.7452 Y-11.6898 F60.00
G01 X10.7392 Y-11.7136 F60.00
G01 X10.7310 Y-11.7367 F60.00
G01 X10.7205 Y-11.7588 F60.00
G01 X10.7079 Y-11.7799 F60.00
G01 X10.6933 Y-11.7996 F60.00
G01 X10.6768 Y-11.8178 F60.00
G01 X10.6586 Y-11.8343 F60.00
G01 X10.6389 Y-11.8489 F60.00
G01 X10.6178 Y-11.8615 F60.00
G01 X10.5957 Y-11.8720 F60.00
G01 X10.5726 Y-11.8802 F60.00
G01 X10.5488 Y-11.8862 F60.00
G01 X10.5245 Y-11.8898 F60.00
G01 X10.5000 Y-11.8910 F60.00
G01 X10.4755 Y-11.8898 F60.00
G01 X10.4512 Y-11.8862 F60.00
G01 X10.4274 Y-11.8802 F60.00
G01 X10.4043 Y-11.8720 F60.00
G01 X10.3822 Y-11.8615 F60.00
G01 X10.3611 Y-11.8489 F60.00
G01 X10.3414 Y-11.8343 F60.00
G01 X10.3232 Y-11.8178 F60.00
G01 X10.3067 Y-11.7996 F60.00
G01 X10.2921 Y-11.7799 F60.00
G01 X10.2795 Y-11.7588 F60.00
G01 X10.2690 Y-11.7367 F60.00
G01 X10.2608 Y-11.7136 F60.00
G01 X10.2548 Y-11.6898 F60.00
G01 X10.2512 Y-11.6655 F60.00
G01 X10.2500 Y-11.6410 F60.00
G01 X10.2512 Y-11.6165 F60.00
G01 X10.2548 Y-11.5922 F60.00
G01 X10.2608 Y-11.5684 F60.00
G01 X10.2690 Y-11.5453 F60.00
G01 X10.2795 Y-11.5232 F60.00
G01 X10.2921 Y-11.5021 F60.00
G01 X10.3067 Y-11.4824 F60.00
G01 X10.3232 Y-11.4642 F60.00
G01 X10.3414 Y-11.4477 F60.00
G01 X10.3611 Y-11.4331 F60.00
G01 X10.3822 Y-11.4205 F60.00
G01 X10.4043 Y-11.4100 F60.00
G01 X10.4274 Y-11.4018 F60.00
G01 X10.4512 Y-11.3958 F60.00
G01 X10.4755 Y-11.3922 F60.00
G01 X10.5000 Y-11.3910 F60.00
G01 X10.5245 Y-11.3922 F60.00
G01 X10.5488 Y-11.3958 F60.00
G01 X10.5726 Y-11.4018 F60.00
G01 X10.5957 Y-11.4100 F60.00
G01 X10.6178 Y-11.4205 F60.00
G01 X10.6389 Y-11.4331 F60.00
G01 X10.6586 Y-11.4477 F60.00
G01 X10.6768 Y-11.4642 F60.00
G01 X10.6933 Y-11.4824 F60.00
G01 X10.7079 Y-11.5021 F60.00
G01 X10.7205 Y-11.5232 F60.00
G01 X10.7310 Y-11.5453 F60.00
G01 X10.7392 Y-11.5684 F60.00
G01 X10.7452 Y-11.5922 F60.00
G01 X10.7488 Y-11.6165 F60.00
G01 X10.7500 Y-11.6410 F60.00
G00 X10.7500 Y-11.6410
G01 F60.00
G01 Z-1.5000
G01 F60.00
G01 X10.7488 Y-11.6655 F60.00
G01 X10.7452 Y-11.6898 F60.00
G01 X10.7392 Y-11.7136 F60.00
G01 X10.7310 Y-11.7367 F60.00
G01 X10.7205 Y-11.7588 F60.00
G01 X10.7079 Y-11.7799 F60.00
G01 X10.6933 Y-11.7996 F60.00
G01 X10.6768 Y-11.8178 F60.00
G01 X10.6586 Y-11.8343 F60.00
G01 X10.6389 Y-11.8489 F60.00
G01 X10.6178 Y-11.8615 F60.00
G01 X10.5957 Y-11.8720 F60.00
G01 X10.5726 Y-11.8802 F60.00
G01 X10.5488 Y-11.8862 F60.00
G01 X10.5245 Y-11.8898 F60.00
G01 X10.5000 Y-11.8910 F60.00
G01 X10.4755 Y-11.8898 F60.00
G01 X10.4512 Y-11.8862 F60.00
G01 X10.4274 Y-11.8802 F60.00
G01 X10.4043 Y-11.8720 F60.00
G01 X10.3822 Y-11.8615 F60.00
G01 X10.3611 Y-11.8489 F60.00
G01 X10.3414 Y-11.8343 F60.00
G01 X10.3232 Y-11.8178 F60.00
G01 X10.3067 Y-11.7996 F60.00
G01 X10.2921 Y-11.7799 F60.00
G01 X10.2795 Y-11.7588 F60.00
G01 X10.2690 Y-11.7367 F60.00
G01 X10.2608 Y-11.7136 F60.00
G01 X10.2548 Y-11.6898 F60.00
G01 X10.2512 Y-11.6655 F60.00
G01 X10.2500 Y-11.6410 F60.00
G01 X10.2512 Y-11.6165 F60.00
G01 X10.2548 Y-11.5922 F60.00
G01 X10.2608 Y-11.5684 F60.00
G01 X10.2690 Y-11.5453 F60.00
G01 X10.2795 Y-11.5232 F60.00
G01 X10.2921 Y-11.5021 F60.00
G01 X10.3067 Y-11.4824 F60.00
G01 X10.3232 Y-11.4642 F60.00
G01 X10.3414 Y-11.4477 F60.00
G01 X10.3611 Y-11.4331 F60.00
G01 X10.3822 Y-11.4205 F60.00
G01 X10.4043 Y-11.4100 F60.00
G01 X10.4274 Y-11.4018 F60.00
G01 X10.4512 Y-11.3958 F60.00
G01 X10.4755 Y-11.3922 F60.00
G01 X10.5000 Y-11.3910 F60.00
G01 X10.5245 Y-11.3922 F60.00
G01 X10.5488 Y-11.3958 F60.00
G01 X10.5726 Y-11.4018 F60.00
G01 X10.5957 Y-11.4100 F60.00
G01 X10.6178 Y-11.4205 F60.00
G01 X10.6389 Y-11.4331 F60.00
G01 X10.6586 Y-11.4477 F60.00
G01 X10.6768 Y-11.4642 F60.00
G01 X10.6933 Y-11.4824 F60.00
G01 X10.7079 Y-11.5021 F60.00
G01 X10.7205 Y-11.5232 F60.00
G01 X10.7310 Y-11.5453 F60.00
G01 X10.7392 Y-11.5684 F60.00
G01 X10.7452 Y-11.5922 F60.00
G01 X10.7488 Y-11.6165 F60.00
G01 X10.7500 Y-11.6410 F60.00
G00 X10.7500 Y-11.6410
G01 F60.00
G01 Z-2.0000
G01 F60.00
G01 X10.7488 Y-11.6655 F60.00
G01 X10.7452 Y-11.6898 F60.00
G01 X10.7392 Y-11.7136 F60.00
G01 X10.7310 Y-11.7367 F60.00
G01 X10.7205 Y-11.7588 F60.00
G01 X10.7079 Y-11.7799 F60.00
G01 X10.6933 Y-11.7996 F60.00
G01 X10.6768 Y-11.8178 F60.00
G01 X10.6586 Y-11.8343 F60.00
G01 X10.6389 Y-11.8489 F60.00
G01 X10.6178 Y-11.8615 F60.00
G01 X10.5957 Y-11.8720 F60.00
G01 X10.5726 Y-11.8802 F60.00
G01 X10.5488 Y-11.8862 F60.00
G01 X10.5245 Y-11.8898 F60.00
G01 X10.5000 Y-11.8910 F60.00
G01 X10.4755 Y-11.8898 F60.00
G01 X10.4512 Y-11.8862 F60.00
G01 X10.4274 Y-11.8802 F60.00
G01 X10.4043 Y-11.8720 F60.00
G01 X10.3822 Y-11.8615 F60.00
G01 X10.3611 Y-11.8489 F60.00
G01 X10.3414 Y-11.8343 F60.00
G01 X10.3232 Y-11.8178 F60.00
G01 X10.3067 Y-11.7996 F60.00
G01 X10.2921 Y-11.7799 F60.00
G01 X10.2795 Y-11.7588 F60.00
G01 X10.2690 Y-11.7367 F60.00
G01 X10.2608 Y-11.7136 F60.00
G01 X10.2548 Y-11.6898 F60.00
G01 X10.2512 Y-11.6655 F60.00
G01 X10.2500 Y-11.6410 F60.00
G01 X10.2512 Y-11.6165 F60.00
G01 X10.2548 Y-11.5922 F60.00
G01 X10.2608 Y-11.5684 F60.00
G01 X10.2690 Y-11.5453 F60.00
G01 X10.2795 Y-11.5232 F60.00
G01 X10.2921 Y-11.5021 F60.00
G01 X10.3067 Y-11.4824 F60.00
G01 X10.3232 Y-11.4642 F60.00
G01 X10.3414 Y-11.4477 F60.00
G01 X10.3611 Y-11.4331 F60.00
G01 X10.3822 Y-11.4205 F60.00
G01 X10.4043 Y-11.4100 F60.00
G01 X10.4274 Y-11.4018 F60.00
G01 X10.4512 Y-11.3958 F60.00
G01 X10.4755 Y-11.3922 F60.00
G01 X10.5000 Y-11.3910 F60.00
G01 X10.5245 Y-11.3922 F60.00
G01 X10.5488 Y-11.3958 F60.00
G01 X10.5726 Y-11.4018 F60.00
G01 X10.5957 Y-11.4100 F60.00
G01 X10.6178 Y-11.4205 F60.00
G01 X10.6389 Y-11.4331 F60.00
G01 X10.6586 Y-11.4477 F60.00
G01 X10.6768 Y-11.4642 F60.00
G01 X10.6933 Y-11.4824 F60.00
G01 X10.7079 Y-11.5021 F60.00
G01 X10.7205 Y-11.5232 F60.00
G01 X10.7310 Y-11.5453 F60.00
G01 X10.7392 Y-11.5684 F60.00
G01 X10.7452 Y-11.5922 F60.00
G01 X10.7488 Y-11.6165 F60.00
G01 X10.7500 Y-11.6410 F60.00
G00 X10.7500 Y-11.6410
G01 F60.00
G01 Z-2.5000
G01 F60.00
G01 X10.7488 Y-11.6655 F60.00
G01 X10.7452 Y-11.6898 F60.00
G01 X10.7392 Y-11.7136 F60.00
G01 X10.7310 Y-11.7367 F60.00
G01 X10.7205 Y-11.7588 F60.00
G01 X10.7079 Y-11.7799 F60.00
G01 X10.6933 Y-11.7996 F60.00
G01 X10.6768 Y-11.8178 F60.00
G01 X10.6586 Y-11.8343 F60.00
G01 X10.6389 Y-11.8489 F60.00
G01 X10.6178 Y-11.8615 F60.00
G01 X10.5957 Y-11.8720 F60.00
G01 X10.5726 Y-11.8802 F60.00
G01 X10.5488 Y-11.8862 F60.00
G01 X10.5245 Y-11.8898 F60.00
G01 X10.5000 Y-11.8910 F60.00
G01 X10.4755 Y-11.8898 F60.00
G01 X10.4512 Y-11.8862 F60.00
G01 X10.4274 Y-11.8802 F60.00
G01 X10.4043 Y-11.8720 F60.00
G01 X10.3822 Y-11.8615 F60.00
G01 X10.3611 Y-11.8489 F60.00
G01 X10.3414 Y-11.8343 F60.00
G01 X10.3232 Y-11.8178 F60.00
G01 X10.3067 Y-11.7996 F60.00
G01 X10.2921 Y-11.7799 F60.00
G01 X10.2795 Y-11.7588 F60.00
G01 X10.2690 Y-11.7367 F60.00
G01 X10.2608 Y-11.7136 F60.00
G01 X10.2548 Y-11.6898 F60.00
G01 X10.2512 Y-11.6655 F60.00
G01 X10.2500 Y-11.6410 F60.00
G01 X10.2512 Y-11.6165 F60.00
G01 X10.2548 Y-11.5922 F60.00
G01 X10.2608 Y-11.5684 F60.00
G01 X10.2690 Y-11.5453 F60.00
G01 X10.2795 Y-11.5232 F60.00
G01 X10.2921 Y-11.5021 F60.00
G01 X10.3067 Y-11.4824 F60.00
G01 X10.3232 Y-11.4642 F60.00
G01 X10.3414 Y-11.4477 F60.00
G01 X10.3611 Y-11.4331 F60.00
G01 X10.3822 Y-11.4205 F60.00
G01 X10.4043 Y-11.4100 F60.00
G01 X10.4274 Y-11.4018 F60.00
G01 X10.4512 Y-11.3958 F60.00
G01 X10.4755 Y-11.3922 F60.00
G01 X10.5000 Y-11.3910 F60.00
G01 X10.5245 Y-11.3922 F60.00
G01 X10.5488 Y-11.3958 F60.00
G01 X10.5726 Y-11.4018 F60.00
G01 X10.5957 Y-11.4100 F60.00
G01 X10.6178 Y-11.4205 F60.00
G01 X10.6389 Y-11.4331 F60.00
G01 X10.6586 Y-11.4477 F60.00
G01 X10.6768 Y-11.4642 F60.00
G01 X10.6933 Y-11.4824 F60.00
G01 X10.7079 Y-11.5021 F60.00
G01 X10.7205 Y-11.5232 F60.00
G01 X10.7310 Y-11.5453 F60.00
G01 X10.7392 Y-11.5684 F60.00
G01 X10.7452 Y-11.5922 F60.00
G01 X10.7488 Y-11.6165 F60.00
G01 X10.7500 Y-11.6410 F60.00
G00 Z2.0000
G00 X24.1560 Y-11.0740
G01 F60.00
G01 Z-0.5000
G01 F60.00
G01 X24.1548 Y-11.0985 F60.00
G01 X24.1512 Y-11.1228 F60.00
G01 X24.1452 Y-11.1466 F60.00
G01 X24.1370 Y-11.1697 F60.00
G01 X24.1265 Y-11.1918 F60.00
G01 X24.1139 Y-11.2129 F60.00
G01 X24.0993 Y-11.2326 F60.00
G01 X24.0828 Y-11.2508 F60.00
G01 X24.0646 Y-11.2673 F60.00
