(G-CODE GENERATED BY FLATCAM v8.994 - www.flatcam.org - Version Date: 2020/11/7)

(Name: Electrode_Breakout-Edge_Cuts.gbr_1_cutout_cnc)
(Type: G-code from Geometry)
(Units: MM)

(Created on Tuesday, 02 April 2024 at 22:14)

(This preprocessor is used with a motion controller loaded with GRBL firmware.)
(It is configured to be compatible with almost any version of GRBL firmware.)

(TOOL DIAMETER: 0.5 mm)
(Feedrate_XY: 120.0 mm/min)
(Feedrate_Z: 60.0 mm/min)
(Feedrate rapids 1500.0 mm/min)

(Z_Cut: -2.5 mm)
(DepthPerCut: 0.5 mm <=>5 passes)
(Z_Move: 2.0 mm)
(Z Start: None mm)
(Z End: 15.0 mm)
(X,Y End: 0.0000, 0.0000 mm)
(Steps per circle: 64)
(Steps per circle: 64)
(Preprocessor Geometry: GRBL_11_no_M6)

(X range:   30.1000 ...   61.1500  mm)
(Y range:  -66.1500 ...    0.4000  mm)

(Spindle Speed: 0.0 RPM)
G21
G90
G17
G94


G01 F120.00

M5             
G00 Z15.0000
G00 X0.0000 Y0.0000                
T1
(MSG, Change to Tool Dia = 0.5000)
M0
G00 Z15.0000
        
M03
G01 F120.00
G00 X30.1000 Y-32.0250
G01 F60.00
G01 Z-0.5000
G01 F120.00
G01 X30.1000 Y-0.0000 F120.00
G01 X30.1006 Y0.0221 F120.00
G01 X30.1040 Y0.0563 F120.00
G01 X30.1114 Y0.0948 F120.00
G01 X30.1226 Y0.1324 F120.00
G01 X30.1374 Y0.1688 F120.00
G01 X30.1582 Y0.2077 F120.00
G01 X30.1785 Y0.2380 F120.00
G01 X30.2020 Y0.2668 F120.00
G01 X30.2332 Y0.2980 F120.00
G01 X30.2619 Y0.3214 F120.00
G01 X30.2923 Y0.3418 F120.00
G01 X30.3312 Y0.3626 F120.00
G01 X30.3638 Y0.3761 F120.00
G01 X30.4004 Y0.3874 F120.00
G01 X30.4437 Y0.3960 F120.00
G01 X30.4779 Y0.3994 F120.00
G01 X30.5000 Y0.4000 F120.00
G01 X44.9750 Y0.4000 F120.00
G00 X44.9750 Y0.4000
G01 F60.00
G01 Z-1.0000
G01 F120.00
G01 X30.5000 Y0.4000 F120.00
G01 X30.4779 Y0.3994 F120.00
G01 X30.4437 Y0.3960 F120.00
G01 X30.4004 Y0.3874 F120.00
G01 X30.3638 Y0.3761 F120.00
G01 X30.3312 Y0.3626 F120.00
G01 X30.2923 Y0.3418 F120.00
G01 X30.2619 Y0.3214 F120.00
G01 X30.2332 Y0.2980 F120.00
G01 X30.2020 Y0.2668 F120.00
G01 X30.1785 Y0.2380 F120.00
G01 X30.1582 Y0.2077 F120.00
G01 X30.1374 Y0.1688 F120.00
G01 X30.1226 Y0.1324 F120.00
G01 X30.1114 Y0.0948 F120.00
G01 X30.1040 Y0.0563 F120.00
G01 X30.1006 Y0.0221 F120.00
G01 X30.1000 Y-0.0000 F120.00
G01 X30.1000 Y-32.0250 F120.00
G00 X30.1000 Y-32.0250
G01 F60.00
G01 Z-1.5000
G01 F120.00
G01 X30.1000 Y-0.0000 F120.00
G01 X30.1006 Y0.0221 F120.00
G01 X30.1040 Y0.0563 F120.00
G01 X30.1114 Y0.0948 F120.00
G01 X30.1226 Y0.1324 F120.00
G01 X30.1374 Y0.1688 F120.00
G01 X30.1582 Y0.2077 F120.00
G01 X30.1785 Y0.2380 F120.00
G01 X30.2020 Y0.2668 F120.00
G01 X30.2332 Y0.2980 F120.00
G01 X30.2619 Y0.3214 F120.00
G01 X30.2923 Y0.3418 F120.00
G01 X30.3312 Y0.3626 F120.00
G01 X30.3638 Y0.3761 F120.00
G01 X30.4004 Y0.3874 F120.00
G01 X30.4437 Y0.3960 F120.00
G01 X30.4779 Y0.3994 F120.00
G01 X30.5000 Y0.4000 F120.00
G01 X44.9750 Y0.4000 F120.00
G00 X44.9750 Y0.4000
G01 F60.00
G01 Z-2.0000
G01 F120.00
G01 X30.5000 Y0.4000 F120.00
G01 X30.4779 Y0.3994 F120.00
G01 X30.4437 Y0.3960 F120.00
G01 X30.4004 Y0.3874 F120.00
G01 X30.3638 Y0.3761 F120.00
G01 X30.3312 Y0.3626 F120.00
G01 X30.2923 Y0.3418 F120.00
G01 X30.2619 Y0.3214 F120.00
G01 X30.2332 Y0.2980 F120.00
G01 X30.2020 Y0.2668 F120.00
G01 X30.1785 Y0.2380 F120.00
G01 X30.1582 Y0.2077 F120.00
G01 X30.1374 Y0.1688 F120.00
G01 X30.1226 Y0.1324 F120.00
G01 X30.1114 Y0.0948 F120.00
G01 X30.1040 Y0.0563 F120.00
G01 X30.1006 Y0.0221 F120.00
G01 X30.1000 Y-0.0000 F120.00
G01 X30.1000 Y-32.0250 F120.00
G00 X30.1000 Y-32.0250
G01 F60.00
G01 Z-2.5000
G01 F120.00
G01 X30.1000 Y-0.0000 F120.00
G01 X30.1006 Y0.0221 F120.00
G01 X30.1040 Y0.0563 F120.00
G01 X30.1114 Y0.0948 F120.00
G01 X30.1226 Y0.1324 F120.00
G01 X30.1374 Y0.1688 F120.00
G01 X30.1582 Y0.2077 F120.00
G01 X30.1785 Y0.2380 F120.00
G01 X30.2020 Y0.2668 F120.00
G01 X30.2332 Y0.2980 F120.00
G01 X30.2619 Y0.3214 F120.00
G01 X30.2923 Y0.3418 F120.00
G01 X30.3312 Y0.3626 F120.00
G01 X30.3638 Y0.3761 F120.00
G01 X30.4004 Y0.3874 F120.00
G01 X30.4437 Y0.3960 F120.00
G01 X30.4779 Y0.3994 F120.00
G01 X30.5000 Y0.4000 F120.00
G01 X44.9750 Y0.4000 F120.00
G00 Z2.0000
G00 X46.4750 Y0.4000
G01 F60.00
G01 Z-0.5000
G01 F120.00
G01 X60.7500 Y0.4000 F120.00
G01 X60.7721 Y0.3994 F120.00
G01 X60.8063 Y0.3960 F120.00
G01 X60.8496 Y0.3874 F120.00
G01 X60.8824 Y0.3774 F120.00
G01 X60.9188 Y0.3626 F120.00
G01 X60.9577 Y0.3418 F120.00
G01 X60.9863 Y0.3227 F120.00
G01 X61.0168 Y0.2980 F120.00
G01 X61.0480 Y0.2668 F120.00
G01 X61.0698 Y0.2402 F120.00
G01 X61.0918 Y0.2077 F120.00
G01 X61.1126 Y0.1688 F120.00
G01 X61.1274 Y0.1324 F120.00
G01 X61.1386 Y0.0948 F120.00
G01 X61.1460 Y0.0563 F120.00
G01 X61.1494 Y0.0221 F120.00
G01 X61.1500 Y-0.0000 F120.00
G01 X61.1500 Y-32.0250 F120.00
G00 X61.1500 Y-32.0250
G01 F60.00
G01 Z-1.0000
G01 F120.00
G01 X61.1500 Y-0.0000 F120.00
G01 X61.1494 Y0.0221 F120.00
G01 X61.1460 Y0.0563 F120.00
G01 X61.1386 Y0.0948 F120.00
G01 X61.1274 Y0.1324 F120.00
G01 X61.1126 Y0.1688 F120.00
G01 X61.0918 Y0.2077 F120.00
G01 X61.0698 Y0.2402 F120.00
G01 X61.0480 Y0.2668 F120.00
G01 X61.0168 Y0.2980 F120.00
G01 X60.9863 Y0.3227 F120.00
G01 X60.9577 Y0.3418 F120.00
G01 X60.9188 Y0.3626 F120.00
G01 X60.8824 Y0.3774 F120.00
G01 X60.8496 Y0.3874 F120.00
G01 X60.8063 Y0.3960 F120.00
G01 X60.7721 Y0.3994 F120.00
G01 X60.7500 Y0.4000 F120.00
G01 X46.4750 Y0.4000 F120.00
G00 X46.4750 Y0.4000
G01 F60.00
G01 Z-1.5000
G01 F120.00
G01 X60.7500 Y0.4000 F120.00
G01 X60.7721 Y0.3994 F120.00
G01 X60.8063 Y0.3960 F120.00
G01 X60.8496 Y0.3874 F120.00
G01 X60.8824 Y0.3774 F120.00
G01 X60.9188 Y0.3626 F120.00
G01 X60.9577 Y0.3418 F120.00
G01 X60.9863 Y0.3227 F120.00
G01 X61.0168 Y0.2980 F120.00
G01 X61.0480 Y0.2668 F120.00
G01 X61.0698 Y0.2402 F120.00
G01 X61.0918 Y0.2077 F120.00
G01 X61.1126 Y0.1688 F120.00
G01 X61.1274 Y0.1324 F120.00
G01 X61.1386 Y0.0948 F120.00
G01 X61.1460 Y0.0563 F120.00
G01 X61.1494 Y0.0221 F120.00
G01 X61.1500 Y-0.0000 F120.00
G01 X61.1500 Y-32.0250 F120.00
G00 X61.1500 Y-32.0250
G01 F60.00
G01 Z-2.0000
G01 F120.00
G01 X61.1500 Y-0.0000 F120.00
G01 X61.1494 Y0.0221 F120.00
G01 X61.1460 Y0.0563 F120.00
G01 X61.1386 Y0.0948 F120.00
G01 X61.1274 Y0.1324 F120.00
G01 X61.1126 Y0.1688 F120.00
G01 X61.0918 Y0.2077 F120.00
G01 X61.0698 Y0.2402 F120.00
G01 X61.0480 Y0.2668 F120.00
G01 X61.0168 Y0.2980 F120.00
G01 X60.9863 Y0.3227 F120.00
G01 X60.9577 Y0.3418 F120.00
G01 X60.9188 Y0.3626 F120.00
G01 X60.8824 Y0.3774 F120.00
G01 X60.8496 Y0.3874 F120.00
G01 X60.8063 Y0.3960 F120.00
G01 X60.7721 Y0.3994 F120.00
G01 X60.7500 Y0.4000 F120.00
G01 X46.4750 Y0.4000 F120.00
G00 X46.4750 Y0.4000
G01 F60.00
G01 Z-2.5000
G01 F120.00
G01 X60.7500 Y0.4000 F120.00
G01 X60.7721 Y0.3994 F120.00
G01 X60.8063 Y0.3960 F120.00
G01 X60.8496 Y0.3874 F120.00
G01 X60.8824 Y0.3774 F120.00
G01 X60.9188 Y0.3626 F120.00
G01 X60.9577 Y0.3418 F120.00
G01 X60.9863 Y0.3227 F120.00
G01 X61.0168 Y0.2980 F120.00
G01 X61.0480 Y0.2668 F120.00
G01 X61.0698 Y0.2402 F120.00
G01 X61.0918 Y0.2077 F120.00
G01 X61.1126 Y0.1688 F120.00
G01 X61.1274 Y0.1324 F120.00
G01 X61.1386 Y0.0948 F120.00
G01 X61.1460 Y0.0563 F120.00
G01 X61.1494 Y0.0221 F120.00
G01 X61.1500 Y-0.0000 F120.00
G01 X61.1500 Y-32.0250 F120.00
G00 Z2.0000
G00 X61.1500 Y-33.5250
G01 F60.00
G01 Z-0.5000
G01 F120.00
G01 X61.1500 Y-65.7500 F120.00
G01 X61.1494 Y-65.7721 F120.00
G01 X61.1460 Y-65.8063 F120.00
G01 X61.1386 Y-65.8448 F120.00
G01 X61.1274 Y-65.8824 F120.00
G01 X61.1126 Y-65.9188 F120.00
G01 X61.0918 Y-65.9577 F120.00
G01 X61.0698 Y-65.9902 F120.00
G01 X61.0480 Y-66.0168 F120.00
G01 X61.0168 Y-66.0480 F120.00
G01 X60.9863 Y-66.0727 F120.00
G01 X60.9577 Y-66.0918 F120.00
G01 X60.9188 Y-66.1126 F120.00
G01 X60.8824 Y-66.1274 F120.00
G01 X60.8496 Y-66.1374 F120.00
G01 X60.8063 Y-66.1460 F120.00
G01 X60.7721 Y-66.1494 F120.00
G01 X60.7500 Y-66.1500 F120.00
G01 X46.4750 Y-66.1500 F120.00
G00 X46.4750 Y-66.1500
G01 F60.00
G01 Z-1.0000
G01 F120.00
G01 X60.7500 Y-66.1500 F120.00
G01 X60.7721 Y-66.1494 F120.00
G01 X60.8063 Y-66.1460 F120.00
G01 X60.8496 Y-66.1374 F120.00
G01 X60.8824 Y-66.1274 F120.00
G01 X60.9188 Y-66.1126 F120.00
G01 X60.9577 Y-66.0918 F120.00
G01 X60.9863 Y-66.0727 F120.00
G01 X61.0168 Y-66.0480 F120.00
G01 X61.0480 Y-66.0168 F120.00
G01 X61.0698 Y-65.9902 F120.00
G01 X61.0918 Y-65.9577 F120.00
G01 X61.1126 Y-65.9188 F120.00
G01 X61.1274 Y-65.8824 F120.00
G01 X61.1386 Y-65.8448 F120.00
G01 X61.1460 Y-65.8063 F120.00
G01 X61.1494 Y-65.7721 F120.00
G01 X61.1500 Y-65.7500 F120.00
G01 X61.1500 Y-33.5250 F120.00
G00 X61.1500 Y-33.5250
G01 F60.00
G01 Z-1.5000
G01 F120.00
G01 X61.1500 Y-65.7500 F120.00
G01 X61.1494 Y-65.7721 F120.00
G01 X61.1460 Y-65.8063 F120.00
G01 X61.1386 Y-65.8448 F120.00
G01 X61.1274 Y-65.8824 F120.00
G01 X61.1126 Y-65.9188 F120.00
G01 X61.0918 Y-65.9577 F120.00
G01 X61.0698 Y-65.9902 F120.00
G01 X61.0480 Y-66.0168 F120.00
G01 X61.0168 Y-66.0480 F120.00
G01 X60.9863 Y-66.0727 F120.00
G01 X60.9577 Y-66.0918 F120.00
G01 X60.9188 Y-66.1126 F120.00
G01 X60.8824 Y-66.1274 F120.00
G01 X60.8496 Y-66.1374 F120.00
G01 X60.8063 Y-66.1460 F120.00
G01 X60.7721 Y-66.1494 F120.00
G01 X60.7500 Y-66.1500 F120.00
G01 X46.4750 Y-66.1500 F120.00
G00 X46.4750 Y-66.1500
G01 F60.00
G01 Z-2.0000
G01 F120.00
G01 X60.7500 Y-66.1500 F120.00
G01 X60.7721 Y-66.1494 F120.00
G01 X60.8063 Y-66.1460 F120.00
G01 X60.8496 Y-66.1374 F120.00
G01 X60.8824 Y-66.1274 F120.00
G01 X60.9188 Y-66.1126 F120.00
G01 X60.9577 Y-66.0918 F120.00
G01 X60.9863 Y-66.0727 F120.00
G01 X61.0168 Y-66.0480 F120.00
G01 X61.0480 Y-66.0168 F120.00
G01 X61.0698 Y-65.9902 F120.00
G01 X61.0918 Y-65.9577 F120.00
G01 X61.1126 Y-65.9188 F120.00
G01 X61.1274 Y-65.8824 F120.00
G01 X61.1386 Y-65.8448 F120.00
G01 X61.1460 Y-65.8063 F120.00
G01 X61.1494 Y-65.7721 F120.00
G01 X61.1500 Y-65.7500 F120.00
G01 X61.1500 Y-33.5250 F120.00
G00 X61.1500 Y-33.5250
G01 F60.00
G01 Z-2.5000
G01 F120.00
G01 X61.1500 Y-65.7500 F120.00
G01 X61.1494 Y-65.7721 F120.00
G01 X61.1460 Y-65.8063 F120.00
G01 X61.1386 Y-65.8448 F120.00
G01 X61.1274 Y-65.8824 F120.00
G01 X61.1126 Y-65.9188 F120.00
G01 X61.0918 Y-65.9577 F120.00
G01 X61.0698 Y-65.9902 F120.00
G01 X61.0480 Y-66.0168 F120.00
G01 X61.0168 Y-66.0480 F120.00
G01 X60.9863 Y-66.0727 F120.00
G01 X60.9577 Y-66.0918 F120.00
G01 X60.9188 Y-66.1126 F120.00
G01 X60.8824 Y-66.1274 F120.00
G01 X60.8496 Y-66.1374 F120.00
G01 X60.8063 Y-66.1460 F120.00
G01 X60.7721 Y-66.1494 F120.00
G01 X60.7500 Y-66.1500 F120.00
G01 X46.4750 Y-66.1500 F120.00
G00 Z2.0000
G00 X44.9750 Y-66.1500
G01 F60.00
G01 Z-0.5000
G01 F120.00
G01 X30.5000 Y-66.1500 F120.00
G01 X30.4779 Y-66.1494 F120.00
G01 X30.4437 Y-66.1460 F120.00
G01 X30.4004 Y-66.1374 F120.00
G01 X30.3676 Y-66.1274 F120.00
G01 X30.3312 Y-66.1126 F120.00
G01 X30.2923 Y-66.0918 F120.00
G01 X30.2598 Y-66.0698 F120.00
G01 X30.2332 Y-66.0480 F120.00
G01 X30.2020 Y-66.0168 F120.00
G01 X30.1802 Y-65.9902 F120.00
G01 X30.1582 Y-65.9577 F120.00
G01 X30.1374 Y-65.9188 F120.00
G01 X30.1226 Y-65.8824 F120.00
G01 X30.1114 Y-65.8448 F120.00
G01 X30.1040 Y-65.8063 F120.00
G01 X30.1006 Y-65.7721 F120.00
G01 X30.1000 Y-65.7500 F120.00
G01 X30.1000 Y-33.5250 F120.00
G00 X30.1000 Y-33.5250
G01 F60.00
G01 Z-1.0000
G01 F120.00
G01 X30.1000 Y-65.7500 F120.00
G01 X30.1006 Y-65.7721 F120.00
G01 X30.1040 Y-65.8063 F120.00
G01 X30.1114 Y-65.8448 F120.00
G01 X30.1226 Y-65.8824 F120.00
G01 X30.1374 Y-65.9188 F120.00
G01 X30.1582 Y-65.9577 F120.00
G01 X30.1802 Y-65.9902 F120.00
G01 X30.2020 Y-66.0168 F120.00
G01 X30.2332 Y-66.0480 F120.00
G01 X30.2598 Y-66.0698 F120.00
G01 X30.2923 Y-66.0918 F120.00
G01 X30.3312 Y-66.1126 F120.00
G01 X30.3676 Y-66.1274 F120.00
G01 X30.4004 Y-66.1374 F120.00
G01 X30.4437 Y-66.1460 F120.00
G01 X30.4779 Y-66.1494 F120.00
G01 X30.5000 Y-66.1500 F120.00
G01 X44.9750 Y-66.1500 F120.00
G00 X44.9750 Y-66.1500
G01 F60.00
G01 Z-1.5000
G01 F120.00
G01 X30.5000 Y-66.1500 F120.00
G01 X30.4779 Y-66.1494 F120.00
G01 X30.4437 Y-66.1460 F120.00
G01 X30.4004 Y-66.1374 F120.00
G01 X30.3676 Y-66.1274 F120.00
G01 X30.3312 Y-66.1126 F120.00
G01 X30.2923 Y-66.0918 F120.00
G01 X30.2598 Y-66.0698 F120.00
G01 X30.2332 Y-66.0480 F120.00
G01 X30.2020 Y-66.0168 F120.00
G01 X30.1802 Y-65.9902 F120.00
G01 X30.1582 Y-65.9577 F120.00
G01 X30.1374 Y-65.9188 F120.00
G01 X30.1226 Y-65.8824 F120.00
G01 X30.1114 Y-65.8448 F120.00
G01 X30.1040 Y-65.8063 F120.00
G01 X30.1006 Y-65.7721 F120.00
G01 X30.1000 Y-65.7500 F120.00
G01 X30.1000 Y-33.5250 F120.00
G00 X30.1000 Y-33.5250
G01 F60.00
G01 Z-2.0000
G01 F120.00
G01 X30.1000 Y-65.7500 F120.00
G01 X30.1006 Y-65.7721 F120.00
G01 X30.1040 Y-65.8063 F120.00
G01 X30.1114 Y-65.8448 F120.00
G01 X30.1226 Y-65.8824 F120.00
G01 X30.1374 Y-65.9188 F120.00
G01 X30.1582 Y-65.9577 F120.00
G01 X30.1802 Y-65.9902 F120.00
G01 X30.2020 Y-66.0168 F120.00
G01 X30.2332 Y-66.0480 F120.00
G01 X30.2598 Y-66.0698 F120.00
G01 X30.2923 Y-66.0918 F120.00
G01 X30.3312 Y-66.1126 F120.00
G01 X30.3676 Y-66.1274 F120.00
G01 X30.4004 Y-66.1374 F120.00
G01 X30.4437 Y-66.1460 F120.00
G01 X30.4779 Y-66.1494 F120.00
G01 X30.5000 Y-66.1500 F120.00
G01 X44.9750 Y-66.1500 F120.00
G00 X44.9750 Y-66.1500
G01 F60.00
G01 Z-2.5000
G01 F120.00
G01 X30.5000 Y-66.1500 F120.00
G01 X30.4779 Y-66.1494 F120.00
G01 X30.4437 Y-66.1460 F120.00
G01 X30.4004 Y-66.1374 F120.00
G01 X30.3676 Y-66.1274 F120.00
G01 X30.3312 Y-66.1126 F120.00
G01 X30.2923 Y-66.0918 F120.00
G01 X30.2598 Y-66.0698 F120.00
G01 X30.2332 Y-66.0480 F120.00
G01 X30.2020 Y-66.0168 F120.00
G01 X30.1802 Y-65.9902 F120.00
G01 X30.1582 Y-65.9577 F120.00
G01 X30.1374 Y-65.9188 F120.00
G01 X30.1226 Y-65.8824 F120.00
G01 X30.1114 Y-65.8448 F120.00
G01 X30.1040 Y-65.8063 F120.00
G01 X30.1006 Y-65.7721 F120.00
G01 X30.1000 Y-65.7500 F120.00
G01 X30.1000 Y-33.5250 F120.00
G00 Z2.0000
G01 F60.00

M5             
G00 Z15.0000
G00 X0.0000 Y0.0000                
T9999
(MSG, Change to Tool Dia = 0.5000)
M0
G00 Z15.0000
        
M03
G01 F60.00
G00 X30.1000 Y-32.0250
G01 F60.00
G01 Z-0.5000
G01 F60.00
G01 X30.1000 Y-33.5250 F60.00
G00 X30.1000 Y-33.5250
G01 F60.00
G01 Z-1.0000
G01 F60.00
G01 X30.1000 Y-32.0250 F60.00
G00 X30.1000 Y-32.0250
G01 F60.00
G01 Z-1.5000
G01 F60.00
G01 X30.1000 Y-33.5250 F60.00
G00 X30.1000 Y-33.5250
G01 F60.00
G01 Z-2.0000
G01 F60.00
G01 X30.1000 Y-32.0250 F60.00
G00 X30.1000 Y-32.0250
G01 F60.00
G01 Z-2.5000
G01 F60.00
G01 X30.1000 Y-33.5250 F60.00
G00 Z2.0000
G00 X61.1500 Y-32.0250
G01 F60.00
G01 Z-0.5000
G01 F60.00
G01 X61.1500 Y-33.5250 F60.00
G00 X61.1500 Y-33.5250
G01 F60.00
G01 Z-1.0000
G01 F60.00
G01 X61.1500 Y-32.0250 F60.00
G00 X61.1500 Y-32.0250
G01 F60.00
G01 Z-1.5000
G01 F60.00
G01 X61.1500 Y-33.5250 F60.00
G00 X61.1500 Y-33.5250
G01 F60.00
G01 Z-2.0000
G01 F60.00
G01 X61.1500 Y-32.0250 F60.00
G00 X61.1500 Y-32.0250
G01 F60.00
G01 Z-2.5000
G01 F60.00
G01 X61.1500 Y-33.5250 F60.00
G00 Z2.0000
G00 X46.4750 Y-66.1500
G01 F60.00
G01 Z-0.5000
G01 F60.00
G01 X44.9750 Y-66.1500 F60.00
G00 X44.9750 Y-66.1500
G01 F60.00
G01 Z-1.0000
G01 F60.00
G01 X46.4750 Y-66.1500 F60.00
G00 X46.4750 Y-66.1500
G01 F60.00
G01 Z-1.5000
G01 F60.00
G01 X44.9750 Y-66.1500 F60.00
G00 X44.9750 Y-66.1500
G01 F60.00
G01 Z-2.0000
G01 F60.00
G01 X46.4750 Y-66.1500 F60.00
G00 X46.4750 Y-66.1500
G01 F60.00
G01 Z-2.5000
G01 F60.00
G01 X44.9750 Y-66.1500 F60.00
G00 Z2.0000
G00 X44.9750 Y0.4000
G01 F60.00
G01 Z-0.5000
G01 F60.00
G01 X46.4750 Y0.4000 F60.00
G00 X46.4750 Y0.4000
G01 F60.00
G01 Z-1.0000
G01 F60.00
G01 X44.9750 Y0.4000 F60.00
G00 X44.9750 Y0.4000
G01 F60.00
G01 Z-1.5000
G01 F60.00
G01 X46.4750 Y0.4000 F60.00
G00 X46.4750 Y0.4000
G01 F60.00
G01 Z-2.0000
G01 F60.00
G01 X44.9750 Y0.4000 F60.00
G00 X44.9750 Y0.4000
G01 F60.00
G01 Z-2.5000
G01 F60.00
G01 X46.4750 Y0.4000 F60.00
G00 Z2.0000
M05
G00 Z2.0000
G00 Z15.00
G00 X0.0 Y0.0


