(G-code generated by FlatCAM Evo vUnstable - Version Date: 2023/6/31)

(Name: Active_Electrode-F_Cu_cutout_cnc)
(Type: G-code from Geometry)
(Units: MM)

(Created on Monday, 18 March 2024 at 21:45)

(This preprocessor is used with a motion controller loaded with GRBL firmware.)
(It is configured to be compatible with almost any version of GRBL firmware. No M6 command.)

(TOOL DIAMETER: 0.5 mm)
(Feedrate_XY: 60.0 mm/min)
(Feedrate_Z: 60.0 mm/min)
(Feedrate rapids 1500.0 mm/min)

(Z_Cut: -2.0 mm)
(DepthPerCut: 0.5 mm <=>4 passes)
(Z_Move: 2.0 mm)
(Z Start: None mm)
(Z End: 15.0 mm)
(X,Y End: 0.0000, 0.0000 mm)
(Steps per circle: 16)
(Steps per circle: 16)
(Preprocessor Geometry: GRBL_11_no_M6)

(X range:   -0.3500 ...   26.4920  mm)
(Y range:  -59.0310 ...    0.3500  mm)

(Spindle Speed: 0.0 RPM)
G21
G90
G17
G94


G01 F60.00

M5             
G00 Z15.0000
G00 X0.0000 Y0.0000                
T1
(MSG, Change to Tool Dia = 0.5000)
M0
G00 Z15.0000
        
M03
G01 F60.00
G00 X12.3210 Y0.3500
G01 F60.00
G01 Z-0.5000
G01 F60.00
G01 X0.1803 Y0.3495 F60.00
G01 X0.0957 Y0.3400 F60.00
G01 X0.0247 Y0.3200 F60.00
G01 X-0.0987 Y0.2605 F60.00
G01 X-0.1660 Y0.2105 F60.00
G01 X-0.2622 Y0.0948 F60.00
G01 X-0.2955 Y0.0394 F60.00
G01 X-0.3215 Y-0.0348 F60.00
G01 X-0.3450 Y-0.1399 F60.00
G01 X-0.3500 Y-0.1990 F60.00
G01 X-0.3500 Y-58.4820 F60.00
G01 X-0.3400 Y-58.5853 F60.00
G01 X-0.3200 Y-58.6563 F60.00
G01 X-0.2640 Y-58.7734 F60.00
G01 X-0.2295 Y-58.8252 F60.00
G01 X-0.1860 Y-58.8704 F60.00
G01 X-0.0948 Y-58.9432 F60.00
G01 X-0.0394 Y-58.9765 F60.00
G01 X0.0348 Y-59.0025 F60.00
G01 X0.1803 Y-59.0305 F60.00
G01 X12.3210 Y-59.0310 F60.00
G00 X12.3210 Y-59.0310
G01 F60.00
G01 Z-1.0000
G01 F60.00
G01 X0.1803 Y-59.0305 F60.00
G01 X0.0348 Y-59.0025 F60.00
G01 X-0.0394 Y-58.9765 F60.00
G01 X-0.0948 Y-58.9432 F60.00
G01 X-0.2105 Y-58.8470 F60.00
G01 X-0.2605 Y-58.7797 F60.00
G01 X-0.3200 Y-58.6563 F60.00
G01 X-0.3400 Y-58.5853 F60.00
G01 X-0.3500 Y-58.4820 F60.00
G01 X-0.3500 Y-0.1990 F60.00
G01 X-0.3412 Y-0.1211 F60.00
G01 X-0.3175 Y-0.0190 F60.00
G01 X-0.2933 Y0.0439 F60.00
G01 X-0.2622 Y0.0948 F60.00
G01 X-0.1660 Y0.2105 F60.00
G01 X-0.0987 Y0.2605 F60.00
G01 X0.0247 Y0.3200 F60.00
G01 X0.0957 Y0.3400 F60.00
G01 X0.1803 Y0.3495 F60.00
G01 X12.3210 Y0.3500 F60.00
G00 X12.3210 Y0.3500
G01 F60.00
G01 Z-1.5000
G01 F60.00
G01 X0.1803 Y0.3495 F60.00
G01 X0.0957 Y0.3400 F60.00
G01 X0.0247 Y0.3200 F60.00
G01 X-0.0987 Y0.2605 F60.00
G01 X-0.1660 Y0.2105 F60.00
G01 X-0.2622 Y0.0948 F60.00
G01 X-0.2955 Y0.0394 F60.00
G01 X-0.3215 Y-0.0348 F60.00
G01 X-0.3450 Y-0.1399 F60.00
G01 X-0.3500 Y-0.1990 F60.00
G01 X-0.3500 Y-58.4820 F60.00
G01 X-0.3400 Y-58.5853 F60.00
G01 X-0.3200 Y-58.6563 F60.00
G01 X-0.2640 Y-58.7734 F60.00
G01 X-0.2295 Y-58.8252 F60.00
G01 X-0.1860 Y-58.8704 F60.00
G01 X-0.0948 Y-58.9432 F60.00
G01 X-0.0394 Y-58.9765 F60.00
G01 X0.0348 Y-59.0025 F60.00
G01 X0.1803 Y-59.0305 F60.00
G01 X12.3210 Y-59.0310 F60.00
G00 X12.3210 Y-59.0310
G01 F60.00
G01 Z-2.0000
G01 F60.00
G01 X0.1803 Y-59.0305 F60.00
G01 X0.0348 Y-59.0025 F60.00
G01 X-0.0394 Y-58.9765 F60.00
G01 X-0.0948 Y-58.9432 F60.00
G01 X-0.2105 Y-58.8470 F60.00
G01 X-0.2605 Y-58.7797 F60.00
G01 X-0.3200 Y-58.6563 F60.00
G01 X-0.3400 Y-58.5853 F60.00
G01 X-0.3500 Y-58.4820 F60.00
G01 X-0.3500 Y-0.1990 F60.00
G01 X-0.3412 Y-0.1211 F60.00
G01 X-0.3175 Y-0.0190 F60.00
G01 X-0.2933 Y0.0439 F60.00
G01 X-0.2622 Y0.0948 F60.00
G01 X-0.1660 Y0.2105 F60.00
G01 X-0.0987 Y0.2605 F60.00
G01 X0.0247 Y0.3200 F60.00
G01 X0.0957 Y0.3400 F60.00
G01 X0.1803 Y0.3495 F60.00
G01 X12.3210 Y0.3500 F60.00
G00 Z2.0000
G00 X13.8210 Y0.3500
G01 F60.00
G01 Z-0.5000
G01 F60.00
G01 X25.9617 Y0.3495 F60.00
G01 X26.1072 Y0.3215 F60.00
G01 X26.1814 Y0.2955 F60.00
G01 X26.2368 Y0.2622 F60.00
G01 X26.3525 Y0.1660 F60.00
G01 X26.4025 Y0.0987 F60.00
G01 X26.4620 Y-0.0247 F60.00
G01 X26.4820 Y-0.0957 F60.00
G01 X26.4920 Y-0.1990 F60.00
G01 X26.4920 Y-58.4820 F60.00
G01 X26.4832 Y-58.5599 F60.00
G01 X26.4595 Y-58.6620 F60.00
G01 X26.4353 Y-58.7249 F60.00
G01 X26.4042 Y-58.7758 F60.00
G01 X26.3080 Y-58.8915 F60.00
G01 X26.2407 Y-58.9415 F60.00
G01 X26.1173 Y-59.0010 F60.00
G01 X26.0463 Y-59.0210 F60.00
G01 X25.9617 Y-59.0305 F60.00
G01 X13.8210 Y-59.0310 F60.00
G00 X13.8210 Y-59.0310
G01 F60.00
G01 Z-1.0000
G01 F60.00
G01 X25.9617 Y-59.0305 F60.00
G01 X26.0463 Y-59.0210 F60.00
G01 X26.1173 Y-59.0010 F60.00
G01 X26.2407 Y-58.9415 F60.00
G01 X26.3080 Y-58.8915 F60.00
G01 X26.4042 Y-58.7758 F60.00
G01 X26.4375 Y-58.7204 F60.00
G01 X26.4635 Y-58.6462 F60.00
G01 X26.4870 Y-58.5411 F60.00
G01 X26.4920 Y-58.4820 F60.00
G01 X26.4920 Y-0.1990 F60.00
G01 X26.4820 Y-0.0957 F60.00
G01 X26.4620 Y-0.0247 F60.00
G01 X26.4060 Y0.0924 F60.00
G01 X26.3715 Y0.1442 F60.00
G01 X26.3280 Y0.1894 F60.00
G01 X26.2368 Y0.2622 F60.00
G01 X26.1814 Y0.2955 F60.00
G01 X26.1072 Y0.3215 F60.00
G01 X25.9617 Y0.3495 F60.00
G01 X13.8210 Y0.3500 F60.00
G00 X13.8210 Y0.3500
G01 F60.00
G01 Z-1.5000
G01 F60.00
G01 X25.9617 Y0.3495 F60.00
G01 X26.1072 Y0.3215 F60.00
G01 X26.1814 Y0.2955 F60.00
G01 X26.2368 Y0.2622 F60.00
G01 X26.3525 Y0.1660 F60.00
G01 X26.4025 Y0.0987 F60.00
G01 X26.4620 Y-0.0247 F60.00
G01 X26.4820 Y-0.0957 F60.00
G01 X26.4920 Y-0.1990 F60.00
G01 X26.4920 Y-58.4820 F60.00
G01 X26.4832 Y-58.5599 F60.00
G01 X26.4595 Y-58.6620 F60.00
G01 X26.4353 Y-58.7249 F60.00
G01 X26.4042 Y-58.7758 F60.00
G01 X26.3080 Y-58.8915 F60.00
G01 X26.2407 Y-58.9415 F60.00
G01 X26.1173 Y-59.0010 F60.00
G01 X26.0463 Y-59.0210 F60.00
G01 X25.9617 Y-59.0305 F60.00
G01 X13.8210 Y-59.0310 F60.00
G00 X13.8210 Y-59.0310
G01 F60.00
G01 Z-2.0000
G01 F60.00
G01 X25.9617 Y-59.0305 F60.00
G01 X26.0463 Y-59.0210 F60.00
G01 X26.1173 Y-59.0010 F60.00
G01 X26.2407 Y-58.9415 F60.00
G01 X26.3080 Y-58.8915 F60.00
G01 X26.4042 Y-58.7758 F60.00
G01 X26.4375 Y-58.7204 F60.00
G01 X26.4635 Y-58.6462 F60.00
G01 X26.4870 Y-58.5411 F60.00
G01 X26.4920 Y-58.4820 F60.00
G01 X26.4920 Y-0.1990 F60.00
G01 X26.4820 Y-0.0957 F60.00
G01 X26.4620 Y-0.0247 F60.00
G01 X26.4060 Y0.0924 F60.00
G01 X26.3715 Y0.1442 F60.00
G01 X26.3280 Y0.1894 F60.00
G01 X26.2368 Y0.2622 F60.00
G01 X26.1814 Y0.2955 F60.00
G01 X26.1072 Y0.3215 F60.00
G01 X25.9617 Y0.3495 F60.00
G01 X13.8210 Y0.3500 F60.00
G00 Z2.0000
G01 F60.00

M5             
G00 Z15.0000
G00 X0.0000 Y0.0000                
T99
(MSG, Change to Tool Dia = 0.5000)
M0
G00 Z15.0000
        
M03
G01 F60.00
G00 X12.3210 Y0.3500
G01 F60.00
G01 Z-0.5000
G01 F60.00
G01 X13.8210 Y0.3500 F60.00
G00 X13.8210 Y0.3500
G01 F60.00
G01 Z-1.0000
G01 F60.00
G01 X12.3210 Y0.3500 F60.00
G00 Z2.0000
G00 X13.8210 Y-59.0310
G01 F60.00
G01 Z-0.5000
G01 F60.00
G01 X12.3210 Y-59.0310 F60.00
G00 X12.3210 Y-59.0310
G01 F60.00
G01 Z-1.0000
G01 F60.00
G01 X13.8210 Y-59.0310 F60.00
G00 Z2.0000
M05
G00 Z2.0000
G00 Z15.00
G00 X0.0 Y0.0


